P3
# Created by GIMP version 2.10.34 PNM plug-in
200 200
255
255
255
255
255
255
255
255
255
255
255
255
255
255
255
255
255
255
255
255
255
255
255
255
255
255
255
255
255
255
255
255
255
255
255
255
255
255
255
255
255
255
255
255
255
255
255
255
255
255
255
255
255
255
255
255
255
255
255
255
255
255
255
255
255
255
255
255
255
255
255
255
255
255
255
255
255
255
255
255
255
255
255
255
255
255
255
255
255
255
255
255
255
255
255
255
255
255
255
255
255
255
255
255
255
255
255
255
255
255
255
255
255
255
255
255
255
255
255
255
255
255
255
255
255
255
255
255
255
255
255
255
255
255
255
255
255
255
255
255
255
255
255
255
255
255
255
255
255
255
255
255
255
255
255
255
255
255
255
255
255
255
255
255
255
255
255
255
255
255
255
255
255
255
255
255
255
255
255
255
255
255
255
255
255
255
255
255
255
255
255
255
255
255
255
255
255
255
255
255
255
255
255
255
255
255
255
255
255
255
255
255
255
255
255
255
255
255
255
255
255
255
255
255
255
255
255
255
255
255
255
255
255
255
255
255
255
255
255
255
255
255
255
255
255
255
255
255
255
255
255
255
255
255
255
255
255
255
255
255
255
255
255
255
255
255
255
255
255
255
255
255
255
255
255
255
255
255
255
255
255
255
255
255
255
255
255
255
255
255
255
255
255
255
255
255
255
255
255
255
255
255
255
255
255
255
255
255
255
255
255
255
255
255
255
255
255
255
255
255
255
255
255
255
255
255
255
255
255
255
255
255
255
255
255
255
255
255
255
255
255
255
255
255
255
255
255
255
255
255
255
255
255
255
255
255
255
255
255
255
255
255
255
255
255
255
255
255
255
255
255
255
255
255
255
255
255
255
255
255
255
255
255
255
255
255
255
255
255
255
255
255
255
255
255
255
255
255
255
255
255
255
255
255
255
255
255
255
255
255
255
255
255
255
255
255
255
255
255
255
255
255
255
255
255
255
255
255
255
255
255
255
255
255
255
255
255
255
255
255
255
255
255
255
255
255
255
255
255
255
255
255
255
255
255
255
255
255
255
255
255
255
255
255
255
255
255
255
255
255
255
255
255
255
255
255
255
255
255
255
255
255
255
255
255
255
255
255
255
255
255
255
255
255
255
255
255
255
255
255
255
255
255
255
255
255
255
255
255
255
255
255
255
255
255
255
255
255
255
255
255
255
255
255
255
255
255
255
255
255
255
255
255
255
255
255
255
255
255
255
255
255
255
255
255
255
255
255
255
255
255
255
255
255
255
255
255
255
255
255
255
255
255
255
255
255
255
255
255
255
255
255
255
255
255
255
255
255
255
255
255
255
255
255
255
255
255
255
255
255
255
255
255
255
255
255
255
255
255
255
255
255
255
255
255
255
255
255
255
255
255
255
255
255
255
255
255
255
255
255
255
255
255
255
255
255
255
255
255
255
255
255
255
255
255
255
255
255
255
255
255
255
255
255
255
255
255
255
255
255
255
255
255
255
255
255
255
255
255
255
255
255
255
255
255
255
255
255
255
255
255
255
255
255
255
255
255
255
255
255
255
255
255
255
255
255
255
255
255
255
255
255
255
255
255
255
255
255
255
255
255
255
255
255
255
255
255
255
255
255
255
255
255
255
255
255
255
255
255
255
255
255
255
255
255
255
255
255
255
255
255
255
255
255
255
255
255
255
255
255
255
255
255
255
255
255
255
255
255
255
255
255
255
255
255
255
255
255
255
255
255
255
255
255
255
255
255
255
255
255
255
255
255
255
255
255
255
255
255
255
255
255
255
255
255
255
255
255
255
255
255
255
255
255
255
255
255
255
255
255
255
255
255
255
255
255
255
255
255
255
255
255
255
255
255
255
255
255
255
255
255
255
255
255
255
255
255
255
255
255
255
255
255
255
255
255
255
255
255
255
255
255
255
255
255
255
255
255
255
255
255
255
255
255
255
255
255
255
255
255
255
255
255
255
255
255
255
255
255
255
255
255
255
255
255
255
255
255
255
255
255
255
255
255
255
255
255
255
255
255
255
255
255
255
255
255
255
255
255
255
255
255
255
255
255
255
255
255
255
255
255
255
255
255
255
255
255
255
255
255
255
255
255
255
255
255
255
255
255
255
255
255
255
255
255
255
255
255
255
255
255
255
255
255
255
255
255
255
255
255
255
255
255
255
255
255
255
255
255
255
255
255
255
255
255
255
255
255
255
255
255
255
255
255
255
255
255
255
255
255
255
255
255
255
255
255
255
255
255
255
255
255
255
255
255
255
255
255
255
255
255
255
255
255
255
255
255
255
255
255
255
255
255
255
255
255
255
255
255
255
255
255
255
255
255
255
255
255
255
255
255
255
255
255
255
255
255
255
255
255
255
255
255
255
255
255
255
255
255
255
255
255
255
255
255
255
255
255
255
255
255
255
255
255
255
255
255
255
255
255
255
255
255
255
255
255
255
255
255
255
255
255
255
255
255
255
255
255
255
255
255
255
255
255
255
255
255
255
255
255
255
255
255
255
255
255
255
255
255
255
255
255
255
255
255
255
255
255
255
255
255
255
255
255
255
255
255
255
255
255
255
255
255
255
255
255
255
255
255
255
255
255
255
255
255
255
255
255
255
255
255
255
255
255
255
255
255
255
255
255
255
255
255
255
255
255
255
255
255
255
255
255
255
255
255
255
255
255
255
255
255
255
255
255
255
255
255
255
255
255
255
255
255
255
255
255
255
255
255
255
255
255
255
255
255
255
255
255
255
255
255
255
255
255
255
255
255
255
255
255
255
255
255
255
255
255
255
255
255
255
255
255
255
255
255
255
255
255
255
255
255
255
255
255
255
255
255
255
255
255
255
255
255
255
255
255
255
255
255
255
255
255
255
255
255
255
255
255
255
255
255
255
255
255
255
255
255
255
255
255
255
255
255
255
255
255
255
255
255
255
255
255
255
255
255
255
255
255
255
255
255
255
255
255
255
255
255
255
255
255
255
255
255
255
255
255
255
255
255
255
255
255
255
255
255
255
255
255
255
255
255
255
255
255
255
255
255
255
255
255
255
255
255
255
255
255
255
255
255
255
255
255
255
255
255
255
255
255
255
255
255
255
255
255
255
255
255
255
255
255
255
255
255
255
255
255
255
255
255
255
255
255
255
255
255
255
255
255
255
255
255
255
255
255
255
255
255
255
255
255
255
255
255
255
255
255
255
255
255
255
255
255
255
255
255
255
255
255
255
255
255
255
255
255
255
255
255
255
255
255
255
255
255
255
255
255
255
255
255
255
255
255
255
255
255
255
255
255
255
255
255
255
255
255
255
255
255
255
255
255
255
255
255
255
255
255
255
255
255
255
255
255
255
255
255
255
255
255
255
255
255
255
255
255
255
255
255
255
255
255
255
255
255
255
255
255
255
255
255
255
255
255
255
255
255
255
255
255
255
255
255
255
255
255
255
255
255
255
255
255
255
255
255
255
255
255
255
255
255
255
255
255
255
255
255
255
255
255
255
255
255
255
255
255
255
255
255
255
255
255
255
255
255
255
255
255
255
255
255
255
255
255
255
255
255
255
255
255
255
255
255
255
255
255
255
255
255
255
255
255
255
255
255
255
255
255
255
255
255
255
255
255
255
255
255
255
255
255
255
255
255
255
255
255
255
255
255
255
255
255
255
255
255
255
255
255
255
255
255
255
255
255
255
255
255
255
255
255
255
255
255
255
255
255
255
255
255
255
255
255
255
255
255
255
255
255
255
255
255
255
255
255
255
255
255
255
255
255
255
255
255
255
255
255
255
255
255
255
255
255
255
255
255
255
255
255
255
255
255
255
255
255
255
255
255
255
255
255
255
255
255
255
255
255
255
255
255
255
255
255
255
255
255
255
255
255
255
255
255
255
255
255
255
255
255
255
255
255
255
255
255
255
255
255
255
255
255
255
255
255
255
255
255
255
255
255
255
255
255
255
255
255
255
255
255
255
255
255
255
255
255
255
255
255
255
255
255
255
255
255
255
255
255
255
255
255
255
255
255
255
255
255
255
255
255
255
255
255
255
255
255
255
255
255
255
255
255
255
255
255
255
255
255
255
255
255
255
255
255
255
255
255
255
255
255
255
255
255
255
255
255
255
255
255
255
255
255
255
255
255
255
255
255
255
255
255
255
255
255
255
255
255
255
255
255
255
255
255
255
255
255
255
255
255
255
255
255
255
255
255
255
255
255
255
255
255
255
255
255
255
255
255
255
255
255
255
255
255
255
255
255
255
255
255
255
255
255
255
255
255
255
255
255
255
255
255
255
255
255
255
255
255
255
255
255
255
255
255
255
255
255
255
255
255
255
255
255
255
255
255
255
255
255
255
255
255
255
255
255
255
255
255
255
255
255
255
255
255
255
255
255
255
255
255
255
255
255
255
255
255
255
255
255
255
255
255
255
255
255
255
255
255
255
255
255
255
255
255
255
255
255
255
255
255
255
255
255
255
255
255
255
255
255
255
255
255
255
255
255
255
255
255
255
255
255
255
255
255
255
255
255
255
255
255
255
255
255
255
255
255
255
255
255
255
255
255
255
255
255
255
255
255
255
255
255
255
255
255
255
255
255
255
255
255
255
255
255
255
255
255
255
255
255
255
255
255
255
255
255
255
255
255
255
255
255
255
255
255
255
255
255
255
255
255
255
255
255
255
255
255
255
255
255
255
255
255
255
255
255
255
255
255
255
255
255
255
255
255
255
255
255
255
255
255
255
255
255
255
255
255
255
255
255
255
255
255
255
255
255
255
255
255
255
255
255
255
255
255
255
255
255
255
255
255
255
255
255
255
255
255
255
255
255
255
255
255
255
255
255
255
255
255
255
255
255
255
255
255
255
255
255
255
255
255
255
255
255
255
255
255
255
255
255
255
255
255
255
255
255
255
255
255
255
255
255
255
255
255
255
255
255
255
255
255
255
255
255
255
255
255
255
255
255
255
255
255
255
255
255
255
255
255
255
255
255
255
255
255
255
255
255
255
255
255
255
255
255
255
255
255
255
255
255
255
255
255
255
255
255
255
255
255
255
255
255
255
255
255
255
255
255
255
255
255
255
255
255
255
255
255
255
255
255
255
255
255
255
255
255
255
255
255
255
255
255
255
255
255
255
255
255
255
255
255
255
255
255
255
255
255
255
255
255
255
255
255
255
255
255
255
255
255
255
255
255
255
255
255
255
255
255
255
255
255
255
255
255
255
255
255
255
255
255
255
255
255
255
255
255
255
255
255
255
255
255
255
255
255
255
255
255
255
255
255
255
255
255
255
255
255
255
255
255
255
255
255
255
255
255
255
255
255
255
255
255
255
255
255
255
255
255
255
255
255
255
255
255
255
255
255
255
255
255
255
255
255
255
255
255
255
255
255
255
255
255
255
255
255
255
255
255
255
255
255
255
255
255
255
255
255
255
255
255
255
255
255
255
255
255
255
255
255
255
255
255
255
255
255
255
255
255
255
255
255
255
255
255
255
255
255
255
255
255
255
255
255
255
255
255
255
255
255
255
255
255
255
255
255
255
255
255
255
255
255
255
255
255
255
255
255
255
255
255
255
255
255
255
255
255
255
255
255
255
255
255
255
255
255
255
255
255
255
255
255
255
255
255
255
255
255
255
255
255
255
255
255
255
255
255
255
255
255
255
255
255
255
255
255
255
255
255
255
255
255
255
255
255
255
255
255
255
255
255
255
255
255
255
255
255
255
255
255
255
255
255
255
255
255
255
255
255
255
255
255
255
255
255
255
255
255
255
255
255
255
255
255
255
255
255
255
255
255
255
255
255
255
255
255
255
255
255
255
255
255
255
255
255
255
255
255
255
255
255
255
255
255
255
255
255
255
255
255
255
255
255
255
255
255
255
255
255
255
255
255
255
255
255
255
255
255
255
255
255
255
255
255
255
255
255
255
255
255
255
255
255
255
255
255
255
255
255
255
255
255
255
255
255
255
255
255
255
255
255
255
255
255
255
255
255
255
255
255
255
255
255
255
255
255
255
255
255
255
255
255
255
255
255
255
255
255
255
255
255
255
255
255
255
255
255
255
255
255
255
255
255
255
255
255
255
255
255
255
255
255
255
255
255
255
255
255
255
255
255
255
255
255
255
255
255
255
255
255
255
255
255
255
255
255
255
255
255
255
255
255
255
255
255
255
255
255
255
255
255
255
255
255
255
255
255
255
255
255
255
255
255
255
255
255
255
255
255
255
255
255
255
255
255
255
255
255
255
255
255
255
255
255
255
255
255
255
255
255
255
255
255
255
255
255
255
255
255
255
255
255
255
255
255
255
255
255
255
255
255
255
255
255
255
255
255
255
255
255
255
255
255
255
255
255
255
255
255
255
255
255
255
255
255
255
255
255
255
255
255
255
255
255
255
255
255
255
255
255
255
255
255
255
255
255
255
255
255
255
255
255
255
255
255
255
255
255
255
255
255
255
255
255
255
255
255
255
255
255
255
255
255
255
255
255
255
255
255
255
255
255
255
255
255
255
255
255
255
255
255
255
255
255
255
255
255
255
255
255
255
255
255
255
255
255
255
255
255
255
255
255
255
255
255
255
255
255
255
255
255
255
255
255
255
255
255
255
255
255
255
255
255
255
255
255
255
255
255
255
255
255
255
255
255
255
255
255
255
255
255
255
255
255
255
255
255
255
255
255
255
255
255
255
255
255
255
255
255
255
255
255
255
255
255
255
255
255
255
255
255
255
255
255
255
255
255
255
255
255
255
255
255
255
255
255
255
255
255
255
255
255
255
255
255
255
255
255
255
255
255
255
255
255
255
255
255
255
255
255
255
255
255
255
255
255
255
255
255
255
255
255
255
255
255
255
255
255
255
255
255
255
255
255
255
255
255
255
255
255
255
255
255
255
255
255
255
255
255
255
255
255
255
255
255
255
255
255
255
255
255
255
255
255
255
255
255
255
255
255
255
255
255
255
255
255
255
255
255
255
255
255
255
255
255
255
255
255
255
255
255
255
255
255
255
255
255
255
255
255
255
255
255
255
255
255
255
255
255
255
255
255
255
255
255
255
255
255
255
255
255
255
255
255
255
255
255
255
255
255
255
255
255
255
255
255
255
255
255
255
255
255
255
255
255
255
255
255
255
255
255
255
255
255
255
255
255
255
255
255
255
255
255
255
255
255
255
255
255
255
255
255
255
255
255
255
255
255
255
255
255
255
255
255
255
255
255
255
255
255
255
255
255
255
255
255
255
255
255
255
255
255
255
255
255
255
255
255
255
255
255
255
255
255
255
255
255
255
255
255
255
255
255
255
255
255
255
255
255
255
255
255
255
255
255
255
255
255
255
255
255
255
255
255
255
255
255
255
255
255
255
255
255
255
255
255
255
255
255
255
255
255
255
255
255
255
255
255
255
255
255
255
255
255
255
255
255
255
255
255
255
255
255
255
255
255
255
255
255
255
255
255
255
255
255
255
255
255
255
255
255
255
255
255
255
255
255
255
255
255
255
255
255
255
255
255
255
255
255
255
255
255
255
255
255
255
255
255
255
255
255
255
255
255
255
255
255
255
255
255
255
255
255
255
255
255
255
255
255
255
255
255
255
255
255
255
255
255
255
255
255
255
255
255
255
255
255
255
255
255
255
255
255
255
255
255
255
255
255
255
255
255
255
255
255
255
255
255
255
255
255
255
255
255
255
255
255
255
255
255
255
255
255
255
255
255
255
255
255
255
255
255
255
255
255
255
255
255
255
255
255
255
255
255
255
255
255
255
255
255
255
255
255
255
255
255
255
255
255
255
255
255
255
255
255
255
255
255
255
255
255
255
255
255
255
255
255
255
255
255
255
255
255
255
255
255
255
255
255
255
255
255
255
255
255
255
255
255
255
255
255
255
255
255
255
255
255
255
255
255
255
255
255
255
255
255
255
255
255
255
255
255
255
255
255
255
255
255
255
255
255
255
255
255
255
255
255
255
255
255
255
255
255
255
255
255
255
255
255
255
255
255
255
255
255
255
255
255
255
255
255
255
255
255
255
255
255
255
255
255
255
255
255
255
255
255
255
255
255
255
255
255
255
255
255
255
255
255
255
255
255
255
255
255
255
255
255
255
255
255
255
255
255
255
255
255
255
255
255
255
255
255
255
255
255
255
255
255
255
255
255
255
255
255
255
255
255
255
255
255
255
255
255
255
255
255
255
255
255
255
255
255
255
255
255
255
255
255
255
255
255
255
255
255
255
255
255
255
255
255
255
255
255
255
255
255
255
255
255
255
255
255
255
255
255
255
255
255
255
255
255
255
255
255
255
255
255
255
255
255
255
255
255
255
255
255
255
255
255
255
255
255
255
255
255
255
255
255
255
255
255
255
255
255
255
255
255
255
255
255
255
255
255
255
255
255
255
255
255
255
255
255
255
255
255
255
255
255
255
255
255
255
255
255
255
255
255
255
255
255
255
255
255
255
255
255
255
255
255
255
255
255
255
255
255
255
255
255
255
255
255
255
255
255
255
255
255
255
255
255
255
255
255
255
255
255
255
255
255
255
255
255
255
255
255
255
255
255
255
255
255
255
255
255
255
255
255
255
255
255
255
255
255
255
255
255
255
255
255
255
255
255
255
255
255
255
255
255
255
255
255
255
255
255
255
255
255
255
255
255
255
255
255
255
255
255
255
255
255
255
255
255
255
255
255
255
255
255
255
255
255
255
255
255
255
255
255
255
255
255
255
255
255
255
255
255
255
255
255
255
255
255
255
255
255
255
255
255
255
255
255
255
255
255
255
255
255
255
255
255
255
255
255
255
255
255
255
255
255
255
255
255
255
255
255
255
255
255
255
255
255
255
255
255
255
255
255
255
255
255
255
255
255
255
255
255
255
255
255
255
255
255
255
255
255
255
255
255
255
255
255
255
255
255
255
255
255
255
255
255
255
255
255
255
255
255
255
255
255
255
255
255
255
255
255
255
255
255
255
255
255
255
255
255
255
255
255
255
255
255
255
255
255
255
255
255
255
255
255
255
255
255
255
255
255
255
255
255
255
255
255
255
255
255
255
255
255
255
255
255
255
255
255
255
255
255
255
255
255
255
255
255
255
255
255
255
255
255
255
255
255
255
255
255
255
255
255
255
255
255
255
255
255
255
255
255
255
255
255
255
255
255
255
255
255
255
255
255
255
255
255
255
255
255
255
255
255
255
255
255
255
255
255
255
255
255
255
255
255
255
255
255
255
255
255
255
255
255
255
255
255
255
255
255
255
255
255
255
255
255
255
255
255
255
255
255
255
255
255
255
255
255
255
255
255
255
255
255
255
255
255
255
255
255
255
255
255
255
255
255
255
255
255
255
255
255
255
255
255
255
255
255
255
255
255
255
255
255
255
255
255
255
255
255
255
255
255
255
255
255
255
255
255
255
255
255
255
255
255
255
255
255
255
255
255
255
255
255
255
255
255
255
255
255
255
255
255
255
255
255
255
255
255
255
255
255
255
255
255
255
255
255
255
255
255
255
255
255
255
255
255
255
255
255
255
255
255
255
255
255
255
255
255
255
255
255
255
255
255
255
255
255
255
255
255
255
255
255
255
255
255
255
255
255
255
255
255
255
255
255
255
255
255
255
255
255
255
255
255
255
255
255
255
255
255
255
255
255
255
255
255
255
255
255
255
255
255
255
255
255
255
255
255
255
255
255
255
255
255
255
255
255
255
255
255
255
255
255
255
255
255
255
255
255
255
255
255
255
255
255
255
255
255
255
255
255
255
255
255
255
255
255
255
255
255
255
255
255
255
255
255
255
255
255
255
255
255
255
255
255
255
255
255
255
255
255
255
255
255
255
255
255
255
255
255
255
255
255
255
255
255
255
255
255
255
255
255
255
255
255
255
255
255
255
255
255
255
255
255
255
255
255
255
255
255
255
255
255
255
255
255
255
255
255
255
255
255
255
255
255
255
255
255
255
255
255
255
255
255
255
255
255
255
255
255
255
255
255
255
255
255
255
255
255
255
255
255
255
255
255
255
255
255
255
255
255
255
255
255
255
255
255
255
255
255
255
255
255
255
255
255
255
255
255
255
255
255
255
255
255
255
255
255
255
255
255
255
255
255
255
255
255
255
255
255
255
255
255
255
255
255
255
255
255
255
255
255
255
255
255
255
255
255
255
255
255
255
255
255
255
255
255
255
255
255
255
255
255
255
255
255
255
255
255
255
255
255
255
255
255
255
255
255
255
255
255
255
255
255
255
255
255
255
255
255
255
255
255
255
255
255
255
255
255
255
255
255
255
255
255
255
255
255
255
255
255
255
255
255
255
255
255
255
255
255
255
255
255
255
255
255
255
255
255
255
255
255
255
255
255
255
255
255
255
255
255
255
255
255
255
255
255
255
255
255
255
255
255
255
255
255
255
255
255
255
255
255
255
255
255
255
255
255
255
255
255
255
255
255
255
255
255
255
255
255
255
255
255
255
255
255
255
255
255
255
255
255
255
255
255
255
255
255
255
255
255
255
255
255
255
255
255
255
255
255
255
255
255
255
255
255
255
255
255
255
255
255
255
255
255
255
255
255
255
255
255
255
255
255
255
255
255
255
255
255
255
255
255
255
255
255
255
255
255
255
255
255
255
255
255
255
255
255
255
255
255
255
255
255
255
255
255
255
255
255
255
255
255
255
255
255
255
255
255
255
255
255
255
255
255
255
255
255
255
255
255
255
255
255
255
255
255
255
255
255
255
255
255
255
255
255
255
255
255
255
255
255
255
255
255
255
255
255
255
255
255
255
255
255
255
255
255
255
255
255
255
255
255
255
255
255
255
255
255
255
255
255
255
255
255
255
255
255
255
255
255
255
255
255
255
255
255
255
255
255
255
255
255
255
255
255
255
255
255
255
255
255
255
255
255
255
255
255
255
255
255
255
255
255
255
255
255
255
255
255
255
255
255
255
255
255
255
255
255
255
255
255
255
255
255
255
255
255
255
255
255
255
255
255
255
255
255
255
255
255
255
255
255
255
255
255
255
255
255
255
255
255
255
255
255
255
255
255
255
255
255
255
255
255
255
255
255
255
255
255
255
255
255
255
255
255
255
255
255
255
255
255
255
255
255
255
255
255
255
255
255
255
255
255
255
255
255
255
255
255
255
255
255
255
255
255
255
255
255
255
255
255
255
255
255
255
255
255
255
255
255
255
255
255
255
255
255
255
255
255
255
255
255
255
255
255
255
255
255
255
255
255
255
255
255
255
255
255
255
255
255
255
255
255
255
255
255
255
255
255
255
255
255
255
255
255
255
255
255
255
255
255
255
255
255
255
255
255
255
255
255
255
255
255
255
255
255
255
255
255
255
255
255
255
255
255
255
255
255
255
255
255
255
255
255
255
255
255
255
255
255
255
255
255
255
255
255
255
255
255
255
255
255
255
255
255
255
255
255
255
255
255
255
255
255
255
255
255
255
255
255
255
255
255
255
255
255
255
255
255
255
255
255
255
255
255
255
255
255
255
255
255
255
255
255
255
255
255
255
255
255
255
255
255
255
255
255
255
255
255
255
255
255
255
255
255
255
255
255
255
255
255
255
255
255
255
255
255
255
255
255
255
255
255
255
255
255
255
255
255
255
255
255
255
255
255
255
255
255
255
255
255
255
255
255
255
255
255
255
255
255
255
255
255
255
255
255
255
255
255
255
255
255
255
255
255
255
255
255
255
255
255
255
255
255
255
255
255
255
255
255
255
255
255
255
255
255
255
255
255
255
255
255
255
255
255
255
255
255
255
255
255
255
255
255
255
255
255
255
255
255
255
255
255
255
255
255
255
255
255
255
255
255
255
255
255
255
255
255
255
255
255
255
255
255
255
255
255
255
255
255
255
255
255
255
255
255
255
255
255
255
255
255
255
255
255
255
255
255
255
255
255
255
255
255
255
255
255
255
255
255
255
255
255
255
255
255
255
255
255
255
255
255
255
255
255
255
255
255
255
255
255
255
255
255
255
255
255
255
255
255
255
255
255
255
255
255
255
255
255
255
255
255
255
255
255
255
255
255
255
255
255
255
255
255
255
255
255
255
255
255
255
255
255
255
255
255
255
255
255
255
255
255
255
255
255
255
255
255
255
255
255
255
255
255
255
255
255
255
255
255
255
255
255
255
255
255
255
255
255
255
255
255
255
255
255
255
255
255
255
255
255
255
255
255
255
255
255
255
255
255
255
255
255
255
255
255
255
255
255
255
255
255
255
255
255
255
255
255
255
255
255
255
255
255
255
255
255
255
255
255
255
255
255
255
255
255
255
255
255
255
255
255
255
255
255
255
255
255
255
255
255
255
255
255
255
255
255
255
255
255
255
255
255
255
255
255
255
255
255
255
255
255
255
255
255
255
255
255
255
255
255
255
255
255
255
255
255
255
255
255
255
255
255
255
255
255
255
255
255
255
255
255
255
255
255
255
255
255
255
255
255
255
255
255
255
255
255
255
255
255
255
255
255
255
255
255
255
255
255
255
255
255
255
255
255
255
255
255
255
255
255
255
255
255
255
255
255
255
255
255
255
255
255
255
255
255
255
255
255
255
255
255
255
255
255
255
255
255
255
255
255
255
255
255
255
255
255
255
255
255
255
255
255
255
255
255
255
255
255
255
255
255
255
255
255
255
255
255
255
255
255
255
255
255
255
255
255
255
255
255
255
255
255
255
255
255
255
255
255
255
255
255
255
255
255
255
255
255
255
255
255
255
255
255
255
255
255
255
255
255
255
255
255
255
255
255
255
255
255
255
255
255
255
255
255
255
255
255
255
255
255
255
255
255
255
255
255
255
255
255
255
255
255
255
255
255
255
255
255
255
255
255
255
255
255
255
255
255
255
255
255
255
255
255
255
255
255
255
255
255
255
255
255
255
255
255
255
255
255
255
255
255
255
255
255
255
255
255
255
255
255
255
255
255
255
255
255
255
255
255
255
255
255
255
255
255
255
255
255
255
255
255
255
255
255
255
255
255
255
255
255
255
255
255
255
255
255
255
255
255
255
255
255
255
255
255
255
255
255
255
255
255
255
255
255
255
255
255
255
255
255
255
255
255
255
255
255
255
255
255
255
255
255
255
255
255
255
255
255
255
255
255
255
255
255
255
255
255
255
255
255
255
255
255
255
255
255
255
255
255
255
255
255
255
255
255
255
255
255
255
255
255
255
255
255
255
255
255
255
255
255
255
255
255
255
255
255
255
255
255
255
255
255
255
255
255
255
255
255
255
255
255
255
255
255
255
255
255
255
255
255
255
255
255
255
255
255
255
255
255
255
255
255
255
255
255
255
255
255
255
255
255
255
255
255
255
255
255
255
255
255
255
255
255
255
255
255
255
255
255
255
255
255
255
255
255
255
255
255
255
255
255
255
255
255
255
255
255
255
255
255
255
255
255
255
255
255
255
255
255
255
255
255
255
255
255
255
255
255
255
255
255
255
255
255
255
255
255
255
255
255
255
255
255
255
255
255
255
255
255
255
255
255
255
255
255
255
255
255
255
255
255
255
255
255
255
255
255
255
255
255
255
255
255
255
255
255
255
255
255
255
255
255
255
255
255
255
255
255
255
255
255
255
255
255
255
255
255
255
255
255
255
255
255
255
255
255
255
255
255
255
255
255
255
255
255
255
255
255
255
255
255
255
255
255
255
255
255
255
255
255
255
255
255
255
255
255
255
255
255
255
255
255
255
255
255
255
255
255
255
255
255
255
255
255
255
255
255
255
255
255
255
255
255
255
255
255
255
255
255
255
255
255
255
255
255
255
255
255
255
255
255
255
255
255
255
255
255
255
255
255
255
255
255
255
255
255
255
255
255
255
255
255
255
255
255
255
255
255
255
255
255
255
255
255
255
255
255
255
255
255
255
255
255
255
255
255
255
255
255
255
255
255
255
255
255
255
255
255
255
255
255
255
255
255
255
255
255
255
255
255
255
255
255
255
255
255
255
255
255
255
255
255
255
255
255
255
255
255
255
255
255
255
255
255
255
255
255
255
255
255
255
255
255
255
255
255
255
255
255
255
255
255
255
255
255
255
255
255
255
255
255
255
255
255
255
255
255
255
255
255
255
255
255
255
255
255
255
255
255
255
255
255
255
255
255
255
255
255
255
255
255
255
255
255
255
255
255
255
255
255
255
255
255
255
255
255
255
255
255
255
255
255
255
255
255
255
255
255
255
255
255
255
255
255
255
255
255
255
255
255
255
255
255
255
255
255
255
255
255
255
255
255
255
255
255
255
255
255
255
255
255
255
255
255
255
255
255
255
255
255
255
255
255
255
255
255
255
255
255
255
255
255
255
255
255
255
255
255
255
255
255
255
255
255
255
255
255
255
255
255
255
255
255
255
255
255
255
255
255
255
255
255
255
255
255
255
255
255
255
255
255
255
255
255
255
255
255
255
255
255
255
255
255
255
255
255
255
255
255
255
255
255
255
255
255
255
255
255
255
255
255
255
255
255
255
255
255
255
255
255
255
255
255
255
255
255
255
255
255
255
255
255
255
255
255
255
255
255
255
255
255
255
255
255
255
255
255
255
255
255
255
255
255
255
255
255
255
255
255
255
255
255
255
255
255
255
255
255
255
255
255
255
255
255
255
255
255
255
255
255
255
255
255
255
255
255
255
255
255
255
255
255
255
255
255
255
255
255
255
255
255
255
255
255
255
255
255
255
255
255
255
255
255
255
255
255
255
255
255
255
255
255
255
255
255
255
255
255
255
255
255
255
255
255
255
255
255
255
255
255
255
255
255
255
255
255
255
255
255
255
255
255
255
255
255
255
255
255
255
255
255
255
255
255
255
255
255
255
255
255
255
255
255
255
255
255
255
255
255
255
255
255
255
255
255
255
255
255
255
255
255
255
255
255
255
255
255
255
255
255
255
255
255
255
255
255
255
255
255
255
255
255
255
255
255
255
255
255
255
255
255
255
255
255
255
255
255
255
255
255
255
255
255
255
255
255
255
255
255
255
255
255
255
255
255
255
255
255
255
255
255
255
255
255
255
255
255
255
255
255
255
255
255
255
255
255
255
255
255
255
255
255
255
255
255
255
255
255
255
255
255
255
255
255
255
255
255
255
255
255
255
255
255
255
255
255
255
255
255
255
255
255
255
255
255
255
255
255
255
255
255
255
255
255
255
255
255
255
255
255
255
255
255
255
255
255
255
255
255
255
255
255
255
255
255
255
255
255
255
255
255
255
255
255
255
255
255
255
255
255
255
255
255
255
255
255
255
255
255
255
255
255
255
255
255
255
255
255
255
255
255
255
255
255
255
255
255
255
255
255
255
255
255
255
255
255
255
255
255
255
255
255
255
255
255
255
255
255
255
255
255
255
255
255
255
255
255
255
255
255
255
255
255
255
255
255
255
255
255
255
255
255
255
255
255
255
255
255
255
255
255
255
255
255
255
255
255
255
255
255
255
255
255
255
255
255
255
255
255
255
255
255
255
255
255
255
255
255
255
255
255
255
255
255
255
255
255
255
255
255
255
255
255
255
255
255
255
255
255
255
255
255
255
255
255
255
255
255
255
255
255
255
255
255
255
255
255
255
255
255
255
255
255
255
255
255
255
255
255
255
255
255
255
255
255
255
255
255
255
255
255
255
255
255
255
255
255
255
255
255
255
255
255
255
255
255
255
255
255
255
255
255
255
255
255
255
255
255
255
255
255
255
255
255
255
255
255
255
255
255
255
255
255
255
255
255
255
255
255
255
255
255
255
255
255
255
255
255
255
255
255
255
255
255
255
255
255
255
255
255
255
255
255
255
255
255
255
255
255
255
255
255
255
255
255
255
255
255
255
255
255
255
255
255
255
255
255
255
255
255
255
255
255
255
255
255
255
255
255
255
255
255
255
255
255
255
255
255
255
255
255
255
255
255
255
255
255
255
255
255
255
255
255
255
255
255
255
255
255
255
255
255
255
255
255
255
255
255
255
255
255
255
255
255
255
255
255
255
255
255
255
255
255
255
255
255
255
255
255
255
255
255
255
255
255
255
255
255
255
255
255
255
255
255
255
255
255
255
255
255
255
255
255
255
255
255
255
255
255
255
255
255
255
255
255
255
255
255
255
255
255
255
255
255
255
255
255
255
255
255
255
255
255
255
255
255
255
255
255
255
255
255
255
255
255
255
255
255
255
255
255
255
255
255
255
255
255
255
255
255
255
255
255
255
255
255
255
255
255
255
255
255
255
255
255
255
255
255
255
255
255
255
255
255
255
255
255
255
255
255
255
255
255
255
255
255
255
255
255
255
255
255
255
255
255
255
255
255
255
255
255
255
255
255
255
255
255
255
255
255
255
255
255
255
255
255
255
255
255
255
255
255
255
255
255
255
255
255
255
255
255
255
255
255
255
255
255
255
255
255
255
255
255
255
255
255
255
255
255
255
255
255
255
255
255
255
255
255
255
255
255
255
255
255
255
255
255
255
255
255
255
255
255
255
255
255
255
255
255
255
255
255
255
255
255
255
255
255
255
255
255
255
255
255
255
255
255
255
255
255
255
255
255
255
255
255
255
255
255
255
255
255
255
255
255
255
255
255
255
255
255
255
255
255
255
255
255
255
255
255
255
255
255
255
255
255
255
255
255
255
255
255
255
255
255
255
255
255
255
255
255
255
255
255
255
255
255
255
255
255
255
255
255
255
255
255
255
255
255
255
255
255
255
255
255
255
255
255
255
255
255
255
255
255
255
255
255
255
255
255
255
255
255
255
255
255
255
255
255
255
255
255
255
255
255
255
255
255
255
255
255
255
255
255
255
255
255
255
255
255
255
255
255
255
255
255
255
255
255
255
255
255
255
255
255
255
255
255
255
255
255
255
255
255
255
255
255
255
255
255
255
255
255
255
255
255
255
255
255
255
255
255
255
255
255
255
255
255
255
255
255
255
255
255
255
255
255
255
255
255
255
255
255
255
255
255
255
255
255
255
255
255
255
255
255
255
255
255
255
255
255
255
255
255
255
255
255
255
255
255
255
255
255
255
255
255
255
255
255
255
255
255
255
255
255
255
255
255
255
255
255
255
255
255
255
255
255
255
255
255
255
255
255
255
255
255
255
255
255
255
255
255
255
255
255
255
255
255
255
255
255
255
255
255
255
255
255
255
255
255
255
255
255
255
255
255
255
255
255
255
255
255
255
255
255
255
255
255
255
255
255
255
255
255
255
255
255
255
255
255
255
255
255
255
255
255
255
255
255
255
255
255
255
255
255
255
255
255
255
255
255
255
255
255
255
255
255
255
255
255
255
255
255
255
255
255
255
255
255
255
255
255
255
255
255
255
255
255
255
255
255
255
255
255
255
255
255
255
255
255
255
255
255
255
255
255
255
255
255
255
255
255
255
255
255
255
255
255
255
255
255
255
255
255
255
255
255
255
255
255
255
255
255
255
255
255
255
255
255
255
255
255
255
255
255
255
255
255
255
255
255
255
255
255
255
255
255
255
255
255
255
255
255
255
255
255
255
255
255
255
255
255
255
255
255
255
255
255
255
255
255
255
255
255
255
255
255
255
255
255
255
255
255
255
255
255
255
255
255
255
255
255
255
255
255
255
255
255
255
255
255
255
255
255
255
255
255
255
255
255
255
255
255
255
255
255
255
255
255
255
255
255
255
255
255
255
255
255
255
255
255
255
255
255
255
255
255
255
255
255
255
255
255
255
255
255
255
255
255
255
255
255
255
255
255
255
255
255
255
255
255
255
255
255
255
255
255
255
255
255
255
255
255
255
255
255
255
255
255
255
255
255
255
255
255
255
255
255
255
255
255
255
255
255
255
255
255
255
255
255
255
255
255
255
255
255
255
255
255
255
255
255
255
255
255
255
255
255
255
255
255
255
255
255
255
255
255
255
255
255
255
255
255
255
255
255
255
255
255
255
255
255
255
255
255
255
255
255
255
255
255
255
255
255
255
255
255
255
255
255
255
255
255
255
255
255
255
255
255
255
255
255
255
255
255
255
255
255
255
255
255
255
255
255
255
255
255
255
255
255
255
255
255
255
255
255
255
255
255
255
255
255
255
255
255
255
255
255
255
255
255
255
255
255
255
255
255
255
255
255
255
255
255
255
255
255
255
255
255
255
255
255
255
255
255
255
255
255
255
255
255
255
255
255
255
255
255
255
255
255
255
255
255
255
255
255
255
255
255
255
255
255
255
255
255
255
255
255
255
255
255
255
255
255
255
255
255
255
255
255
255
255
255
255
255
255
255
255
255
255
255
255
255
255
255
255
255
255
255
255
255
255
255
255
255
255
255
255
255
255
255
255
255
255
255
255
255
255
255
255
255
255
255
255
255
255
255
255
255
255
255
255
255
255
255
255
255
255
255
255
255
255
255
255
255
255
255
255
255
255
255
255
255
255
255
255
255
255
255
255
255
255
255
255
255
255
255
255
255
255
255
255
255
255
255
255
255
255
255
255
255
255
255
255
255
255
255
255
255
255
255
255
255
255
255
255
255
255
255
255
255
255
255
255
255
255
255
255
255
255
255
255
255
255
255
255
255
255
255
255
255
255
255
255
255
255
255
255
255
255
255
255
255
255
255
255
255
255
255
255
255
255
255
255
255
255
255
255
255
255
255
255
255
255
255
255
255
255
255
255
255
255
255
255
255
255
255
255
255
255
255
255
255
255
255
255
255
255
255
255
255
255
255
255
255
255
255
255
255
255
255
255
255
255
255
255
255
255
255
255
255
255
255
255
255
255
255
255
255
255
255
255
255
255
255
255
255
255
255
255
255
255
255
255
255
255
255
255
255
255
255
255
255
255
255
255
255
255
255
255
255
255
255
255
255
255
255
255
255
255
255
255
255
255
255
255
255
255
255
255
255
255
255
255
255
255
255
255
255
255
255
255
255
255
255
255
255
255
255
255
255
255
255
255
255
255
255
255
255
255
255
255
255
255
255
255
255
255
255
255
255
255
255
255
255
255
255
255
255
255
255
255
255
255
255
255
255
255
255
255
255
255
255
255
255
255
255
255
255
255
255
255
255
255
255
255
255
255
255
255
255
255
255
255
255
255
255
255
255
255
255
255
255
255
255
255
255
255
255
255
255
255
255
255
255
255
255
255
255
255
255
255
255
255
255
255
255
255
255
255
255
255
255
255
255
255
255
255
255
255
255
255
255
255
255
255
255
255
255
255
255
255
255
255
255
255
255
255
255
255
255
255
255
255
255
255
255
255
255
255
255
255
255
255
255
255
255
255
255
255
255
255
255
255
255
255
255
255
255
255
255
255
255
255
255
255
255
255
255
255
255
255
255
255
255
255
255
255
255
255
255
255
255
255
255
255
255
255
255
255
255
255
255
255
255
255
255
255
255
255
255
255
255
255
255
255
255
255
255
255
255
255
255
255
255
255
255
255
255
255
255
255
255
255
255
255
255
255
255
255
255
255
255
255
255
255
255
255
255
255
255
255
255
255
255
255
255
255
255
255
255
255
255
255
255
255
255
255
255
255
255
255
255
255
255
255
255
255
255
255
255
255
255
255
255
255
255
255
255
255
255
255
255
255
255
255
255
255
255
255
255
255
255
255
255
255
255
255
255
255
255
255
255
255
255
255
255
255
255
255
255
255
255
255
255
255
255
255
255
255
255
255
255
255
255
255
255
255
255
255
255
255
255
255
255
255
255
255
255
255
255
255
255
255
255
255
255
255
255
255
255
255
255
255
255
255
255
255
255
255
255
255
255
255
255
255
255
255
255
255
255
255
255
255
255
255
255
255
255
255
255
255
255
255
255
255
255
255
255
255
255
255
255
255
255
255
255
255
255
255
255
255
255
255
255
255
255
255
255
255
255
255
255
255
255
255
255
255
255
255
255
255
255
255
255
255
255
255
255
255
255
255
255
255
255
255
255
255
255
255
255
255
255
255
255
255
255
255
255
255
255
255
255
255
255
255
255
255
255
255
255
255
255
255
255
255
255
255
255
255
255
255
255
255
255
255
255
255
255
255
255
255
255
255
255
255
255
255
255
255
255
255
255
255
255
255
255
255
255
255
255
255
255
255
255
255
255
255
255
255
255
255
255
255
255
255
255
255
255
255
255
255
255
255
255
255
255
255
255
255
255
255
255
255
255
255
255
255
255
255
255
255
255
255
255
255
255
255
255
255
255
255
255
255
255
255
255
255
255
255
255
255
255
255
255
255
255
255
255
255
255
255
255
255
255
255
255
255
255
255
255
255
255
255
255
255
255
255
255
255
255
255
255
255
255
255
255
255
255
255
255
255
255
255
255
255
255
255
255
255
255
255
255
255
255
255
255
255
255
255
255
255
255
255
255
255
255
255
255
255
255
255
255
255
255
255
255
255
255
255
255
255
255
255
255
255
255
255
255
255
255
255
255
255
255
255
255
255
255
255
255
255
255
255
255
255
255
255
255
255
255
255
255
255
255
255
255
255
255
255
255
255
255
255
255
255
255
255
255
255
255
255
255
255
255
255
255
255
255
255
255
255
255
255
255
255
255
255
255
255
255
255
255
255
255
255
255
255
255
255
255
255
255
255
255
255
255
255
255
255
255
255
255
255
255
255
255
255
255
255
255
255
255
255
255
255
255
255
255
255
255
255
255
255
255
255
255
255
255
255
255
255
255
255
255
255
255
255
255
255
255
255
255
255
255
255
255
255
255
255
255
255
255
255
255
255
255
255
255
255
255
255
255
255
255
255
255
255
255
255
255
255
255
255
255
255
255
255
255
255
255
255
255
255
255
255
255
255
255
255
255
255
255
255
255
255
255
255
255
255
255
255
255
255
255
255
255
255
255
255
255
255
255
255
255
255
255
255
255
255
255
255
255
255
255
255
255
255
255
255
255
255
255
255
255
255
255
255
255
255
255
255
255
255
255
255
255
255
255
255
255
255
255
255
255
255
255
255
255
255
255
255
255
255
255
255
255
255
255
255
255
255
255
255
255
255
255
255
255
255
255
255
255
255
255
255
255
255
255
255
255
255
255
255
255
255
255
255
255
255
255
255
255
255
255
255
255
255
255
255
255
255
255
255
255
255
255
255
255
255
255
255
255
255
255
255
255
255
255
255
255
255
255
255
255
255
255
255
255
255
255
255
255
255
255
255
255
255
255
255
255
255
255
255
255
255
255
255
255
255
255
255
255
255
255
255
255
255
255
255
255
255
255
255
255
255
255
255
255
255
255
255
255
255
255
255
255
255
255
255
255
255
255
255
255
255
255
255
255
255
255
255
255
255
255
255
255
255
255
255
255
255
255
255
255
255
255
255
255
255
255
255
255
255
255
255
255
255
255
255
255
255
255
255
255
255
255
255
255
255
255
255
255
255
255
255
255
255
255
255
255
255
255
255
255
255
255
255
255
255
255
255
255
255
255
255
255
255
255
255
255
255
255
255
255
255
255
255
255
255
255
255
255
255
255
255
255
255
255
255
255
255
255
255
255
255
255
255
255
255
255
255
255
255
255
255
255
255
255
255
255
255
255
255
255
255
255
255
255
255
255
255
255
255
255
255
255
255
255
255
255
255
255
255
255
255
255
255
255
255
255
255
255
255
255
255
255
255
255
255
255
255
255
255
255
255
255
255
255
255
255
255
255
255
255
255
255
255
255
255
255
255
255
255
255
255
255
255
255
255
255
255
255
255
255
255
255
255
255
255
255
255
255
255
255
255
255
255
255
255
255
255
255
255
255
255
255
255
255
255
255
255
255
255
255
255
255
255
255
255
255
255
255
255
255
255
255
255
255
255
255
255
255
255
255
255
255
255
255
255
255
255
255
255
255
255
255
255
255
255
255
255
255
255
255
255
255
255
255
255
255
255
255
255
255
255
255
255
255
255
255
255
255
255
255
255
255
255
255
255
255
255
255
255
255
255
255
255
255
255
255
255
255
255
255
255
255
255
255
255
255
255
255
255
255
255
255
255
255
255
255
255
255
255
255
255
255
255
255
255
255
255
255
255
255
255
255
255
255
255
255
255
255
255
255
255
255
255
255
255
255
255
255
255
255
255
255
255
255
255
255
255
255
255
255
255
255
255
255
255
255
255
255
255
255
255
255
255
255
255
255
255
255
255
255
255
255
255
255
255
255
255
255
255
255
255
255
255
255
255
255
255
255
255
255
255
255
255
255
255
255
255
255
255
255
255
255
255
255
255
255
255
255
255
255
255
255
255
255
255
255
255
255
255
255
255
255
255
255
255
255
255
255
255
255
255
255
255
255
255
255
255
255
255
255
255
255
255
255
255
255
255
255
255
255
255
255
255
255
255
255
255
255
255
255
255
255
255
255
255
255
255
255
255
255
255
255
255
255
255
255
255
255
255
255
255
255
255
255
255
255
255
255
255
255
255
255
255
255
255
255
255
255
255
255
255
255
255
255
255
255
255
255
255
255
255
255
255
255
255
255
255
255
255
255
255
255
255
255
255
255
255
255
255
255
255
255
255
255
255
255
255
255
255
255
255
255
255
255
255
255
255
255
255
255
255
255
255
255
255
255
255
255
255
255
255
255
255
255
255
255
255
255
255
255
255
255
255
255
255
255
255
255
255
255
255
255
255
255
255
255
255
255
255
255
255
255
255
255
255
255
255
255
255
255
255
255
255
255
255
255
255
255
255
255
255
255
255
255
255
255
255
255
255
255
255
255
255
255
255
255
255
255
255
255
255
255
255
255
255
255
255
255
255
255
255
255
255
255
255
255
255
255
255
255
255
255
255
255
255
255
255
255
255
255
255
255
255
255
255
255
255
255
255
255
255
255
255
255
255
255
255
255
255
255
255
255
255
255
255
255
255
255
255
255
255
255
255
255
255
255
255
255
255
255
255
255
255
255
255
255
255
255
255
255
255
255
255
255
255
255
255
255
255
255
255
255
255
255
255
255
255
255
255
255
255
255
255
255
255
255
255
255
255
255
255
255
255
255
255
255
255
255
255
255
255
255
255
255
255
255
255
255
255
255
255
255
255
255
255
255
255
255
255
255
255
255
255
255
255
255
255
255
255
255
255
255
255
255
255
255
255
255
255
255
255
255
255
255
255
255
255
255
255
255
255
255
255
255
255
255
255
255
255
255
255
255
255
255
255
255
255
255
255
255
255
255
255
255
255
255
255
255
255
255
255
255
255
255
255
255
255
255
255
255
255
255
255
255
255
255
255
255
255
255
255
255
255
255
255
255
255
255
255
255
255
255
255
255
255
255
255
255
255
255
255
255
255
255
255
255
255
255
255
255
255
255
255
255
255
255
255
255
255
255
255
255
255
255
255
255
255
255
255
255
255
255
255
255
255
255
255
255
255
255
255
255
255
255
255
255
255
255
255
255
255
255
255
255
255
255
255
255
255
255
255
255
255
255
255
255
255
255
255
255
255
255
255
255
255
255
255
255
255
255
255
255
255
255
255
255
255
255
255
255
255
255
255
255
255
255
255
255
255
255
255
255
255
255
255
255
255
255
255
255
255
255
255
255
255
255
255
255
255
255
255
255
255
255
255
255
255
255
255
255
255
255
255
255
255
255
255
255
255
255
255
255
255
255
255
255
255
255
255
255
255
255
255
255
255
255
255
255
255
255
255
255
255
255
255
255
255
255
255
255
255
255
255
255
255
255
255
255
255
255
255
255
255
255
255
255
255
255
255
255
255
255
255
255
255
255
255
255
255
255
255
255
255
255
255
255
255
255
255
255
255
255
255
255
255
255
255
255
255
255
255
255
255
255
255
255
255
255
255
255
255
255
255
255
255
255
255
255
255
255
255
255
255
255
255
255
255
255
255
255
255
255
255
255
255
255
255
255
255
255
255
255
255
255
255
255
255
255
255
255
255
255
255
255
255
255
255
255
255
255
255
255
255
255
255
255
255
255
255
255
255
255
255
255
255
255
255
255
255
255
255
255
255
255
255
255
255
255
255
255
255
255
255
255
255
255
255
255
255
255
255
255
255
255
255
255
255
255
255
255
255
255
255
255
255
255
255
255
255
255
255
255
255
255
255
255
255
255
255
255
255
255
255
255
255
255
255
255
255
255
255
255
255
255
255
255
255
255
255
255
255
255
255
255
255
255
255
255
255
255
255
255
255
255
255
255
255
255
255
255
255
255
255
255
255
255
255
255
255
255
255
255
255
255
255
255
255
255
255
255
255
255
255
255
255
255
255
255
255
255
255
255
255
255
255
255
255
255
255
255
255
255
255
255
255
255
255
255
255
255
255
255
255
255
255
255
255
255
255
255
255
255
255
255
255
255
255
255
255
255
255
255
255
255
255
255
255
255
255
255
255
255
255
255
255
255
255
255
255
255
255
255
255
255
255
255
255
255
255
255
255
255
255
255
255
255
255
255
255
255
255
255
255
255
255
255
255
255
255
255
255
255
255
255
255
255
255
255
255
255
255
255
255
255
255
255
255
255
255
255
255
255
255
255
255
255
255
255
255
255
255
255
255
255
255
255
255
255
255
255
255
255
255
255
255
255
255
255
255
255
255
255
255
255
255
255
255
255
255
255
255
255
255
255
255
255
255
255
255
255
255
255
255
255
255
255
255
255
255
255
255
255
255
255
255
255
255
255
255
255
255
255
255
255
255
255
255
255
255
255
255
255
255
255
255
255
255
255
255
255
255
255
255
255
255
255
255
255
255
255
255
255
255
255
255
255
255
255
255
255
255
255
255
255
255
255
255
255
255
255
255
255
255
255
255
255
255
255
255
255
255
255
255
255
255
255
255
255
255
255
255
255
255
255
255
255
255
255
255
255
255
255
255
255
255
255
255
255
255
255
255
255
255
255
255
255
255
255
255
255
255
255
255
255
255
255
255
255
255
255
255
255
255
255
255
255
255
255
255
255
255
255
255
255
255
255
255
255
255
255
255
255
255
255
255
255
255
255
255
255
255
255
255
255
255
255
255
255
255
255
255
255
255
255
255
255
255
255
255
255
255
255
255
255
255
255
255
255
255
255
255
255
255
255
255
255
255
255
255
255
255
255
255
255
255
255
255
255
255
255
255
255
255
255
255
255
255
255
255
255
255
255
255
255
255
255
255
255
255
255
255
255
255
255
255
255
255
255
255
255
255
255
255
255
255
255
255
255
255
255
255
255
255
255
255
255
255
255
255
255
255
255
255
255
255
255
255
255
255
255
255
255
255
255
255
255
255
255
255
255
255
255
255
255
255
255
255
255
255
255
255
255
255
255
255
255
255
255
255
255
255
255
255
255
255
255
255
255
255
255
255
255
255
255
255
255
255
255
255
255
255
255
255
255
255
255
255
255
255
255
255
255
255
255
255
255
255
255
255
255
255
255
255
255
255
255
255
255
255
255
255
255
255
255
255
255
255
255
255
255
255
255
255
255
255
255
255
255
255
255
255
255
255
255
255
255
255
255
255
255
255
255
255
255
255
255
255
255
255
255
255
255
255
255
255
255
255
255
255
255
255
255
255
255
255
255
255
255
255
255
255
255
255
255
255
255
255
255
255
255
255
255
255
255
255
255
255
255
255
255
255
255
255
255
255
255
255
255
255
255
255
255
255
255
255
255
255
255
255
255
255
255
255
255
255
255
255
255
255
255
255
255
255
255
255
255
255
255
255
255
255
255
255
255
255
255
255
255
255
255
255
255
255
255
255
255
255
255
255
255
255
255
255
255
255
255
255
255
255
255
255
255
255
255
255
255
255
255
255
255
255
255
255
255
255
255
255
255
255
255
255
255
255
255
255
255
255
255
255
255
255
255
255
255
255
255
255
255
255
255
255
255
255
255
255
255
255
255
255
255
255
255
255
255
255
255
255
255
255
255
255
255
255
255
255
255
255
255
255
255
255
255
255
255
255
255
255
255
255
255
255
255
255
255
255
255
255
255
255
255
255
255
255
255
255
255
255
255
255
255
255
255
255
255
255
255
255
255
255
255
255
255
255
255
255
255
255
255
255
255
255
255
255
255
255
255
255
255
255
255
255
255
255
255
255
255
255
255
255
255
255
255
255
255
255
255
255
255
255
255
255
255
255
255
255
255
255
255
255
255
255
255
255
255
255
255
255
255
255
255
255
255
255
255
255
255
255
255
255
255
255
255
255
255
255
255
255
255
255
255
255
255
255
255
255
255
255
255
255
255
255
255
255
255
255
255
255
255
255
255
255
255
255
255
255
255
255
255
255
255
255
255
255
255
255
255
255
255
255
255
255
255
255
255
255
255
255
255
255
255
255
255
255
255
255
255
255
255
255
255
255
255
255
255
255
255
255
255
255
255
255
255
255
255
255
255
255
255
255
255
255
255
255
255
255
255
255
255
255
255
255
255
255
255
255
255
255
255
255
255
255
255
255
255
255
255
255
255
255
255
255
255
255
255
255
255
255
255
255
255
255
255
255
255
255
255
255
255
255
255
255
255
255
255
255
255
255
255
255
255
255
255
255
255
255
255
255
255
255
255
255
255
255
255
255
255
255
255
255
255
255
255
255
255
255
255
255
255
255
255
255
255
255
255
255
255
255
255
255
255
255
255
255
255
255
255
255
255
255
255
255
255
255
255
255
255
255
255
255
255
255
255
255
255
255
255
255
255
255
255
255
255
255
255
255
255
255
255
255
255
255
255
255
255
255
255
255
255
255
255
255
255
255
255
255
255
255
255
255
255
255
255
255
255
255
255
255
255
255
255
255
255
255
255
255
255
255
255
255
255
255
255
255
255
255
255
255
255
255
255
255
255
255
255
255
255
255
255
255
255
255
255
255
255
255
255
255
255
255
255
255
255
255
255
255
255
255
255
255
255
255
255
255
255
255
255
255
255
255
255
255
255
255
255
255
255
255
255
255
255
255
255
255
255
255
255
255
255
255
255
255
255
255
255
255
255
255
255
255
255
255
255
255
255
255
255
255
255
255
255
255
255
255
255
255
255
255
255
255
255
255
255
255
255
255
255
255
255
255
255
255
255
255
255
255
255
255
255
255
255
255
255
255
255
255
255
255
255
255
255
255
255
255
255
255
255
255
255
255
255
255
255
255
255
255
255
255
255
255
255
255
255
255
255
255
255
255
255
255
255
255
255
255
255
255
255
255
255
255
255
255
255
255
255
255
255
255
255
255
255
255
255
255
255
255
255
255
255
255
255
255
255
255
255
255
255
255
255
255
255
255
255
255
255
255
255
255
255
255
255
255
255
255
255
255
255
255
255
255
255
255
255
255
255
255
255
255
255
255
255
255
255
255
255
255
255
255
255
255
255
255
255
255
255
255
255
255
255
255
255
255
255
255
255
255
255
255
255
255
255
255
255
255
255
255
255
255
255
255
255
255
255
255
255
255
255
255
255
255
255
255
255
255
255
255
255
255
255
255
255
255
255
255
255
255
255
255
255
255
255
255
255
255
255
255
255
255
255
255
255
255
255
255
255
255
255
255
255
255
255
255
255
255
255
255
255
255
255
255
255
255
255
255
255
255
255
255
255
255
255
255
255
255
255
255
255
255
255
255
255
255
255
255
255
255
255
255
255
255
255
255
255
255
255
255
255
255
255
255
255
255
255
255
255
255
255
255
255
255
255
255
255
255
255
255
255
255
255
255
255
255
255
255
255
255
255
255
255
255
255
255
255
255
255
255
255
255
255
255
255
255
255
255
255
255
255
255
255
255
255
255
255
255
255
255
255
255
255
255
255
255
255
255
255
255
255
255
255
255
255
255
255
255
255
255
255
255
255
255
255
255
255
255
255
255
255
255
255
255
255
255
255
255
255
255
255
255
255
255
255
255
255
255
255
255
255
255
255
255
255
255
255
255
255
255
255
255
255
255
255
255
255
255
255
255
255
255
255
255
255
255
255
255
255
255
255
255
255
255
255
255
255
255
255
255
255
255
255
255
255
255
255
255
255
255
255
255
255
255
255
255
255
255
255
255
255
255
255
255
255
255
255
255
255
255
255
255
255
255
255
255
255
255
255
255
255
255
255
255
255
255
255
255
255
255
255
255
255
255
255
255
255
255
255
255
255
255
255
255
255
255
255
255
255
255
255
255
255
255
255
255
255
255
255
255
255
255
255
255
255
255
255
255
255
255
255
255
255
255
255
255
255
255
255
255
255
255
255
255
255
255
255
255
255
255
255
255
255
255
255
255
255
255
255
255
255
255
255
255
255
255
255
255
255
255
255
255
255
255
255
255
255
255
255
255
255
255
255
255
255
255
255
255
255
255
255
255
255
255
255
255
255
255
255
255
255
255
255
255
255
255
255
255
255
255
255
255
255
255
255
255
255
255
255
255
255
255
255
255
255
255
255
255
255
255
255
255
255
255
255
255
255
255
255
255
255
255
255
255
255
255
255
255
255
255
255
255
255
255
255
255
255
255
255
255
255
255
255
255
255
255
255
255
255
255
255
255
255
255
255
255
255
255
255
255
255
255
255
255
255
255
255
255
255
255
255
255
255
255
255
255
255
255
255
255
255
255
255
255
255
255
255
255
255
255
255
255
255
255
255
255
255
255
255
255
255
255
255
255
255
255
255
255
255
255
255
255
255
255
255
255
255
255
255
255
255
255
255
255
255
255
255
255
255
255
255
255
255
255
255
255
255
255
255
255
255
255
255
255
255
255
255
255
255
255
255
255
255
255
255
255
255
255
255
255
255
255
255
255
255
255
255
255
255
255
255
255
255
255
255
255
255
255
255
255
255
255
255
255
255
255
255
255
255
255
255
255
255
255
255
255
255
255
255
255
255
255
255
255
255
255
255
255
255
255
255
255
255
255
255
255
255
255
255
255
255
255
255
255
255
255
255
255
255
255
255
255
255
255
255
255
255
255
255
255
255
255
255
255
255
255
255
255
255
255
255
255
255
255
255
255
255
255
255
255
255
255
255
255
255
255
255
255
255
255
255
255
255
255
255
255
255
255
255
255
255
255
255
255
255
255
255
255
255
255
255
255
255
255
255
255
255
255
255
255
255
255
255
255
255
255
255
255
255
255
255
255
255
255
255
255
255
255
255
255
255
255
255
255
255
255
255
255
255
255
255
255
255
255
255
255
255
255
255
255
255
255
255
255
255
255
255
255
255
255
255
255
255
255
255
255
255
255
255
255
255
255
255
255
255
255
255
255
255
255
255
255
255
255
255
255
255
255
255
255
255
255
255
255
255
255
255
255
255
255
255
255
255
255
255
255
255
255
255
255
255
255
255
255
255
255
255
255
255
255
255
255
255
255
255
255
255
255
255
255
255
255
255
255
255
255
255
255
255
255
255
255
255
255
255
255
255
255
255
255
255
255
255
255
255
255
255
255
255
255
255
255
255
255
255
255
255
255
255
255
255
255
255
255
255
255
255
255
255
255
255
255
255
255
255
255
255
255
255
255
255
255
255
255
255
255
255
255
255
255
255
255
255
255
255
255
255
255
255
255
255
255
255
255
255
255
255
255
255
255
255
255
255
255
255
255
255
255
255
255
255
255
255
255
255
255
255
255
255
255
255
255
255
255
255
255
255
255
255
255
255
255
255
255
255
255
255
255
255
255
255
255
255
255
255
255
255
255
255
255
255
255
255
255
255
255
255
255
255
255
255
255
255
255
255
255
255
255
255
255
255
255
255
255
255
255
255
255
255
255
255
255
255
255
255
255
255
255
255
255
255
255
255
255
255
255
255
255
255
255
255
255
255
255
255
255
255
255
255
255
255
255
255
255
255
255
255
255
255
255
255
255
255
255
255
255
255
255
255
255
255
255
255
255
255
255
255
255
255
255
255
255
255
255
255
255
255
255
255
255
255
255
255
255
255
255
255
255
255
255
255
255
255
255
255
255
255
255
255
255
255
255
255
255
255
255
255
255
255
255
255
255
255
255
255
255
255
255
255
255
255
255
255
255
255
255
255
255
255
255
255
255
255
255
255
255
255
255
255
255
255
255
255
255
255
255
255
255
255
255
255
255
255
255
255
255
255
255
255
255
255
255
255
255
255
255
255
255
255
255
255
255
255
255
255
255
255
255
255
255
255
255
255
255
255
255
255
255
255
255
255
255
255
255
255
255
255
255
255
255
255
255
255
255
255
255
255
255
255
255
255
255
255
255
255
255
255
255
255
255
255
255
255
255
255
255
255
255
255
255
255
255
255
255
255
255
255
255
255
255
255
255
255
255
255
255
255
255
255
255
255
255
255
255
255
255
255
255
255
255
255
255
255
255
255
255
255
255
255
255
255
255
255
255
255
255
255
255
255
255
255
255
255
255
255
255
255
255
255
255
255
255
255
255
255
255
255
255
255
255
255
255
255
255
255
255
255
255
255
255
255
255
255
255
255
255
255
255
255
255
255
255
255
255
255
255
255
255
255
255
255
255
255
255
255
255
255
255
255
255
255
255
255
255
255
255
255
255
255
255
255
255
255
255
255
255
255
255
255
255
255
255
255
255
255
255
255
255
255
255
255
255
255
255
255
255
255
255
255
255
255
255
255
255
255
255
255
255
255
255
255
255
255
255
255
255
255
255
255
255
255
255
255
255
255
255
255
255
255
255
255
255
255
255
255
255
255
255
255
255
255
255
255
255
255
255
255
255
255
255
255
255
255
255
255
255
255
255
255
255
255
255
255
255
255
255
255
255
255
255
255
255
255
255
255
255
255
255
255
255
255
255
255
255
255
255
255
255
255
255
255
255
255
255
255
255
255
255
255
255
255
255
255
255
255
255
255
255
255
255
255
255
255
255
255
255
255
255
255
255
255
255
255
255
255
255
255
255
255
255
255
255
255
255
255
255
255
255
255
255
255
255
255
255
255
255
255
255
255
255
255
255
255
255
255
255
255
255
255
255
255
255
255
255
255
255
255
255
255
255
255
255
255
255
255
255
255
255
255
255
255
255
255
255
255
255
255
255
255
255
255
255
255
255
255
255
255
255
255
255
255
255
255
255
255
255
255
255
255
255
255
255
255
255
255
255
255
255
255
255
255
255
255
255
255
255
255
255
255
255
255
255
255
255
255
255
255
255
255
255
255
255
255
255
255
255
255
255
255
255
255
255
255
255
255
255
255
255
255
255
255
255
255
255
255
255
255
255
255
255
255
255
255
255
255
255
255
255
255
255
255
255
255
255
255
255
255
255
255
255
255
255
255
255
255
255
255
255
255
255
255
255
255
255
255
255
255
255
255
255
255
255
255
255
255
255
255
255
255
255
255
255
255
255
255
255
255
255
255
255
255
255
255
255
255
255
255
255
255
255
255
255
255
255
255
255
255
255
255
255
255
255
255
255
255
255
255
255
255
255
255
255
255
255
255
255
255
255
255
255
255
255
255
255
255
255
255
255
255
255
255
255
255
255
255
255
255
255
255
255
255
255
255
255
255
255
255
255
255
255
255
255
255
255
255
255
255
255
255
255
255
255
255
255
255
255
255
255
255
255
255
255
255
255
255
255
255
255
255
255
255
255
255
255
255
255
255
255
255
255
255
255
255
255
255
255
255
255
255
255
255
255
255
255
255
255
255
255
255
255
255
255
255
255
255
255
255
255
255
255
255
255
255
255
255
255
255
255
255
255
255
255
255
255
255
255
255
255
255
255
255
255
255
255
255
255
255
255
255
255
255
255
255
255
255
255
255
255
255
255
255
255
255
255
255
255
255
255
255
255
255
255
255
255
255
255
255
255
255
255
255
255
255
255
255
255
255
255
255
255
255
255
255
255
255
255
255
255
255
255
255
255
255
255
255
255
255
255
255
255
255
255
255
255
255
255
255
255
255
255
255
255
255
255
255
255
255
255
255
255
255
255
255
255
255
255
255
255
255
255
255
255
255
255
255
255
255
255
255
255
255
255
255
255
255
255
255
255
255
255
255
255
255
255
255
255
255
255
255
255
255
255
255
255
255
255
255
255
255
255
255
255
255
255
255
255
255
255
255
255
255
255
255
255
255
255
255
255
255
255
255
255
255
255
255
255
255
255
255
255
255
255
255
255
255
255
255
255
255
255
255
255
255
255
255
255
255
255
255
255
255
255
255
255
255
255
255
255
255
255
255
255
255
255
255
255
255
255
255
255
255
255
255
255
255
255
255
255
255
255
255
255
255
255
255
255
255
255
255
255
255
255
255
255
255
255
255
255
255
255
255
255
255
255
255
255
255
255
255
255
255
255
255
255
255
255
255
255
255
255
255
255
255
255
255
255
255
255
255
255
255
255
255
255
255
255
255
255
255
255
255
255
255
255
255
255
255
255
255
255
255
255
255
255
255
255
255
255
255
255
255
255
255
255
255
255
255
255
255
255
255
255
255
255
255
255
255
255
255
255
255
255
255
255
255
255
255
255
255
255
255
255
255
255
255
255
255
255
255
255
255
255
255
255
255
255
255
255
255
255
255
255
255
255
255
255
255
255
255
255
255
255
255
255
255
255
255
255
255
255
255
255
255
255
255
255
255
255
255
255
255
255
255
255
255
255
255
255
255
255
255
255
255
255
255
255
255
255
255
255
255
255
255
255
255
255
255
255
255
255
255
255
255
255
255
255
255
255
255
255
255
255
255
255
255
255
255
255
255
255
255
255
255
255
255
255
255
255
255
255
255
255
255
255
255
255
255
255
255
255
255
255
255
255
255
255
255
255
255
255
255
255
255
255
255
255
255
255
255
255
255
255
255
255
255
255
255
255
255
255
255
255
255
255
255
255
255
255
255
255
255
255
255
255
255
255
255
255
255
255
255
255
255
255
255
255
255
255
255
255
255
255
255
255
255
255
255
255
255
255
255
255
255
255
255
255
255
255
255
255
255
255
255
255
255
255
255
255
255
255
255
255
255
255
255
255
255
255
255
255
255
255
255
255
255
255
255
255
255
255
255
255
255
255
255
255
255
255
255
255
255
255
255
255
255
255
255
255
255
255
255
255
255
255
255
255
255
255
255
255
255
255
255
255
255
255
255
255
255
255
255
255
255
255
255
255
255
255
255
255
255
255
255
255
255
255
255
255
255
255
255
255
255
255
255
255
255
255
255
255
255
255
255
255
255
255
255
255
255
255
255
255
255
255
255
255
255
255
255
255
255
255
255
255
255
255
255
255
255
255
255
255
255
255
255
255
255
255
255
255
255
255
255
255
255
255
255
255
255
255
255
255
255
255
255
255
255
255
255
255
255
255
255
255
255
255
255
255
255
255
255
255
255
255
255
255
255
255
255
255
255
255
255
255
255
255
255
255
255
255
255
255
255
255
255
255
255
255
255
255
255
255
255
255
255
255
255
255
255
255
255
255
255
255
255
255
255
255
255
255
255
255
255
255
255
255
255
255
255
255
255
255
255
255
255
255
255
255
255
255
255
255
255
255
255
255
255
255
255
255
255
255
255
255
255
255
255
255
255
255
255
255
255
255
255
255
255
255
255
255
255
255
255
255
255
255
255
255
255
255
255
255
255
255
255
255
255
255
255
255
255
255
255
255
255
255
255
255
255
255
255
255
255
255
255
255
255
255
255
255
255
255
255
255
255
255
255
255
255
255
255
255
255
255
255
255
255
255
255
255
255
255
255
255
255
255
255
255
255
255
255
255
255
255
255
255
255
255
255
255
255
255
255
255
255
255
255
255
255
255
255
255
255
255
255
255
255
255
255
255
255
255
255
255
255
255
255
255
255
255
255
255
255
255
255
255
255
255
255
255
255
255
255
255
255
255
255
255
255
255
255
255
255
255
255
255
255
255
255
255
255
255
255
255
255
255
255
255
255
255
255
255
255
255
255
255
255
255
255
255
255
255
255
255
255
255
255
255
255
255
255
255
255
255
255
255
255
255
255
255
255
255
255
255
255
255
255
255
255
255
255
255
255
255
255
255
255
255
255
255
255
255
255
255
255
255
255
255
255
255
255
255
255
255
255
255
255
255
255
255
255
255
255
255
255
255
255
255
255
255
255
255
255
255
255
255
255
255
255
255
255
255
255
255
255
255
255
255
255
255
255
255
255
255
255
255
255
255
255
255
255
255
255
255
255
255
255
255
255
255
255
255
255
255
255
255
255
255
255
255
255
255
255
255
255
255
255
255
255
255
255
255
255
255
255
255
255
255
255
255
255
255
255
255
255
255
255
255
255
255
255
255
255
255
255
255
255
255
255
255
255
255
255
255
255
255
255
255
255
255
255
255
255
255
255
255
255
255
255
255
255
255
255
255
255
255
255
255
255
255
255
255
255
255
255
255
255
255
255
255
255
255
255
255
255
255
255
255
255
255
255
255
255
255
255
255
255
255
255
255
255
255
255
255
255
255
255
255
255
255
255
255
255
255
255
255
255
255
255
255
255
255
255
255
255
255
255
255
255
255
255
255
255
255
255
255
255
255
255
255
255
255
255
255
255
255
255
255
255
255
255
255
255
255
255
255
255
255
255
255
255
255
255
255
255
255
255
255
255
255
255
255
255
255
255
255
255
255
255
255
255
255
255
255
255
255
255
255
255
255
255
255
255
255
255
255
255
255
255
255
255
255
255
255
255
255
255
255
255
255
255
255
255
255
255
255
255
255
255
255
255
255
255
255
255
255
255
255
255
255
255
255
255
255
255
255
255
255
255
255
255
255
255
255
255
255
255
255
255
255
255
255
255
255
255
255
255
255
255
255
255
255
255
255
255
255
255
255
255
255
255
255
255
255
255
255
255
255
255
255
255
255
255
255
255
255
255
255
255
255
255
255
255
255
255
255
255
255
255
255
255
255
255
255
255
255
255
255
255
255
255
255
255
255
255
255
255
255
255
255
255
255
255
255
255
255
255
255
255
255
255
255
255
255
255
255
255
255
255
255
255
255
255
255
255
255
255
255
255
255
255
255
255
255
255
255
255
255
255
255
255
255
255
255
255
255
255
255
255
255
255
255
255
255
255
255
255
255
255
255
255
255
255
255
255
255
255
255
255
255
255
255
255
255
255
255
255
255
255
255
255
255
255
255
255
255
255
255
255
255
255
255
255
255
255
255
255
255
255
255
255
255
255
255
255
255
255
255
255
255
255
255
255
255
255
255
255
255
255
255
255
255
255
255
255
255
255
255
255
255
255
255
255
255
255
255
255
255
255
255
255
255
255
255
255
255
255
255
255
255
255
255
255
255
255
255
255
255
255
255
255
255
255
255
255
255
255
255
255
255
255
255
255
255
255
255
255
255
255
255
255
255
255
255
255
255
255
255
255
255
255
255
255
255
255
255
255
255
255
255
255
255
255
255
255
255
255
255
255
255
255
255
255
255
255
255
255
255
255
255
255
255
255
255
255
255
255
255
255
255
255
255
255
255
255
255
255
255
255
255
255
255
255
255
255
255
255
255
255
255
255
255
255
255
255
255
255
255
255
255
255
255
255
255
255
255
255
255
255
255
255
255
255
255
255
255
255
255
255
255
255
255
255
255
255
255
255
255
255
255
255
255
255
255
255
255
255
255
255
255
255
255
255
255
255
255
255
255
255
255
255
255
255
255
255
255
255
255
255
255
255
255
255
255
255
255
255
255
255
255
255
255
255
255
255
255
255
255
255
255
255
255
255
255
255
255
255
255
255
255
255
255
255
255
255
255
255
255
255
255
255
255
255
255
255
255
255
255
255
255
255
255
255
255
255
255
255
255
255
255
255
255
255
255
255
255
255
255
255
255
255
255
255
255
255
255
255
255
255
255
255
255
255
255
255
255
255
255
255
255
255
255
255
255
255
255
255
255
255
255
255
255
255
255
255
255
255
255
255
255
255
255
255
255
255
255
255
255
255
255
255
255
255
255
255
255
255
255
255
255
255
255
255
255
255
255
255
255
255
255
255
255
255
255
255
255
255
255
255
255
255
255
255
255
255
255
255
255
255
255
255
255
255
255
255
255
255
255
255
255
255
255
255
255
255
255
255
255
255
255
255
255
255
255
255
255
255
255
255
255
255
255
255
255
255
255
255
255
255
255
255
255
255
255
255
255
255
255
255
255
255
255
255
255
255
255
255
255
255
255
255
255
255
255
255
255
255
255
255
255
255
255
255
255
255
255
255
255
255
255
255
255
255
255
255
255
255
255
255
255
255
255
255
255
255
255
255
255
255
255
255
255
255
255
255
255
255
255
255
255
255
255
255
255
255
255
255
255
255
255
255
255
255
255
255
255
255
255
255
255
255
255
255
255
255
255
255
255
255
255
255
255
255
255
255
255
255
255
255
255
255
255
255
255
255
255
255
255
255
255
255
255
255
255
255
255
255
255
255
255
255
255
255
255
255
255
255
255
255
255
255
255
255
255
255
255
255
255
255
255
255
255
255
255
255
255
255
255
255
255
255
255
255
255
255
255
255
255
255
255
255
255
255
255
255
255
255
255
255
255
255
255
255
255
255
255
255
255
255
255
255
255
255
255
255
255
255
255
255
255
255
255
255
255
255
255
255
255
255
255
255
255
255
255
255
255
255
255
255
255
255
255
255
255
255
255
255
255
255
255
255
255
255
255
255
255
255
255
255
255
255
255
255
255
255
255
255
255
255
255
255
255
255
255
255
255
255
255
255
255
255
255
255
255
255
255
255
255
255
255
255
255
255
255
255
255
255
255
255
255
255
255
255
255
255
255
255
255
255
255
255
255
255
255
255
255
255
255
255
255
255
255
255
255
255
255
255
255
255
255
255
255
255
255
255
255
255
255
255
255
255
255
255
255
255
255
255
255
255
255
255
255
255
255
255
255
255
255
255
255
255
255
255
255
255
255
255
255
255
255
255
255
255
255
255
255
255
255
255
255
255
255
255
255
255
255
255
255
255
255
255
255
255
255
255
255
255
255
255
255
255
255
255
255
255
255
255
255
255
255
255
255
255
255
255
255
255
255
255
255
255
255
255
255
255
255
255
255
255
255
255
255
255
255
255
255
255
255
255
255
255
255
255
255
255
255
255
255
255
255
255
255
255
255
255
255
255
255
255
255
255
255
255
255
255
255
255
255
255
255
255
255
255
255
255
255
255
255
255
255
255
255
255
255
255
255
255
255
255
255
255
255
255
255
255
255
255
255
255
255
255
255
255
255
255
255
255
255
255
255
255
255
255
255
255
255
255
255
255
255
255
255
255
255
255
255
255
255
255
255
255
255
255
255
255
255
255
255
255
255
255
255
255
255
255
255
255
255
255
255
255
255
255
255
255
255
255
255
255
255
255
255
255
255
255
255
255
255
255
255
255
255
255
255
255
255
255
255
255
255
255
255
255
255
255
255
255
255
255
255
255
255
255
255
255
255
255
255
255
255
255
255
255
255
255
255
255
255
255
255
255
255
255
255
255
255
255
255
255
255
255
255
255
255
255
255
255
255
255
255
255
255
255
255
255
255
255
255
255
255
255
255
255
255
255
255
255
255
255
255
255
255
255
255
255
255
255
255
255
255
255
255
255
255
255
255
255
255
255
255
255
255
255
255
255
255
255
255
255
255
255
255
255
255
255
255
255
255
255
255
255
255
255
255
255
255
255
255
255
255
255
255
255
255
255
255
255
255
255
255
255
255
255
255
255
255
255
255
255
255
255
255
255
255
255
255
255
255
255
255
255
255
255
255
255
255
255
255
255
255
255
255
255
255
255
255
255
255
255
255
255
255
255
255
255
255
255
255
255
255
255
255
255
255
255
255
255
255
255
255
255
255
255
255
255
255
255
255
255
255
255
255
255
255
255
255
255
255
255
255
255
255
255
255
255
255
255
255
255
255
255
255
255
255
255
255
255
255
255
255
255
255
255
255
255
255
255
255
255
255
255
255
255
255
255
255
255
255
255
255
255
255
255
255
255
255
255
255
255
255
255
255
255
255
255
255
255
255
255
255
255
255
255
255
255
255
255
255
255
255
255
255
255
255
255
255
255
255
255
255
255
255
255
255
255
255
255
255
255
255
255
255
255
255
255
255
255
255
255
255
255
255
255
255
255
255
255
255
255
255
255
255
255
255
255
255
255
255
255
255
255
255
255
255
255
255
255
255
255
255
255
255
255
255
255
255
255
255
255
255
255
255
255
255
255
255
255
255
255
255
255
255
255
255
255
255
255
255
255
255
255
255
255
255
255
255
255
255
255
255
255
255
255
255
255
255
255
255
255
255
255
255
255
255
255
255
255
255
255
255
255
255
255
255
255
255
255
255
255
255
255
255
255
255
255
255
255
255
255
255
255
255
255
255
255
255
255
255
255
255
255
255
255
255
255
255
255
255
255
255
255
255
255
255
255
255
255
255
255
255
255
255
255
255
255
255
255
255
255
255
255
255
255
255
255
255
255
255
255
255
255
255
255
255
255
255
255
255
255
255
255
255
255
255
255
255
255
255
255
255
255
255
255
255
255
255
255
255
255
255
255
255
255
255
255
255
255
255
255
255
255
255
255
255
255
255
255
255
255
255
255
255
255
255
255
255
255
255
255
255
255
255
255
255
255
255
255
255
255
255
255
255
255
255
255
255
255
255
255
255
255
255
255
255
255
255
255
255
255
255
255
255
255
255
255
255
255
255
255
255
255
255
255
255
255
255
255
255
255
255
255
255
255
255
255
255
255
255
255
255
255
255
255
255
255
255
255
255
255
255
255
255
255
255
255
255
255
255
255
255
255
255
255
255
255
255
255
255
255
255
255
255
255
255
255
255
255
255
255
255
255
255
255
255
255
255
255
255
255
255
255
255
255
255
255
255
255
255
255
255
255
255
255
255
255
255
255
255
255
255
255
255
255
255
255
255
255
255
255
255
255
255
255
255
255
255
255
255
255
255
255
255
255
255
255
255
255
255
255
255
255
255
255
255
255
255
255
255
255
255
255
255
255
255
255
255
255
255
255
255
255
255
255
255
255
255
255
255
255
255
255
255
255
255
255
255
255
255
255
255
255
255
255
255
255
255
255
255
255
255
255
255
255
255
255
255
255
255
255
255
255
255
255
255
255
255
255
255
255
255
255
255
255
255
255
255
255
255
255
255
255
255
255
255
255
255
255
255
255
255
255
255
255
255
255
255
255
255
255
255
255
255
255
255
255
255
255
255
255
255
255
255
255
255
255
255
255
255
255
255
255
255
255
255
255
255
255
255
255
255
255
255
255
255
255
255
255
255
255
255
255
255
255
255
255
255
255
255
255
255
255
255
255
255
255
255
255
255
255
255
255
255
255
255
255
255
255
255
255
255
255
255
255
255
255
255
255
255
255
255
255
255
255
255
255
255
255
255
255
255
255
255
255
255
255
255
255
255
255
255
255
255
255
255
255
255
255
255
255
255
255
255
255
255
255
255
255
255
255
255
255
255
255
255
255
255
255
255
255
255
255
255
255
255
255
255
255
255
255
255
255
255
255
255
255
255
255
255
255
255
255
255
255
255
255
255
255
255
255
255
255
255
255
255
255
255
255
255
255
255
255
255
255
255
255
255
255
255
255
255
255
255
255
255
255
255
255
255
255
255
255
255
255
255
255
255
255
255
255
255
255
255
255
255
255
255
255
255
255
255
255
255
255
255
255
255
255
255
255
255
255
255
255
255
255
255
255
255
255
255
255
255
255
255
255
255
255
255
255
255
255
255
255
255
255
255
255
255
255
255
255
255
255
255
255
255
255
255
255
255
255
255
255
255
255
255
255
255
255
255
255
255
255
255
255
255
255
255
255
255
255
255
255
255
255
255
255
255
255
255
255
255
255
255
255
255
255
255
255
255
255
255
255
255
255
255
255
255
255
255
255
255
255
255
255
255
255
255
255
255
255
255
255
255
255
255
255
255
255
255
255
255
255
255
255
255
255
255
255
255
255
255
255
255
255
255
255
255
255
255
255
255
255
255
255
255
255
255
255
255
255
255
255
255
255
255
255
255
255
255
255
255
255
255
255
255
255
255
255
255
255
255
255
255
255
255
255
255
255
255
255
255
255
255
255
255
255
255
255
255
255
255
255
255
255
255
255
255
255
255
255
255
255
255
255
255
255
255
255
255
255
255
255
255
255
255
255
255
255
255
255
255
255
255
255
255
255
255
255
255
255
255
255
255
255
255
255
255
255
255
255
255
255
255
255
255
255
255
255
255
255
255
255
255
255
255
255
255
255
255
255
255
255
255
255
255
255
255
255
255
255
255
255
255
255
255
255
255
255
255
255
255
255
255
255
255
255
255
255
255
255
255
255
255
255
255
255
255
255
255
255
255
255
255
255
255
255
255
255
255
255
255
255
255
255
255
255
255
255
255
255
255
255
255
255
255
255
255
255
255
255
255
255
255
255
255
255
255
255
255
255
255
255
255
255
255
255
255
255
255
255
255
255
255
255
255
255
255
255
255
255
255
255
255
255
255
255
255
255
255
255
255
255
255
255
255
255
255
255
255
255
255
255
255
255
255
255
255
255
255
255
255
255
255
255
255
255
255
255
255
255
255
255
255
255
255
255
255
255
255
255
255
255
255
255
255
255
255
255
255
255
255
255
255
255
255
255
255
255
255
255
255
255
255
255
255
255
255
255
255
255
255
255
255
255
255
255
255
255
255
255
255
255
255
255
255
255
255
255
255
255
255
255
255
255
255
255
255
255
255
255
255
255
255
255
255
255
255
255
255
255
255
255
255
255
255
255
255
255
255
255
255
255
255
255
255
255
255
255
255
255
255
255
255
255
255
255
255
255
255
255
255
255
255
255
255
255
255
255
255
255
255
255
255
255
255
255
255
255
255
255
255
255
255
255
255
255
255
255
255
255
255
255
255
255
255
255
255
255
255
255
255
255
255
255
255
255
255
255
255
255
255
255
255
255
255
255
255
255
255
255
255
255
255
255
255
255
255
255
255
255
255
255
255
255
255
255
255
255
255
255
255
255
255
255
255
255
255
255
255
255
255
255
255
255
255
255
255
255
255
255
255
255
255
255
255
255
255
255
255
255
255
255
255
255
255
255
255
255
255
255
255
255
255
255
255
255
255
255
255
255
255
255
255
255
255
255
255
255
255
255
255
255
255
255
255
255
255
255
255
255
255
255
255
255
255
255
255
255
255
255
255
255
255
255
255
255
255
255
255
255
255
255
255
255
255
255
255
255
255
255
255
255
255
255
255
255
255
255
255
255
255
255
255
255
255
255
255
255
255
255
255
255
255
255
255
255
255
255
255
255
255
255
255
255
255
255
255
255
255
255
255
255
255
255
255
255
255
255
255
255
255
255
255
255
255
255
255
255
255
255
255
255
255
255
255
255
255
255
255
255
255
255
255
255
255
255
255
255
255
255
255
255
255
255
255
255
255
255
255
255
255
255
255
255
255
255
255
255
255
255
255
255
255
255
255
255
255
255
255
255
255
255
255
255
255
255
255
255
255
255
255
255
255
255
255
255
255
255
255
255
255
255
255
255
255
255
255
255
255
255
255
255
255
255
255
255
255
255
255
255
255
255
255
255
255
255
255
255
255
255
255
255
255
255
255
255
255
255
255
255
255
255
255
255
255
255
255
255
255
255
255
255
255
255
255
255
255
255
255
255
255
255
255
255
255
255
255
255
255
255
255
255
255
255
255
255
255
255
255
255
255
255
255
255
255
255
255
255
255
255
255
255
255
255
255
255
255
255
255
255
255
255
255
255
255
255
255
255
255
255
255
255
255
255
255
255
255
255
255
255
255
255
255
255
255
255
255
255
255
255
255
255
255
255
255
255
255
255
255
255
255
255
255
255
255
255
255
255
255
255
255
255
255
255
255
255
255
255
255
255
255
255
255
255
255
255
255
255
255
255
255
255
255
255
255
255
255
255
255
255
255
255
255
255
255
255
255
255
255
255
255
255
255
255
255
255
255
255
255
255
255
255
255
255
255
255
255
255
255
255
255
255
255
255
255
255
255
255
255
255
255
255
255
255
255
255
255
255
255
255
255
255
255
255
255
255
255
255
255
255
255
255
255
255
255
255
255
255
255
255
255
255
255
255
255
255
255
255
255
255
255
255
255
255
255
255
255
255
255
255
255
255
255
255
255
255
255
255
255
255
255
255
255
255
255
255
255
255
255
255
255
255
255
255
255
255
255
255
255
255
255
255
255
255
255
255
255
255
255
255
255
255
255
255
255
255
255
255
255
255
255
255
255
255
255
255
255
255
255
255
255
255
255
255
255
255
255
255
255
255
255
255
255
255
255
255
255
255
255
255
255
255
255
255
255
255
255
255
255
255
255
255
255
255
255
255
255
255
255
255
255
255
255
255
255
255
255
255
255
255
255
255
255
255
255
255
255
255
255
255
255
255
255
255
255
255
255
255
255
255
255
255
255
255
255
255
255
255
255
255
255
255
255
255
255
255
255
255
255
255
255
255
255
255
255
255
255
255
255
255
255
255
255
255
255
255
255
255
255
255
255
255
255
255
255
255
255
255
255
255
255
255
255
255
255
255
255
255
255
255
255
255
255
255
255
255
255
255
255
255
255
255
255
255
255
255
255
255
255
255
255
255
255
255
255
255
255
255
255
255
255
255
255
255
255
255
255
255
255
255
255
255
255
255
255
255
255
255
255
255
255
255
255
255
255
255
255
255
255
255
255
255
255
255
255
255
255
255
255
255
255
255
255
255
255
255
255
255
255
255
255
255
255
255
255
255
255
255
255
255
255
255
255
255
255
255
255
255
255
255
255
255
255
255
255
255
255
255
255
255
255
255
255
255
255
255
255
255
255
255
255
255
255
255
255
255
255
255
255
255
255
255
255
255
255
255
255
255
255
255
255
255
255
255
255
255
255
255
255
255
255
255
255
255
255
255
255
255
255
255
255
255
255
255
255
255
255
255
255
255
255
255
255
255
255
255
255
255
255
255
255
255
255
255
255
255
255
255
255
255
255
255
255
255
255
255
255
255
255
255
255
255
255
255
255
255
255
255
255
255
255
255
255
255
255
255
255
255
255
255
255
255
255
255
255
255
255
255
255
255
255
255
255
255
255
255
255
255
255
255
255
255
255
255
255
255
255
255
255
255
255
255
255
255
255
255
255
255
255
255
255
255
255
255
255
255
255
255
255
255
255
255
255
255
255
255
255
255
255
255
255
255
255
255
255
255
255
255
255
255
255
255
255
255
255
255
255
255
255
255
255
255
255
255
255
255
255
255
255
255
255
255
255
255
255
255
255
255
255
255
255
255
255
255
255
255
255
255
255
255
255
255
255
255
255
255
255
255
255
255
255
255
255
255
255
255
255
255
255
255
255
255
255
255
255
255
255
255
255
255
255
255
255
255
255
255
255
255
255
255
255
255
255
255
255
255
255
255
255
255
255
255
255
255
255
255
255
255
255
255
255
255
255
255
255
255
255
255
255
255
255
255
255
255
255
255
255
255
255
255
255
255
255
255
255
255
255
255
255
255
255
255
255
255
255
255
255
255
255
255
255
255
255
255
255
255
255
255
255
255
255
255
255
255
255
255
255
255
255
255
255
255
255
255
255
255
255
255
255
255
255
255
255
255
255
255
255
255
255
255
255
255
255
255
255
255
255
255
255
255
255
255
255
255
255
255
255
255
255
255
255
255
255
255
255
255
255
255
255
255
255
255
255
255
255
255
255
255
255
255
255
255
255
255
255
255
255
255
255
255
255
255
255
255
255
255
255
255
255
255
255
255
255
255
255
255
255
255
255
255
255
255
255
255
255
255
255
255
255
255
255
255
255
255
255
255
255
255
255
255
255
255
255
255
255
255
255
255
255
255
255
255
255
255
255
255
255
255
255
255
255
255
255
255
255
255
255
255
255
255
255
255
255
255
255
255
255
255
255
255
255
255
255
255
255
255
255
255
255
255
255
255
255
255
255
255
255
255
255
255
255
255
255
255
255
255
255
255
255
255
255
255
255
255
255
255
255
255
255
255
255
255
255
255
255
255
255
255
255
255
255
255
255
255
255
255
255
255
255
255
255
255
255
255
255
255
255
255
255
255
255
255
255
255
255
255
255
255
255
255
255
255
255
255
255
255
255
255
255
255
255
255
255
255
255
255
255
255
255
255
255
255
255
255
255
255
255
255
255
255
255
255
255
255
255
255
255
255
255
255
255
255
255
255
255
255
255
255
255
255
255
255
255
255
255
255
255
255
255
255
255
255
255
255
255
255
255
255
255
255
255
255
255
255
255
255
255
255
255
255
255
255
255
255
255
255
255
255
255
255
255
255
255
255
255
255
255
255
255
255
255
255
255
255
255
255
255
255
255
255
255
255
255
255
255
255
255
255
255
255
255
255
255
255
255
255
255
255
255
255
255
255
255
255
255
255
255
255
255
255
255
255
255
255
255
255
255
255
255
255
255
255
255
255
255
255
255
255
255
255
255
255
255
255
255
255
255
255
255
255
255
255
255
255
255
255
255
255
255
255
255
255
255
255
255
255
255
255
255
255
255
255
255
255
255
255
255
255
255
255
255
255
255
255
255
255
255
255
255
255
255
255
255
255
255
255
255
255
255
255
255
255
255
255
255
255
255
255
255
255
255
255
255
255
255
255
255
255
255
255
255
255
255
255
255
255
255
255
255
255
255
255
255
255
255
255
255
255
255
255
255
255
255
255
255
255
255
255
255
255
255
255
255
255
255
255
255
255
255
255
255
255
255
255
255
255
255
255
255
255
255
255
255
255
255
255
255
255
255
255
255
255
255
255
255
255
255
255
255
255
255
255
255
255
255
255
255
255
255
255
255
255
255
255
255
255
255
255
255
255
255
255
255
255
255
255
255
255
255
255
255
255
255
255
255
255
255
255
255
255
255
255
255
255
255
255
255
255
255
255
255
255
255
255
255
255
255
255
255
255
255
255
255
255
255
255
255
255
255
255
255
255
255
255
255
255
255
255
255
255
255
255
255
255
255
255
255
255
255
255
255
255
255
255
255
255
255
255
255
255
255
255
255
255
255
255
255
255
255
255
255
255
255
255
255
255
255
255
255
255
255
255
255
255
255
255
255
255
255
255
255
255
255
255
255
255
255
255
255
255
255
255
255
255
255
255
255
255
255
255
255
255
255
255
255
255
255
255
255
255
255
255
255
255
255
255
255
255
255
255
255
255
255
255
255
255
255
255
255
255
255
255
255
255
255
255
255
255
255
255
255
255
255
255
255
255
255
255
255
255
255
255
255
255
255
255
255
255
255
255
255
255
255
255
255
255
255
255
255
255
255
255
255
255
255
255
255
255
255
255
255
255
255
255
255
255
255
255
255
255
255
255
255
255
255
255
255
255
255
255
255
255
255
255
255
255
255
255
255
255
255
255
255
255
255
255
255
255
255
255
255
255
255
255
255
255
255
255
255
255
255
255
255
255
255
255
255
255
255
255
255
255
255
255
255
255
255
255
255
255
255
255
255
255
255
255
255
255
255
255
255
255
255
255
255
255
255
255
255
255
255
255
255
255
255
255
255
255
255
255
255
255
255
255
255
255
255
255
255
255
255
255
255
255
255
255
255
255
255
255
255
255
255
255
255
255
255
255
255
255
255
255
255
255
255
255
255
255
255
255
255
255
255
255
255
255
255
255
255
255
255
255
255
255
255
255
255
255
255
255
255
255
255
255
255
255
255
255
255
255
255
255
255
255
255
255
255
255
255
255
255
255
255
255
255
255
255
255
255
255
255
255
255
255
255
255
255
255
255
255
255
255
255
255
255
255
255
255
255
255
255
255
255
255
255
255
255
255
255
255
255
255
255
255
255
255
255
255
255
255
255
255
255
255
255
255
255
255
255
255
255
255
255
255
255
255
255
255
255
255
255
255
255
255
255
255
255
255
255
255
255
255
255
255
255
255
255
255
255
255
255
255
255
255
255
255
255
255
255
255
255
255
255
255
255
255
255
255
255
255
255
255
255
255
255
255
255
255
255
255
255
255
255
255
255
255
255
255
255
255
255
255
255
255
255
255
255
255
255
255
255
255
255
255
255
255
255
255
255
255
255
255
255
255
255
255
255
255
255
255
255
255
255
255
255
255
255
255
255
255
255
255
255
255
255
255
255
255
255
255
255
255
255
255
255
255
255
255
255
255
255
255
255
255
255
255
255
255
255
255
255
255
255
255
255
255
255
255
255
255
255
255
255
255
255
255
255
255
255
255
255
255
255
255
255
255
255
255
255
255
255
255
255
255
255
255
255
255
255
255
255
255
255
255
255
255
255
255
255
255
255
255
255
255
255
255
255
255
255
255
255
255
255
255
255
255
255
255
255
255
255
255
255
255
255
255
255
255
255
255
255
255
255
255
255
255
255
255
255
255
255
255
255
255
255
255
255
255
255
255
255
255
255
255
255
255
255
255
255
255
255
255
255
255
255
255
255
255
255
255
255
255
255
255
255
255
255
255
255
255
255
255
255
255
255
255
255
255
255
255
255
255
255
255
255
255
255
255
255
255
255
255
255
255
255
255
255
255
255
255
255
255
255
255
255
255
255
255
255
255
255
255
255
255
255
255
255
255
255
255
255
255
255
255
255
255
255
255
255
255
255
255
255
255
255
255
255
255
255
255
255
255
255
255
255
255
255
255
255
255
255
255
255
255
255
255
255
255
255
255
255
255
255
255
255
255
255
255
255
255
255
255
255
255
255
255
255
255
255
255
255
255
255
255
255
255
255
255
255
255
255
255
255
255
255
255
255
255
255
255
255
255
255
255
255
255
255
255
255
255
255
255
255
255
255
255
255
255
255
255
255
255
255
255
255
255
255
255
255
255
255
255
255
255
255
255
255
255
255
255
255
255
255
255
255
255
255
255
255
255
255
255
255
255
255
255
255
255
255
255
255
255
255
255
255
255
255
255
255
255
255
255
255
255
255
255
255
255
255
255
255
255
255
255
255
255
255
255
255
255
255
255
255
255
255
255
255
255
255
255
255
255
255
255
255
255
255
255
255
255
255
255
255
255
255
255
255
255
255
255
255
255
255
255
255
255
255
255
255
255
255
255
255
255
255
255
255
255
255
255
255
255
255
255
255
255
255
255
255
255
255
255
255
255
255
255
255
255
255
255
255
255
255
255
255
255
255
255
255
255
255
255
255
255
255
255
255
255
255
255
255
255
255
255
255
255
255
255
255
255
255
255
255
255
255
255
255
255
255
255
255
255
255
255
255
255
255
255
255
255
255
255
255
255
255
255
255
255
255
255
255
255
255
255
255
255
255
255
255
255
255
255
255
255
255
255
255
255
255
255
255
255
255
255
255
255
255
255
255
255
255
255
255
255
255
255
255
255
255
255
255
255
255
255
255
255
255
255
255
255
255
255
255
255
255
255
255
255
255
255
255
255
255
255
255
255
255
255
255
255
255
255
255
255
255
255
255
255
255
255
255
255
255
255
255
255
255
255
255
255
255
255
255
255
255
255
255
255
255
255
255
255
255
255
255
255
255
255
255
255
255
255
255
255
255
255
255
255
255
255
255
255
255
255
255
255
255
255
255
255
255
255
255
255
255
255
255
255
255
255
255
255
255
255
255
255
255
255
255
255
255
255
255
255
255
255
255
255
255
255
255
255
255
255
255
255
255
255
255
255
255
255
255
255
255
255
255
255
255
255
255
255
255
255
255
255
255
255
255
255
255
255
255
255
255
255
255
255
255
255
255
255
255
255
255
255
255
255
255
255
255
255
255
255
255
255
255
255
255
255
255
255
255
255
255
255
255
255
255
255
255
255
255
255
255
255
255
255
255
255
255
255
255
255
255
255
255
255
255
255
255
255
255
255
255
255
255
255
255
255
255
255
255
255
255
255
255
255
255
255
255
255
255
255
255
255
255
255
255
255
255
255
255
255
255
255
255
255
255
255
255
255
255
255
255
255
255
255
255
255
255
255
255
255
255
255
255
255
255
255
255
255
255
255
255
255
255
255
255
255
255
255
255
255
255
255
255
255
255
255
255
255
255
255
255
255
255
255
255
255
255
255
255
255
255
255
255
255
255
255
255
255
255
255
255
255
255
255
255
255
255
255
255
255
255
255
255
255
255
255
255
255
255
255
255
255
255
255
255
255
255
255
255
255
255
255
255
255
255
255
255
255
255
255
255
255
255
255
255
255
255
255
255
255
255
255
255
255
255
255
255
255
255
255
255
255
255
255
255
255
255
255
255
255
255
255
255
255
255
255
255
255
255
255
255
255
255
255
255
255
255
255
255
255
255
255
255
255
255
255
255
255
255
255
255
255
255
255
255
255
255
255
255
255
255
255
255
255
255
255
255
255
255
255
255
255
255
255
255
255
255
255
255
255
255
255
255
255
255
255
255
255
255
255
255
255
255
255
255
255
255
255
255
255
255
255
255
255
255
255
255
255
255
255
255
255
255
255
255
255
255
255
255
255
255
255
255
255
255
255
255
255
255
255
255
255
255
255
255
255
255
255
255
255
255
255
255
255
255
255
255
255
255
255
255
255
255
255
255
255
255
255
255
255
255
255
255
255
255
255
255
255
255
255
255
255
255
255
255
255
255
255
255
255
255
255
255
255
255
255
255
255
255
255
255
255
255
255
255
255
255
255
255
255
255
255
255
255
255
255
255
255
255
255
255
255
255
255
255
255
255
255
255
255
255
255
255
255
255
255
255
255
255
255
255
255
255
255
255
255
255
255
255
255
255
255
255
255
255
255
255
255
255
255
255
255
255
255
255
255
255
255
255
255
255
255
255
255
255
255
255
255
255
255
255
255
255
255
255
255
255
255
255
255
255
255
255
255
255
255
255
255
255
255
255
255
255
255
255
255
255
255
255
255
255
255
255
255
255
255
255
255
255
255
255
255
255
255
255
255
255
255
255
255
255
255
255
255
255
255
255
255
255
255
255
255
255
255
255
255
255
255
255
255
255
255
255
255
255
255
255
255
255
255
255
255
255
255
255
255
255
255
255
255
255
255
255
255
255
255
255
255
255
255
255
255
255
255
255
255
255
255
255
255
255
255
255
255
255
255
255
255
255
255
255
255
255
255
255
255
255
255
255
255
255
255
255
255
255
255
255
255
255
255
255
255
255
255
255
255
255
255
255
255
255
255
255
255
255
255
255
255
255
255
255
255
255
255
255
255
255
255
255
255
255
255
255
255
255
255
255
255
255
255
255
255
255
255
255
255
255
255
255
255
255
255
255
255
255
255
255
255
255
255
255
255
255
255
255
255
255
255
255
255
255
255
255
255
255
255
255
255
255
255
255
255
255
255
255
255
255
255
255
255
255
255
255
255
255
255
255
255
255
255
255
255
255
255
255
255
255
255
255
255
255
255
255
255
255
255
255
255
255
255
255
255
255
255
255
255
255
255
255
255
255
255
255
255
255
255
255
255
255
255
255
255
255
255
255
255
255
255
255
255
255
255
255
255
255
255
255
255
255
255
255
255
255
255
255
255
255
255
255
255
255
255
255
255
255
255
255
255
255
255
255
255
255
255
255
255
255
255
255
255
255
255
255
255
255
255
255
255
255
255
255
255
255
255
255
255
255
255
255
255
255
255
255
255
255
255
255
255
255
255
255
255
255
255
255
255
255
255
255
255
255
255
255
255
255
255
255
255
255
255
255
255
255
255
255
255
255
255
255
255
255
255
255
255
255
255
255
255
255
255
255
255
255
255
255
255
255
255
255
255
255
255
255
255
255
255
255
255
255
255
255
255
255
255
255
255
255
255
255
255
255
255
255
255
255
255
255
255
255
255
255
255
255
255
255
255
255
255
255
255
255
255
255
255
255
255
255
255
255
255
255
255
255
255
255
255
255
255
255
255
255
255
255
255
255
255
255
255
255
255
255
255
255
255
255
255
255
255
255
255
255
255
255
255
255
255
255
255
255
255
255
255
255
255
255
255
255
255
255
255
255
255
255
255
255
255
255
255
255
255
255
255
255
255
255
255
255
255
255
255
255
255
255
255
255
255
255
255
255
255
255
255
255
255
255
255
255
255
255
255
255
255
255
255
255
255
255
255
255
255
255
255
255
255
255
255
255
255
255
255
255
255
255
255
255
255
255
255
255
255
255
255
255
255
255
255
255
255
255
255
255
255
255
255
255
255
255
255
255
255
255
255
255
255
255
255
255
255
255
255
255
255
255
255
255
255
255
255
255
255
255
255
255
255
255
255
255
255
255
255
255
255
255
255
255
255
255
255
255
255
255
255
255
255
255
255
255
255
255
255
255
255
255
255
255
255
255
255
255
255
255
255
255
255
255
255
255
255
255
255
255
255
255
255
255
255
255
255
255
255
255
255
255
255
255
255
255
255
255
255
255
255
255
255
255
255
255
255
255
255
255
255
255
255
255
255
255
255
255
255
255
255
255
255
255
255
255
255
255
255
255
255
255
255
255
255
255
255
255
255
255
255
255
255
255
255
255
255
255
255
255
255
255
255
255
255
255
255
255
255
255
255
255
255
255
255
255
255
255
255
255
255
255
255
255
255
255
255
255
255
255
255
255
255
255
255
255
255
255
255
255
255
255
255
255
255
255
255
255
255
255
255
255
255
255
255
255
255
255
255
255
255
255
255
255
255
255
255
255
255
255
255
255
255
255
255
255
255
255
255
255
255
255
255
255
255
255
255
255
255
255
255
255
255
255
255
255
255
255
255
255
255
255
255
255
255
255
255
255
255
255
255
255
255
255
255
255
255
255
255
255
255
255
255
255
255
255
255
255
255
255
255
255
255
255
255
255
255
255
255
255
255
255
255
255
255
255
255
255
255
255
255
255
255
255
255
255
255
255
255
255
255
255
255
255
255
255
255
255
255
255
255
255
255
255
255
255
255
255
255
255
255
255
255
255
255
255
255
255
255
255
255
255
255
255
255
255
255
255
255
255
255
255
255
255
255
255
255
255
255
255
255
255
255
255
255
255
255
255
255
255
255
255
255
255
255
255
255
255
255
255
255
255
255
255
255
255
255
255
255
255
255
255
255
255
255
255
255
255
255
255
255
255
255
255
255
255
255
255
255
255
255
255
255
255
255
255
255
255
255
255
255
255
255
255
255
255
255
255
255
255
255
255
255
255
255
255
255
255
255
255
255
255
255
255
255
255
255
255
255
255
255
255
255
255
255
255
255
255
255
255
255
255
255
255
255
255
255
255
255
255
255
255
255
255
255
255
255
255
255
255
255
255
255
255
255
255
255
255
255
255
255
255
255
255
255
255
255
255
255
255
255
255
255
255
255
255
255
255
255
255
255
255
255
255
255
255
255
255
255
255
255
255
255
255
255
255
255
255
255
255
255
255
255
255
255
255
255
255
255
255
255
255
255
255
255
255
255
255
255
255
255
255
255
255
255
255
255
255
255
255
255
255
255
255
255
255
255
255
255
255
255
255
255
255
255
255
255
255
255
255
255
255
255
255
255
255
255
255
255
255
255
255
255
255
255
255
255
255
255
255
255
255
255
255
255
255
255
255
255
255
255
255
255
255
255
255
255
255
255
255
255
255
255
255
255
255
255
255
255
255
255
255
255
255
255
255
255
255
255
255
255
255
255
255
255
255
255
255
255
255
255
255
255
255
255
255
255
255
255
255
255
255
255
255
255
255
255
255
255
255
255
255
255
255
255
255
255
255
255
255
255
255
255
255
255
255
255
255
255
255
255
255
255
255
255
255
255
255
255
255
255
255
255
255
255
255
255
255
255
255
255
255
255
255
255
255
255
255
255
255
255
255
255
255
255
255
255
255
255
255
255
255
255
255
255
255
255
255
255
255
255
255
255
255
255
255
255
255
255
255
255
255
255
255
255
255
255
255
255
255
255
255
255
255
255
255
255
255
255
255
255
255
255
255
255
255
255
255
255
255
255
255
255
255
255
255
255
255
255
255
255
255
255
255
255
255
255
255
255
255
255
255
255
255
255
255
255
255
255
255
255
255
255
255
255
255
255
255
255
255
255
255
255
255
255
255
255
255
255
255
255
255
255
255
255
255
255
255
255
255
255
255
255
255
255
255
255
255
255
255
255
255
255
255
255
255
255
255
255
255
255
255
255
255
255
255
255
255
255
255
255
255
255
255
255
255
255
255
255
255
255
255
255
255
255
255
255
255
255
255
255
255
255
255
255
255
255
255
255
255
255
255
255
255
255
255
255
255
255
255
255
255
255
255
255
255
255
255
255
255
255
255
255
255
255
255
255
255
255
255
255
255
255
255
255
255
255
255
255
255
255
255
255
255
255
255
255
255
255
255
255
255
255
255
255
255
255
255
255
255
255
255
255
255
255
255
255
255
255
255
255
255
255
255
255
255
255
255
255
255
255
255
255
255
255
255
255
255
255
255
255
255
255
255
255
255
255
255
255
255
255
255
255
255
255
255
255
255
255
255
255
255
255
255
255
255
255
255
255
255
255
255
255
255
255
255
255
255
255
255
255
255
255
255
255
255
255
255
255
255
255
255
255
255
255
255
255
255
255
255
255
255
255
255
255
255
255
255
255
255
255
255
255
255
255
255
255
255
255
255
255
255
255
255
255
255
255
255
255
255
255
255
255
255
255
255
255
255
255
255
255
255
255
255
255
255
255
255
255
255
255
255
255
255
255
255
255
255
255
255
255
255
255
255
255
255
255
255
255
255
255
255
255
255
255
255
255
255
255
255
255
255
255
255
255
255
255
255
255
255
255
255
255
255
255
255
255
255
255
255
255
255
255
255
255
255
255
255
255
255
255
255
255
255
255
255
255
255
255
255
255
255
255
255
255
255
255
255
255
255
255
255
255
255
255
255
255
255
255
255
255
255
255
255
255
255
255
255
255
255
255
255
255
255
255
255
255
255
255
255
255
255
255
255
255
255
255
255
255
255
255
255
255
255
255
255
255
255
255
255
255
255
255
255
255
255
255
255
255
255
255
255
255
255
255
255
255
255
255
255
255
255
255
255
255
255
255
255
255
255
255
255
255
255
255
255
255
255
255
255
255
255
255
255
255
255
255
255
255
255
255
255
255
255
255
255
255
255
255
255
255
255
255
255
255
255
255
255
255
255
255
255
255
255
255
255
255
255
255
255
255
255
255
255
255
255
255
255
255
255
255
255
255
255
255
255
255
255
255
255
255
255
255
255
255
255
255
255
255
255
255
255
255
255
255
255
255
255
255
255
255
255
255
255
255
255
255
255
255
255
255
255
255
255
255
255
255
255
255
255
255
255
255
255
255
255
255
255
255
255
255
255
255
255
255
255
255
255
255
255
255
255
255
255
255
255
255
255
255
255
255
255
255
255
255
255
255
255
255
255
255
255
255
255
255
255
255
255
255
255
255
255
255
255
255
255
255
255
255
255
255
255
255
255
255
255
255
255
255
255
255
255
255
255
255
255
255
255
255
255
255
255
255
255
255
255
255
255
255
255
255
255
255
255
255
255
255
255
255
255
255
255
255
255
255
255
255
255
255
255
255
255
255
255
255
255
255
255
255
255
255
255
255
255
255
255
255
255
255
255
255
255
255
255
255
255
255
255
255
255
255
255
255
255
255
255
255
255
255
255
255
255
255
255
255
255
255
255
255
255
255
255
255
255
255
255
255
255
255
255
255
255
255
255
255
255
255
255
255
255
255
255
255
255
255
255
255
255
255
255
255
255
255
255
255
255
255
255
255
255
255
255
255
255
255
255
255
255
255
255
255
255
255
255
255
255
255
255
255
255
255
255
255
255
255
255
255
255
255
255
255
255
255
255
255
255
255
255
255
255
255
255
255
255
255
255
255
255
255
255
255
255
255
255
255
255
255
255
255
255
255
255
255
255
255
255
255
255
255
255
255
255
255
255
255
255
255
255
255
255
255
255
255
255
255
255
255
255
255
255
255
255
255
255
255
255
255
255
255
255
255
255
255
255
255
255
255
255
255
255
255
255
255
255
255
255
255
255
255
255
255
255
255
255
255
255
255
255
255
255
255
255
255
255
255
255
255
255
255
255
255
255
255
255
255
255
255
255
255
255
255
255
255
255
255
255
255
255
255
255
255
255
255
255
255
255
255
255
255
255
255
255
255
255
255
255
255
255
255
255
255
255
255
255
255
255
255
255
255
255
255
255
255
255
255
255
255
255
255
255
255
255
255
255
255
255
255
255
255
255
255
255
255
255
255
255
255
255
255
255
255
255
255
255
255
255
255
255
255
255
255
255
255
255
255
255
255
255
255
255
255
255
255
255
255
255
255
255
255
255
255
255
255
255
255
255
255
255
255
255
255
255
255
255
255
255
255
255
255
255
255
255
255
255
255
255
255
255
255
255
255
255
255
255
255
255
255
255
255
255
255
255
255
255
255
255
255
255
255
255
255
255
255
255
255
255
255
255
255
255
255
255
255
255
255
255
255
255
255
255
255
255
255
255
255
255
255
255
255
255
255
255
255
255
255
255
255
255
255
255
255
255
255
255
255
255
255
255
255
255
255
255
255
255
255
255
255
255
255
255
255
255
255
255
255
255
255
255
255
255
255
255
255
255
255
255
255
255
255
255
255
255
255
255
255
255
255
255
255
255
255
255
255
255
255
255
255
255
255
255
255
255
255
255
255
255
255
255
255
255
255
255
255
255
255
255
255
255
255
255
255
255
255
255
255
255
255
255
255
255
255
255
255
255
255
255
255
255
255
255
255
255
255
255
255
255
255
255
255
255
255
255
255
255
255
255
255
255
255
255
255
255
255
255
255
255
255
255
255
255
255
255
255
255
255
255
255
255
255
255
255
255
255
255
255
255
255
255
255
255
255
255
255
255
255
255
255
255
255
255
255
255
255
255
255
255
255
255
255
255
255
255
255
255
255
255
255
255
255
255
255
255
255
255
255
255
255
255
255
255
255
255
255
255
255
255
255
255
255
255
255
255
255
255
255
255
255
255
255
255
255
255
255
255
255
255
255
255
255
255
255
255
255
255
255
255
255
255
255
255
255
255
255
255
255
255
255
255
255
255
255
255
255
255
255
255
255
255
255
255
255
255
255
255
255
255
255
255
255
255
255
255
255
255
255
255
255
255
255
255
255
255
255
255
255
255
255
255
255
255
255
255
255
255
255
255
255
255
255
255
255
255
255
255
255
255
255
255
255
255
255
255
255
255
255
255
255
255
255
255
255
255
255
255
255
255
255
255
255
255
255
255
255
255
255
255
255
255
255
255
255
255
255
255
255
255
255
255
255
255
255
255
255
255
255
255
255
255
255
255
255
255
255
255
255
255
255
255
255
255
255
255
255
255
255
255
255
255
255
255
255
255
255
255
255
255
255
255
255
255
255
255
255
255
255
255
255
255
255
255
255
255
255
255
255
255
255
255
255
255
255
255
255
255
255
255
255
255
255
255
255
255
255
255
255
255
255
255
255
255
255
255
255
255
255
255
255
255
255
255
255
255
255
255
255
255
255
255
255
255
255
255
255
255
255
255
255
255
255
255
255
255
255
255
255
255
255
255
255
255
255
255
255
255
255
255
255
255
255
255
255
255
255
255
255
255
255
255
255
255
255
255
255
255
255
255
255
255
255
255
255
255
255
255
255
255
255
255
255
255
255
255
255
255
255
255
255
255
255
255
255
255
255
255
255
255
255
255
255
255
255
255
255
255
255
255
255
255
255
255
255
255
255
255
255
255
255
255
255
255
255
255
255
255
255
255
255
255
255
255
255
255
255
255
255
255
255
255
255
255
255
255
255
255
255
255
255
255
255
255
255
255
255
255
255
255
255
255
255
255
255
255
255
255
255
255
255
255
255
255
255
255
255
255
255
255
255
255
255
255
255
255
255
255
255
255
255
255
255
255
255
255
255
255
255
255
255
255
255
255
255
255
255
255
255
255
255
255
255
255
255
255
255
255
255
255
255
255
255
255
255
255
255
255
255
255
255
255
255
255
255
255
255
255
255
255
255
255
255
255
255
255
255
255
255
255
255
255
255
255
255
255
255
255
255
255
255
255
255
255
255
255
255
255
255
255
255
255
255
255
255
255
255
255
255
255
255
255
255
255
255
255
255
255
255
255
255
255
255
255
255
255
255
255
255
255
255
255
255
255
255
255
255
255
255
255
255
255
255
255
255
255
255
255
255
255
255
255
255
255
255
255
255
255
255
255
255
255
255
255
255
255
255
255
255
255
255
255
255
255
255
255
255
255
255
255
255
255
255
255
255
255
255
255
255
255
255
255
255
255
255
255
255
255
255
255
255
255
255
255
255
255
255
255
255
255
255
255
255
255
255
255
255
255
255
255
255
255
255
255
255
255
255
255
255
255
255
255
255
255
255
255
255
255
255
255
255
255
255
255
255
255
255
255
255
255
255
255
255
255
255
255
255
255
255
255
255
255
255
255
255
255
255
255
255
255
255
255
255
255
255
255
255
255
255
255
255
255
255
255
255
255
255
255
255
255
255
255
255
255
255
255
255
255
255
255
255
255
255
255
255
255
255
255
255
255
255
255
255
255
255
255
255
255
255
255
255
255
255
255
255
255
255
255
255
255
255
255
255
255
255
255
255
255
255
255
255
255
255
255
255
255
255
255
255
255
255
255
255
255
255
255
255
255
255
255
255
255
255
255
255
255
255
255
255
255
255
255
255
255
255
255
255
255
255
255
255
255
255
255
255
255
255
255
255
255
255
255
255
255
255
255
255
255
255
255
255
255
255
255
255
255
255
255
255
255
255
255
255
255
255
255
255
255
255
255
255
255
255
255
255
255
255
255
255
255
255
255
255
255
255
255
255
255
255
255
255
255
255
255
255
255
255
255
255
255
255
255
255
255
255
255
255
255
255
255
255
255
255
255
255
255
255
255
255
255
255
255
255
255
255
255
255
255
255
255
255
255
255
255
255
255
255
255
255
255
255
255
255
255
255
255
255
255
255
255
255
255
255
255
255
255
255
255
255
255
255
255
255
255
255
255
255
255
255
255
255
255
255
255
255
255
255
255
255
255
255
255
255
255
255
255
255
255
255
255
255
255
255
255
255
255
255
255
255
255
255
255
255
255
255
255
255
255
255
255
255
255
255
255
255
255
255
255
255
255
255
255
255
255
255
255
255
255
255
255
255
255
255
255
255
255
255
255
255
255
255
255
255
255
255
255
255
255
255
255
255
255
255
255
255
255
255
255
255
255
255
255
255
255
255
255
255
255
255
255
255
255
255
255
255
255
255
255
255
255
255
255
255
255
255
255
255
255
255
255
255
255
255
255
255
255
255
255
255
255
255
255
255
255
255
255
255
255
255
255
255
255
255
255
255
255
255
255
255
255
255
255
255
255
255
255
255
255
255
255
255
255
255
255
255
255
255
255
255
255
255
255
255
255
255
255
255
255
255
255
255
255
255
255
255
255
255
255
255
255
255
255
255
255
255
255
255
255
255
255
255
255
255
255
255
255
255
255
255
255
255
255
255
255
255
255
255
255
255
255
255
255
255
255
255
255
255
255
255
255
255
255
255
255
255
255
255
255
255
255
255
255
255
255
255
255
255
255
255
255
255
255
255
255
255
255
255
255
255
255
255
255
255
255
255
255
255
255
255
255
255
255
255
255
255
255
255
255
255
255
255
255
255
255
255
255
255
255
255
255
255
255
255
255
255
255
255
255
255
255
255
255
255
255
255
255
255
255
255
255
255
255
255
255
255
255
255
255
255
255
255
255
255
255
255
255
255
255
255
255
255
255
255
255
255
255
255
255
255
255
255
255
255
255
255
255
255
255
255
255
255
255
255
255
255
255
255
255
255
255
255
255
255
255
255
255
255
255
255
255
255
255
255
255
255
255
255
255
255
255
255
255
255
255
255
255
255
255
255
255
255
255
255
255
255
255
255
255
255
255
255
255
255
255
255
255
255
255
255
255
255
255
255
255
255
255
255
255
255
255
255
255
255
255
255
255
255
255
255
255
255
255
255
255
255
255
255
255
255
255
255
255
255
255
255
255
255
255
255
255
255
255
255
255
255
255
255
255
255
255
255
255
255
255
255
255
255
255
255
255
255
255
255
255
255
255
255
255
255
255
255
255
255
255
255
255
255
255
255
255
255
255
255
255
255
255
255
255
255
255
255
255
255
255
255
255
255
255
255
255
255
255
255
255
255
255
255
255
255
255
255
255
255
255
255
255
255
255
255
255
255
255
255
255
255
255
255
255
255
255
255
255
255
255
255
255
255
255
255
255
255
255
255
255
255
255
255
255
255
255
255
255
255
255
255
255
255
255
255
255
255
255
255
255
255
255
255
255
255
255
255
255
255
255
255
255
255
255
255
255
255
255
255
255
255
255
255
255
255
255
255
255
255
255
255
255
255
255
255
255
255
255
255
255
255
255
255
255
255
255
255
255
255
255
255
255
255
255
255
255
255
255
255
255
255
255
255
255
255
255
255
255
255
255
255
255
255
255
255
255
255
255
255
255
255
255
255
255
255
255
255
255
255
255
255
255
255
255
255
255
255
255
255
255
255
255
255
255
255
255
255
255
255
255
255
255
255
255
255
255
255
255
255
255
255
255
255
255
255
255
255
255
255
255
255
255
255
255
255
255
255
255
255
255
255
255
255
255
255
255
255
255
255
255
255
255
255
255
255
255
255
255
255
255
255
255
255
255
255
255
255
255
255
255
255
255
255
255
255
255
255
255
255
255
255
255
255
255
255
255
255
255
255
255
255
255
255
255
255
255
255
255
255
255
255
255
255
255
255
255
255
255
255
255
255
255
255
255
255
255
255
255
255
255
255
255
255
255
255
255
255
255
255
255
255
255
255
255
255
255
255
255
255
255
255
255
255
255
255
255
255
255
255
255
255
255
255
255
255
255
255
255
255
255
255
255
255
255
255
255
255
255
255
255
255
255
255
255
255
255
255
255
255
255
255
255
255
255
255
255
255
255
255
255
255
255
255
255
255
255
255
255
255
255
255
255
255
255
255
255
255
255
255
255
255
255
255
255
255
255
255
255
255
255
255
255
255
255
255
255
255
255
255
255
255
255
255
255
255
255
255
255
255
255
255
255
255
255
255
255
255
255
255
255
255
255
255
255
255
255
255
255
255
255
255
255
255
255
255
255
255
255
255
255
255
255
255
255
255
255
255
255
255
255
255
255
255
255
255
255
255
255
255
255
255
255
255
255
255
255
255
255
255
255
255
255
255
255
255
255
255
255
255
255
255
255
255
255
255
255
255
255
255
255
255
255
255
255
255
255
255
255
255
255
255
255
255
255
255
255
255
255
255
255
255
255
255
255
255
255
255
255
255
255
255
255
255
255
255
255
255
255
255
255
255
255
255
255
255
255
255
255
255
255
255
255
255
255
255
255
255
255
255
255
255
255
255
255
255
255
255
255
255
255
255
255
255
255
255
255
255
255
255
255
255
255
255
255
255
255
255
255
255
255
255
255
255
255
255
255
255
255
255
255
255
255
255
255
255
255
255
255
255
255
255
255
255
255
255
255
255
255
255
255
255
255
255
255
255
255
255
255
255
255
255
255
255
255
255
255
255
255
255
255
255
255
255
255
255
255
255
255
255
255
255
255
255
255
255
255
255
255
255
255
255
255
255
255
255
255
255
255
255
255
255
255
255
255
255
255
255
255
255
255
255
255
255
255
255
255
255
255
255
255
255
255
255
255
255
255
255
255
255
255
255
255
255
255
255
255
255
255
255
255
255
255
255
255
255
255
255
255
255
255
255
255
255
255
255
255
255
255
255
255
255
255
255
255
255
255
255
255
255
255
255
255
255
255
255
255
255
255
255
255
255
255
255
255
255
255
255
255
255
255
255
255
255
255
255
255
255
255
255
255
255
255
255
255
255
255
255
255
255
255
255
255
255
255
255
255
255
255
255
255
255
255
255
255
255
255
255
255
255
255
255
255
255
255
255
255
255
255
255
255
255
255
255
255
255
255
255
255
255
255
255
255
255
255
255
255
255
255
255
255
255
255
255
255
255
255
255
255
255
255
255
255
255
255
255
255
255
255
255
255
255
255
255
255
255
255
255
255
255
255
255
255
255
255
255
255
255
255
255
255
255
255
255
255
255
255
255
255
255
255
255
255
255
255
255
255
255
255
255
255
255
255
255
255
255
255
255
255
255
255
255
255
255
255
255
255
255
255
255
255
255
255
255
255
255
255
255
255
255
255
255
255
255
255
255
255
255
255
255
255
255
255
255
255
255
255
255
255
255
255
255
255
255
255
255
255
255
255
255
255
255
255
255
255
255
255
255
255
255
255
255
255
255
255
255
255
255
255
255
255
255
255
255
255
255
255
255
255
255
255
255
255
255
255
255
255
255
255
255
255
255
255
255
255
255
255
255
255
255
255
255
255
255
255
255
255
255
255
255
255
255
255
255
255
255
255
255
255
255
255
255
255
255
255
255
255
255
255
255
255
255
255
255
255
255
255
255
255
255
255
255
255
255
255
255
255
255
255
255
255
255
255
255
255
255
255
255
255
255
255
255
255
255
255
255
255
255
255
255
255
255
255
255
255
255
255
255
255
255
255
255
255
255
255
255
255
255
255
255
255
255
255
255
255
255
255
255
255
255
255
255
255
255
255
255
255
255
255
255
255
255
255
255
255
255
255
255
255
255
255
255
255
255
255
255
255
255
255
255
255
255
255
255
255
255
255
255
255
255
255
255
255
255
255
255
255
255
255
255
255
255
255
255
255
255
255
255
255
255
255
255
255
255
255
255
255
255
255
255
255
255
255
255
255
255
255
255
255
255
255
255
255
255
255
255
255
255
255
255
255
255
255
255
255
255
255
255
255
255
255
255
255
255
255
255
255
255
255
255
255
255
255
255
255
255
255
255
255
255
255
255
255
255
255
255
255
255
255
255
255
255
255
255
255
255
255
255
255
255
255
255
255
255
255
255
255
255
255
255
255
255
255
255
255
255
255
255
255
255
255
255
255
255
255
255
255
255
255
255
255
255
255
255
255
255
255
255
255
255
255
255
255
255
255
255
255
255
255
255
255
255
255
255
255
255
255
255
255
255
255
255
255
255
255
255
255
255
255
255
255
255
255
255
255
255
255
255
255
255
255
255
255
255
255
255
255
255
255
255
255
255
255
255
255
255
255
255
255
255
255
255
255
255
255
255
255
255
255
255
255
255
255
255
255
255
255
255
255
255
255
255
255
255
255
255
255
255
255
255
255
255
255
255
255
255
255
255
255
255
255
255
255
255
255
255
255
255
255
255
255
255
255
255
255
255
255
255
255
255
255
255
255
255
255
255
255
255
255
255
255
255
255
255
255
255
255
255
255
255
255
255
255
255
255
255
255
255
255
255
255
255
255
255
255
255
255
255
255
255
255
255
255
255
255
255
255
255
255
255
255
255
255
255
255
255
255
255
255
255
255
255
255
255
255
255
255
255
255
255
255
255
255
255
255
255
255
255
255
255
255
255
255
255
255
255
255
255
255
255
255
255
255
255
255
255
255
255
255
255
255
255
255
255
255
255
255
255
255
255
255
255
255
255
255
255
255
255
255
255
255
255
255
255
255
255
255
255
255
255
255
255
255
255
255
255
255
255
255
255
255
255
255
255
255
255
255
255
255
255
255
255
255
255
255
255
255
255
255
255
255
255
255
255
255
255
255
255
255
255
255
255
255
255
255
255
255
255
255
255
255
255
255
255
255
255
255
255
255
255
255
255
255
255
255
255
255
255
255
255
255
255
255
255
255
255
255
255
255
255
255
255
255
255
255
255
255
255
255
255
255
255
255
255
255
255
255
255
255
255
255
255
255
255
255
255
255
255
255
255
255
255
255
255
255
255
255
255
255
255
255
255
255
255
255
255
255
255
255
255
255
255
255
255
255
255
255
255
255
255
255
255
255
255
255
255
255
255
255
255
255
255
255
255
255
255
255
255
255
255
255
255
255
255
255
255
255
255
255
255
255
255
255
255
255
255
255
255
255
255
255
255
255
255
255
255
255
255
255
255
255
255
255
255
255
255
255
255
255
255
255
255
255
255
255
255
255
255
255
255
255
255
255
255
255
255
255
255
255
255
255
255
255
255
255
255
255
255
255
255
255
255
255
255
255
255
255
255
255
255
255
255
255
255
255
255
255
255
255
255
255
255
255
255
255
255
255
255
255
255
255
255
255
255
255
255
255
255
255
255
255
255
255
255
255
255
255
255
255
255
255
255
255
255
255
255
255
255
255
255
255
255
255
255
255
255
255
255
255
255
255
255
255
255
255
255
255
255
255
255
255
255
255
255
255
255
255
255
255
255
255
255
255
255
255
255
255
255
255
255
255
255
255
255
255
255
255
255
255
255
255
255
255
255
255
255
255
255
255
255
255
255
255
255
255
255
255
255
255
255
255
255
255
255
255
255
255
255
255
255
255
255
255
255
255
255
255
255
255
255
255
255
255
255
255
255
255
255
255
255
255
255
255
255
255
255
255
255
255
255
255
255
255
255
255
255
255
255
255
255
255
255
255
255
255
255
255
255
255
255
255
255
255
255
255
255
255
255
255
255
255
255
255
255
255
255
255
255
255
255
255
255
255
255
255
255
255
255
255
255
255
255
255
255
255
255
255
255
255
255
255
255
255
255
255
255
255
255
255
255
255
255
255
255
255
255
255
255
255
255
255
255
255
255
255
255
255
255
255
255
255
255
255
255
255
255
255
255
255
255
255
255
255
255
255
255
255
255
255
255
255
255
255
255
255
255
255
255
255
255
255
255
255
255
255
255
255
255
255
255
255
255
255
255
255
255
255
255
255
255
255
255
255
255
255
255
255
255
255
255
255
255
255
255
255
255
255
255
255
255
255
255
255
255
255
255
255
255
255
255
255
255
255
255
255
255
255
255
255
255
255
255
255
255
255
255
255
255
255
255
255
255
255
255
255
255
255
255
255
255
255
255
255
255
255
255
255
255
255
255
255
255
255
255
255
255
255
255
255
255
255
255
255
255
255
255
255
255
255
255
255
255
255
255
255
255
255
255
255
255
255
255
255
255
255
255
255
255
255
255
255
255
255
255
255
255
255
255
255
255
255
255
255
255
255
255
255
255
255
255
255
255
255
255
255
255
255
255
255
255
255
255
255
255
255
255
255
255
255
255
255
255
255
255
255
255
255
255
255
255
255
255
255
255
255
255
255
255
255
255
255
255
255
255
255
255
255
255
255
255
255
255
255
255
255
255
255
255
255
255
255
255
255
255
255
255
255
255
255
255
255
255
255
255
255
255
255
255
255
255
255
255
255
255
255
255
255
255
255
255
255
255
255
255
255
255
255
255
255
255
255
255
255
255
255
255
255
255
255
255
255
255
255
255
255
255
255
255
255
255
255
255
255
255
255
255
255
255
255
255
255
255
255
255
255
255
255
255
255
255
255
255
255
255
255
255
255
255
255
255
255
255
255
255
255
255
255
255
255
255
255
255
255
255
255
255
255
255
255
255
255
255
255
255
255
255
255
255
255
255
255
255
255
255
255
255
255
255
255
255
255
255
255
255
255
255
255
255
255
255
255
255
255
255
255
255
255
255
255
255
255
255
255
255
255
255
255
255
255
255
255
255
255
255
255
255
255
255
255
255
255
255
255
255
255
255
255
255
255
255
255
255
255
255
255
255
255
255
255
255
255
255
255
255
255
255
255
255
255
255
255
255
255
255
255
255
255
255
255
255
255
255
255
255
255
255
255
255
255
255
255
255
255
255
255
255
255
255
255
255
255
255
255
255
255
255
255
255
255
255
255
255
255
255
255
255
255
255
255
255
255
255
255
255
255
255
255
255
255
255
255
255
255
255
255
255
255
255
255
255
255
255
255
255
255
255
255
255
255
255
255
255
255
255
255
255
255
255
255
255
255
255
255
255
255
255
255
255
255
255
255
255
255
255
255
255
255
255
255
255
255
255
255
255
255
255
255
255
255
255
255
255
255
255
255
255
255
255
255
255
255
255
255
255
255
255
255
255
255
255
255
255
255
255
255
255
255
255
255
255
255
255
255
255
255
255
255
255
255
255
255
255
255
255
255
255
255
255
255
255
255
255
255
255
255
255
255
255
255
255
255
255
255
255
255
255
255
255
255
255
255
255
255
255
255
255
255
255
255
255
255
255
255
255
255
255
255
255
255
255
255
255
255
255
255
255
255
255
255
255
255
255
255
255
255
255
255
255
255
255
255
255
255
255
255
255
255
255
255
255
255
255
255
255
255
255
255
255
255
255
255
255
255
255
255
255
255
255
255
255
255
255
255
255
255
255
255
255
255
255
255
255
255
255
255
255
255
255
255
255
255
255
255
255
255
255
255
255
255
255
255
255
255
255
255
255
255
255
255
255
255
255
255
255
255
255
255
255
255
255
255
255
255
255
255
255
255
255
255
255
255
255
255
255
255
255
255
255
255
255
255
255
255
255
255
255
255
255
255
255
255
255
255
255
255
255
255
255
255
255
255
255
255
255
255
255
255
255
255
255
255
255
255
255
255
255
255
255
255
255
255
255
255
255
255
255
255
255
255
255
255
255
255
255
255
255
255
255
255
255
255
255
255
255
255
255
255
255
255
255
255
255
255
255
255
255
255
255
255
255
255
255
255
255
255
255
255
255
255
255
255
255
255
255
255
255
255
255
255
255
255
255
255
255
255
255
255
255
255
255
255
255
255
255
255
255
255
255
255
255
255
255
255
255
255
255
255
255
255
255
255
255
255
255
255
255
255
255
255
255
255
255
255
255
255
255
255
255
255
255
255
255
255
255
255
255
255
255
255
255
255
255
255
255
255
255
255
255
255
255
255
255
255
255
255
255
255
255
255
255
255
255
255
255
255
255
255
255
255
255
255
255
255
255
255
255
255
255
255
255
255
255
255
255
255
255
255
255
255
255
255
255
255
255
255
255
255
255
255
255
255
255
255
255
255
255
255
255
255
255
255
255
255
255
255
255
255
255
255
255
255
255
255
255
255
255
255
255
255
255
255
255
255
255
255
255
255
255
255
255
255
255
255
255
255
255
255
255
255
255
255
255
255
255
255
255
255
255
255
255
255
255
255
255
255
255
255
255
255
255
255
255
255
255
255
255
255
255
255
255
255
255
255
255
255
255
255
255
255
255
255
255
255
255
255
255
255
255
255
255
255
255
255
255
255
255
255
255
255
255
255
255
255
255
255
255
255
255
255
255
255
255
255
255
255
255
255
255
255
255
255
255
255
255
255
255
255
255
255
255
255
255
255
255
255
255
255
255
255
255
255
255
255
255
255
255
255
255
255
255
255
255
255
255
255
255
255
255
255
255
255
255
255
255
255
255
255
255
255
255
255
255
255
255
255
255
255
255
255
255
255
255
255
255
255
255
255
255
255
255
255
255
255
255
255
255
255
255
255
255
255
255
255
255
255
255
255
255
255
255
255
255
255
255
255
255
255
255
255
255
255
255
255
255
255
255
255
255
255
255
255
255
255
255
255
255
255
255
255
255
255
255
255
255
255
255
255
255
255
255
255
255
255
255
255
255
255
255
255
255
255
255
255
255
255
255
255
255
255
255
255
255
255
255
255
255
255
255
255
255
255
255
255
255
255
255
255
255
255
255
255
255
255
255
255
255
255
255
255
255
255
255
255
255
255
255
255
255
255
255
255
255
255
255
255
255
255
255
255
255
255
255
255
255
255
255
255
255
255
255
255
255
255
255
255
255
255
255
255
255
255
255
255
255
255
255
255
255
255
255
255
255
255
255
255
255
255
255
255
255
255
255
255
255
255
255
255
255
255
255
255
255
255
255
255
255
255
255
255
255
255
255
255
255
255
255
255
255
255
255
255
255
255
255
255
255
255
255
255
255
255
255
255
255
255
255
255
255
255
255
255
255
255
255
255
255
255
255
255
255
255
255
255
255
255
255
255
255
255
255
255
255
255
255
255
255
255
255
255
255
255
255
255
255
255
255
255
255
255
255
255
255
255
255
255
255
255
255
255
255
255
255
255
255
255
255
255
255
255
255
255
255
255
255
255
255
255
255
255
255
255
255
255
255
255
255
255
255
255
255
255
255
255
255
255
255
255
255
255
255
255
255
255
255
255
255
255
255
255
255
255
255
255
255
255
255
255
255
255
255
255
255
255
255
255
255
255
255
255
255
255
255
255
255
255
255
255
255
255
255
255
255
255
255
255
255
255
255
255
255
255
255
255
255
255
255
255
255
255
255
255
255
255
255
255
255
255
255
255
255
255
255
255
255
255
255
255
255
255
255
255
255
255
255
255
255
255
255
255
255
255
255
255
255
255
255
255
255
255
255
255
255
255
255
255
255
255
255
255
255
255
255
255
255
255
255
255
255
255
255
255
255
255
255
255
255
255
255
255
255
255
255
255
255
255
255
255
255
255
255
255
255
255
255
255
255
255
255
255
255
255
255
255
255
255
255
255
255
255
255
255
255
255
255
255
255
255
255
255
255
255
255
255
255
255
255
255
255
255
255
255
255
255
255
255
255
255
255
255
255
255
255
255
255
255
255
255
255
255
255
255
255
255
255
255
255
255
255
255
255
255
255
255
255
255
255
255
255
255
255
255
255
255
255
255
255
255
255
255
255
255
255
255
255
255
255
255
255
255
255
255
255
255
255
255
255
255
255
255
255
255
255
255
255
255
255
255
255
255
255
255
255
255
255
255
255
255
255
255
255
255
255
255
255
255
255
255
255
255
255
255
255
255
255
255
255
255
255
255
255
255
255
255
255
255
255
255
255
255
255
255
255
255
255
255
255
255
255
255
255
255
255
255
255
255
255
255
255
255
255
255
255
255
255
255
255
255
255
255
255
255
255
255
255
255
255
255
255
255
255
255
255
255
255
255
255
255
255
255
255
255
255
255
255
255
255
255
255
255
255
255
255
255
255
255
255
255
255
255
255
255
255
255
255
255
255
255
255
255
255
255
255
255
255
255
255
255
255
255
255
255
255
255
255
255
255
255
255
255
255
255
255
255
255
255
255
255
255
255
255
255
255
255
255
255
255
255
255
255
255
255
255
255
255
255
255
255
255
255
255
255
255
255
255
255
255
255
255
255
255
255
255
255
255
255
255
255
255
255
255
255
255
255
255
255
255
255
255
255
255
255
255
255
255
255
255
255
255
255
255
255
255
255
255
255
255
255
255
255
255
255
255
255
255
255
255
255
255
255
255
255
255
255
255
255
255
255
255
255
255
255
255
255
255
255
255
255
255
255
255
255
255
255
255
255
255
255
255
255
255
255
255
255
255
255
255
255
255
255
255
255
255
255
255
255
255
255
255
255
255
255
255
255
255
255
255
255
255
255
255
255
255
255
255
255
255
255
255
255
255
255
255
255
255
255
255
255
255
255
255
255
255
255
255
255
255
255
255
255
255
255
255
255
255
255
255
255
255
255
255
255
255
255
255
255
255
255
255
255
255
255
255
255
255
255
255
255
255
255
255
255
255
255
255
255
255
255
255
255
255
255
255
255
255
255
255
255
255
255
255
255
255
255
255
255
255
255
255
255
255
255
255
255
255
255
255
255
255
255
255
255
255
255
255
255
255
255
255
255
255
255
255
255
255
255
255
255
255
255
255
255
255
255
255
255
255
255
255
255
255
255
255
255
255
255
255
255
255
255
255
255
255
255
255
255
255
255
255
255
255
255
255
255
255
255
255
255
255
255
255
255
255
255
255
255
255
255
255
255
255
255
255
255
255
255
255
255
255
255
255
255
255
255
255
255
255
255
255
255
255
255
255
255
255
255
255
255
255
255
255
255
255
255
255
255
255
255
255
255
255
255
255
255
255
255
255
255
255
255
255
255
255
255
255
255
255
255
255
255
255
255
255
255
255
255
255
255
255
255
255
255
255
255
255
255
255
255
255
255
255
255
255
255
255
255
255
255
255
255
255
255
255
255
255
255
255
255
255
255
255
255
255
255
255
255
255
255
255
255
255
255
255
255
255
255
255
255
255
255
255
255
255
255
255
255
255
255
255
255
255
255
255
255
255
255
255
255
255
255
255
255
255
255
255
255
255
255
255
255
255
255
255
255
255
255
255
255
255
255
255
255
255
255
255
255
255
255
255
255
255
255
255
255
255
255
255
255
255
255
255
255
255
255
255
255
255
255
255
255
255
255
255
255
255
255
255
255
255
255
255
255
255
255
255
255
255
255
255
255
255
255
255
255
255
255
255
255
255
255
255
255
255
255
255
255
255
255
255
255
255
255
255
255
255
255
255
255
255
255
255
255
255
255
255
255
255
255
255
255
255
255
255
255
255
255
255
255
255
255
255
255
255
255
255
255
255
255
255
255
255
255
255
255
255
255
255
255
255
255
255
255
255
255
255
255
255
255
255
255
255
255
255
255
255
255
255
255
255
255
255
255
255
255
255
255
255
255
255
255
255
255
255
255
255
255
255
255
255
255
255
255
255
255
255
255
255
255
255
255
255
255
255
255
255
255
255
255
255
255
255
255
255
255
255
255
255
255
255
255
255
255
255
255
255
255
255
255
255
255
255
255
255
255
255
255
255
255
255
255
255
255
255
255
255
255
255
255
255
255
255
255
255
255
255
255
255
255
255
255
255
255
255
255
255
255
255
255
255
255
255
255
255
255
255
255
255
255
255
255
255
255
255
255
255
255
255
255
255
255
255
255
255
255
255
255
255
255
255
255
255
255
255
255
255
255
255
255
255
255
255
255
255
255
255
255
255
255
255
255
255
255
255
255
255
255
255
255
255
255
255
255
255
255
255
255
255
255
255
255
255
255
255
255
255
255
255
255
255
255
255
255
255
255
255
255
255
255
255
255
255
255
255
255
255
255
255
255
255
255
255
255
255
255
255
255
255
255
255
255
255
255
255
255
255
255
255
255
255
255
255
255
255
255
255
255
255
255
255
255
255
255
255
255
255
255
255
255
255
255
255
255
255
255
255
255
255
255
255
255
255
255
255
255
255
255
255
255
255
255
255
255
255
255
255
255
255
255
255
255
255
255
255
255
255
255
255
255
255
255
255
255
255
255
255
255
255
255
255
255
255
255
255
255
255
255
255
255
255
255
255
255
255
255
255
255
255
255
255
255
255
255
255
255
255
255
255
255
255
255
255
255
255
255
255
255
255
255
255
255
255
255
255
255
255
255
255
255
255
255
255
255
255
255
255
255
255
255
255
255
255
255
255
255
255
255
255
255
255
255
255
255
255
255
255
255
255
255
255
255
255
255
255
255
255
255
255
255
255
255
255
255
255
255
255
255
255
255
255
255
255
255
255
255
255
255
255
255
255
255
255
255
255
255
255
255
255
255
255
255
255
255
255
255
255
255
255
255
255
255
255
255
255
255
255
255
255
255
255
255
255
255
255
255
255
255
255
255
255
255
255
255
255
255
255
255
255
255
255
255
255
255
255
255
255
255
255
255
255
255
255
255
255
255
255
255
255
255
255
255
255
255
255
255
255
255
255
255
255
255
255
255
255
255
255
255
255
255
255
255
255
255
255
255
255
255
255
255
255
255
255
255
255
255
255
255
255
255
255
255
255
255
255
255
255
255
255
255
255
255
255
255
255
255
255
255
255
255
255
255
255
255
255
255
255
255
255
255
255
255
255
255
255
255
255
255
255
255
255
255
255
255
255
255
255
255
255
255
255
255
255
255
255
255
255
255
255
255
255
255
255
255
255
255
255
255
255
255
255
255
255
255
255
255
255
255
255
255
255
255
255
255
255
255
255
255
255
255
255
255
255
255
255
255
255
255
255
255
255
255
255
255
255
255
255
255
255
255
255
255
255
255
255
255
255
255
255
255
255
255
255
255
255
255
255
255
255
255
255
255
255
255
255
255
255
255
255
255
255
255
255
255
255
255
255
255
255
255
255
255
255
255
255
255
255
255
255
255
255
255
255
255
255
255
255
255
255
255
255
255
255
255
255
255
255
255
255
255
255
255
255
255
255
255
255
255
255
255
255
255
255
255
255
255
255
255
255
255
255
255
255
255
255
255
255
255
255
255
255
255
255
255
255
255
255
255
255
255
255
255
255
255
255
255
255
255
255
255
255
255
255
255
255
255
255
255
255
255
255
255
255
255
255
255
255
255
255
255
255
255
255
255
255
255
255
255
255
255
255
255
255
255
255
255
255
255
255
255
255
255
255
255
255
255
255
255
255
255
255
255
255
255
255
255
255
255
255
255
255
255
255
255
255
255
255
255
255
255
255
255
255
255
255
255
255
255
255
255
255
255
255
255
255
255
255
255
255
255
255
255
255
255
255
255
255
255
255
255
255
255
255
255
255
255
255
255
255
255
255
255
255
255
255
255
255
255
255
255
255
255
255
255
255
255
255
255
255
255
255
255
255
255
255
255
255
255
255
255
255
255
255
255
255
255
255
255
255
255
255
255
255
255
255
255
255
255
255
255
255
255
255
255
255
255
255
255
255
255
255
255
255
255
255
255
255
255
255
255
255
255
255
255
255
255
255
255
255
255
255
255
255
255
255
255
255
255
255
255
255
255
255
255
255
255
255
255
255
255
255
255
255
255
255
255
255
255
255
255
255
255
255
255
255
255
255
255
255
255
255
255
255
255
255
255
255
255
255
255
255
255
255
255
255
255
255
255
255
255
255
255
255
255
255
255
255
255
255
255
255
255
255
255
255
255
255
255
255
255
255
255
255
255
255
255
255
255
255
255
255
255
255
255
255
255
255
255
255
255
255
255
255
255
255
255
255
255
255
255
255
255
255
255
255
255
255
255
255
255
255
255
255
255
255
255
255
255
255
255
255
255
255
255
255
255
255
255
255
255
255
255
255
255
255
255
255
255
255
255
255
255
255
255
255
255
255
255
255
255
255
255
255
255
255
255
255
255
255
255
255
255
255
255
255
255
255
255
255
255
255
255
255
255
255
255
255
255
255
255
255
255
255
255
255
255
255
255
255
255
255
255
255
255
255
255
255
255
255
255
255
255
255
255
255
255
255
255
255
255
255
255
255
255
255
255
255
255
255
255
255
255
255
255
255
255
255
255
255
255
255
255
255
255
255
255
255
255
255
255
255
255
255
255
255
255
255
255
255
255
255
255
255
255
255
255
255
255
255
255
255
255
255
255
255
255
255
255
255
255
255
255
255
255
255
255
255
255
255
255
255
255
255
255
255
255
255
255
255
255
255
255
255
255
255
255
255
255
255
255
255
255
255
255
255
255
255
255
255
255
255
255
255
255
255
255
255
255
255
255
255
255
255
255
255
255
255
255
255
255
255
255
255
255
255
255
255
255
255
255
255
255
255
255
255
255
255
255
255
255
255
255
255
255
255
255
255
255
255
255
255
255
255
255
255
255
255
255
255
255
255
255
255
255
255
255
255
255
255
255
255
255
255
255
255
255
255
255
255
255
255
255
255
255
255
255
255
255
255
255
255
255
255
255
255
255
255
255
255
255
255
255
255
255
255
255
255
255
255
255
255
255
255
255
255
255
255
255
255
255
255
255
255
255
255
255
255
255
255
255
255
255
255
255
255
255
255
255
255
255
255
255
255
255
255
255
255
255
255
255
255
255
255
255
255
255
255
255
255
255
255
255
255
255
255
255
255
255
255
255
255
255
255
255
255
255
255
255
255
255
255
255
255
255
255
255
255
255
255
255
255
255
255
255
255
255
255
255
255
255
255
255
255
255
255
255
255
255
255
255
255
255
255
255
255
255
255
255
255
255
255
255
255
255
255
255
255
255
255
255
255
255
255
255
255
255
255
255
255
255
255
255
255
255
255
255
255
255
255
255
255
255
255
255
255
255
255
255
255
255
255
255
255
255
255
255
255
255
255
255
255
255
255
255
255
255
255
255
255
255
255
255
255
255
255
255
255
255
255
255
255
255
255
255
255
255
255
255
255
255
255
255
255
255
255
255
255
255
255
255
255
255
255
255
255
255
255
255
255
255
255
255
255
255
255
255
255
255
255
255
255
255
255
255
255
255
255
255
255
255
255
255
255
255
255
255
255
255
255
255
255
255
255
255
255
255
255
255
255
255
255
255
255
255
255
255
255
255
255
255
255
255
255
255
255
255
255
255
255
255
255
255
255
255
255
255
255
255
255
255
255
255
255
255
255
255
255
255
255
255
255
255
255
255
255
255
255
255
255
255
255
255
255
255
255
255
255
255
255
255
255
255
255
255
255
255
255
255
255
255
255
255
255
255
255
255
255
255
255
255
255
255
255
255
255
255
255
255
255
255
255
255
255
255
255
255
255
255
255
255
255
255
255
255
255
255
255
255
255
255
255
255
255
255
255
255
255
255
255
255
255
255
255
255
255
255
255
255
255
255
255
255
255
255
255
255
255
255
255
255
255
255
255
255
255
255
255
255
255
255
255
255
255
255
255
255
255
255
255
255
255
255
255
255
255
255
255
255
255
255
255
255
255
255
255
255
255
255
255
255
255
255
255
255
255
255
255
255
255
255
255
255
255
255
255
255
255
255
255
255
255
255
255
255
255
255
255
255
255
255
255
255
255
255
255
255
255
255
255
255
255
255
255
255
255
255
255
255
255
255
255
255
255
255
255
255
255
255
255
255
255
255
255
255
255
255
255
255
255
255
255
255
255
255
255
255
255
255
255
255
255
255
255
255
255
255
255
255
255
255
255
255
255
255
255
255
255
255
255
255
255
255
255
255
255
255
255
255
255
255
255
255
255
255
255
255
255
255
255
255
255
255
255
255
255
255
255
255
255
255
255
255
255
255
255
255
255
255
255
255
255
255
255
255
255
255
255
255
255
255
255
255
255
255
255
255
255
255
255
255
255
255
255
255
255
255
255
255
255
255
255
255
255
255
255
255
255
255
255
255
255
255
255
255
255
255
255
255
255
255
255
255
255
255
255
255
255
255
255
255
255
255
255
255
255
255
255
255
255
255
255
255
255
255
255
255
255
255
255
255
255
255
255
255
255
255
255
255
255
255
255
255
255
255
255
255
255
255
255
255
255
255
255
255
255
255
255
255
255
255
255
255
255
255
255
255
255
255
255
255
255
255
255
255
255
255
255
255
255
255
255
255
255
255
255
255
255
255
255
255
255
255
255
255
255
255
255
255
255
255
255
255
255
255
255
255
255
255
255
255
255
255
255
255
255
255
255
255
255
255
255
255
255
255
255
255
255
255
255
255
255
255
255
255
255
255
255
255
255
255
255
255
255
255
255
255
255
255
255
255
255
255
255
255
255
255
255
255
255
255
255
255
255
255
255
255
255
255
255
255
255
255
255
255
255
255
255
255
255
255
255
255
255
255
255
255
255
255
255
255
255
255
255
255
255
255
255
255
255
255
255
255
255
255
255
255
255
255
255
255
255
255
255
255
255
255
255
255
255
255
255
255
255
255
255
255
255
255
255
255
255
255
255
255
255
255
255
255
255
255
255
255
255
255
255
255
255
255
255
255
255
255
255
255
255
255
255
255
255
255
255
255
255
255
255
255
255
255
255
255
255
255
255
255
255
255
255
255
255
255
255
255
255
255
255
255
255
255
255
255
255
255
255
255
255
255
255
255
255
255
255
255
255
255
255
255
255
255
255
255
255
255
255
255
255
255
255
255
255
255
255
255
255
255
255
255
255
255
255
255
255
255
255
255
255
255
255
255
255
255
255
255
255
255
255
255
255
255
255
255
255
255
255
255
255
255
255
255
255
255
255
255
255
255
255
255
255
255
255
255
255
255
255
255
255
255
255
255
255
255
255
255
255
255
255
255
255
255
255
255
255
255
255
255
255
255
255
255
255
255
255
255
255
255
255
255
255
255
255
255
255
255
255
255
255
255
255
255
255
255
255
255
255
255
255
255
255
255
255
255
255
255
255
255
255
255
255
255
255
255
255
255
255
255
255
255
255
255
255
255
255
255
255
255
255
255
255
255
255
255
255
255
255
255
255
255
255
255
255
255
255
255
255
255
255
255
255
255
255
255
255
255
255
255
255
255
255
255
255
255
255
255
255
255
255
255
255
255
255
255
255
255
255
255
255
255
255
255
255
255
255
255
255
255
255
255
255
255
255
255
255
255
255
255
255
255
255
255
255
255
255
255
255
255
255
255
255
255
255
255
255
255
255
255
255
255
255
255
255
255
255
255
255
255
255
255
255
255
255
255
255
255
255
255
255
255
255
255
255
255
255
255
255
255
255
255
255
255
255
255
255
255
255
255
255
255
255
255
255
255
255
255
255
255
255
255
255
255
255
255
255
255
255
255
255
255
255
255
255
255
255
255
255
255
255
255
255
255
255
255
255
255
255
255
255
255
255
255
255
255
255
255
255
255
255
255
255
255
255
255
255
255
255
255
255
255
255
255
255
255
255
255
255
255
255
255
255
255
255
255
255
255
255
255
255
255
255
255
255
255
255
255
255
255
255
255
255
255
255
255
255
255
255
255
255
255
255
255
255
255
255
255
255
255
255
255
255
255
255
255
255
255
255
255
255
255
255
255
255
255
255
255
255
255
255
255
255
255
255
255
255
255
255
255
255
255
255
255
255
255
255
255
255
255
255
255
255
255
255
255
255
255
255
255
255
255
255
255
255
255
255
255
255
255
255
255
255
255
255
255
255
255
255
255
255
255
255
255
255
255
255
255
255
255
255
255
255
255
255
255
255
255
255
255
255
255
255
255
255
255
255
255
255
255
255
255
255
255
255
255
255
255
255
255
255
255
255
255
255
255
255
255
255
255
255
255
255
255
255
255
255
255
255
255
255
255
255
255
255
255
255
255
255
255
255
255
255
255
255
255
255
255
255
255
255
255
255
255
255
255
255
255
255
255
255
255
255
255
255
255
255
255
255
255
255
255
255
255
255
255
255
255
255
255
255
255
255
255
255
255
255
255
255
255
255
255
255
255
255
255
255
255
255
255
255
255
255
255
255
255
255
255
255
255
255
255
255
255
255
255
255
255
255
255
255
255
255
255
255
255
255
255
255
255
255
255
255
255
255
255
255
255
255
255
255
255
255
255
255
255
255
255
255
255
255
255
255
255
255
255
255
255
255
255
255
255
255
255
255
255
255
255
255
255
255
255
255
255
255
255
255
255
255
255
255
255
255
255
255
255
255
255
255
255
255
255
255
255
255
255
255
255
255
255
255
255
255
255
255
255
255
255
255
255
255
255
255
255
255
255
255
255
255
255
255
255
255
255
255
255
255
255
255
255
255
255
255
255
255
255
255
255
255
255
255
255
255
255
255
255
255
255
255
255
255
255
255
255
255
255
255
255
255
255
255
255
255
255
255
255
255
255
255
255
255
255
255
255
255
255
255
255
255
255
255
255
255
255
255
255
255
255
255
255
255
255
255
255
255
255
255
255
255
255
255
255
255
255
255
255
255
255
255
255
255
255
255
255
255
255
255
255
255
255
255
255
255
255
255
255
255
255
255
255
255
255
255
255
255
255
255
255
255
255
255
255
255
255
255
255
255
255
255
255
255
255
255
255
255
255
255
255
255
255
255
255
255
255
255
255
255
255
255
255
255
255
255
255
255
255
255
255
255
255
255
255
255
255
255
255
255
255
255
255
255
255
255
255
255
255
255
255
255
255
255
255
255
255
255
255
255
255
255
255
255
255
255
255
255
255
255
255
255
255
255
255
255
255
255
255
255
255
255
255
255
255
255
255
255
255
255
255
255
255
255
255
255
255
255
255
255
255
255
255
255
255
255
255
255
255
255
255
255
255
255
255
255
255
255
255
255
255
255
255
255
255
255
255
255
255
255
255
255
255
255
255
255
255
255
255
255
255
255
255
255
255
255
255
255
255
255
255
255
255
255
255
255
255
255
255
255
255
255
255
255
255
255
255
255
255
255
255
255
255
255
255
255
255
255
255
255
255
255
255
255
255
255
255
255
255
255
255
255
255
255
255
255
255
255
255
255
255
255
255
255
255
255
255
255
255
255
255
255
255
255
255
255
255
255
255
255
255
255
255
255
255
255
255
255
255
255
255
255
255
255
255
255
255
255
255
255
255
255
255
255
255
255
255
255
255
255
255
255
255
255
255
255
255
255
255
255
255
255
255
255
255
255
255
255
255
255
255
255
255
255
255
255
255
255
255
255
255
255
255
255
255
255
255
255
255
255
255
255
255
255
255
255
255
255
255
255
255
255
255
255
255
255
255
255
255
255
255
255
255
255
255
255
255
255
255
255
255
255
255
255
255
255
255
255
255
255
255
255
255
255
255
255
255
255
255
255
255
255
255
255
255
255
255
255
255
255
255
255
255
255
255
255
255
255
255
255
255
255
255
255
255
255
255
255
255
255
255
255
255
255
255
255
255
255
255
255
255
255
255
255
255
255
255
255
255
255
255
255
255
255
255
255
255
255
255
255
255
255
255
255
255
255
255
255
255
255
255
255
255
255
255
255
255
255
255
255
255
255
255
255
255
255
255
255
255
255
255
255
255
255
255
255
255
255
255
255
255
255
255
255
255
255
255
255
255
255
255
255
255
255
255
255
255
255
255
255
255
255
255
255
255
255
255
255
255
255
255
255
255
255
255
255
255
255
255
255
255
255
255
255
255
255
255
255
255
255
255
255
255
255
255
255
255
255
255
255
255
255
255
255
255
255
255
255
255
255
255
255
255
255
255
255
255
255
255
255
255
255
255
255
255
255
255
255
255
255
255
255
255
255
255
255
255
255
255
255
255
255
255
255
255
255
255
255
255
255
255
255
255
255
255
255
255
255
255
255
255
255
255
255
255
255
255
255
255
255
255
255
255
255
255
255
255
255
255
255
255
255
255
255
255
255
255
255
255
255
255
255
255
255
255
255
255
255
255
255
255
255
255
255
255
255
255
255
255
255
255
255
255
255
255
255
255
255
255
255
255
255
255
255
255
255
255
255
255
255
255
255
255
255
255
255
255
255
255
255
255
255
255
255
255
255
255
255
255
255
255
255
255
255
255
255
255
255
255
255
255
255
255
255
255
255
255
255
255
255
255
255
255
255
255
255
255
255
255
255
255
255
255
255
255
255
255
255
255
255
255
255
255
255
255
255
255
255
255
255
255
255
255
255
255
255
255
254
251
254
250
239
255
255
252
255
255
255
255
255
255
255
255
255
255
255
255
255
255
255
255
255
255
255
255
255
255
255
255
255
255
255
255
255
255
255
255
255
255
255
255
255
255
255
255
255
255
255
255
255
255
255
255
255
255
255
255
255
255
255
255
255
255
255
255
255
255
255
255
255
255
255
255
255
255
255
255
255
255
255
255
255
255
255
255
255
255
255
255
255
255
255
255
255
255
255
255
255
255
255
255
255
255
255
255
255
255
255
255
255
255
255
255
255
255
255
255
255
255
255
255
255
255
255
255
255
255
255
255
255
255
255
255
255
255
255
255
255
255
255
255
255
255
255
255
255
255
255
255
255
255
255
255
255
255
255
255
255
255
255
255
255
255
255
255
255
255
255
255
255
255
255
255
255
255
255
255
255
255
255
255
255
255
255
255
255
255
255
255
255
255
255
255
255
255
255
255
255
255
255
255
255
255
255
255
255
255
255
255
255
255
255
255
255
255
255
255
255
255
255
255
255
255
255
255
255
255
255
255
255
255
255
255
255
255
255
255
255
255
255
255
255
255
255
255
255
255
255
255
255
255
255
255
255
255
255
255
255
255
255
255
255
255
255
255
255
255
255
255
255
255
255
255
255
255
255
255
255
255
255
255
255
255
255
255
255
255
255
255
255
255
255
255
255
255
255
255
255
255
255
255
255
255
255
255
255
255
255
255
255
255
255
255
255
255
255
255
255
255
255
255
255
255
255
255
255
255
255
255
255
255
255
255
255
255
255
255
255
255
255
255
255
255
255
255
255
255
255
255
255
255
255
255
255
255
255
255
255
255
255
255
255
255
255
255
255
255
255
255
255
255
255
255
255
255
255
255
255
255
255
255
255
255
255
255
255
255
255
255
255
255
255
255
255
255
255
255
255
255
255
255
255
255
255
255
255
255
255
255
255
255
255
255
255
255
255
255
255
255
255
255
255
255
255
255
255
255
255
255
255
255
255
255
255
255
255
255
255
255
255
255
255
255
255
255
255
255
255
255
255
255
255
255
255
255
255
255
255
255
255
255
255
255
255
255
255
255
255
255
255
255
255
255
255
255
255
255
255
255
255
255
255
255
255
255
255
255
255
255
255
255
255
255
255
255
255
255
255
255
255
255
255
255
255
255
255
255
255
255
255
255
255
255
255
255
255
255
255
255
255
255
255
255
255
255
255
255
255
255
255
255
255
255
255
255
255
255
255
255
255
255
255
255
255
255
255
255
255
255
255
255
255
255
255
255
255
255
255
255
255
255
255
255
255
255
255
255
255
255
255
255
255
255
255
255
255
255
255
255
255
255
255
255
255
255
255
255
255
255
255
255
255
253
255
255
253
254
247
224
242
216
187
241
228
208
255
255
253
255
255
255
255
255
255
255
255
255
255
255
255
255
255
255
255
255
255
255
255
255
255
255
255
255
255
255
255
255
255
255
255
255
255
255
255
255
255
255
255
255
255
255
255
255
255
255
255
255
255
255
255
255
255
255
255
255
255
255
255
255
255
255
255
255
255
255
255
255
255
255
255
255
255
255
255
255
255
255
255
255
255
255
255
255
255
255
255
255
255
255
255
255
255
255
255
255
255
255
255
255
255
255
255
255
255
255
255
255
255
255
255
255
255
255
255
255
255
255
255
255
255
255
255
255
255
255
255
255
255
255
255
255
255
255
255
255
255
255
255
255
255
255
255
255
255
255
255
255
255
255
255
255
255
255
255
255
255
255
255
255
255
255
255
255
255
255
255
255
255
255
255
255
255
255
255
255
255
255
255
255
255
255
255
255
255
255
255
255
255
255
255
255
255
255
255
255
255
255
255
255
255
255
255
255
255
255
255
255
255
255
255
255
255
255
255
255
255
255
255
255
255
255
255
255
255
255
255
255
255
255
255
255
255
255
255
255
255
255
255
255
255
255
255
255
255
255
255
255
255
255
255
255
255
255
255
255
255
255
255
255
255
255
255
255
255
255
255
255
255
255
255
255
255
255
255
255
255
255
255
255
254
255
255
254
255
255
255
255
255
255
255
255
255
255
255
255
255
255
255
255
255
255
255
255
255
255
255
255
255
255
255
255
255
255
255
255
255
255
255
255
255
255
255
255
255
255
255
255
255
255
255
255
255
255
255
255
255
255
255
255
255
255
255
255
255
255
255
255
255
255
255
255
255
255
255
255
255
255
255
255
255
255
255
255
255
255
255
255
255
255
255
255
255
255
255
255
255
255
255
255
255
255
255
255
255
255
255
255
255
255
255
255
255
255
255
255
255
255
255
255
255
255
255
255
255
255
255
255
255
255
255
255
255
255
255
255
255
255
255
255
255
255
255
255
255
255
255
255
255
255
255
255
255
255
255
255
255
255
255
255
255
255
255
255
255
255
255
255
255
255
255
255
255
255
255
255
255
255
255
255
255
255
255
255
255
255
255
255
255
255
255
255
255
255
255
255
255
255
255
255
255
255
255
255
255
255
255
255
255
255
255
255
255
255
255
255
255
255
255
255
255
255
255
255
255
255
255
255
255
255
255
255
255
255
255
255
255
255
255
255
255
255
255
255
255
255
255
255
255
255
255
255
255
255
255
255
255
255
255
255
255
255
255
255
255
255
255
255
255
255
255
255
255
255
255
255
255
255
255
255
255
255
255
255
255
255
255
255
255
255
255
255
255
255
255
255
255
255
255
255
255
255
255
255
255
254
247
239
223
203
190
165
143
188
162
144
248
238
223
255
255
255
255
255
255
255
255
255
255
255
255
255
255
255
255
255
255
255
255
255
255
255
255
255
255
255
255
255
255
255
255
255
255
255
255
255
255
255
255
255
255
255
255
255
255
255
255
255
255
255
255
255
255
255
255
255
255
255
255
255
255
255
255
255
255
255
255
255
255
255
255
255
255
255
255
255
255
255
255
255
255
255
255
255
255
255
255
255
255
255
255
255
255
255
255
255
255
255
255
255
255
255
255
255
255
255
255
255
255
255
255
255
255
255
255
255
255
255
255
255
255
255
255
255
255
255
255
255
255
255
255
255
255
255
255
255
255
255
255
255
255
255
255
255
255
255
255
255
255
255
255
255
255
255
255
255
255
255
255
255
255
255
255
255
255
255
255
255
255
255
255
255
255
255
255
255
255
255
255
255
255
255
255
255
255
255
255
255
255
255
255
255
255
255
255
255
255
255
255
255
255
255
255
255
255
255
255
255
255
255
255
255
255
255
255
255
255
255
255
255
255
255
255
255
255
255
255
255
255
255
255
255
255
255
255
255
255
255
255
255
255
255
255
255
255
255
255
255
255
255
255
255
255
255
255
255
255
255
255
255
255
255
255
255
255
255
255
255
255
255
255
255
255
255
255
255
255
254
255
255
252
255
255
250
255
255
252
255
255
252
255
255
255
255
255
255
255
255
255
255
255
255
255
255
255
255
255
255
255
255
255
255
255
255
255
255
255
255
255
255
255
255
255
255
255
255
255
255
255
255
255
255
255
255
255
255
255
255
255
255
255
255
255
255
255
255
255
255
255
255
255
255
255
255
255
255
255
255
255
255
255
255
255
255
255
255
255
255
255
255
255
255
255
255
255
255
255
255
255
255
255
255
255
255
255
255
255
255
255
255
255
255
255
255
255
255
255
255
255
255
255
255
255
255
255
255
255
255
255
255
255
255
255
255
255
255
255
255
255
255
255
255
255
255
255
255
255
255
255
255
255
255
255
255
255
255
255
255
255
255
255
255
255
255
255
255
255
255
255
255
255
255
255
255
255
255
255
255
255
255
255
255
255
255
255
255
255
255
255
255
255
255
255
255
255
255
255
255
255
255
255
255
255
255
255
255
255
255
255
255
255
255
255
255
255
255
255
255
255
255
255
255
255
255
255
255
255
255
255
255
255
255
255
255
255
255
255
255
255
255
255
255
255
255
255
255
255
255
255
255
255
255
255
255
255
255
255
255
255
255
255
255
255
255
255
255
255
255
255
255
254
255
255
255
255
255
255
255
255
255
255
255
254
255
255
248
255
255
249
255
255
251
255
255
255
255
255
255
255
255
255
254
254
254
218
213
208
174
163
153
153
136
123
155
139
127
208
187
166
253
251
247
255
255
255
255
255
255
255
255
255
255
255
255
255
255
255
255
255
255
255
255
255
255
255
255
255
255
255
255
255
255
249
245
239
249
246
239
255
255
255
255
255
255
255
255
255
255
255
255
255
255
255
255
255
255
255
255
255
255
255
255
255
255
255
255
255
255
255
255
255
255
255
255
255
255
255
255
255
255
255
255
255
255
255
255
255
255
255
255
255
255
255
255
255
255
255
255
255
255
255
255
255
255
255
255
255
255
255
255
255
255
255
255
255
255
255
255
255
255
255
255
255
255
255
255
255
255
255
255
255
255
255
255
255
255
255
255
255
255
255
255
255
255
255
255
255
255
255
255
255
255
255
255
255
255
255
255
255
255
255
255
255
255
255
255
255
255
255
255
255
255
255
255
255
255
255
255
255
255
255
255
255
255
255
255
255
255
255
255
255
255
255
255
255
255
255
255
255
255
255
255
255
255
255
255
255
255
255
255
255
255
255
255
255
255
255
255
255
255
255
255
255
255
255
255
255
255
255
255
255
255
255
255
255
255
255
255
255
255
255
255
255
255
255
255
255
255
255
255
255
255
255
255
255
255
255
255
255
255
255
255
255
255
255
255
255
255
255
255
255
255
255
255
255
255
255
250
255
255
248
255
255
249
255
255
252
255
255
251
255
255
255
255
255
255
255
255
255
255
255
255
255
255
255
255
255
255
255
255
255
255
255
255
255
255
255
255
255
255
255
255
255
255
255
255
255
255
255
255
255
255
255
255
255
255
255
255
255
255
255
255
255
255
255
255
255
255
255
255
255
255
255
255
255
255
255
255
255
255
255
255
255
255
255
255
255
255
255
255
255
255
255
255
255
255
255
255
255
255
255
255
255
255
255
255
255
255
255
255
255
255
255
255
255
255
255
255
255
255
255
255
255
255
255
255
255
255
255
255
255
255
255
255
255
255
255
255
255
255
255
255
255
255
255
255
255
255
255
255
255
255
255
255
255
255
255
255
255
255
255
255
255
255
255
255
255
255
255
255
255
255
255
255
255
255
255
255
255
255
255
255
255
255
255
255
255
255
255
255
255
255
255
255
255
255
255
255
255
255
255
255
255
255
255
255
255
255
255
255
255
255
255
255
255
255
255
255
255
255
255
255
255
255
255
255
255
255
255
255
255
255
255
255
255
255
255
255
255
255
255
255
255
255
255
255
255
255
255
255
255
255
255
255
255
255
255
255
255
255
255
255
255
255
255
255
255
255
255
255
255
255
255
255
255
255
255
255
255
251
255
255
235
255
255
241
255
255
246
255
255
253
255
255
255
255
255
255
251
248
243
180
172
163
61
56
53
170
172
175
140
144
149
74
69
62
111
97
86
233
216
200
255
255
252
255
255
255
255
255
255
255
255
255
255
255
255
255
255
255
255
255
255
255
255
255
255
255
255
255
255
255
255
255
255
255
255
255
255
255
255
255
255
255
255
255
255
255
255
255
255
255
255
255
255
255
255
255
255
255
255
255
255
255
255
255
255
255
255
255
255
255
255
255
255
255
255
255
255
255
255
255
255
255
255
255
255
255
255
255
255
255
255
255
255
255
255
255
255
255
255
255
255
255
255
255
255
255
255
255
255
255
255
255
255
255
255
255
255
255
255
255
255
255
255
255
255
255
255
255
255
255
255
255
255
255
255
255
255
255
255
255
255
255
255
255
255
255
255
255
255
255
255
255
255
255
255
255
255
255
255
255
255
255
255
255
255
255
255
255
255
255
255
255
255
255
255
255
255
255
255
255
255
255
255
255
255
255
255
255
255
255
255
255
255
255
255
255
255
255
255
255
255
255
255
255
255
255
255
255
255
255
255
255
255
255
255
255
255
255
255
255
255
255
255
255
255
255
255
255
255
255
255
255
255
255
255
255
255
255
255
255
255
255
255
255
255
255
255
255
255
255
255
255
255
255
255
255
255
255
255
255
255
255
255
255
255
255
255
255
255
255
255
255
254
255
255
249
255
255
246
255
255
247
255
255
249
255
255
250
255
255
255
255
255
255
255
255
255
255
255
255
255
255
255
255
255
255
255
255
255
255
255
255
255
255
255
255
255
255
255
255
255
255
255
255
255
255
255
255
255
255
255
255
255
255
255
255
255
255
255
255
255
255
255
255
255
255
255
255
255
255
255
255
255
255
255
255
255
255
255
255
255
255
255
255
255
255
255
255
255
255
255
255
255
255
255
255
255
255
255
255
255
255
255
255
255
255
255
255
255
255
255
255
255
255
255
255
255
255
255
255
255
255
255
255
255
255
255
255
255
255
255
255
255
255
255
255
255
255
255
255
255
255
255
255
255
255
255
255
255
255
255
255
255
255
255
255
255
255
255
255
255
255
255
255
255
255
255
255
255
255
255
255
255
255
255
255
255
255
255
255
255
255
255
255
255
255
255
255
255
255
255
255
255
255
255
255
255
255
255
255
255
255
255
255
255
255
255
255
255
255
255
255
255
255
255
255
255
255
255
255
255
255
255
255
255
255
255
255
255
255
255
255
255
255
255
255
255
255
255
255
255
255
255
255
255
255
255
255
255
255
255
255
255
254
255
255
245
255
254
242
255
255
255
255
255
255
255
255
255
255
255
255
255
255
255
255
255
252
255
255
253
255
255
248
255
254
238
255
255
253
255
255
255
247
244
232
176
159
140
57
56
55
94
94
93
105
109
115
141
144
150
54
54
55
110
96
86
238
222
200
255
255
250
255
255
255
255
255
255
255
255
255
255
255
255
255
255
255
255
255
255
255
255
255
255
255
255
255
255
255
255
255
255
255
255
255
255
255
255
255
255
255
255
255
255
255
255
255
255
255
255
255
255
255
255
255
255
255
255
255
255
255
255
255
255
255
255
255
255
255
255
255
255
255
255
255
255
255
255
255
255
255
255
255
255
255
255
255
255
255
255
255
255
255
255
255
255
255
255
255
255
255
255
255
255
255
255
255
255
255
255
255
255
255
255
255
255
255
255
255
255
255
255
255
255
255
255
255
255
255
255
255
255
255
255
255
255
255
255
255
255
255
255
255
255
255
255
255
255
255
255
255
255
255
255
255
255
255
255
255
255
255
255
255
255
255
255
255
255
255
255
255
255
255
255
255
255
255
255
255
255
255
255
255
255
255
255
255
255
255
255
255
255
255
255
255
255
255
255
255
255
255
255
255
255
255
255
255
255
255
255
255
255
255
255
255
255
255
255
255
255
255
255
255
255
255
255
254
255
255
253
255
255
253
255
255
254
255
255
255
255
255
255
255
255
255
255
255
255
255
255
255
255
255
255
255
255
255
255
255
255
255
255
255
255
255
255
255
255
255
255
255
253
255
255
249
255
255
246
255
255
247
255
255
248
255
255
250
255
255
255
255
255
255
255
255
255
255
255
255
255
255
255
255
255
255
255
255
255
255
255
255
255
255
255
255
255
255
255
255
255
255
255
255
255
255
255
255
255
255
255
255
255
255
255
255
255
255
255
255
255
255
255
255
255
255
255
255
255
255
255
255
255
255
255
255
255
255
255
255
255
255
255
255
255
255
255
255
255
255
255
255
255
255
255
255
255
255
255
255
255
255
255
255
255
255
255
255
255
255
255
255
255
255
255
255
255
255
255
255
255
255
255
255
255
255
255
255
255
255
255
255
255
255
255
255
255
255
255
255
255
255
255
255
255
255
255
255
255
255
255
255
255
255
255
255
255
255
255
255
255
255
255
255
255
255
255
255
255
255
255
255
255
255
255
255
255
255
255
255
255
255
255
255
255
255
255
255
255
255
255
255
255
255
255
255
255
255
255
255
255
255
255
255
255
255
255
255
255
255
255
255
255
255
255
255
255
255
255
255
255
255
255
255
255
255
255
255
255
255
255
255
255
255
255
255
255
255
255
255
255
255
255
255
255
255
255
252
255
255
230
255
246
202
253
219
178
247
224
198
255
255
254
255
255
255
255
255
252
255
255
255
255
255
255
255
255
253
255
255
243
255
255
226
255
254
231
255
255
248
250
245
225
173
154
136
123
121
121
117
123
127
81
83
85
83
78
74
123
116
109
157
144
131
214
193
172
249
239
224
255
255
255
255
255
255
255
255
255
255
255
255
255
255
255
255
255
255
255
255
255
255
255
255
255
255
255
255
255
255
255
255
255
255
255
255
255
255
255
255
255
255
255
255
255
255
255
255
255
255
255
255
255
255
255
255
255
255
255
255
255
255
255
255
255
255
255
255
255
255
255
255
255
255
255
255
255
255
255
255
255
255
255
255
255
255
255
255
255
255
255
255
255
255
255
255
255
255
255
255
255
255
255
255
255
255
255
255
255
255
255
255
255
255
255
255
255
255
255
255
255
255
255
255
255
255
255
255
255
255
255
255
255
255
255
255
255
255
255
255
255
255
255
255
255
255
255
255
255
255
255
255
255
255
255
255
255
255
255
255
255
255
255
255
255
255
255
255
255
255
255
255
255
255
255
255
255
255
255
255
255
255
255
255
255
255
255
255
255
255
255
255
255
255
255
255
255
255
255
255
255
255
255
255
255
255
255
255
255
255
255
255
255
255
255
255
255
255
255
255
255
255
255
255
255
255
255
255
255
255
255
255
255
254
255
255
255
255
255
255
255
255
255
255
255
255
255
255
255
255
255
255
255
255
255
255
255
255
255
255
255
255
255
255
255
255
254
255
255
254
255
255
251
255
255
248
255
255
246
255
255
247
255
255
248
255
255
250
255
255
255
255
255
255
255
255
255
255
255
255
255
255
255
255
255
255
255
255
255
255
255
255
255
255
255
255
255
255
255
255
255
255
255
255
255
255
255
255
255
255
255
255
255
255
255
255
255
255
255
255
255
255
255
255
255
255
255
255
255
255
255
255
255
255
255
255
255
255
255
255
255
255
255
255
255
255
255
255
255
255
255
255
255
255
255
255
255
255
255
255
255
255
255
255
255
255
255
255
255
255
255
255
255
255
255
255
255
255
255
255
255
255
255
255
255
255
255
255
255
255
255
255
255
255
255
255
255
255
255
255
255
255
255
255
255
255
255
255
255
255
255
255
255
255
255
255
255
255
255
255
255
255
255
255
255
255
255
255
255
255
255
255
255
255
255
255
255
255
255
255
255
255
255
255
255
255
255
255
255
255
255
255
255
255
255
255
255
255
255
255
255
255
255
255
255
255
255
255
255
255
255
255
255
255
255
255
255
255
255
255
255
255
255
255
255
255
255
255
255
255
255
255
255
255
255
255
255
255
255
255
255
255
255
255
251
255
251
211
255
246
202
255
250
212
248
212
174
226
193
165
255
254
253
255
255
252
255
255
253
255
255
254
255
255
247
255
255
236
255
253
221
255
245
208
255
254
227
252
244
217
203
178
155
105
91
80
128
119
112
175
164
155
199
187
175
220
211
196
244
238
228
255
252
242
255
252
235
255
254
244
255
255
255
255
255
255
255
255
255
255
255
255
255
255
255
255
255
255
255
255
255
255
255
255
255
255
255
255
255
255
245
242
239
222
218
214
220
221
220
236
237
236
250
249
250
246
247
247
240
242
242
254
254
254
255
255
255
255
255
255
255
255
255
255
255
255
255
255
255
255
255
255
255
255
255
255
255
255
255
255
255
255
255
255
255
255
255
255
255
255
255
255
255
255
255
255
255
255
255
255
255
255
255
255
255
255
255
255
255
255
255
255
255
255
255
255
255
255
255
255
255
255
255
255
255
255
255
255
255
255
255
255
255
255
255
255
255
255
255
255
255
255
255
255
255
255
255
255
255
255
255
255
255
255
255
255
255
255
255
255
255
255
255
255
255
255
255
255
255
255
255
255
255
255
255
255
255
255
255
255
255
255
255
255
255
255
255
255
255
255
255
255
255
255
255
255
255
255
255
255
255
255
255
255
255
255
255
255
255
255
255
255
255
255
255
255
255
255
255
255
255
255
255
255
255
255
255
255
255
255
255
255
255
255
255
255
255
255
255
255
255
255
255
255
255
255
255
255
255
255
255
255
255
255
255
255
255
255
255
255
255
255
255
253
255
255
250
255
255
248
255
255
248
255
255
246
255
255
244
255
255
245
255
255
246
255
255
246
255
255
255
255
255
255
255
255
255
255
255
255
255
255
255
255
255
255
255
255
255
255
255
255
255
255
255
255
255
255
255
255
255
255
255
255
255
255
255
255
255
255
255
255
255
255
255
255
255
255
255
255
255
255
255
255
255
255
255
255
255
255
255
255
255
255
255
255
255
255
255
255
255
255
255
255
255
255
255
255
255
255
255
255
255
255
255
255
255
255
255
255
255
255
255
255
255
255
255
255
255
255
255
255
255
255
255
255
255
255
255
255
255
255
255
255
255
255
255
255
255
255
255
255
255
255
255
255
255
255
255
255
255
255
255
255
255
255
255
255
255
255
255
255
255
255
255
255
255
255
255
255
255
255
255
255
255
255
255
255
255
255
255
255
255
255
255
255
255
255
255
255
255
255
255
255
255
255
255
255
255
255
255
255
255
255
255
255
255
255
255
255
255
255
255
255
255
255
255
255
255
255
255
255
255
255
255
255
255
255
255
255
255
255
255
255
255
255
255
255
255
255
255
255
255
255
255
255
255
255
255
255
255
255
255
254
237
255
228
179
249
204
159
240
204
168
240
204
167
217
188
159
255
254
244
255
253
226
255
255
251
255
255
242
255
255
236
255
252
226
253
243
203
251
233
194
241
212
176
208
176
143
198
170
145
216
203
179
236
228
207
251
242
224
255
250
240
255
255
253
255
255
255
255
255
255
255
255
253
255
255
255
255
255
255
255
255
255
255
255
255
255
255
255
255
255
255
255
255
255
255
255
255
255
255
255
255
255
253
251
248
243
173
168
163
130
128
126
114
113
111
106
106
104
102
102
100
118
118
116
120
118
117
171
170
164
253
253
251
255
255
255
255
255
255
255
255
255
255
255
255
255
255
255
255
255
255
255
255
255
255
255
255
255
255
255
255
255
255
255
255
255
255
255
255
255
255
255
255
255
255
255
255
255
255
255
255
255
255
255
255
255
255
255
255
255
255
255
255
255
255
255
255
255
255
255
255
255
255
255
255
255
255
255
255
255
255
255
255
255
255
255
255
255
255
255
255
255
255
255
255
255
255
255
255
255
255
255
255
255
255
255
255
255
255
255
255
255
255
255
255
255
255
255
255
255
255
255
255
255
255
255
255
255
255
255
255
255
255
255
255
255
255
255
255
255
255
255
255
255
255
255
255
255
255
255
255
255
255
255
255
255
255
255
255
255
255
255
255
255
255
255
255
255
255
255
255
255
255
255
255
255
255
255
255
255
255
255
255
255
255
255
255
255
255
255
255
255
255
255
255
255
255
255
255
255
255
255
255
255
255
255
255
255
255
254
255
255
250
255
255
247
255
255
245
255
255
243
255
255
241
255
255
241
255
255
246
255
255
248
255
255
255
255
255
255
255
255
255
255
255
255
255
255
255
255
255
255
255
255
255
255
255
255
255
255
255
255
255
255
255
255
255
255
255
255
255
255
255
255
255
255
255
255
255
255
255
255
255
255
255
255
255
255
255
255
255
255
255
255
255
255
255
255
255
255
255
255
255
255
255
255
255
255
255
255
255
255
255
255
255
255
255
255
255
255
255
255
255
255
255
255
255
255
255
255
255
255
255
255
255
255
255
255
255
255
255
255
255
255
255
255
255
255
255
255
255
255
255
255
255
255
255
255
255
255
255
255
255
255
255
255
255
255
255
255
255
255
255
255
255
255
255
255
255
255
255
255
255
255
255
255
255
255
255
255
255
255
255
255
255
255
255
255
255
255
255
255
255
255
255
255
255
255
255
255
255
255
255
255
255
255
255
255
255
255
255
255
255
255
255
255
255
255
255
255
255
255
255
255
255
255
255
255
255
255
255
255
255
255
255
255
255
255
255
255
255
255
255
255
255
255
255
255
255
255
255
255
255
255
255
255
255
249
255
245
202
254
212
164
241
200
159
238
202
170
232
200
168
219
193
164
255
254
241
255
255
251
255
255
254
255
255
237
252
233
197
236
206
169
218
185
147
210
179
141
214
183
148
227
199
164
247
224
190
255
251
230
255
255
253
255
255
253
255
255
249
255
254
250
255
255
255
255
255
255
255
255
255
255
255
254
255
255
243
255
255
253
255
255
254
255
255
255
255
255
255
255
255
255
255
255
255
255
253
245
242
230
209
185
179
165
91
90
87
74
73
69
45
44
40
27
27
23
33
34
30
57
58
54
49
51
44
48
47
39
228
228
222
255
255
255
255
255
255
255
255
255
255
255
255
255
255
255
255
255
255
255
255
255
255
255
255
255
255
255
255
255
255
255
255
255
255
255
255
255
255
255
255
255
255
255
255
255
255
255
255
255
255
255
255
255
255
255
255
255
255
255
255
255
255
255
255
255
255
255
255
255
255
255
255
255
255
255
255
255
255
255
255
255
255
255
255
255
255
255
255
255
255
255
255
255
255
255
255
255
255
255
255
255
255
255
255
255
255
255
255
255
255
255
255
255
255
255
255
255
255
255
255
255
255
255
255
255
255
255
255
255
255
255
255
255
255
255
255
255
255
255
255
255
255
255
255
255
255
255
255
255
255
255
255
255
255
255
255
255
255
255
255
255
255
255
255
255
255
255
255
255
255
255
255
255
255
255
255
255
255
255
255
255
255
255
255
255
255
255
255
255
255
255
255
255
255
255
255
255
255
255
255
255
255
255
255
255
255
253
255
255
248
255
255
246
255
255
243
255
255
240
255
255
239
255
255
238
255
255
242
255
255
247
255
255
255
255
255
255
255
255
255
255
255
255
255
255
255
255
255
255
255
255
255
255
255
255
255
255
255
255
255
255
255
255
255
255
255
255
255
255
255
255
255
255
255
255
255
255
255
255
255
255
255
255
255
255
255
255
255
255
255
255
255
255
255
255
255
255
255
255
255
255
255
255
255
255
255
255
255
255
255
255
255
255
255
255
255
255
255
255
255
255
255
255
255
255
255
255
255
255
255
255
255
255
255
255
255
255
255
255
255
255
255
255
255
255
255
255
255
255
255
255
255
255
255
255
255
255
255
255
255
255
255
255
255
255
255
255
255
255
255
255
255
255
255
255
255
255
255
255
255
255
255
255
255
255
255
255
255
255
255
255
255
255
255
255
255
255
255
255
255
255
255
255
255
255
255
255
255
255
255
255
255
255
255
255
255
255
255
255
255
255
255
255
255
255
255
255
255
255
255
255
255
255
255
255
255
255
255
255
255
255
255
255
255
255
255
255
255
255
255
255
255
255
255
255
255
255
255
252
255
255
251
255
254
220
253
213
165
238
191
146
217
181
145
190
158
132
188
161
134
235
222
204
255
255
255
255
255
253
254
249
234
245
222
184
222
192
152
214
184
147
225
197
163
244
223
191
245
231
201
247
232
202
252
239
207
255
248
225
255
252
231
251
242
221
254
245
225
255
253
247
255
255
255
255
255
255
255
255
255
255
255
250
255
254
234
255
255
246
255
255
241
255
255
249
255
255
255
255
255
255
255
255
244
253
241
209
184
168
149
86
84
75
57
54
50
41
41
36
29
29
24
17
18
12
24
25
19
40
41
35
47
49
46
65
64
60
245
244
242
255
255
255
255
255
255
255
255
255
255
255
255
255
255
255
255
255
255
255
255
255
255
255
255
255
255
255
255
255
255
255
255
255
255
255
255
255
255
255
255
255
255
255
255
255
255
255
255
255
255
255
255
255
255
255
255
255
255
255
255
255
255
255
255
255
255
255
255
255
255
255
255
255
255
255
255
255
255
255
255
255
255
255
255
255
255
255
255
255
255
255
255
255
255
255
255
255
255
255
255
255
255
255
255
255
255
255
255
255
255
255
255
255
255
255
255
255
255
255
255
255
255
255
255
255
255
255
255
255
255
255
255
255
255
255
255
255
255
255
255
255
255
255
255
255
255
255
255
255
255
255
255
255
255
255
255
255
255
255
255
255
255
255
255
255
255
255
255
255
255
255
255
255
255
255
255
255
255
255
255
255
255
255
255
255
255
255
255
255
255
255
255
255
255
255
255
255
255
255
255
255
255
255
255
255
255
253
255
255
248
255
255
246
255
255
243
255
255
241
255
255
240
255
255
239
255
255
240
255
255
244
255
255
255
255
255
255
255
255
255
255
255
255
255
255
255
255
255
255
255
255
255
255
255
255
255
255
255
255
255
255
255
255
255
255
255
255
255
255
255
255
255
255
255
255
255
255
255
255
255
255
255
255
255
255
255
255
255
255
255
255
255
255
255
255
255
255
255
255
255
255
255
255
255
255
255
255
255
255
255
255
255
255
255
255
255
255
255
255
255
255
255
255
255
255
255
255
255
255
255
255
255
255
255
255
255
255
255
255
255
255
255
255
255
255
255
255
255
255
255
255
255
255
255
255
255
255
255
255
255
255
255
255
255
255
255
255
255
255
255
255
255
255
255
255
255
255
255
255
255
255
255
255
255
255
255
255
255
255
255
255
255
255
255
255
255
255
255
255
255
255
255
255
255
255
255
255
255
255
255
255
255
255
255
255
255
255
255
255
255
255
255
255
255
255
255
255
255
255
255
255
255
255
255
255
255
255
255
255
255
255
255
255
255
255
255
255
255
255
255
255
255
255
255
255
242
255
253
218
255
255
232
255
248
205
243
198
155
214
172
134
188
155
125
163
133
112
182
159
135
253
249
239
255
252
229
254
234
200
248
220
182
237
206
168
241
213
178
251
237
204
254
250
226
255
252
237
255
255
239
255
255
240
255
255
242
255
255
242
255
255
249
254
253
241
254
253
246
255
255
254
255
255
255
255
255
255
255
255
253
255
253
229
255
249
217
255
255
228
255
255
246
255
255
255
255
255
254
255
255
243
255
255
243
255
250
231
251
249
242
176
174
166
73
72
70
38
38
38
27
27
27
30
30
28
34
35
30
32
33
26
53
54
49
185
185
180
249
250
249
255
255
255
255
255
255
255
255
255
255
255
255
255
255
255
255
255
255
255
255
255
255
255
255
255
255
255
255
255
255
255
255
255
255
255
255
255
255
255
255
255
255
255
255
255
255
255
255
255
255
255
255
255
255
255
255
255
255
255
255
255
255
255
255
255
255
255
255
255
255
255
255
255
255
255
255
255
255
255
255
255
255
255
255
255
255
255
255
255
255
255
255
255
255
255
255
255
255
255
255
255
255
255
255
255
255
255
255
255
255
255
255
255
255
255
255
255
255
255
255
255
255
255
255
255
255
255
255
255
255
255
255
255
255
255
255
255
255
255
255
255
255
255
255
255
255
255
255
255
255
255
255
255
255
255
255
255
255
255
255
255
255
255
255
255
255
255
255
255
255
255
255
255
255
255
255
255
255
255
255
255
255
255
255
255
255
255
255
255
255
255
255
255
255
255
255
255
255
255
255
255
255
255
255
255
255
253
255
255
247
255
255
246
255
255
245
255
255
247
255
255
243
255
255
242
255
255
241
255
255
242
255
255
255
255
255
255
255
255
255
255
255
255
255
255
255
255
255
255
255
255
255
255
255
255
255
255
255
255
255
255
255
255
255
255
255
255
255
255
255
255
255
255
255
255
255
255
255
255
255
255
255
255
255
255
255
255
255
255
255
255
255
255
255
255
255
255
255
255
255
255
255
255
255
255
255
255
255
255
255
255
255
255
255
255
255
255
255
255
255
255
255
255
255
255
255
255
255
255
255
255
255
255
255
255
255
255
255
255
255
255
255
255
255
255
255
255
255
255
255
255
255
255
255
255
255
255
255
255
255
255
255
255
255
255
255
255
255
255
255
255
255
255
255
255
255
255
255
255
255
255
255
255
255
255
255
255
255
255
255
255
255
255
255
255
255
255
255
255
255
255
255
255
255
255
255
255
255
255
255
255
255
255
255
255
255
255
255
255
255
255
255
255
255
255
255
255
255
255
255
255
255
255
255
255
255
255
255
255
255
255
255
255
255
255
255
255
255
255
255
255
255
250
255
252
213
255
245
203
255
254
217
251
231
186
221
175
135
188
150
119
138
107
82
139
112
93
225
209
189
255
255
229
255
243
204
255
236
199
253
233
196
250
228
191
253
239
206
255
254
234
255
255
246
255
255
255
255
255
255
255
255
250
255
255
246
255
255
251
255
255
254
255
255
255
255
255
255
255
255
255
255
255
255
255
255
255
255
253
241
255
248
216
255
253
224
255
255
233
255
255
253
255
255
253
255
254
246
255
252
236
255
254
234
255
252
228
254
251
238
239
237
229
156
152
149
66
67
66
55
55
55
49
50
47
32
33
27
31
32
25
33
35
26
97
98
91
253
253
253
255
255
255
255
255
255
255
255
255
255
255
255
255
255
255
255
255
255
255
255
255
255
255
255
255
255
255
255
255
255
255
255
255
255
255
255
255
255
255
255
255
255
255
255
255
255
255
255
255
255
255
255
255
255
255
255
255
255
255
255
255
255
255
255
255
255
255
255
255
255
255
255
255
255
255
255
255
255
255
255
255
255
255
255
255
255
255
255
255
255
255
255
255
255
255
255
255
255
255
255
255
255
255
255
255
255
255
255
255
255
255
255
255
255
255
255
255
255
255
255
255
255
255
255
255
255
255
255
255
255
255
255
255
255
255
255
255
255
255
255
255
255
255
255
255
255
255
255
255
255
255
255
255
255
255
255
255
255
255
255
255
255
255
255
255
255
255
255
255
255
255
255
255
255
255
255
255
255
255
255
255
255
255
255
255
255
255
255
255
255
255
255
255
255
255
255
255
255
255
255
255
255
255
255
255
255
252
255
255
245
255
255
243
255
255
244
255
255
247
255
255
245
255
255
244
255
255
244
255
255
243
255
255
255
255
255
255
255
255
255
255
255
255
255
255
255
255
255
255
255
255
255
255
255
255
255
255
255
255
255
255
255
255
255
255
255
255
255
255
255
255
255
255
255
255
255
255
255
255
255
255
255
255
255
255
255
255
255
255
255
255
255
255
255
255
255
255
255
255
255
255
255
255
255
255
255
255
255
255
255
255
255
255
255
255
255
255
255
255
255
255
255
255
255
255
255
255
255
255
255
255
255
255
255
255
255
255
255
255
255
255
255
255
255
255
255
255
255
255
255
255
255
255
255
255
255
255
255
255
255
255
255
255
255
255
255
255
255
255
255
255
255
255
255
255
255
255
255
255
255
255
255
255
255
255
255
255
255
255
255
255
255
255
255
255
255
255
255
255
255
255
255
255
255
255
255
255
255
255
255
255
255
255
255
255
255
255
255
255
255
255
255
255
255
255
255
255
255
255
255
255
255
255
255
255
255
255
255
255
255
255
255
255
255
255
255
255
255
255
254
255
255
229
254
242
200
254
229
193
255
247
205
248
219
173
189
147
111
136
102
79
127
99
79
176
153
133
250
249
233
255
255
226
255
254
219
255
245
208
254
235
198
255
246
212
255
254
229
255
255
248
255
255
255
255
255
255
255
255
255
255
255
255
255
255
254
255
255
255
255
255
255
255
255
255
255
255
255
255
255
255
255
255
255
255
253
243
255
248
223
255
253
235
255
254
249
255
255
246
255
249
238
254
241
216
255
249
227
252
238
210
247
225
196
253
241
216
251
245
229
221
210
192
163
156
149
100
98
92
76
76
72
45
46
41
34
35
30
32
33
27
46
48
40
144
142
137
254
254
254
255
255
255
255
255
255
255
255
255
255
255
255
255
255
255
255
255
255
255
255
255
255
255
255
255
255
255
255
255
255
255
255
255
255
255
255
255
255
255
255
255
255
255
255
255
255
255
255
255
255
255
255
255
255
255
255
255
255
255
255
255
255
255
255
255
255
255
255
255
255
255
255
255
255
255
255
255
255
255
255
255
255
255
255
255
255
255
255
255
255
255
255
255
255
255
255
255
255
255
255
255
255
255
255
255
255
255
255
255
255
255
255
255
255
255
255
255
255
255
255
255
255
255
255
255
255
255
255
255
255
255
255
255
255
255
255
255
255
255
255
255
255
255
255
255
255
255
255
255
255
255
255
255
255
255
255
255
255
255
255
255
255
255
255
255
255
255
255
255
255
255
255
255
255
255
255
255
255
255
255
255
255
255
255
255
255
255
255
255
255
255
255
255
255
255
255
255
255
255
255
255
255
255
255
255
255
252
255
255
246
255
255
242
255
255
241
255
255
246
255
255
246
255
255
245
255
255
245
255
255
243
255
255
255
255
255
255
255
255
255
255
255
255
255
255
255
255
255
255
255
255
255
255
255
255
255
255
255
255
255
255
255
255
255
255
255
255
255
255
255
255
255
255
255
255
255
255
255
255
255
255
255
255
255
255
255
255
255
255
255
255
255
255
255
255
255
255
255
255
255
255
255
255
255
255
255
255
255
255
255
255
255
255
255
255
255
255
255
255
255
255
255
255
255
255
255
255
255
255
255
255
255
255
255
255
255
255
255
255
255
255
255
255
255
255
255
255
255
255
255
255
255
255
255
255
255
255
255
255
255
255
255
255
255
255
255
255
255
255
255
255
255
255
255
255
255
255
255
255
255
255
255
255
255
255
255
255
255
255
255
255
255
255
255
255
255
255
255
255
255
255
255
255
255
255
255
255
255
255
255
255
255
255
255
255
255
255
255
255
255
255
255
255
255
255
255
255
255
255
255
255
255
255
255
255
255
255
255
255
255
255
255
255
255
255
255
255
255
255
249
255
250
211
244
216
178
250
227
192
255
247
216
223
185
142
167
127
96
140
109
87
144
120
101
212
197
175
255
255
237
255
251
215
253
236
199
253
233
195
255
247
210
255
254
224
255
255
249
255
255
254
255
255
251
255
255
246
255
255
248
255
255
255
255
255
255
255
255
255
255
255
255
255
255
255
255
255
255
255
255
250
255
255
237
253
244
217
252
236
209
255
253
241
255
255
232
254
245
224
255
236
204
255
244
214
246
233
206
239
216
189
227
205
180
229
211
187
228
210
187
214
200
184
153
145
134
101
97
89
76
74
68
78
78
73
93
93
88
47
48
43
88
88
83
197
193
188
254
253
252
255
255
255
255
255
255
255
255
255
255
255
255
255
255
255
255
255
255
255
255
255
255
255
255
255
255
255
255
255
255
255
255
255
255
255
255
255
255
255
255
255
255
255
255
255
255
255
255
255
255
255
255
255
255
255
255
255
255
255
255
255
255
255
255
255
255
255
255
255
255
255
255
255
255
255
255
255
255
255
255
255
255
255
255
255
255
255
255
255
255
255
255
255
255
255
255
255
255
255
255
255
255
255
255
255
255
255
255
255
255
255
255
255
255
255
255
255
255
255
255
255
255
255
255
255
255
255
255
255
255
255
255
255
255
255
255
255
255
255
255
255
255
255
255
255
255
255
255
255
255
255
255
255
255
255
255
255
255
255
255
255
255
255
255
255
255
255
255
255
255
255
255
255
255
255
255
255
255
255
255
255
255
255
255
255
255
255
255
255
255
255
255
255
255
255
255
255
255
255
255
255
255
255
255
255
255
252
255
255
248
255
255
244
255
255
242
255
255
243
255
255
245
255
255
245
255
255
246
255
255
245
255
255
255
255
255
255
255
255
255
255
255
255
255
255
255
255
255
255
255
255
255
255
255
255
255
255
255
255
255
255
255
255
255
255
255
255
255
255
255
255
255
255
255
255
255
255
255
255
255
255
255
255
255
255
255
255
255
255
255
255
255
255
255
255
255
255
255
255
255
255
255
255
255
255
255
255
255
255
255
255
255
255
255
255
255
255
255
255
255
255
255
255
255
255
255
255
255
255
255
255
255
255
255
255
255
255
255
255
255
255
255
255
255
255
255
255
255
255
255
255
255
255
255
255
255
255
255
255
255
255
255
255
255
255
255
255
255
255
255
255
255
255
255
255
255
255
255
255
255
255
255
255
255
255
255
255
255
255
255
255
255
255
255
255
255
255
255
255
255
255
255
255
255
255
255
255
255
255
255
255
255
255
255
255
255
255
255
255
255
255
255
255
255
255
255
255
255
255
255
255
255
255
255
255
255
255
255
255
255
255
255
255
255
255
255
255
255
254
231
251
228
188
219
183
150
253
246
220
252
238
208
204
159
122
161
123
94
150
123
102
156
136
117
231
220
197
255
253
224
255
240
201
249
224
187
252
240
203
255
253
221
255
255
233
255
255
242
255
255
243
255
255
252
255
255
255
255
255
253
255
255
255
255
255
255
255
255
255
255
255
255
255
255
255
255
255
243
255
255
228
255
249
213
254
245
209
255
252
230
255
249
230
255
251
227
253
242
215
247
234
211
241
228
203
227
210
188
219
202
181
206
189
167
203
187
167
199
184
163
173
158
141
135
123
110
110
103
94
82
77
69
69
68
62
97
98
92
103
104
99
115
113
109
192
186
176
253
251
243
255
255
255
255
255
255
255
255
255
255
255
255
255
255
255
255
255
255
255
255
255
255
255
255
255
255
255
255
255
255
255
255
255
255
255
255
255
255
255
255
255
255
255
255
255
255
255
255
255
255
255
255
255
255
255
255
255
255
255
255
255
255
255
255
255
255
255
255
255
255
255
255
255
255
255
255
255
255
255
255
255
255
255
255
255
255
255
255
255
255
255
255
255
255
255
255
255
255
255
255
255
255
255
255
255
255
255
255
255
255
255
255
255
255
255
255
255
255
255
255
255
255
255
255
255
255
255
255
255
255
255
255
255
255
255
255
255
255
255
255
255
255
255
255
255
255
255
255
255
255
255
255
255
255
255
255
255
255
255
255
255
255
255
255
255
255
255
255
255
255
255
255
255
255
255
255
255
255
255
255
255
255
255
255
255
255
255
255
255
255
255
255
255
255
255
255
255
255
255
255
254
255
255
254
255
255
252
255
255
249
255
255
246
255
255
243
255
255
244
255
255
245
255
255
246
255
255
247
255
255
249
255
255
255
255
255
255
255
255
255
255
255
255
255
255
255
255
255
255
255
255
255
255
255
255
255
255
255
255
255
255
255
255
255
255
255
255
255
255
255
255
255
255
255
255
255
255
255
255
255
255
255
255
255
255
255
255
255
255
255
255
255
255
255
255
255
255
255
255
255
255
255
255
255
255
255
255
255
255
255
255
255
255
255
255
255
255
255
255
255
255
255
255
255
255
255
255
255
255
255
255
255
255
255
255
255
255
255
255
255
255
255
255
255
255
255
255
255
255
255
255
255
255
255
255
255
255
255
255
255
255
255
255
255
255
255
255
255
255
255
255
255
255
255
255
255
255
255
255
255
255
255
255
255
255
255
255
255
255
255
255
255
255
255
255
255
255
255
255
255
255
255
255
255
255
255
255
255
255
255
255
255
255
255
255
255
255
255
255
255
255
255
255
255
255
255
255
255
255
255
255
255
255
255
255
255
255
255
255
255
255
255
255
255
255
255
246
254
238
202
239
203
167
221
192
159
255
251
236
239
205
165
192
148
113
135
100
75
147
125
103
155
135
115
226
210
182
255
240
207
248
226
190
249
227
191
255
243
208
255
250
218
255
255
231
255
255
250
255
255
247
255
255
246
255
255
252
255
255
255
255
255
255
255
255
255
255
255
255
255
255
254
255
255
245
255
255
225
255
255
225
255
247
209
255
251
223
255
255
244
255
254
239
255
255
241
255
255
251
254
248
239
251
247
229
239
226
210
227
210
189
233
222
201
193
176
154
195
179
160
166
151
136
127
116
104
117
111
98
106
103
93
88
85
77
97
93
85
126
123
116
109
108
98
185
180
165
252
250
246
255
255
255
255
255
255
255
255
255
255
255
255
255
255
255
255
255
255
255
255
255
255
255
255
255
255
255
255
255
255
255
255
255
255
255
255
255
255
255
255
255
255
255
255
255
255
255
255
255
255
255
255
255
255
255
255
255
255
255
255
255
255
255
255
255
255
255
255
255
255
255
255
255
255
255
255
255
255
255
255
255
255
255
255
255
255
255
255
255
255
255
255
255
255
255
255
255
255
255
255
255
255
255
255
255
255
255
255
255
255
255
255
255
255
255
255
255
255
255
255
255
255
255
255
255
255
255
255
255
255
255
255
255
255
255
255
255
255
255
255
255
255
255
255
255
255
255
255
255
255
255
255
255
255
255
255
255
255
255
255
255
255
255
255
255
255
255
255
255
255
255
255
255
255
255
255
255
255
255
255
255
255
255
255
255
255
255
255
255
255
255
255
255
255
255
255
255
255
255
255
255
255
255
254
255
255
252
255
255
248
255
255
245
255
255
241
255
255
241
255
255
242
255
255
243
255
255
246
255
255
250
255
255
255
255
255
255
255
255
255
255
255
255
255
255
255
255
255
255
255
255
255
255
255
255
255
255
255
255
255
255
255
255
255
255
255
255
255
255
255
255
255
255
255
255
255
255
255
255
255
255
255
255
255
255
255
255
255
255
255
255
255
255
255
255
255
255
255
255
255
255
255
255
255
255
255
255
255
255
255
255
255
255
255
255
255
255
255
255
255
255
255
255
255
255
255
255
255
255
255
255
255
255
255
255
255
255
255
255
255
255
255
255
255
255
255
255
255
255
255
255
255
255
255
255
255
255
255
255
255
255
255
255
255
255
255
255
255
255
255
255
255
255
255
255
255
255
255
255
255
255
255
255
255
255
255
255
255
255
255
255
255
255
255
255
255
255
255
255
255
255
255
255
255
255
255
255
255
255
255
255
255
255
255
255
255
255
255
255
255
255
255
255
255
255
255
255
255
255
255
255
255
255
255
255
255
255
255
255
255
255
255
255
253
255
247
216
245
210
174
220
184
150
234
216
190
255
248
224
231
187
146
194
153
119
137
105
82
128
107
87
176
155
135
224
205
177
253
236
202
237
213
177
244
222
187
255
249
214
255
255
223
255
255
227
255
255
228
255
255
226
255
255
250
255
255
255
255
255
255
255
255
255
255
255
253
255
255
242
255
255
232
255
255
220
255
249
209
254
243
206
252
236
199
252
240
202
247
237
203
254
250
230
255
252
232
249
238
215
242
232
207
221
207
182
209
193
172
220
210
191
193
177
157
180
164
144
185
171
152
154
142
126
128
118
107
104
96
87
113
105
96
109
104
93
100
96
85
80
77
66
131
128
114
174
167
151
245
242
230
255
255
255
255
255
255
255
255
255
255
255
255
255
255
255
255
255
255
255
255
255
255
255
255
255
255
255
255
255
255
255
255
255
255
255
255
255
255
255
255
255
255
255
255
255
255
255
255
255
255
255
255
255
255
255
255
255
255
255
255
255
255
255
255
255
255
255
255
255
255
255
255
255
255
255
255
255
255
255
255
255
255
255
255
255
255
255
255
255
255
255
255
255
255
255
255
255
255
255
255
255
255
255
255
255
255
255
255
255
255
255
255
255
255
255
255
255
255
255
255
255
255
255
255
255
255
255
255
255
255
255
255
255
255
255
255
255
255
255
255
255
255
255
255
255
255
255
255
255
255
255
255
255
255
255
255
255
255
255
255
255
255
255
255
255
255
255
254
255
255
255
255
255
255
255
255
255
255
255
255
255
255
255
255
255
255
255
255
255
255
255
255
255
255
255
255
255
255
255
255
255
255
255
255
255
255
252
255
255
249
255
255
247
255
255
243
255
255
242
255
255
243
255
255
242
255
255
243
255
255
248
255
255
255
255
255
255
255
255
255
255
255
255
255
255
255
255
255
255
255
255
255
255
255
255
255
255
255
255
255
255
255
255
255
255
255
255
255
255
255
255
255
255
255
255
255
255
255
255
255
255
255
255
255
255
255
255
255
255
255
255
255
255
255
255
255
255
255
255
255
255
255
255
255
255
255
255
255
255
255
255
255
255
255
255
255
255
255
255
255
255
255
255
255
255
255
255
255
255
255
255
255
255
255
255
255
255
255
255
255
255
255
255
255
255
255
255
255
255
255
255
255
255
255
255
255
255
255
255
255
255
255
255
255
255
255
255
255
255
255
255
255
255
255
255
255
255
255
255
255
255
255
255
255
255
255
255
255
255
255
255
255
255
255
255
255
255
255
255
255
255
255
255
255
255
255
255
255
255
255
255
255
255
255
255
255
255
255
255
255
255
255
255
255
255
255
255
255
255
255
255
255
255
255
255
255
255
255
255
255
255
255
255
242
248
224
181
230
194
160
211
177
145
244
233
213
253
237
200
221
176
135
199
159
127
145
114
92
134
116
97
198
178
156
228
210
181
252
233
199
243
220
183
244
222
186
254
243
206
254
243
204
255
251
216
255
249
208
255
252
214
255
255
243
255
255
255
255
255
254
255
255
253
255
255
238
255
252
217
255
250
210
251
240
198
246
230
189
241
222
184
245
231
197
245
232
198
249
240
212
251
239
212
254
250
227
254
249
223
240
226
198
235
222
196
218
204
181
222
209
189
199
185
166
174
160
142
161
149
131
155
145
129
119
110
96
134
126
111
140
128
111
95
87
75
33
29
22
26
23
15
52
48
40
127
118
100
212
204
181
255
255
254
255
255
255
255
255
255
255
255
255
255
255
255
255
255
255
255
255
255
255
255
255
255
255
255
255
255
255
255
255
255
255
255
255
255
255
255
255
255
255
255
255
255
255
255
255
255
255
255
255
255
255
255
255
255
255
255
255
255
255
255
255
255
255
255
255
255
255
255
255
255
255
255
255
255
255
255
255
255
255
255
255
255
255
255
255
255
255
255
255
255
255
255
255
255
255
255
255
255
255
255
255
255
255
255
255
255
255
255
255
255
255
255
255
255
255
255
255
255
255
255
255
255
255
255
255
255
255
255
255
255
255
255
255
255
255
255
255
255
255
255
255
255
255
255
255
255
255
255
255
254
255
255
255
255
255
255
255
255
255
255
255
254
255
255
252
255
255
253
255
255
255
255
255
255
255
255
255
255
255
255
255
255
255
255
255
255
255
255
255
255
255
255
255
255
255
255
255
255
255
255
255
255
255
253
255
255
250
255
255
249
255
255
245
255
255
244
255
255
244
255
255
241
255
255
240
255
255
244
255
255
255
255
255
255
255
255
255
255
255
254
255
255
255
255
255
254
255
255
253
255
255
251
255
255
249
255
255
249
255
255
251
255
255
251
255
255
252
255
255
253
255
255
253
255
255
254
255
255
255
255
255
255
255
255
255
255
255
255
255
255
255
255
255
255
255
255
255
255
255
255
255
255
255
255
255
255
255
255
255
255
255
255
255
255
255
255
255
255
255
255
255
255
255
255
255
255
255
255
255
255
255
255
255
255
255
255
255
255
255
255
255
255
255
255
255
255
255
255
255
255
255
255
255
255
255
255
255
255
255
255
255
255
255
255
255
255
255
255
255
255
255
255
255
255
255
255
255
255
255
255
255
255
255
255
255
255
255
255
255
255
255
255
255
255
255
255
255
255
255
255
255
255
255
255
255
255
255
255
255
255
255
255
255
255
255
255
255
255
255
255
255
255
255
255
255
255
255
255
255
255
255
255
255
255
255
255
255
255
255
253
232
249
218
179
221
187
153
218
183
154
255
249
224
254
222
178
235
191
151
181
144
114
144
115
93
165
146
122
195
178
153
236
220
190
255
243
208
244
222
185
249
229
192
254
244
206
255
245
204
254
234
193
253
233
193
255
248
209
255
255
232
255
255
230
255
255
230
255
255
229
255
250
215
253
237
196
239
221
180
215
198
160
197
181
144
212
195
162
211
196
164
216
201
170
236
223
194
239
230
205
234
221
193
244
233
204
226
212
183
221
207
181
204
190
163
205
191
167
194
179
159
165
150
132
152
143
122
143
136
118
105
99
84
108
99
85
149
133
113
180
164
131
171
166
145
67
60
49
62
55
45
124
111
93
219
211
182
255
255
253
255
255
255
255
255
255
255
255
255
255
255
255
255
255
255
255
255
255
255
255
255
255
255
255
255
255
255
255
255
255
255
255
255
255
255
255
255
255
255
255
255
255
255
255
255
255
255
255
255
255
255
255
255
255
255
255
255
255
255
255
255
255
255
255
255
255
255
255
255
255
255
255
255
255
255
255
255
255
255
255
255
255
255
255
255
255
255
255
255
255
255
255
255
255
255
255
255
255
255
255
255
255
255
255
255
255
255
255
255
255
255
255
255
255
255
255
255
255
255
255
255
255
255
255
255
255
255
255
255
255
255
255
255
255
255
255
255
255
255
255
255
255
255
255
255
255
255
255
255
254
255
255
253
255
255
254
255
255
254
255
255
253
255
255
250
255
255
251
255
255
255
255
255
254
255
255
255
255
255
255
255
255
255
255
255
255
255
255
255
255
255
255
255
255
255
255
255
255
255
255
255
255
255
255
255
255
251
255
255
249
255
255
247
255
255
246
255
255
244
255
255
241
255
255
239
255
255
240
255
255
255
255
255
255
255
255
255
255
255
252
255
255
250
255
255
246
255
255
245
255
255
244
255
255
242
255
255
237
255
255
235
255
255
238
255
255
240
255
255
242
255
255
244
255
255
245
255
255
249
255
255
252
255
255
253
255
255
254
255
255
255
255
255
255
255
255
255
255
255
255
255
255
254
255
255
252
255
255
253
255
255
254
255
255
255
255
255
255
255
255
255
255
255
255
255
255
255
255
255
255
255
255
255
255
255
255
255
255
255
255
255
255
255
255
255
255
255
255
255
255
255
255
255
255
255
255
255
255
255
255
255
255
255
255
255
255
255
255
255
255
255
255
255
255
255
255
255
255
255
255
255
255
255
255
255
255
255
255
255
255
255
255
255
255
255
255
255
255
255
255
255
255
255
255
255
255
255
255
255
255
255
255
255
255
255
255
255
255
255
255
255
255
255
255
255
255
255
255
255
255
255
255
255
255
255
255
255
255
255
250
227
243
210
173
209
174
142
238
214
183
255
251
227
254
221
177
215
176
139
171
140
110
143
117
94
155
135
111
197
180
155
241
226
196
248
231
196
244
222
185
246
224
187
255
239
201
254
236
195
254
233
191
250
227
187
253
239
198
255
251
211
255
255
219
255
255
224
253
249
212
244
229
191
222
207
171
171
157
125
122
108
88
141
131
110
166
155
133
162
149
125
202
189
166
217
205
180
206
194
168
226
212
184
226
212
183
224
210
182
200
186
159
204
190
163
192
178
152
184
170
147
161
146
126
147
136
114
92
80
66
42
40
30
43
40
32
132
119
100
223
209
176
255
255
253
231
226
204
213
195
159
226
206
165
251
242
205
253
238
197
255
255
253
255
255
255
255
255
255
255
255
255
255
255
255
255
255
255
255
255
255
255
255
255
255
255
255
255
255
255
255
255
255
255
255
255
255
255
255
255
255
255
255
255
255
255
255
255
255
255
255
255
255
255
255
255
255
255
255
255
255
255
255
255
255
255
255
255
255
255
255
255
255
255
255
255
255
255
255
255
255
255
255
255
255
255
255
255
255
255
255
255
255
255
255
255
255
255
255
255
255
255
255
255
255
255
255
255
255
255
255
255
255
255
255
255
255
255
255
255
255
255
255
255
255
255
255
255
255
255
255
255
255
255
255
255
255
255
255
255
255
255
255
255
255
255
254
255
255
252
255
255
251
255
255
253
255
255
254
255
255
252
255
255
250
255
255
248
255
255
252
255
255
252
255
255
253
255
255
255
255
255
255
255
255
255
255
255
255
255
255
255
255
255
255
255
255
255
255
255
255
255
255
255
255
255
255
255
255
253
255
255
250
255
255
247
255
255
243
255
255
241
255
255
239
255
255
237
255
255
255
255
255
255
255
255
253
255
255
247
255
255
244
255
255
239
255
255
238
255
255
235
255
255
231
255
255
226
255
255
223
255
255
223
255
255
224
255
255
228
255
255
231
255
255
232
255
255
236
255
255
241
255
255
244
255
255
246
255
255
253
255
255
254
255
255
254
255
255
254
255
255
248
255
255
245
255
255
246
255
255
250
255
255
255
255
255
255
255
255
255
255
255
255
255
255
255
255
255
255
255
255
255
255
255
255
255
255
255
255
255
255
255
255
255
255
255
255
255
255
255
255
255
255
255
255
255
255
255
255
255
255
255
255
255
255
255
255
255
255
255
255
255
255
255
255
255
255
255
255
255
255
255
255
255
255
255
255
255
255
255
255
255
255
255
255
255
255
255
255
255
255
255
255
255
255
255
255
255
255
255
255
255
255
255
255
255
255
255
255
255
255
255
255
255
255
255
255
255
255
255
255
255
255
255
255
255
254
255
245
210
235
200
164
218
183
151
248
232
211
255
247
215
253
220
178
199
162
126
182
154
124
141
117
95
146
128
105
190
173
148
217
200
170
228
209
175
233
212
177
231
210
173
246
225
187
245
224
184
241
219
177
234
210
170
244
222
181
255
246
203
255
254
215
255
254
220
241
229
192
225
210
174
170
159
129
61
57
43
34
30
25
95
94
87
42
39
31
87
82
72
151
142
128
166
154
136
179
164
144
202
188
162
204
190
162
200
186
159
180
166
140
188
177
151
152
141
116
145
132
113
94
81
67
75
61
53
61
42
36
69
57
50
85
82
78
179
163
138
250
242
220
255
255
255
255
254
251
234
199
164
215
180
144
211
172
137
245
203
159
255
254
241
255
255
255
255
255
255
255
255
255
255
255
255
255
255
255
255
255
255
255
255
255
255
255
255
255
255
255
255
255
255
255
255
255
255
255
255
255
255
255
255
255
255
255
255
255
255
255
255
255
255
255
255
255
255
255
255
255
255
255
254
255
255
255
255
255
255
255
255
255
255
255
255
255
255
255
255
255
255
255
255
255
255
255
255
255
255
255
255
255
255
255
255
255
255
255
255
255
255
255
255
255
255
255
255
255
255
255
255
255
255
255
255
255
255
255
255
255
255
255
255
255
255
255
255
255
255
255
255
255
255
255
255
255
255
255
255
255
255
255
255
255
255
255
255
255
255
252
255
255
249
255
255
250
255
255
254
255
255
254
255
255
250
255
255
248
255
255
249
255
255
249
255
255
252
255
255
255
255
255
255
255
255
255
255
255
255
255
255
255
255
255
255
255
255
255
255
255
255
255
255
255
255
255
255
255
255
254
255
255
251
255
255
247
255
255
242
255
255
239
255
255
237
255
255
236
255
255
255
255
255
254
255
255
249
255
255
243
255
255
240
255
255
237
255
255
234
255
255
228
255
255
225
255
255
219
255
255
216
255
255
213
255
255
213
255
255
217
255
255
220
255
255
221
255
255
226
255
255
229
255
255
232
255
255
237
255
255
243
255
255
247
255
255
248
255
255
250
255
255
245
255
255
243
255
255
241
255
255
247
255
255
252
255
255
255
255
255
255
255
255
255
255
255
255
255
255
255
255
255
255
255
255
255
255
255
255
255
255
255
255
255
255
255
255
255
255
255
255
255
255
255
255
255
255
255
255
255
255
255
255
255
255
255
255
255
255
255
255
255
255
255
255
255
255
255
255
255
255
255
255
255
255
255
255
255
255
255
255
255
255
255
255
255
255
255
255
255
255
255
255
255
255
255
255
255
255
255
255
255
255
255
255
255
255
255
255
255
255
255
255
255
255
255
255
255
255
255
255
255
255
255
255
255
255
248
254
238
198
236
201
164
230
195
162
250
230
196
255
247
207
239
207
166
198
161
125
189
160
131
137
114
92
138
122
98
179
163
138
200
182
152
219
199
166
233
213
180
230
210
174
245
225
187
243
223
182
241
222
180
239
217
176
252
236
194
255
252
211
255
255
224
253
248
213
232
220
183
202
189
154
101
94
77
22
21
16
52
51
47
52
51
47
18
17
14
83
79
75
89
82
76
73
60
53
108
91
84
108
90
79
142
125
111
122
105
90
104
89
75
115
102
91
66
56
46
57
49
40
49
41
33
71
60
55
64
47
42
102
84
78
139
124
116
228
216
188
255
254
244
255
255
255
248
236
223
187
145
114
182
142
109
192
151
118
232
191
144
255
254
234
255
255
255
255
255
255
255
255
255
255
255
255
255
255
255
255
255
255
255
255
255
255
255
255
255
255
255
255
255
255
255
255
255
255
255
255
255
255
255
255
255
255
255
255
255
255
255
255
255
255
255
255
255
255
255
255
255
255
255
255
255
255
255
255
255
255
255
255
255
255
255
255
255
255
255
255
255
255
255
255
255
255
255
255
255
255
255
255
255
255
255
255
255
255
255
255
255
255
255
255
255
255
255
255
255
255
255
255
255
255
255
255
255
255
255
255
255
255
255
255
255
255
255
255
255
255
255
255
255
255
255
255
255
255
255
255
255
254
255
255
255
255
255
255
255
255
255
255
255
254
255
255
254
255
255
255
255
255
255
255
255
251
255
255
246
255
255
250
255
255
251
255
255
253
255
255
255
255
255
255
255
255
255
255
255
255
255
255
255
255
255
255
255
255
255
255
255
255
255
255
255
255
255
255
255
255
255
255
255
251
255
255
245
255
255
241
255
255
241
255
255
238
255
255
238
255
255
254
255
255
251
255
255
243
255
255
237
255
255
235
255
255
232
255
255
231
255
255
230
255
255
223
255
255
217
255
255
210
255
255
207
255
255
207
255
255
210
255
255
210
255
255
213
255
255
217
255
255
218
255
255
220
255
255
228
255
255
234
255
255
240
255
255
243
255
255
244
255
255
245
255
255
241
255
255
242
255
255
244
255
255
251
255
255
255
255
255
255
255
255
255
255
255
255
255
255
255
255
255
255
255
255
255
255
255
255
255
255
254
255
255
253
255
255
254
255
255
254
255
255
254
255
255
253
255
255
255
255
255
255
255
255
255
255
255
255
255
255
255
255
255
255
255
255
255
255
255
255
255
255
255
255
255
255
255
255
255
255
255
255
255
255
253
255
255
252
255
255
254
255
255
255
255
255
255
255
255
255
255
255
255
255
255
255
255
255
255
255
255
255
255
255
255
255
255
255
255
255
255
255
255
255
255
255
238
253
229
189
235
202
167
216
181
149
239
214
182
255
245
205
236
198
156
205
169
133
195
166
137
142
119
98
128
112
89
182
166
140
202
184
154
230
210
177
237
217
183
235
215
178
247
228
190
251
234
192
250
233
190
250
231
189
255
248
205
255
254
214
255
255
223
255
248
213
240
227
193
181
171
141
41
40
30
28
27
24
50
49
46
38
37
34
50
48
48
91
87
85
51
43
40
68
53
52
81
63
61
101
79
76
107
85
80
116
95
88
116
97
91
104
87
83
79
66
61
79
67
61
77
65
61
79
70
67
95
82
77
110
89
85
163
137
133
252
240
226
255
255
253
255
255
255
231
208
186
179
136
107
176
136
105
182
144
112
208
174
133
254
254
245
255
255
255
255
255
255
255
255
255
255
255
255
255
255
255
255
255
255
255
255
255
255
255
255
255
255
255
255
255
255
255
255
255
255
255
255
255
255
255
255
255
255
255
255
255
255
255
255
255
255
255
255
255
255
255
255
255
255
255
255
255
255
255
255
255
255
255
255
255
255
255
255
255
255
255
255
255
255
255
255
255
255
255
255
255
255
255
255
255
255
255
255
255
255
255
255
255
255
255
255
255
255
255
255
255
255
255
255
255
255
255
255
255
255
255
255
255
255
255
255
255
255
255
255
255
255
255
255
255
255
255
255
255
255
254
255
255
248
255
255
250
255
255
255
255
255
255
255
255
255
255
255
255
255
255
255
255
255
255
255
255
255
255
255
253
255
255
251
255
255
251
255
255
251
255
255
253
255
255
253
255
255
254
255
255
254
255
255
253
255
255
255
255
255
255
255
255
255
255
255
255
255
255
255
255
255
255
255
255
252
255
255
245
255
255
241
255
255
242
255
255
240
255
255
236
255
255
251
255
255
247
255
255
243
255
255
235
255
255
235
255
255
230
255
255
231
255
255
234
255
255
229
255
255
220
255
255
212
255
255
210
255
255
210
255
255
208
255
255
207
255
255
212
255
255
214
255
255
216
255
255
217
255
255
224
255
255
235
255
255
241
255
255
242
255
255
244
255
255
249
255
255
246
255
255
246
255
255
246
255
255
251
255
255
255
255
255
255
255
255
255
255
255
255
255
255
255
255
255
255
255
255
255
255
255
253
255
255
254
255
255
252
255
255
251
255
255
250
255
255
251
255
255
253
255
255
255
255
255
255
255
255
255
255
255
255
255
255
255
255
255
255
255
255
255
255
255
255
255
255
255
255
255
255
255
255
255
255
255
250
255
255
248
255
255
246
255
255
251
255
255
254
255
255
255
255
255
255
255
255
255
255
255
255
255
255
255
255
255
255
255
255
255
255
255
255
255
255
255
255
255
255
255
249
221
250
223
185
227
195
157
219
187
153
250
237
202
255
241
198
235
198
157
201
166
131
197
171
140
147
126
104
146
130
107
189
172
145
213
196
166
236
219
186
237
218
184
239
221
184
253
234
197
250
230
192
246
227
185
249
232
189
251
239
196
253
243
200
255
253
212
255
249
209
243
232
197
179
168
141
49
45
36
37
33
31
52
48
46
36
32
29
80
74
71
106
96
92
108
96
91
73
60
57
79
66
63
95
76
73
105
80
79
123
100
96
149
125
122
139
115
114
124
104
103
109
93
91
113
101
98
106
92
91
113
99
98
136
121
120
157
131
130
240
231
229
255
255
255
255
255
250
228
203
175
209
171
138
190
155
124
194
154
121
200
169
131
254
252
234
255
255
255
255
255
255
255
255
255
255
255
255
255
255
255
255
255
255
255
255
255
255
255
255
255
255
255
255
255
255
255
255
255
255
255
255
255
255
255
255
255
255
255
255
255
255
255
255
255
255
255
255
255
255
255
255
255
255
255
255
255
255
255
255
255
255
255
255
255
255
255
255
255
255
255
255
255
255
255
255
255
255
255
255
255
255
255
255
255
255
255
255
255
255
255
255
255
255
255
255
255
255
255
255
255
255
255
255
255
255
255
255
255
255
255
255
255
255
255
255
255
255
255
255
255
255
255
255
255
255
255
255
255
255
254
255
255
253
255
255
253
255
255
255
255
255
255
255
255
255
255
255
255
255
255
255
255
255
255
255
255
255
255
255
255
255
255
253
255
255
248
255
255
245
255
255
247
255
255
251
255
255
253
255
255
253
255
255
252
255
255
254
255
255
255
255
255
255
255
255
255
255
255
255
255
255
255
255
255
252
255
255
248
255
255
246
255
255
241
255
255
238
255
255
232
255
255
244
255
255
242
255
255
241
255
255
236
255
255
234
255
255
233
255
255
235
255
255
235
255
255
235
255
255
226
255
255
220
255
255
216
255
255
215
255
255
214
255
255
214
255
255
218
255
255
219
255
255
223
255
255
222
255
255
227
255
255
234
255
255
240
255
255
244
255
255
246
255
255
248
255
255
249
255
255
252
255
255
252
255
255
254
255
255
255
255
255
255
255
255
255
255
255
255
255
255
255
255
255
255
255
255
255
255
255
251
255
255
251
255
255
252
255
255
251
255
255
252
255
255
254
255
255
255
255
255
255
255
255
255
255
255
255
255
255
255
255
255
255
255
255
255
255
255
255
255
255
255
255
255
255
255
255
255
255
255
254
255
255
251
255
255
250
255
255
250
255
255
250
255
255
252
255
255
255
255
255
255
255
255
255
255
255
255
255
255
255
255
255
255
255
255
255
255
255
255
255
255
255
255
255
251
254
238
197
231
196
161
227
195
160
223
191
157
235
211
175
255
238
195
231
193
152
206
171
135
197
171
138
158
136
112
145
127
103
187
170
143
214
197
168
235
218
186
239
222
187
243
227
189
248
229
191
243
223
185
244
224
183
236
216
175
242
224
182
249
234
191
249
235
194
252
238
199
239
226
189
182
168
137
90
80
64
48
45
39
49
45
42
51
48
46
59
56
53
109
100
97
130
119
116
113
102
98
172
163
156
154
144
136
95
71
70
112
88
87
174
148
145
172
145
146
165
141
143
146
125
127
144
125
127
158
142
144
146
130
132
157
141
142
199
179
179
245
232
234
255
255
255
255
255
250
226
196
160
197
154
118
236
194
151
251
233
200
253
251
242
255
251
233
255
255
255
255
255
255
255
255
255
255
255
255
255
255
255
255
255
255
255
255
255
255
255
255
255
255
255
255
255
255
255
255
255
255
255
255
255
255
255
255
255
255
255
255
255
255
255
255
255
255
255
255
255
255
255
255
255
255
255
255
255
255
255
255
255
255
255
255
255
255
255
255
255
255
255
255
255
255
255
255
255
255
255
255
255
255
255
255
255
255
255
255
255
255
255
255
255
255
255
255
255
255
255
255
255
255
255
255
255
255
255
255
255
255
255
255
255
255
255
255
255
255
255
255
255
255
255
255
255
255
255
255
255
255
255
255
255
255
255
255
255
255
255
255
255
255
255
255
255
255
255
255
255
255
255
255
255
255
255
255
255
255
255
255
255
255
255
254
255
255
249
255
255
244
255
255
242
255
255
251
255
255
255
255
255
254
255
255
255
255
255
255
255
255
255
255
255
255
255
255
255
255
255
255
255
255
255
255
255
255
255
255
253
255
255
244
255
255
236
255
255
233
255
255
230
255
255
243
255
255
240
255
255
239
255
255
237
255
255
237
255
255
238
255
255
240
255
255
242
255
255
241
255
255
236
255
255
233
255
255
230
255
255
227
255
255
225
255
255
225
255
255
229
255
255
230
255
255
230
255
255
230
255
255
234
255
255
237
255
255
240
255
255
242
255
255
243
255
255
242
255
255
245
255
255
251
255
255
255
255
255
255
255
255
255
255
255
255
255
255
255
255
255
255
255
255
255
255
255
255
255
255
255
255
255
252
255
255
252
255
255
253
255
255
255
255
255
255
255
255
255
255
255
255
255
255
255
255
255
255
255
255
255
255
255
255
255
255
255
255
255
255
255
255
255
255
255
255
255
255
255
255
255
255
255
255
255
255
255
255
255
255
255
255
255
255
255
255
255
255
255
255
255
255
255
255
255
255
255
255
255
255
255
255
255
255
255
255
255
255
255
255
255
255
255
255
255
255
255
255
255
244
245
217
173
230
195
162
222
189
156
200
168
135
235
217
181
255
236
193
231
193
152
205
170
135
192
163
131
162
137
112
135
114
90
170
153
127
214
198
168
228
213
179
233
218
183
237
223
185
246
228
191
243
223
185
240
220
179
228
206
165
227
207
165
221
202
160
228
209
168
237
221
181
235
221
181
205
189
153
167
152
128
87
82
69
57
54
48
63
62
60
51
50
47
67
61
60
108
99
99
155
145
141
211
203
192
197
190
178
108
93
89
118
96
96
158
131
129
193
164
164
186
159
163
180
155
160
169
147
152
184
165
168
191
171
175
183
162
168
213
191
199
247
237
240
255
255
255
255
254
249
254
236
196
246
215
176
255
247
221
255
255
252
255
255
255
255
255
253
255
255
255
255
255
255
255
255
255
255
255
255
255
255
255
255
255
255
255
255
255
255
255
255
255
255
255
255
255
255
255
255
255
255
255
255
255
255
255
255
255
255
255
255
255
255
255
255
255
255
255
255
255
255
255
255
255
255
255
255
255
255
255
255
255
255
255
255
255
255
255
255
255
255
255
255
255
255
255
255
255
255
255
255
255
255
255
255
255
255
255
255
255
255
255
255
255
255
255
255
255
255
255
255
255
255
255
255
255
255
255
255
255
255
255
255
255
255
255
255
255
255
255
255
255
255
255
255
255
255
255
255
255
255
255
255
255
255
255
255
255
255
255
255
255
255
255
255
255
255
255
255
255
255
255
255
255
255
255
255
255
255
255
255
255
255
255
255
255
255
247
255
255
244
255
255
245
255
255
251
255
255
255
255
255
255
255
255
255
255
255
255
255
255
255
255
255
255
255
255
255
255
255
255
255
255
255
255
255
255
255
255
255
255
255
246
255
255
234
255
255
231
255
255
233
255
255
241
255
255
239
255
255
241
255
255
239
255
255
242
255
255
246
255
255
249
255
255
252
255
255
248
255
255
246
255
255
247
255
255
245
255
255
241
255
255
237
255
255
236
255
255
239
255
255
238
255
255
236
255
255
236
255
255
241
255
255
240
255
255
244
255
255
248
255
255
247
255
255
246
255
255
248
255
255
253
255
255
255
255
255
255
255
255
255
255
255
255
255
255
255
255
255
255
255
255
255
255
255
255
255
255
255
255
255
254
255
255
255
255
255
255
255
255
255
255
255
255
255
255
255
255
255
255
255
255
255
255
255
255
255
255
255
255
255
255
255
255
255
255
255
255
255
255
255
255
255
255
255
255
255
255
255
255
255
255
255
255
255
255
255
255
255
255
255
255
255
255
255
255
255
255
255
255
255
255
255
255
255
255
255
255
255
255
255
255
255
255
255
255
255
255
255
255
255
255
255
255
255
255
254
236
246
218
170
223
186
152
212
176
146
209
177
145
254
233
193
252
223
181
232
195
156
195
160
125
187
156
126
158
133
106
127
106
82
166
149
124
192
175
145
211
195
161
223
207
173
236
220
185
240
222
185
244
225
186
227
205
164
223
201
160
205
183
142
207
185
144
226
205
164
225
207
164
239
224
183
230
215
179
212
197
165
172
158
131
112
102
86
68
66
61
66
66
64
48
49
47
37
35
34
83
74
71
149
141
133
164
158
147
144
136
131
206
194
193
122
101
100
190
164
164
195
167
173
188
160
170
189
164
175
195
171
181
211
188
196
231
211
218
218
195
204
233
209
217
255
253
253
255
255
254
255
255
252
255
255
254
255
255
254
255
255
255
255
255
255
255
255
255
255
255
255
255
255
255
255
255
255
255
255
255
255
255
255
255
255
255
255
255
255
255
255
255
255
255
255
255
255
255
255
255
255
255
255
255
255
255
255
255
255
255
255
255
255
255
255
255
255
255
255
255
255
255
255
255
255
255
255
255
255
255
255
255
255
255
255
255
255
255
255
255
255
255
255
255
255
255
255
255
255
255
255
255
255
255
255
255
255
255
255
255
255
255
255
255
255
255
255
255
255
255
255
255
255
255
255
255
255
255
255
255
255
255
255
255
255
255
255
255
255
255
255
255
255
255
255
255
255
255
255
255
255
255
255
255
255
255
255
255
255
255
255
255
255
255
255
255
255
255
255
255
255
255
255
255
255
255
255
255
255
255
255
255
255
255
255
255
255
255
249
255
255
247
255
255
246
255
255
249
255
255
253
255
255
255
255
255
255
255
255
255
255
255
255
255
255
255
255
255
255
255
255
255
255
255
255
255
255
255
255
255
255
255
255
249
255
255
239
255
255
236
255
255
237
255
255
237
255
255
236
255
255
238
255
255
243
255
255
247
255
255
254
255
255
255
255
255
255
255
255
255
255
255
255
255
255
254
255
255
254
255
255
250
255
255
247
255
255
247
255
255
247
255
255
245
255
255
244
255
255
242
255
255
246
255
255
247
255
255
250
255
255
253
255
255
253
255
255
254
255
255
255
255
255
255
255
255
255
255
255
255
255
255
255
255
255
255
255
255
255
255
255
255
255
255
255
255
255
255
255
255
255
255
255
255
255
255
255
255
255
255
255
255
255
255
255
255
255
255
255
255
255
255
255
255
255
255
255
255
255
255
255
255
255
255
255
255
255
255
255
255
255
255
255
255
255
255
255
255
255
255
255
255
255
255
255
255
255
255
255
255
255
255
255
255
255
255
255
255
255
255
255
255
255
255
255
255
255
255
255
255
255
255
255
255
255
255
255
255
255
255
255
255
255
255
255
255
255
255
255
237
250
230
182
223
187
150
209
175
141
214
182
150
237
208
172
247
214
176
232
195
156
200
165
130
189
158
127
162
135
109
134
112
88
157
140
111
172
155
126
186
169
138
203
187
154
220
204
169
223
206
168
226
206
168
218
196
156
212
190
149
206
184
143
218
196
155
212
191
150
218
200
157
231
213
173
240
222
184
239
221
184
208
191
156
177
162
135
124
111
94
78
72
64
57
55
52
55
56
52
52
48
45
35
32
28
51
46
42
99
95
92
122
117
114
94
84
82
159
139
140
207
176
181
204
170
179
208
172
184
236
223
227
232
198
208
238
206
218
254
241
248
251
236
242
255
241
250
255
255
255
255
253
254
255
255
255
255
255
255
255
255
255
255
255
255
255
255
255
255
255
255
255
255
255
255
255
255
255
255
255
255
255
255
255
255
255
255
255
255
255
255
255
255
255
255
255
255
255
255
255
255
255
255
255
255
255
255
255
255
255
255
255
255
255
255
255
255
255
255
255
255
255
255
255
255
255
255
255
255
255
255
255
255
255
255
255
255
255
255
255
255
255
255
255
255
255
255
255
255
255
255
255
255
255
255
255
255
255
255
255
255
255
255
255
255
255
255
255
255
255
255
255
255
255
255
255
255
255
255
255
255
255
255
255
255
255
255
255
255
255
255
255
255
255
255
255
255
255
255
255
255
255
255
255
255
255
255
255
255
255
255
255
255
255
255
255
255
255
255
255
255
255
255
255
255
255
255
255
255
255
255
255
255
255
255
255
255
255
252
255
255
246
255
255
247
255
255
249
255
255
251
255
255
253
255
255
254
255
255
254
255
255
255
255
255
255
255
255
255
255
255
255
255
255
255
255
255
255
255
255
254
255
255
247
255
255
244
255
255
243
255
255
243
255
255
236
255
255
237
255
255
241
255
255
249
255
255
253
255
255
255
255
255
255
255
255
255
255
255
255
255
255
255
255
255
255
255
255
255
255
255
255
255
255
255
255
255
254
255
255
254
255
255
253
255
255
249
255
255
247
255
255
252
255
255
254
255
255
255
255
255
255
255
255
255
255
255
255
255
255
255
255
255
255
255
255
255
255
255
255
255
255
255
255
255
255
255
255
255
255
255
255
255
255
255
255
255
255
255
255
255
255
255
255
255
255
255
255
255
255
255
255
255
255
255
255
255
255
255
255
255
255
255
255
255
255
255
255
255
255
255
255
255
255
255
255
255
255
255
255
255
255
255
255
255
255
255
255
255
255
255
255
255
255
255
255
255
255
255
255
255
255
255
255
255
255
255
255
255
255
255
255
255
255
255
255
255
255
255
255
255
255
255
255
255
255
255
255
255
255
255
255
255
255
255
255
255
255
255
246
255
247
199
238
203
162
209
175
141
195
165
134
215
183
151
245
211
172
235
199
161
193
159
126
186
156
125
175
149
120
136
112
86
133
113
82
143
124
95
158
140
112
176
160
127
198
182
147
211
195
158
222
205
168
224
206
168
219
199
158
211
189
148
209
186
145
203
181
140
215
194
152
224
203
163
239
218
178
243
222
182
230
214
182
218
201
167
198
179
147
161
146
122
112
101
88
63
59
52
61
57
54
55
53
51
48
46
45
44
42
40
45
43
40
53
51
48
81
71
70
164
139
139
190
157
158
169
131
134
251
247
246
236
201
204
239
193
211
253
224
238
255
253
255
255
254
255
255
255
255
255
253
254
255
255
255
255
255
255
255
255
255
255
255
255
255
255
255
255
255
255
255
255
255
255
255
255
255
255
255
255
255
255
255
255
255
255
255
255
255
255
255
255
255
255
255
255
255
255
255
255
255
255
255
255
255
255
255
255
255
255
255
255
255
255
255
255
255
255
255
255
255
255
255
255
255
255
255
255
255
255
255
255
255
255
255
255
255
255
255
255
255
255
255
255
255
255
255
255
255
255
255
255
255
255
255
255
255
255
255
255
255
255
255
255
255
255
255
255
255
255
255
255
255
255
255
255
255
255
255
255
255
255
255
255
255
255
255
255
255
255
255
255
255
255
255
255
255
255
255
255
255
255
255
255
255
255
255
255
255
255
252
255
255
251
255
255
255
255
255
255
255
255
255
255
255
255
255
255
255
255
255
255
255
255
255
255
255
254
255
255
252
255
255
250
255
255
253
255
255
250
255
255
250
255
255
250
255
255
251
255
255
254
255
255
255
255
255
255
255
255
255
255
255
255
255
255
255
255
255
252
255
255
246
255
255
248
255
255
251
255
255
251
255
255
238
255
255
239
255
255
243
255
255
252
255
255
255
255
255
255
255
255
255
255
255
255
255
255
255
255
255
255
255
255
255
255
255
255
255
255
255
255
255
255
255
255
255
255
255
255
255
255
255
255
255
255
255
255
251
255
255
254
255
255
255
255
255
255
255
255
255
255
255
255
255
255
255
255
255
255
255
255
255
255
255
255
255
255
255
255
255
255
255
255
255
255
255
255
255
255
255
255
255
255
255
255
255
255
255
255
255
255
255
255
255
255
255
255
255
255
255
255
255
255
255
255
255
255
255
255
255
255
255
255
255
255
255
255
255
255
255
255
255
255
255
255
255
255
255
255
255
255
255
255
255
255
255
255
255
255
255
255
255
255
255
255
255
255
255
255
255
255
255
255
255
255
255
255
255
255
255
255
255
255
255
255
255
255
255
255
255
255
255
255
255
255
255
255
255
255
255
255
255
255
255
255
255
255
252
255
254
214
249
226
181
215
179
144
180
149
117
205
174
143
238
206
168
237
201
163
195
160
127
184
155
124
174
147
117
154
128
101
142
119
88
145
125
96
169
150
123
179
162
132
188
172
139
205
189
155
219
203
168
228
212
178
235
216
178
227
207
167
225
203
162
211
189
148
218
196
155
217
195
154
231
209
168
244
222
181
243
225
188
236
217
180
219
200
163
199
183
149
179
165
137
162
146
123
118
105
88
70
64
56
53
50
46
52
49
46
52
52
49
61
60
56
61
60
57
56
53
52
60
52
51
77
64
62
223
203
195
198
157
155
239
188
199
252
223
232
255
241
249
255
255
255
255
255
255
255
255
255
255
255
255
255
255
255
255
255
255
255
255
255
255
255
255
255
255
255
255
255
255
255
255
255
255
255
255
255
255
255
255
255
255
255
255
255
255
255
255
255
255
255
255
255
255
255
255
255
255
255
255
255
255
255
255
255
255
255
255
255
255
255
255
255
255
255
255
255
255
255
255
255
255
255
255
255
255
255
255
255
255
255
255
255
255
255
255
255
255
255
255
255
255
255
255
255
255
255
255
255
255
255
255
255
255
255
255
255
255
255
255
255
255
255
255
255
255
255
255
255
255
255
255
255
255
255
255
255
255
255
255
255
255
255
255
255
255
255
255
255
255
255
255
255
255
255
255
255
255
255
255
255
255
255
255
253
255
255
245
255
255
244
255
255
253
255
255
255
255
255
255
255
255
255
255
255
255
255
255
255
255
255
255
255
255
255
255
255
255
255
255
254
255
255
250
255
255
247
255
255
247
255
255
248
255
255
251
255
255
254
255
255
255
255
255
255
255
255
255
255
255
255
255
255
255
255
255
252
255
255
249
255
255
252
255
255
255
255
255
255
255
255
241
255
255
244
255
255
247
255
255
254
255
255
255
255
255
255
255
255
255
255
255
255
255
255
255
255
255
255
255
255
255
255
255
255
255
255
255
255
255
255
255
255
255
255
255
255
255
255
255
255
255
255
255
255
255
255
255
255
255
255
255
255
255
255
255
255
255
255
255
255
255
255
255
255
255
255
255
255
255
255
255
255
255
255
255
255
255
255
255
255
255
255
255
255
255
255
255
255
255
255
255
255
255
255
255
255
255
255
255
255
255
255
255
255
255
255
255
255
255
255
255
255
255
255
255
255
255
255
255
255
255
255
255
255
255
255
255
255
255
255
255
255
255
255
255
255
255
255
255
255
255
255
255
255
255
255
255
255
255
255
255
255
255
255
255
255
255
255
255
255
255
255
255
255
255
255
255
255
255
255
255
255
255
255
255
255
255
255
255
255
255
255
255
255
255
255
255
255
255
255
255
255
255
255
254
255
255
243
254
242
196
234
203
156
190
157
122
179
148
118
228
198
161
236
200
162
192
157
125
182
153
123
178
151
121
177
151
124
171
148
118
159
139
110
163
144
117
154
137
109
169
153
122
194
178
145
210
194
161
222
206
173
229
212
177
233
215
177
227
207
166
222
200
159
210
188
147
210
188
147
233
211
170
241
219
178
241
221
180
235
217
178
232
216
180
223
207
173
214
196
162
199
177
145
183
161
133
165
146
122
142
126
109
119
108
95
75
69
61
48
47
43
57
56
52
51
49
48
71
68
67
85
79
77
126
114
113
112
97
97
140
110
115
198
159
166
232
192
203
247
222
230
254
235
240
252
244
243
243
241
236
255
255
255
255
255
255
255
255
255
255
255
255
255
255
255
255
255
255
255
255
255
255
255
255
255
255
255
255
255
255
255
255
255
255
255
255
255
255
255
255
255
255
255
255
255
255
255
255
255
255
255
255
255
255
255
255
255
255
255
255
255
255
255
255
255
255
255
255
255
255
255
255
255
255
255
255
255
255
255
255
255
255
255
255
255
255
255
255
255
255
255
255
255
255
255
255
255
255
255
255
255
255
255
255
255
255
255
255
255
255
255
255
255
255
255
255
255
255
255
255
255
255
255
255
255
255
255
255
255
255
255
255
255
255
255
255
255
255
255
255
255
255
255
255
255
255
255
255
255
255
255
255
251
255
255
240
255
255
239
255
255
249
255
255
254
255
255
255
255
255
255
255
255
255
255
255
255
255
255
254
255
255
252
255
255
254
255
255
255
255
255
252
255
255
250
255
255
250
255
255
250
255
255
253
255
255
255
255
255
255
255
255
255
255
255
255
255
255
255
255
255
255
255
255
254
255
255
252
255
255
254
255
255
255
255
255
255
255
255
249
255
255
251
255
255
253
255
255
255
255
255
255
255
255
255
255
255
255
255
255
255
255
255
255
255
255
255
255
255
255
255
255
255
255
255
255
255
255
255
255
255
255
255
255
255
255
255
255
255
255
255
255
255
255
255
255
255
255
255
255
255
255
255
255
255
255
255
255
255
255
255
255
255
255
255
255
255
255
255
255
255
255
255
255
255
255
255
255
255
255
255
255
255
255
255
255
255
255
255
255
255
255
255
255
255
255
255
255
255
255
255
255
255
255
255
255
255
255
255
255
255
255
255
255
255
255
255
255
255
255
255
255
255
255
255
255
255
255
255
255
255
255
255
255
255
255
255
255
255
255
255
255
255
255
255
255
255
255
255
255
255
255
255
255
255
255
255
255
255
255
255
255
255
255
255
255
255
255
255
255
255
255
255
255
255
255
255
255
255
255
255
255
255
255
255
255
255
255
255
255
255
255
255
255
255
255
253
255
255
227
253
236
193
238
202
151
204
165
124
218
186
148
236
202
163
200
167
134
179
150
122
165
137
113
155
130
101
158
135
103
150
130
99
151
132
102
151
131
103
170
151
123
193
173
143
209
192
159
222
206
173
230
214
179
233
217
180
236
219
180
232
211
172
222
200
158
220
197
156
226
203
162
225
202
161
228
208
166
238
219
178
241
222
185
228
210
174
229
210
177
214
194
160
198
177
144
186
166
135
185
164
133
177
160
135
143
136
121
65
62
53
52
50
46
66
65
61
61
60
56
51
50
46
68
66
66
75
74
74
54
52
51
62
55
52
100
89
88
118
103
103
142
130
127
165
161
155
227
226
218
255
255
255
255
255
255
255
255
255
255
255
255
255
255
255
255
255
255
255
255
255
255
255
255
255
255
255
255
255
255
255
255
255
255
255
255
255
255
255
255
255
255
255
255
255
255
255
255
255
255
255
255
255
255
255
255
255
255
255
255
255
255
255
255
255
255
255
255
255
255
255
255
255
255
255
255
255
255
255
255
255
255
255
255
255
255
255
255
255
255
255
255
255
255
255
255
255
255
255
255
255
255
255
255
255
255
255
255
255
255
255
255
255
255
255
255
255
255
255
255
255
255
255
255
255
255
255
255
255
255
255
255
255
255
255
255
255
255
255
255
255
255
255
255
255
255
255
255
255
255
255
255
248
255
255
242
255
255
245
255
255
251
255
255
254
255
255
255
255
255
255
255
255
251
255
255
249
255
255
249
255
255
248
255
255
249
255
255
251
255
255
252
255
255
250
255
255
251
255
255
253
255
255
253
255
255
254
255
255
255
255
255
255
255
255
255
255
255
255
255
255
255
255
255
255
255
255
253
255
255
253
255
255
255
255
255
255
255
255
255
255
255
255
255
255
255
255
255
255
255
255
255
255
255
255
255
255
255
255
255
255
255
255
255
255
255
255
255
255
255
255
255
255
255
255
255
255
255
255
255
255
255
255
255
255
255
255
255
255
255
255
255
255
255
255
255
255
255
255
255
255
255
255
255
255
255
255
255
255
255
255
255
255
255
255
255
255
255
255
255
255
255
255
255
255
255
255
255
255
255
255
255
255
255
255
255
255
255
255
255
255
255
255
255
255
255
255
255
255
255
255
255
255
255
255
255
255
255
255
255
255
255
255
255
255
255
255
255
255
255
255
255
255
255
255
255
255
255
255
255
255
255
255
255
255
255
255
255
255
255
255
255
255
255
255
255
255
255
255
255
255
255
255
255
255
255
255
255
255
255
255
255
255
255
255
255
255
255
255
255
255
255
255
255
255
255
255
255
255
255
255
255
255
255
255
255
255
255
255
255
255
255
255
255
255
255
255
255
255
252
255
251
219
255
252
198
251
232
182
245
214
165
239
205
164
196
162
132
170
138
110
156
128
103
155
130
101
167
145
113
163
143
112
169
150
119
170
151
120
172
153
122
179
159
128
202
185
152
220
205
172
228
212
179
233
217
182
235
219
183
235
217
179
230
210
170
216
193
152
204
181
140
207
184
143
214
192
150
229
207
165
236
215
173
232
212
171
235
214
176
224
204
166
210
190
154
214
194
161
205
185
152
197
178
148
169
158
137
83
78
69
63
60
56
65
63
58
57
54
49
63
60
55
66
62
57
65
62
57
78
75
69
74
72
63
73
72
63
78
79
69
110
108
97
212
209
201
255
255
255
255
255
255
255
255
255
255
255
255
255
255
255
255
255
255
255
255
255
255
255
255
255
255
255
255
255
255
255
255
255
255
255
255
255
255
255
255
255
255
255
255
255
255
255
255
255
255
255
255
255
255
255
255
255
255
255
255
255
255
255
255
255
255
255
255
255
255
255
255
255
255
255
255
255
255
255
255
255
255
255
255
255
255
255
255
255
255
255
255
255
255
255
255
255
255
255
255
255
255
255
255
253
255
255
252
255
255
255
255
255
255
255
255
255
255
255
255
255
255
255
255
255
255
255
255
255
255
255
255
255
255
255
255
255
255
255
255
255
255
255
255
255
255
255
255
255
255
255
255
254
255
255
247
255
255
246
255
255
249
255
255
251
255
255
251
255
255
252
255
255
253
255
255
246
255
255
241
255
255
242
255
255
242
255
255
247
255
255
251
255
255
254
255
255
253
255
255
253
255
255
253
255
255
251
255
255
254
255
255
255
255
255
255
255
255
255
255
255
254
255
255
252
255
255
252
255
255
255
255
255
255
255
255
254
255
255
253
255
255
255
255
255
255
255
255
255
255
255
255
255
255
255
255
255
255
255
255
255
255
255
255
255
255
255
255
255
255
255
255
255
255
255
255
255
255
255
255
255
255
255
255
255
255
255
255
255
255
255
255
255
255
255
255
255
255
255
255
255
255
255
255
255
255
255
255
255
255
255
255
255
255
255
255
255
255
255
255
255
255
255
255
255
255
255
255
255
255
255
255
255
255
255
255
255
255
255
255
255
255
255
255
255
255
255
255
255
255
255
255
255
255
255
255
255
255
255
255
255
255
255
255
255
255
255
255
255
255
255
255
255
255
255
255
255
255
255
255
255
255
255
255
255
255
255
255
255
255
255
255
255
255
255
255
255
255
255
255
255
255
255
255
255
255
255
255
255
255
255
255
255
255
255
255
255
255
255
255
255
255
255
255
255
255
255
255
255
255
255
255
255
255
255
255
255
255
255
255
255
255
255
255
255
255
255
255
255
255
255
255
255
255
255
246
255
255
227
255
255
231
255
251
207
246
220
171
204
171
134
167
135
104
153
125
100
163
138
109
180
158
124
190
170
137
191
172
140
181
161
128
173
154
121
175
155
123
191
174
142
209
194
162
221
205
175
231
215
182
233
217
183
232
216
180
226
208
171
220
200
160
216
193
153
209
186
145
199
176
135
202
179
136
209
187
142
222
200
157
231
208
167
222
201
160
212
191
152
214
193
156
218
197
161
217
194
160
208
190
163
141
128
110
123
111
99
124
117
105
121
116
103
117
113
99
119
115
104
107
102
92
108
102
92
108
102
90
118
113
99
145
138
126
186
180
164
248
246
240
255
255
255
255
255
255
255
255
255
255
255
255
255
255
255
255
255
255
255
255
255
255
255
255
255
255
255
255
255
255
255
255
255
255
255
255
255
255
255
255
255
255
255
255
255
255
255
255
255
255
255
255
255
255
255
255
255
255
255
255
255
255
255
255
255
255
255
255
255
255
255
255
255
255
255
255
255
255
255
255
255
255
255
255
255
255
255
255
255
255
255
255
255
255
255
255
255
255
255
255
255
255
255
255
255
255
255
255
255
255
255
255
255
255
255
255
255
255
255
255
255
255
255
255
255
255
255
255
255
255
255
255
255
255
255
255
255
255
255
255
255
255
255
255
255
255
255
255
255
255
255
255
251
255
255
248
255
255
247
255
255
249
255
255
248
255
255
251
255
255
247
255
255
247
255
255
238
255
255
230
255
255
232
255
255
238
255
255
246
255
255
254
255
255
255
255
255
255
255
255
253
255
255
252
255
255
253
255
255
255
255
255
255
255
255
255
255
255
255
255
255
254
255
255
254
255
255
254
255
255
255
255
255
255
255
255
255
255
255
253
255
255
255
255
255
255
255
255
255
255
255
255
255
255
255
255
255
255
255
255
255
255
255
255
255
255
255
255
255
255
255
255
255
255
255
255
255
255
255
255
255
255
255
255
255
255
255
255
255
255
255
255
255
255
255
255
255
255
255
255
255
255
255
255
255
255
255
255
255
255
255
255
255
255
255
255
255
255
255
255
255
255
255
255
255
255
255
255
255
255
255
255
255
255
255
255
255
255
255
255
255
255
255
255
255
255
255
255
255
255
255
255
255
255
255
255
255
255
255
255
255
255
255
255
255
255
255
255
255
255
255
255
255
255
255
255
255
255
255
255
255
255
255
255
255
255
255
255
255
255
255
255
255
255
255
255
255
255
255
255
255
255
255
255
255
255
255
255
255
255
255
255
255
255
255
255
255
255
255
255
255
255
255
255
255
255
255
255
255
255
255
255
255
255
255
255
255
255
255
255
255
255
255
255
255
255
255
255
255
255
255
255
255
255
255
255
255
255
252
255
255
253
255
255
225
254
245
204
218
186
145
163
132
102
148
121
93
199
175
143
208
188
148
197
176
140
193
172
137
197
177
142
197
177
142
189
169
135
196
179
146
213
197
166
225
210
180
234
219
187
239
224
190
236
220
186
237
221
187
236
219
183
230
211
173
220
198
158
217
196
154
209
189
147
206
185
143
206
183
142
217
191
152
218
194
151
212
188
145
211
187
145
218
195
154
214
190
153
217
195
159
204
186
154
190
173
148
166
152
132
157
146
126
174
166
145
172
164
143
166
157
136
172
164
144
186
178
158
192
183
158
216
205
176
252
247
234
255
255
254
255
255
255
255
255
255
255
255
255
255
255
255
255
255
255
255
255
255
255
255
255
255
255
255
255
255
255
255
255
255
255
255
255
255
255
255
255
255
255
255
255
255
255
255
255
255
255
255
255
255
255
255
255
255
255
255
255
255
255
255
255
255
255
255
255
255
255
255
255
255
255
255
255
255
255
255
255
255
255
255
255
255
255
255
255
255
255
255
255
255
255
255
255
255
255
255
255
255
255
255
255
255
255
255
255
255
255
255
255
255
255
255
255
255
255
255
255
255
255
255
255
255
252
255
255
250
255
255
249
255
255
253
255
255
255
255
255
255
255
255
255
255
255
255
255
255
255
255
255
255
255
255
253
255
255
250
255
255
247
255
255
250
255
255
246
255
255
249
255
255
248
255
255
241
255
255
227
255
255
220
255
255
225
255
255
237
255
255
244
255
255
253
255
255
255
255
255
252
255
255
245
255
255
244
255
255
249
255
255
251
255
255
254
255
255
255
255
255
255
255
255
255
255
255
255
255
255
255
255
255
255
255
255
255
255
255
255
255
255
252
255
255
255
255
255
255
255
255
255
255
255
255
255
255
255
255
255
255
255
255
255
255
255
255
255
255
255
255
255
255
255
255
255
255
255
255
255
255
255
255
255
255
255
255
255
255
255
255
255
255
255
255
255
255
255
255
255
255
255
255
255
255
255
255
255
255
255
255
255
255
255
255
255
255
255
255
255
255
255
255
255
255
255
255
255
255
255
255
255
255
255
255
255
255
255
255
255
255
255
255
255
255
255
255
255
255
255
255
255
255
255
255
255
255
255
255
255
255
255
255
255
255
255
255
255
255
255
255
255
255
255
255
255
255
255
255
255
255
255
255
255
255
255
255
255
255
255
255
255
255
255
255
255
255
255
255
255
255
255
255
255
255
255
255
255
255
255
255
255
255
255
255
255
255
255
255
255
255
255
255
255
255
255
255
255
255
255
255
255
255
255
255
255
255
255
255
255
255
255
255
255
255
255
255
255
255
255
255
255
255
255
255
255
255
255
255
255
255
255
255
255
255
255
255
253
255
255
251
222
195
155
152
120
90
159
132
103
239
220
182
224
202
161
204
181
142
192
170
133
192
173
135
196
177
138
189
169
134
195
178
145
213
198
167
231
216
186
239
224
192
239
224
190
240
224
190
238
222
188
237
221
187
240
223
187
241
222
184
239
220
180
233
214
174
223
204
164
213
192
151
213
190
150
216
191
148
219
193
148
209
184
139
213
188
144
215
189
147
216
190
149
219
195
154
216
194
155
199
178
145
190
171
139
200
183
151
184
167
135
199
182
150
199
183
151
219
203
168
227
210
170
248
235
190
255
254
243
255
255
255
255
255
255
255
255
255
255
255
255
255
255
255
255
255
255
255
255
255
255
255
255
255
255
255
255
255
255
255
255
255
255
255
255
255
255
255
255
255
255
255
255
255
255
255
255
255
255
255
255
255
255
255
255
255
255
255
255
255
255
255
255
255
255
255
255
255
255
255
255
255
255
255
255
255
255
255
255
255
255
255
255
255
255
255
255
255
255
255
255
255
255
255
255
255
255
255
255
255
255
255
255
255
255
255
255
255
255
255
255
255
255
255
255
255
255
255
255
255
255
255
255
255
251
255
255
246
255
255
244
255
255
247
255
255
253
255
255
255
255
255
255
255
255
255
255
255
255
255
255
255
255
255
254
255
255
254
255
255
253
255
255
251
255
255
242
255
255
244
255
255
243
255
255
232
255
255
221
255
255
216
255
255
220
255
255
232
255
255
240
255
255
248
255
255
248
255
255
244
255
255
237
255
255
236
255
255
242
255
255
245
255
255
250
255
255
255
255
255
255
255
255
252
255
255
253
255
255
255
255
255
252
255
255
247
255
255
250
255
255
241
255
255
255
255
255
254
255
255
252
255
255
254
255
255
255
255
255
255
255
255
255
255
255
255
255
255
255
255
255
255
255
255
255
255
255
255
255
255
255
255
255
255
255
255
255
255
255
255
255
255
255
255
255
255
255
255
255
255
255
255
255
255
255
255
255
255
255
255
255
255
255
255
255
255
255
255
255
255
255
255
255
255
255
255
255
255
255
255
255
255
255
255
255
255
255
255
255
255
255
255
255
255
255
255
255
255
255
255
255
255
255
255
255
255
255
255
255
255
255
255
255
255
255
255
255
255
255
255
255
255
255
255
255
255
255
255
255
255
255
255
255
255
255
255
255
255
255
255
255
255
255
255
255
255
255
255
255
255
255
255
255
255
255
255
255
255
255
255
255
255
255
255
255
255
255
255
255
255
255
255
255
255
255
255
255
255
255
255
255
255
255
255
255
255
255
255
255
255
255
255
255
255
255
255
255
255
255
255
255
255
255
255
255
255
255
255
255
255
255
255
255
255
255
255
255
255
255
255
232
216
194
160
127
93
210
196
166
254
242
203
240
218
174
221
198
157
204
181
143
198
177
139
201
182
144
201
182
148
199
181
148
216
201
170
236
221
192
247
232
200
248
234
200
244
229
195
247
233
199
253
244
209
254
244
209
254
241
205
254
241
206
252
237
200
248
232
193
233
214
174
227
205
164
219
195
152
214
189
145
220
193
149
221
195
148
231
205
159
236
208
163
240
212
167
239
213
168
232
205
163
235
211
169
227
206
162
226
201
160
229
204
161
239
216
171
248
234
187
253
245
208
255
254
239
255
255
255
255
255
255
255
255
255
255
255
255
255
255
255
255
255
255
255
255
255
255
255
255
255
255
255
255
255
255
255
255
255
255
255
255
255
255
255
255
255
255
255
255
255
255
255
255
255
255
255
255
255
255
255
255
255
255
255
255
255
255
255
255
255
255
255
255
255
255
255
255
255
255
255
255
255
255
255
255
255
255
255
255
255
255
255
255
255
255
255
255
255
255
255
255
255
255
255
255
255
255
255
255
255
255
255
255
255
255
255
255
255
255
255
255
255
255
255
255
255
255
255
255
255
255
255
255
252
255
255
242
255
255
236
255
255
239
255
255
248
255
255
253
255
255
255
255
255
255
255
255
255
255
255
255
255
255
254
255
255
254
255
255
254
255
255
250
255
255
240
255
255
236
255
255
234
255
255
227
255
255
220
255
255
218
255
255
221
255
255
227
255
255
235
255
255
241
255
255
240
255
255
232
255
255
223
255
255
224
255
255
234
255
255
242
255
255
247
255
255
253
255
255
249
255
255
247
255
255
248
255
255
250
255
255
248
255
255
244
255
255
239
255
255
231
255
255
252
255
255
248
255
255
246
255
255
249
255
255
253
255
255
255
255
255
255
255
255
255
255
255
255
255
255
255
255
255
255
255
255
255
255
255
255
255
255
255
255
255
255
255
255
255
255
255
255
255
255
255
255
255
255
255
255
255
255
255
255
255
255
255
255
255
255
255
255
255
255
255
255
255
255
255
255
255
255
255
255
255
255
255
255
255
255
255
255
255
255
255
255
255
255
255
255
255
255
255
255
255
255
255
255
255
255
255
255
255
255
255
255
255
255
255
255
255
255
255
255
255
255
255
255
255
255
255
255
255
255
255
255
255
255
255
255
255
255
255
255
255
255
255
255
255
255
255
255
255
255
255
255
255
255
255
255
255
255
255
255
255
255
255
255
255
255
255
255
255
255
255
255
255
255
255
255
255
255
255
255
255
255
255
255
255
255
255
255
255
255
255
255
255
255
255
255
255
254
255
255
254
255
255
255
255
255
255
255
255
255
255
255
255
255
255
255
255
255
255
255
255
255
255
255
255
242
228
210
204
174
136
252
248
234
255
254
235
254
241
200
240
218
177
224
202
162
211
189
151
203
184
148
211
192
158
209
192
159
212
197
166
235
220
190
247
232
200
249
234
201
247
233
200
253
243
210
255
247
213
255
253
218
255
253
219
255
254
222
255
249
212
253
242
203
250
234
193
242
223
180
235
214
170
229
206
162
226
201
157
222
197
154
240
216
172
238
213
169
249
225
182
255
238
195
255
254
218
255
255
238
255
254
243
255
254
241
255
254
242
255
255
249
255
255
254
255
255
255
255
255
255
255
255
255
255
255
255
255
255
255
255
255
255
255
255
255
255
255
255
255
255
255
255
255
255
255
255
255
255
255
255
255
255
255
255
255
255
255
255
255
255
255
255
255
255
255
255
255
255
255
255
255
255
255
255
255
255
255
255
255
255
255
255
255
255
255
255
255
255
255
255
255
255
255
255
255
255
255
255
255
255
255
255
255
255
255
255
255
255
255
255
255
255
255
255
255
255
255
255
255
255
255
255
255
255
255
255
255
255
255
255
255
255
255
255
255
255
255
255
255
255
255
255
255
255
255
255
255
255
252
255
255
243
255
255
236
255
255
237
255
255
244
255
255
250
255
255
254
255
255
255
255
255
255
255
255
253
255
255
250
255
255
248
255
255
246
255
255
238
255
255
234
255
255
229
255
255
226
255
255
223
255
255
222
255
255
222
255
255
222
255
255
228
255
255
234
255
255
233
255
255
227
255
255
218
255
255
209
255
255
208
255
255
223
255
255
236
255
255
245
255
255
247
255
255
243
255
255
237
255
255
237
255
255
236
255
255
237
255
255
238
255
255
230
255
255
220
255
255
253
255
255
246
255
255
244
255
255
249
255
255
251
255
255
255
255
255
255
255
255
255
255
255
255
255
255
255
255
255
255
255
255
255
255
255
255
255
255
255
255
255
255
255
255
255
255
255
255
255
255
255
255
255
255
255
255
255
255
255
255
255
255
255
255
255
255
255
255
255
255
255
255
255
255
255
255
255
255
255
255
255
255
255
255
255
255
255
255
255
255
255
255
255
255
255
255
255
255
255
255
255
254
255
255
250
255
255
249
255
255
254
255
255
255
255
255
255
255
255
255
255
255
255
255
255
255
255
255
255
255
255
255
255
255
255
255
255
255
255
255
255
255
255
255
255
255
255
255
255
255
255
255
255
255
255
255
255
255
255
255
255
255
255
255
255
255
255
255
255
255
255
255
255
255
255
255
255
255
255
255
255
255
255
255
255
255
255
255
255
255
255
255
255
255
255
255
255
253
255
255
253
255
255
255
255
255
255
255
255
255
255
255
255
255
255
255
255
255
255
255
255
255
255
255
255
254
248
229
248
231
197
255
255
252
255
255
251
255
253
226
253
241
201
238
218
177
232
210
172
235
216
180
226
207
173
221
204
171
223
207
176
232
217
187
241
226
194
244
229
195
240
225
192
240
225
193
248
233
199
255
249
215
255
253
219
255
253
219
255
254
218
255
248
209
254
241
199
251
234
191
248
230
185
243
223
178
222
200
156
225
201
162
239
215
176
227
204
165
251
233
193
255
245
207
255
255
235
255
255
252
255
255
255
255
255
255
255
255
255
255
255
255
255
255
255
255
255
255
255
255
255
255
255
255
255
255
255
255
255
255
255
255
255
255
255
255
255
255
255
255
255
255
255
255
255
255
255
255
255
255
255
255
255
255
255
255
255
255
255
255
255
255
255
255
255
255
255
255
255
255
255
255
255
255
255
255
255
255
255
255
255
255
255
255
255
255
255
255
255
255
255
255
255
255
255
255
255
255
255
255
255
255
255
255
255
255
255
255
255
255
255
255
255
255
255
255
255
255
255
255
255
255
255
255
255
255
255
255
255
255
255
255
255
255
255
255
255
255
255
255
255
255
255
255
255
255
255
255
255
255
255
255
251
255
255
246
255
255
245
255
255
249
255
255
249
255
255
252
255
255
253
255
255
250
255
255
249
255
255
243
255
255
235
255
255
229
255
255
223
255
255
223
255
255
226
255
255
225
255
255
222
255
255
222
255
255
221
255
255
222
255
255
227
255
255
230
255
255
222
255
255
216
255
255
207
255
255
202
255
255
202
255
255
215
255
255
228
255
255
235
255
255
232
255
255
226
255
255
224
255
255
224
255
255
221
255
255
220
255
255
225
255
255
220
255
255
213
255
255
255
255
255
252
255
255
253
255
255
254
255
255
255
255
255
255
255
255
255
255
255
253
255
255
252
255
255
254
255
255
255
255
255
255
255
255
255
255
255
255
255
255
255
255
255
254
255
255
252
255
255
255
255
255
255
255
255
255
255
255
255
255
255
251
255
255
249
255
255
253
255
255
255
255
255
255
255
255
255
255
255
255
255
255
255
255
255
255
255
255
255
255
255
255
255
255
255
255
255
255
255
255
252
255
255
244
255
255
241
255
255
248
255
255
254
255
255
255
255
255
255
255
255
255
255
255
255
255
255
255
255
255
255
255
255
255
255
255
255
255
255
255
255
255
255
255
255
255
255
255
255
255
255
255
255
255
255
255
255
255
255
255
255
255
255
255
255
255
255
255
255
255
255
255
255
255
255
255
255
255
255
255
255
255
255
255
255
255
255
255
255
255
255
255
255
255
255
255
255
255
255
253
255
255
255
255
255
255
255
255
255
255
255
255
255
255
255
255
255
255
255
255
255
255
255
255
255
255
251
255
254
244
255
255
255
255
255
255
255
255
242
255
253
220
251
233
196
244
221
187
247
228
193
249
232
197
232
216
183
227
210
179
231
214
186
232
215
187
237
220
191
236
219
189
234
217
187
246
232
199
251
241
207
255
247
213
255
251
212
254
249
210
254
243
204
255
240
199
253
238
195
245
227
184
240
221
179
218
199
156
236
215
176
235
213
177
221
199
163
249
234
198
255
248
217
255
254
236
255
255
250
255
255
255
255
255
255
255
255
255
255
255
255
255
255
255
255
255
255
255
255
255
255
255
255
255
255
255
255
255
255
255
255
255
255
255
255
255
255
255
255
255
255
255
255
255
255
255
255
255
255
255
255
255
255
255
255
255
255
255
255
255
255
255
255
255
255
255
255
255
255
255
255
255
255
255
255
255
255
255
255
255
255
255
255
255
255
255
255
255
255
255
255
255
255
255
255
255
255
253
255
255
244
255
255
242
255
255
246
255
255
252
255
255
255
255
255
255
255
255
255
255
255
255
255
255
255
255
255
255
255
255
255
255
255
255
255
255
255
255
255
255
255
255
255
255
255
255
255
255
255
255
255
253
255
255
250
255
255
250
255
255
247
255
255
249
255
255
249
255
255
245
255
255
241
255
255
242
255
255
236
255
255
225
255
255
216
255
255
208
255
255
212
255
255
220
255
255
224
255
255
222
255
255
222
255
255
221
255
255
220
255
255
221
255
255
223
255
255
218
255
255
209
255
255
199
255
255
199
255
255
202
255
255
215
255
255
222
255
255
226
255
255
222
255
255
215
255
255
214
255
255
212
255
255
209
255
255
207
255
255
211
255
255
214
255
255
210
255
255
255
255
255
255
255
255
255
255
255
255
255
255
255
255
255
255
255
255
255
255
255
252
255
255
251
255
255
253
255
255
254
255
255
255
255
255
254
255
255
255
255
255
252
255
255
250
255
255
249
255
255
254
255
255
255
255
255
255
255
255
250
255
255
248
255
255
247
255
255
249
255
255
255
255
255
255
255
255
255
255
255
255
255
255
255
255
255
255
255
255
255
255
255
255
255
255
255
255
255
253
255
255
245
255
255
240
255
255
240
255
255
242
255
255
248
255
255
253
255
255
255
255
255
255
255
255
255
255
255
255
255
255
255
255
255
254
255
255
255
255
255
255
255
255
255
255
255
255
255
255
255
255
255
255
255
255
255
255
255
255
255
255
255
255
255
255
255
255
255
255
255
255
255
255
255
255
255
255
255
255
255
255
255
255
255
255
255
255
255
255
255
255
255
255
255
255
255
255
255
255
255
254
255
255
254
255
255
255
255
255
255
255
255
255
255
255
255
255
255
255
255
255
255
255
255
255
255
255
255
255
255
255
255
255
255
255
255
255
255
255
245
255
255
228
254
242
208
250
230
197
254
240
206
252
239
205
243
227
195
232
215
186
225
208
181
226
209
181
228
211
183
229
212
185
229
213
186
233
217
186
239
223
190
228
213
181
229
213
177
227
211
175
245
230
194
250
236
200
249
235
195
234
216
177
219
200
162
202
182
144
235
217
179
244
222
186
243
222
188
253
240
206
255
252
228
255
255
251
255
255
249
255
255
255
255
255
255
255
255
255
255
255
255
255
255
255
255
255
255
255
255
255
255
255
255
255
255
255
255
255
255
255
255
255
255
255
255
255
255
255
255
255
255
255
255
255
255
255
255
255
255
255
255
255
255
255
255
255
255
255
255
255
255
255
255
255
255
255
255
255
255
255
255
255
255
255
255
255
255
255
255
255
255
255
255
255
255
255
255
255
255
255
255
255
255
255
254
255
255
245
255
255
226
255
255
221
255
255
224
255
255
234
255
255
245
255
255
253
255
255
255
255
255
255
255
255
255
255
255
255
255
255
255
255
255
255
255
255
255
255
255
255
255
255
255
255
255
255
255
255
255
255
255
253
255
255
249
255
255
245
255
255
244
255
255
241
255
255
237
255
255
231
255
255
222
255
255
223
255
255
218
255
255
215
255
255
207
255
255
198
255
255
203
255
255
213
255
255
220
255
255
221
255
255
223
255
255
223
255
255
223
255
255
222
255
255
223
255
255
218
255
255
210
255
255
202
255
255
203
255
255
209
255
255
218
255
255
220
255
255
220
255
255
215
255
255
207
255
255
202
255
255
200
255
255
199
255
255
200
255
255
208
255
255
215
255
255
214
255
255
255
255
255
255
255
255
255
255
255
255
255
255
255
255
255
255
255
255
255
255
255
254
255
255
255
255
255
254
255
255
255
255
255
253
255
255
249
255
255
251
255
255
247
255
255
243
255
255
247
255
255
253
255
255
255
255
255
253
255
255
245
255
255
246
255
255
244
255
255
243
255
255
250
255
255
255
255
255
255
255
255
255
255
255
255
255
255
255
255
255
255
255
255
255
255
255
255
255
255
253
255
255
246
255
255
242
255
255
243
255
255
241
255
255
242
255
255
247
255
255
252
255
255
254
255
255
253
255
255
251
255
255
249
255
255
245
255
255
250
255
255
255
255
255
255
255
255
255
255
255
255
255
255
255
255
255
255
255
255
255
255
255
255
255
255
253
255
255
252
255
255
253
255
255
255
255
255
255
255
255
255
255
255
255
255
255
255
255
255
255
255
255
255
255
255
255
255
255
255
255
255
255
255
255
255
255
255
255
255
255
255
255
255
255
255
255
255
255
255
255
255
255
255
255
255
255
255
255
255
255
255
255
255
255
255
255
255
255
255
255
246
255
255
227
255
244
212
249
232
199
243
228
195
243
227
195
235
218
189
228
211
184
227
210
182
228
210
183
236
219
193
241
224
198
237
220
194
235
218
190
224
207
177
209
192
163
205
189
156
208
192
159
229
212
179
243
227
194
239
222
188
244
225
191
214
194
160
201
181
147
229
209
172
253
236
199
255
243
210
255
251
220
255
254
229
255
255
248
255
255
255
255
255
255
255
255
255
255
255
255
255
255
255
255
255
255
255
255
255
255
255
255
255
255
255
255
255
255
255
255
255
255
255
255
255
255
255
255
255
255
255
255
255
255
255
255
255
255
255
255
255
255
255
255
255
255
255
255
255
255
255
255
255
255
255
255
255
255
255
255
255
255
255
255
255
255
255
255
255
255
255
255
255
255
255
255
255
255
255
255
255
255
255
255
255
255
251
255
255
231
255
255
215
255
255
206
255
255
207
255
255
221
255
255
230
255
255
239
255
255
249
255
255
254
255
255
254
255
255
254
255
255
254
255
255
253
255
255
253
255
255
253
255
255
255
255
255
255
255
255
255
255
255
254
255
255
249
255
255
241
255
255
234
255
255
231
255
255
229
255
255
221
255
255
214
255
255
214
255
255
203
255
255
193
255
255
197
255
255
194
255
255
195
255
255
204
255
255
217
255
255
223
255
255
228
255
255
231
255
255
229
255
255
225
255
255
219
255
255
216
255
255
213
255
255
210
255
255
210
255
255
215
255
255
222
255
255
226
255
255
223
255
255
212
255
255
198
255
255
190
255
255
189
255
255
194
255
255
198
255
255
206
255
255
215
255
255
221
255
255
255
255
255
255
255
255
255
255
255
255
255
255
255
255
255
255
255
255
255
255
255
255
255
255
255
255
255
254
255
255
255
255
255
252
255
255
245
255
255
241
255
255
242
255
255
243
255
255
249
255
255
254
255
255
255
255
255
253
255
255
247
255
255
244
255
255
242
255
255
238
255
255
242
255
255
249
255
255
254
255
255
254
255
255
255
255
255
255
255
255
254
255
255
255
255
255
253
255
255
253
255
255
248
255
255
245
255
255
246
255
255
248
255
255
248
255
255
251
255
255
252
255
255
252
255
255
247
255
255
242
255
255
240
255
255
241
255
255
248
255
255
255
255
255
255
255
255
255
255
255
255
255
255
255
255
255
254
255
255
250
255
255
244
255
255
243
255
255
246
255
255
247
255
255
251
255
255
255
255
255
255
255
255
255
255
255
255
255
255
255
255
255
255
255
255
255
255
255
255
255
255
255
255
255
255
255
255
255
255
255
255
255
255
255
255
255
255
255
255
255
255
255
255
255
255
255
255
255
255
255
255
255
255
255
255
255
255
255
255
255
247
255
255
228
255
250
218
255
246
213
253
245
212
253
247
215
253
242
213
245
229
202
228
210
185
226
208
185
231
213
193
242
225
203
236
220
195
229
213
185
230
213
185
217
200
172
217
200
171
228
211
182
229
212
182
236
217
185
234
215
183
248
229
196
237
217
184
220
200
167
235
215
179
241
221
185
254
243
209
255
255
234
255
255
236
255
255
243
255
255
255
255
255
255
255
255
255
255
255
255
255
255
255
255
255
255
255
255
255
255
255
255
255
255
255
255
255
255
255
255
255
255
255
255
255
255
255
255
255
255
255
255
255
255
255
255
255
255
255
255
255
255
255
255
255
255
255
255
255
255
255
255
255
255
255
255
255
255
255
255
255
255
255
255
255
255
255
255
255
255
255
255
255
255
255
255
255
255
255
255
255
255
255
255
255
255
248
255
255
229
255
255
214
255
255
204
255
255
204
255
255
210
255
255
218
255
255
227
255
255
237
255
255
247
255
255
243
255
255
243
255
255
243
255
255
244
255
255
248
255
255
252
255
255
254
255
255
255
255
255
255
255
255
254
255
255
253
255
255
245
255
255
234
255
255
227
255
255
221
255
255
209
255
255
206
255
255
204
255
255
198
255
255
189
255
254
185
255
254
188
255
254
189
255
255
198
255
255
214
255
255
226
255
255
233
255
255
234
255
255
231
255
255
226
255
255
217
255
255
212
255
255
212
255
255
216
255
255
221
255
255
227
255
255
231
255
255
237
255
255
230
255
255
214
255
255
203
255
255
193
255
255
187
255
255
188
255
255
195
255
255
202
255
255
212
255
255
219
255
255
255
255
255
255
255
255
255
255
255
255
255
255
255
255
255
255
255
255
255
255
255
255
255
255
255
255
255
255
255
255
255
255
255
254
255
255
245
255
255
237
255
255
237
255
255
241
255
255
247
255
255
253
255
255
255
255
255
253
255
255
245
255
255
240
255
255
235
255
255
234
255
255
236
255
255
246
255
255
252
255
255
255
255
255
255
255
255
255
255
255
255
255
255
255
255
255
254
255
255
251
255
255
246
255
255
244
255
255
246
255
255
251
255
255
252
255
255
254
255
255
252
255
255
248
255
255
240
255
255
234
255
255
232
255
255
238
255
255
246
255
255
252
255
255
254
255
255
254
255
255
253
255
255
249
255
255
239
255
255
231
255
255
233
255
255
238
255
255
242
255
255
244
255
255
250
255
255
255
255
255
255
255
255
255
255
255
255
255
255
255
255
255
255
255
255
255
255
255
255
255
255
255
255
255
255
255
255
255
255
255
255
255
255
255
255
255
255
255
255
255
255
255
255
255
255
255
255
255
255
255
255
255
255
255
255
255
255
255
255
255
252
255
255
237
255
255
230
255
255
227
255
254
226
255
252
221
252
241
212
248
232
205
244
228
203
244
228
206
253
239
218
253
237
213
250
234
207
244
227
199
245
228
200
237
220
192
226
209
183
227
210
184
238
221
193
244
225
193
228
209
177
232
213
180
241
221
188
226
207
174
233
213
180
250
233
199
254
243
209
255
254
230
255
255
253
255
255
252
255
255
253
255
255
255
255
255
255
255
255
255
255
255
255
255
255
255
255
255
255
255
255
255
255
255
255
255
255
255
255
255
255
255
255
255
255
255
255
255
255
255
255
255
255
255
255
255
255
255
255
255
255
255
255
255
255
255
255
255
255
255
255
255
255
255
255
255
255
255
255
255
255
255
255
255
255
255
255
255
255
255
255
255
255
255
255
255
255
255
255
255
255
255
255
255
255
255
249
255
255
234
255
255
217
255
255
211
255
255
212
255
255
218
255
255
225
255
255
227
255
255
234
255
255
239
255
255
240
255
255
243
255
255
239
255
255
239
255
255
245
255
255
248
255
255
248
255
255
252
255
255
250
255
255
250
255
255
251
255
255
246
255
255
236
255
255
226
255
255
218
255
255
209
255
255
209
255
255
209
255
255
207
255
255
203
255
255
196
255
254
190
255
254
191
255
255
203
255
255
217
255
255
231
255
255
238
255
255
238
255
255
236
255
255
232
255
255
221
255
255
215
255
255
215
255
255
221
255
255
226
255
255
231
255
255
239
255
255
242
255
255
240
255
255
232
255
255
220
255
255
207
255
255
197
255
255
189
255
255
192
255
255
197
255
255
205
255
255
210
255
255
254
255
255
255
255
255
255
255
255
255
255
255
255
255
255
255
255
255
255
255
255
255
255
255
255
255
255
255
255
255
253
255
255
250
255
255
245
255
255
237
255
255
238
255
255
245
255
255
248
255
255
254
255
255
255
255
255
252
255
255
239
255
255
232
255
255
228
255
255
225
255
255
231
255
255
241
255
255
249
255
255
254
255
255
255
255
255
255
255
255
255
255
255
255
255
255
255
255
255
254
255
255
250
255
255
247
255
255
247
255
255
249
255
255
249
255
255
248
255
255
246
255
255
240
255
255
233
255
255
228
255
255
227
255
255
235
255
255
242
255
255
245
255
255
245
255
255
243
255
255
240
255
255
233
255
255
228
255
255
228
255
255
233
255
255
237
255
255
243
255
255
250
255
255
255
255
255
255
255
255
255
255
255
255
255
255
255
255
255
255
255
255
255
255
255
255
255
255
255
255
255
255
255
255
255
255
255
255
255
255
255
255
255
255
255
255
255
255
255
255
255
255
255
255
255
255
255
255
255
255
255
255
255
255
255
255
255
255
255
255
254
255
255
242
255
254
234
255
253
222
255
247
216
253
241
210
253
240
211
252
239
213
249
236
210
243
228
202
241
228
202
253
239
211
254
242
214
247
230
202
244
226
200
244
226
200
235
217
192
231
212
187
239
220
192
251
232
201
231
211
183
230
209
181
237
217
187
241
221
190
250
233
199
254
239
206
255
249
218
255
254
229
255
255
247
255
255
244
255
255
253
255
255
255
255
255
255
255
255
255
255
255
255
255
255
255
255
255
255
255
255
255
255
255
255
255
255
255
255
255
255
255
255
255
255
255
255
255
255
255
255
255
255
255
255
255
255
255
255
255
255
255
255
255
255
255
255
255
255
255
255
255
255
255
255
255
255
255
255
255
255
255
255
255
255
252
255
255
252
255
255
255
255
255
255
255
255
255
255
255
255
255
255
255
255
255
251
255
255
237
255
255
224
255
255
225
255
255
225
255
255
229
255
255
232
255
255
237
255
255
243
255
255
246
255
255
250
255
255
252
255
255
246
255
255
243
255
255
243
255
255
242
255
255
242
255
255
243
255
255
242
255
255
242
255
255
242
255
255
241
255
255
236
255
255
231
255
255
224
255
255
218
255
255
219
255
255
221
255
255
223
255
255
219
255
255
210
255
255
203
255
255
206
255
255
216
255
255
225
255
255
236
255
255
244
255
255
243
255
255
240
255
255
234
255
255
229
255
255
224
255
255
222
255
255
219
255
255
222
255
255
234
255
255
243
255
255
247
255
255
252
255
255
253
255
255
241
255
255
223
255
255
206
255
255
191
255
255
191
255
255
195
255
255
202
255
255
209
255
255
247
255
255
249
255
255
253
255
255
255
255
255
255
255
255
255
255
255
255
255
255
255
255
255
255
255
255
254
255
255
251
255
255
246
255
255
245
255
255
239
255
255
242
255
255
248
255
255
252
255
255
255
255
255
255
255
255
254
255
255
243
255
255
230
255
255
223
255
255
223
255
255
232
255
255
238
255
255
246
255
255
252
255
255
255
255
255
255
255
255
255
255
255
255
255
255
255
255
255
255
255
255
255
255
255
253
255
255
248
255
255
247
255
255
247
255
255
239
255
255
233
255
255
229
255
255
224
255
255
225
255
255
223
255
255
231
255
255
238
255
255
239
255
255
235
255
255
231
255
255
231
255
255
231
255
255
233
255
255
234
255
255
237
255
255
242
255
255
246
255
255
254
255
255
255
255
255
255
255
255
255
255
255
255
255
255
255
255
255
255
255
255
255
255
255
255
255
255
255
255
255
255
255
255
255
255
255
255
255
255
255
255
255
255
255
255
255
255
255
255
255
255
255
255
255
255
255
255
255
255
255
255
255
255
255
255
255
255
255
255
255
255
255
247
255
254
231
255
252
223
255
247
217
255
253
224
255
248
221
251
240
216
253
242
217
253
240
215
255
243
218
254
242
217
251
236
211
235
219
194
240
223
198
243
226
201
237
220
195
237
220
196
247
229
204
242
224
196
233
213
187
227
206
181
237
217
189
249
229
199
254
243
213
255
255
232
255
255
239
255
254
232
255
248
226
255
253
237
255
255
245
255
255
255
255
255
255
255
255
255
255
255
254
255
255
255
255
255
255
255
255
255
255
255
255
255
255
255
255
255
255
255
255
255
255
255
255
255
255
255
255
255
255
255
255
255
255
255
255
255
255
255
255
255
255
255
255
255
255
255
255
255
255
255
255
255
255
255
255
255
255
255
255
255
255
254
255
255
249
255
255
253
255
255
255
255
255
255
255
255
255
255
255
255
255
255
251
255
255
242
255
255
238
255
255
242
255
255
241
255
255
242
255
255
242
255
255
248
255
255
252
255
255
254
255
255
254
255
255
252
255
255
250
255
255
247
255
255
247
255
255
244
255
255
239
255
255
239
255
255
235
255
255
230
255
255
231
255
255
230
255
255
232
255
255
238
255
255
234
255
255
230
255
255
231
255
255
235
255
255
237
255
255
233
255
255
227
255
255
217
255
255
214
255
255
220
255
255
229
255
255
237
255
255
244
255
255
248
255
255
240
255
255
234
255
255
230
255
255
222
255
255
221
255
255
218
255
255
218
255
255
230
255
255
241
255
255
250
255
255
255
255
255
255
255
255
254
255
255
241
255
255
217
255
255
199
255
255
189
255
255
192
255
255
199
255
255
208
255
255
227
255
255
229
255
255
235
255
255
249
255
255
254
255
255
255
255
255
255
255
255
255
255
255
255
255
255
253
255
255
248
255
255
243
255
255
247
255
255
248
255
255
249
255
255
254
255
255
255
255
255
255
255
255
255
255
255
255
255
255
250
255
255
235
255
255
224
255
255
224
255
255
234
255
255
242
255
255
251
255
255
255
255
255
255
255
255
255
255
255
255
255
255
255
255
255
255
255
255
255
255
255
255
255
255
251
255
255
248
255
255
250
255
255
249
255
255
241
255
255
230
255
255
222
255
255
218
255
255
219
255
255
225
255
255
233
255
255
240
255
255
236
255
255
236
255
255
235
255
255
241
255
255
243
255
255
240
255
255
240
255
255
242
255
255
244
255
255
246
255
255
253
255
255
255
255
255
255
255
255
255
255
255
255
255
255
255
255
255
255
255
255
255
255
255
255
255
255
255
255
255
255
255
255
255
255
255
255
255
255
255
255
255
255
255
255
255
255
255
255
255
255
255
255
255
255
255
255
255
255
255
255
255
255
255
255
255
255
255
255
255
255
255
244
255
255
234
255
251
223
255
252
225
255
255
229
255
255
234
255
254
233
255
244
219
255
250
228
255
252
231
254
248
225
246
234
210
249
238
215
247
231
208
242
226
203
243
228
204
246
230
207
237
221
198
240
223
199
240
224
197
237
220
193
244
226
198
252
236
204
255
252
228
255
255
245
255
255
251
255
255
244
251
240
218
254
249
236
255
253
240
255
254
253
255
255
255
255
255
255
255
255
255
255
255
255
255
255
255
255
255
255
255
255
255
255
255
255
255
255
255
255
255
255
255
255
255
255
255
255
255
255
255
255
255
255
255
255
255
255
255
255
255
255
255
255
255
255
255
255
255
255
255
255
255
255
255
255
255
255
255
255
255
255
255
255
255
255
253
255
255
254
255
255
255
255
255
255
255
255
255
255
255
255
255
255
250
255
255
246
255
255
249
255
255
251
255
255
252
255
255
248
255
255
246
255
255
250
255
255
251
255
255
250
255
255
250
255
255
253
255
255
252
255
255
247
255
255
246
255
255
242
255
255
234
255
255
229
255
255
222
255
255
222
255
255
224
255
255
223
255
255
236
255
255
245
255
255
246
255
255
247
255
255
244
255
255
246
255
255
248
255
255
244
255
255
238
255
255
226
255
255
219
255
255
223
255
255
229
255
255
237
255
255
244
255
255
245
255
255
240
255
255
231
255
255
221
255
255
213
255
255
216
255
255
214
255
255
211
255
255
219
255
255
237
255
255
251
255
255
255
255
255
255
255
255
255
255
255
252
255
255
231
255
255
202
255
255
188
255
255
190
255
255
194
255
255
202
255
255
196
255
255
202
255
255
212
255
255
224
255
255
239
255
255
250
255
255
252
255
255
248
255
255
244
255
255
243
255
255
244
255
255
241
255
255
245
255
255
250
255
255
251
255
255
255
255
255
255
255
255
255
255
255
255
255
255
255
255
255
252
255
255
243
255
255
235
255
255
234
255
255
241
255
255
251
255
255
255
255
255
255
255
255
255
255
255
255
255
255
255
255
255
255
255
255
255
255
255
255
255
255
255
255
255
253
255
255
253
255
255
249
255
255
250
255
255
249
255
255
236
255
255
227
255
255
220
255
255
222
255
255
230
255
255
238
255
255
243
255
255
240
255
255
244
255
255
247
255
255
246
255
255
248
255
255
246
255
255
249
255
255
246
255
255
247
255
255
248
255
255
250
255
255
255
255
255
255
255
255
255
255
255
255
255
255
255
255
255
255
255
255
255
255
255
255
255
255
255
255
255
255
255
255
255
255
255
255
255
255
255
255
255
255
255
255
255
255
255
255
255
255
255
255
255
255
255
255
255
255
255
255
255
255
255
255
255
255
255
255
255
255
255
254
255
254
238
255
252
224
255
255
226
255
255
229
255
254
227
255
250
225
255
253
232
255
253
234
252
244
220
249
240
218
255
251
228
251
243
221
253
245
222
251
239
216
250
238
216
253
240
219
239
223
201
245
227
205
247
230
205
238
221
193
251
237
208
253
240
211
255
255
236
255
255
250
255
255
249
255
255
250
251
245
231
240
222
199
251
243
221
255
254
242
255
255
255
255
255
255
255
255
255
255
255
255
255
255
255
255
255
255
255
255
255
255
255
255
255
255
255
255
255
255
255
255
255
255
255
255
255
255
255
255
255
255
255
255
255
255
255
255
255
255
255
255
255
255
255
255
255
255
255
255
255
255
255
255
255
255
255
255
255
255
255
255
255
255
255
255
255
255
255
255
255
255
255
255
255
255
255
255
255
255
255
255
253
255
255
250
255
255
251
255
255
252
255
255
248
255
255
245
255
255
244
255
255
248
255
255
248
255
255
246
255
255
248
255
255
250
255
255
246
255
255
244
255
255
240
255
255
236
255
255
228
255
255
215
255
255
208
255
255
210
255
255
219
255
255
226
255
255
238
255
255
249
255
255
253
255
255
253
255
255
251
255
255
253
255
255
253
255
255
252
255
255
249
255
255
239
255
255
231
255
255
237
255
255
242
255
255
242
255
255
242
255
255
238
255
255
232
255
255
227
255
255
220
255
255
212
255
255
205
255
255
204
255
255
200
255
255
201
255
255
219
255
255
243
255
255
255
255
255
255
255
255
255
255
255
255
255
255
235
255
255
207
255
255
191
255
255
184
255
255
189
255
255
196
255
242
162
255
242
167
255
249
182
255
255
199
255
255
214
255
255
228
255
255
234
255
255
234
255
255
230
255
255
228
255
255
231
255
255
233
255
255
238
255
255
244
255
255
249
255
255
254
255
255
255
255
255
255
255
255
255
255
255
252
255
255
246
255
255
242
255
255
241
255
255
241
255
255
247
255
255
254
255
255
255
255
255
255
255
255
255
255
255
255
255
255
255
255
255
255
255
255
255
255
255
255
255
255
255
255
255
254
255
255
254
255
255
250
255
255
252
255
255
254
255
255
249
255
255
241
255
255
236
255
255
235
255
255
242
255
255
246
255
255
246
255
255
249
255
255
252
255
255
252
255
255
250
255
255
251
255
255
253
255
255
253
255
255
249
255
255
247
255
255
242
255
255
245
255
255
255
255
255
255
255
255
255
255
255
255
255
255
255
255
255
255
255
255
255
255
255
255
255
255
255
255
255
255
255
255
255
255
255
255
255
255
255
255
255
255
255
255
255
255
255
255
255
255
255
255
255
255
255
255
255
255
255
255
255
255
255
255
255
255
255
255
255
255
255
252
255
255
234
255
254
225
255
251
221
255
252
222
255
251
223
255
251
226
255
247
222
250
236
212
252
245
231
254
251
234
254
248
225
255
248
228
254
245
224
253
247
226
253
243
219
246
232
208
245
230
206
244
228
206
244
227
202
237
221
194
253
245
219
255
253
231
255
255
238
255
255
250
255
254
243
255
254
243
247
235
215
247
225
202
247
235
213
255
255
252
255
255
255
255
255
255
255
255
255
255
255
252
255
255
255
255
255
255
255
255
255
255
255
255
255
255
255
255
255
255
255
255
255
255
255
255
255
255
255
255
255
255
255
255
255
255
255
255
255
255
255
255
255
255
255
255
255
255
255
255
255
255
255
255
255
255
255
255
255
255
255
255
255
255
255
255
255
255
255
255
255
255
255
255
255
255
255
255
255
255
255
255
254
255
255
250
255
255
246
255
255
245
255
255
246
255
255
244
255
255
244
255
255
247
255
255
245
255
255
244
255
255
248
255
255
247
255
255
244
255
255
243
255
255
239
255
255
232
255
255
219
255
255
210
255
255
203
255
255
203
255
255
212
255
255
227
255
255
248
255
255
255
255
255
255
255
255
255
255
255
255
255
255
255
255
255
255
255
255
255
255
255
254
255
255
248
255
255
245
255
255
250
255
255
251
255
255
248
255
255
243
255
255
229
255
255
221
255
255
217
255
255
211
255
255
205
255
255
197
255
255
193
255
255
190
255
255
188
255
255
202
255
255
226
255
255
252
255
255
255
255
255
255
255
255
255
255
255
233
255
255
206
255
255
189
255
255
186
255
255
193
255
255
197
255
199
137
255
192
133
255
205
146
255
232
167
255
253
187
255
255
202
255
255
208
255
255
210
255
255
206
255
255
204
255
255
207
255
255
216
255
255
229
255
255
237
255
255
246
255
255
253
255
255
254
255
255
254
255
255
251
255
255
249
255
255
247
255
255
244
255
255
244
255
255
241
255
255
244
255
255
251
255
255
252
255
255
252
255
255
254
255
255
254
255
255
254
255
255
255
255
255
255
255
255
255
255
255
255
255
255
255
255
255
255
255
255
252
255
255
254
255
255
255
255
255
253
255
255
248
255
255
249
255
255
250
255
255
251
255
255
253
255
255
254
255
255
255
255
255
255
255
255
255
255
255
254
255
255
253
255
255
255
255
255
255
255
255
251
255
255
245
255
255
242
255
255
248
255
255
254
255
255
255
255
255
255
255
255
255
255
255
254
255
255
255
255
255
255
255
255
255
255
255
255
255
255
255
255
255
255
255
255
255
255
255
255
255
255
255
255
255
255
255
255
255
255
255
255
255
255
255
255
255
255
255
255
255
255
255
255
255
255
254
255
255
249
255
255
243
255
255
230
255
252
223
255
242
210
255
247
216
251
239
212
254
251
227
253
242
217
254
252
238
255
253
242
255
249
224
252
246
226
251
246
230
250
238
216
255
251
234
248
237
211
245
230
205
241
225
201
239
221
200
250
237
214
242
226
200
255
248
224
255
253
240
255
255
250
255
255
247
252
246
225
252
243
220
236
218
194
250
242
220
255
248
224
251
233
212
255
250
242
255
255
252
255
255
255
255
255
255
255
255
255
255
255
255
255
255
255
255
255
255
255
255
255
255
255
255
255
255
255
255
255
255
255
255
255
255
255
255
255
255
255
255
255
255
255
255
255
255
255
255
255
255
255
255
255
255
255
255
255
255
255
255
255
255
255
255
255
255
255
255
254
255
255
255
255
255
255
255
255
255
255
255
255
255
255
255
255
255
255
255
255
254
255
255
251
255
255
251
255
255
252
255
255
253
255
255
251
255
255
246
255
255
244
255
255
242
255
255
244
255
255
238
255
255
235
255
255
238
255
255
237
255
255
229
255
255
219
255
255
214
255
255
207
255
255
204
255
255
211
255
255
228
255
255
250
255
255
255
255
255
255
255
255
255
255
255
255
255
255
255
255
255
255
255
255
255
255
255
252
255
255
245
255
255
248
255
255
254
255
255
249
255
255
244
255
255
237
255
255
222
255
255
213
255
255
206
255
255
198
255
255
190
255
255
184
255
255
184
255
255
186
255
255
184
255
255
191
255
255
212
255
255
242
255
255
255
255
255
255
255
255
253
255
255
228
255
255
206
255
255
191
255
255
185
255
255
190
255
255
196
255
173
122
255
171
119
255
179
127
255
205
147
255
240
170
255
255
184
255
255
188
255
255
186
255
255
185
255
255
186
255
255
191
255
255
198
255
255
216
255
255
225
255
255
238
255
255
245
255
255
250
255
255
250
255
255
243
255
255
248
255
255
244
255
255
242
255
255
247
255
255
243
255
255
241
255
255
244
255
255
240
255
255
240
255
255
246
255
255
245
255
255
247
255
255
253
255
255
252
255
255
249
255
255
250
255
255
250
255
255
251
255
255
246
255
255
253
255
255
255
255
255
255
255
255
255
255
255
255
255
255
255
255
255
255
255
255
255
255
255
255
255
255
255
255
255
255
255
255
255
255
255
255
255
255
255
255
255
255
255
255
254
255
255
247
255
255
241
255
255
242
255
255
250
255
255
255
255
255
255
255
255
255
255
255
253
255
255
246
255
255
247
255
255
253
255
255
255
255
255
255
255
255
255
255
255
255
255
255
255
255
255
255
255
255
255
255
255
255
255
255
255
255
255
255
255
255
255
255
255
255
255
255
255
255
255
254
255
255
252
255
255
249
255
255
239
255
255
230
255
252
226
255
249
220
255
249
222
255
253
233
255
248
224
255
254
238
250
246
231
251
239
213
255
252
234
248
242
222
245
236
211
255
250
230
254
243
218
247
232
206
247
232
209
246
230
208
237
219
200
249
241
220
246
232
207
254
248
225
255
248
234
255
255
251
255
255
244
237
221
197
222
204
180
234
217
193
254
252
237
255
254
240
254
248
228
251
227
205
255
251
239
255
255
255
255
255
255
255
255
255
255
255
255
255
255
255
255
255
255
255
255
255
255
255
255
255
255
255
255
255
255
255
255
255
255
255
255
255
255
255
255
255
255
255
255
255
255
255
255
255
255
255
255
255
255
255
255
255
255
255
255
255
255
255
255
255
254
255
255
245
255
255
247
255
255
251
255
255
254
255
255
255
255
255
255
255
255
255
255
255
255
255
255
255
255
255
255
255
255
255
255
255
255
255
255
255
255
255
253
255
255
248
255
255
243
255
255
245
255
255
236
255
255
229
255
255
235
255
255
238
255
255
232
255
255
222
255
255
220
255
255
217
255
255
214
255
255
220
255
255
228
255
255
247
255
255
255
255
255
255
255
255
255
255
255
255
255
255
255
255
255
254
255
255
253
255
255
249
255
255
245
255
255
249
255
255
251
255
255
254
255
255
246
255
255
233
255
255
213
255
255
204
255
255
198
255
255
189
255
255
182
255
254
174
255
251
171
255
254
178
255
255
186
255
255
191
255
255
203
255
255
230
255
255
248
255
255
251
255
255
248
255
255
228
255
255
209
255
255
193
255
250
181
255
252
188
255
255
201
255
167
120
255
172
122
255
184
133
255
206
151
255
232
170
255
251
183
255
255
186
255
254
179
255
251
177
255
255
182
255
255
191
255
255
193
255
255
205
255
255
215
255
255
232
255
255
243
255
255
243
255
255
244
255
255
239
255
255
240
255
255
237
255
255
236
255
255
241
255
255
241
255
255
233
255
255
234
255
255
228
255
255
226
255
255
230
255
255
232
255
255
238
255
255
245
255
255
244
255
255
240
255
255
241
255
255
241
255
255
244
255
255
241
255
255
249
255
255
253
255
255
255
255
255
255
255
255
255
255
255
254
255
255
254
255
255
254
255
255
255
255
255
255
255
255
255
255
255
255
255
255
255
255
255
254
255
255
250
255
255
249
255
255
243
255
255
240
255
255
248
255
255
254
255
255
255
255
255
255
255
255
255
255
255
255
255
255
246
255
255
245
255
255
244
255
255
252
255
255
255
255
255
255
255
255
255
255
255
255
255
255
255
255
255
255
255
255
255
255
255
255
255
255
255
255
255
254
255
255
255
255
255
252
255
255
243
255
255
239
255
255
241
255
255
246
255
255
246
255
255
232
255
255
229
255
253
227
247
238
214
251
243
219
255
254
235
251
238
212
255
254
241
255
251
244
247
234
214
255
253
240
254
246
224
255
252
234
244
229
205
253
249
230
232
217
199
240
230
212
242
230
207
250
243
226
250
243
228
255
255
245
255
255
254
255
252
235
231
214
190
211
193
170
242
229
205
254
251
231
255
255
245
255
255
245
255
243
226
255
254
244
255
255
255
255
255
255
255
255
255
255
255
255
255
255
255
255
255
255
255
255
255
255
255
255
255
255
255
255
255
255
255
255
255
255
255
255
255
255
255
255
255
255
255
255
255
255
255
255
255
255
255
255
255
255
255
255
254
255
255
251
255
255
246
255
255
234
255
255
228
255
255
227
255
255
233
255
255
240
255
255
247
255
255
252
255
255
255
255
255
255
255
255
255
255
255
255
255
255
255
255
255
255
255
255
255
255
255
255
255
255
255
255
255
252
255
255
251
255
255
248
255
255
244
255
255
241
255
255
240
255
255
233
255
255
224
255
255
226
255
255
223
255
255
222
255
255
226
255
255
226
255
255
241
255
255
250
255
255
254
255
255
253
255
255
250
255
255
250
255
255
246
255
255
242
255
255
240
255
255
239
255
255
244
255
255
247
255
255
248
255
255
240
255
255
226
255
255
208
255
255
200
255
255
195
255
255
186
255
255
180
255
251
172
255
245
169
255
253
177
255
255
184
255
255
188
255
255
192
255
255
213
255
255
231
255
255
239
255
255
240
255
255
223
255
255
207
255
255
193
255
253
186
255
252
189
255
255
201
255
177
132
255
181
133
255
194
143
255
221
164
255
240
180
255
252
190
255
255
193
255
255
188
255
254
185
255
255
188
255
255
195
255
255
197
255
255
203
255
255
214
255
255
227
255
255
240
255
255
241
255
255
242
255
255
237
255
255
232
255
255
231
255
255
230
255
255
233
255
255
234
255
255
225
255
255
219
255
255
212
255
255
211
255
255
214
255
255
217
255
255
224
255
255
231
255
255
233
255
255
235
255
255
236
255
255
232
255
255
234
255
255
233
255
255
246
255
255
255
255
255
255
255
255
255
255
255
253
255
255
247
255
255
245
255
255
246
255
255
251
255
255
255
255
255
255
255
255
252
255
255
253
255
255
249
255
255
243
255
255
241
255
255
239
255
255
238
255
255
249
255
255
253
255
255
255
255
255
255
255
255
255
255
255
254
255
255
249
255
255
249
255
255
255
255
255
255
255
255
255
255
255
255
255
255
255
255
255
255
255
255
255
255
255
255
255
255
255
255
255
255
255
255
255
255
255
255
255
255
254
255
255
250
255
255
243
255
255
234
255
255
237
255
255
243
255
255
230
255
255
231
255
255
239
255
250
224
252
237
213
255
253
233
255
255
242
255
252
231
255
255
252
255
252
241
255
252
243
255
255
252
254
246
228
255
252
243
239
225
205
239
228
211
224
206
190
251
241
223
243
225
205
253
244
233
253
246
233
255
255
252
255
255
255
254
249
238
238
221
198
207
188
164
251
235
212
243
222
200
253
247
230
255
254
245
255
251
243
255
255
255
255
255
255
255
255
255
255
255
255
255
255
255
255
255
255
255
255
255
255
255
255
255
255
255
255
255
255
255
255
255
255
255
255
255
255
255
255
255
255
255
255
255
255
255
255
255
255
255
255
255
250
255
255
245
255
255
240
255
255
228
255
255
215
255
255
204
255
255
199
255
255
202
255
255
214
255
255
229
255
255
239
255
255
248
255
255
255
255
255
255
255
255
255
255
255
255
255
255
255
255
255
255
255
255
255
255
255
255
255
255
255
255
255
255
255
255
255
255
255
255
255
255
254
255
255
248
255
255
240
255
255
232
255
255
227
255
255
228
255
255
228
255
255
223
255
255
223
255
255
219
255
255
224
255
255
237
255
255
241
255
255
237
255
255
232
255
255
236
255
255
234
255
255
230
255
255
228
255
255
228
255
255
234
255
255
236
255
255
233
255
255
230
255
255
219
255
255
207
255
255
201
255
255
197
255
255
188
255
255
180
255
255
178
255
254
180
255
255
185
255
255
182
255
254
183
255
250
181
255
253
194
255
255
213
255
255
232
255
255
231
255
255
221
255
255
212
255
255
203
255
255
196
255
255
197
255
255
202
255
202
152
255
201
150
255
213
158
255
239
178
255
252
191
255
255
202
255
255
202
255
255
196
255
255
196
255
255
200
255
255
206
255
255
208
255
255
210
255
255
213
255
255
222
255
255
233
255
255
236
255
255
238
255
255
236
255
255
225
255
255
221
255
255
223
255
255
223
255
255
224
255
255
215
255
255
207
255
255
203
255
255
204
255
255
209
255
255
210
255
255
216
255
255
224
255
255
224
255
255
226
255
255
230
255
255
230
255
255
232
255
255
238
255
255
253
255
255
255
255
255
255
255
255
255
255
255
247
255
255
233
255
255
232
255
255
234
255
255
240
255
255
249
255
255
251
255
255
247
255
255
245
255
255
241
255
255
241
255
255
238
255
255
235
255
255
229
255
255
237
255
255
242
255
255
251
255
255
253
255
255
250
255
255
247
255
255
245
255
255
247
255
255
255
255
255
255
255
255
255
255
255
255
255
255
255
255
255
255
255
255
255
255
255
255
255
255
255
255
255
255
255
255
255
255
255
255
255
255
255
255
255
255
255
255
250
255
255
246
255
255
240
255
255
234
255
255
231
255
255
233
255
253
232
255
250
224
255
250
225
255
255
248
255
254
245
255
252
229
255
255
247
255
254
245
255
255
246
255
255
255
255
254
242
252
246
237
250
241
220
224
208
189
227
208
191
245
228
211
240
226
209
255
251
241
255
253
236
255
255
253
255
255
255
251
246
236
237
227
207
214
196
172
252
235
212
246
226
205
251
235
215
255
254
242
255
253
238
255
255
254
255
255
255
255
255
255
255
255
255
255
255
255
255
255
255
255
255
255
255
255
255
255
255
255
255
255
255
255
255
255
255
255
255
255
255
255
255
255
255
255
255
255
255
255
255
255
255
251
255
255
239
255
255
228
255
255
219
255
255
205
255
255
195
255
255
187
255
255
187
255
255
193
255
255
205
255
255
218
255
255
232
255
255
246
255
255
255
255
255
255
255
255
255
255
255
255
255
255
255
255
255
255
255
255
255
255
255
255
255
255
255
255
255
255
255
255
255
255
255
254
255
255
254
255
255
251
255
255
238
255
255
227
255
255
224
255
255
223
255
255
224
255
255
220
255
255
216
255
255
210
255
255
215
255
255
225
255
255
227
255
255
227
255
255
225
255
255
224
255
255
222
255
255
225
255
255
224
255
255
222
255
255
227
255
255
229
255
255
225
255
255
222
255
255
217
255
255
207
255
255
202
255
255
204
255
255
197
255
255
191
255
255
189
255
255
191
255
255
195
255
255
192
255
251
185
255
242
180
255
247
186
255
255
200
255
255
213
255
255
214
255
255
214
255
255
216
255
255
211
255
255
207
255
255
205
255
255
205
255
234
179
255
232
175
255
237
178
255
250
190
255
255
201
255
255
214
255
255
216
255
255
209
255
255
206
255
255
211
255
255
221
255
255
221
255
255
220
255
255
216
255
255
219
255
255
227
255
255
229
255
255
229
255
255
228
255
255
218
255
255
207
255
255
210
255
255
213
255
255
220
255
255
210
255
255
203
255
255
202
255
255
205
255
255
209
255
255
208
255
255
208
255
255
218
255
255
220
255
255
219
255
255
224
255
255
231
255
255
236
255
255
250
255
255
255
255
255
255
255
255
255
255
255
255
255
255
241
255
255
223
255
255
227
255
255
232
255
255
237
255
255
245
255
255
245
255
255
241
255
255
238
255
255
237
255
255
232
255
255
232
255
255
222
255
255
218
255
255
228
255
255
233
255
255
240
255
255
243
255
255
241
255
255
239
255
255
241
255
255
250
255
255
255
255
255
255
255
255
255
255
255
255
255
255
255
255
255
255
255
255
255
255
255
255
255
255
255
255
255
255
255
255
255
255
255
255
255
255
255
255
255
255
255
255
254
255
255
251
255
255
245
255
255
241
255
255
230
255
255
229
255
251
226
255
247
220
255
254
234
255
255
242
255
254
234
255
251
229
255
252
229
255
254
243
255
254
241
255
255
254
255
255
246
255
255
246
255
252
234
239
223
202
230
212
193
248
232
215
239
223
207
255
255
251
255
253
246
255
255
255
255
255
255
251
242
230
243
227
205
224
205
181
248
228
205
249
235
214
252
238
218
255
252
239
255
254
239
255
255
252
255
255
255
255
255
255
255
255
255
255
255
255
255
255
255
255
255
255
255
255
255
255
255
255
255
255
255
255
255
255
255
255
255
255
255
255
255
255
255
255
255
255
255
255
255
255
255
248
255
255
232
255
255
218
255
255
207
255
255
199
255
255
198
255
255
193
255
255
194
255
255
199
255
255
208
255
255
218
255
255
224
255
255
236
255
255
251
255
255
255
255
255
255
255
255
255
255
255
255
255
255
253
255
255
250
255
255
244
255
255
245
255
255
249
255
255
249
255
255
249
255
255
250
255
255
246
255
255
234
255
255
222
255
255
214
255
255
210
255
255
215
255
255
220
255
255
218
255
255
211
255
255
220
255
255
229
255
255
225
255
255
226
255
255
230
255
255
222
255
255
222
255
255
227
255
255
228
255
255
226
255
255
229
255
255
226
255
255
225
255
255
219
255
255
212
255
255
207
255
255
210
255
255
211
255
255
205
255
255
201
255
255
201
255
255
204
255
255
202
255
255
198
255
253
191
255
243
182
255
248
185
255
254
192
255
255
204
255
255
205
255
255
209
255
255
215
255
255
217
255
255
214
255
255
207
255
255
202
255
254
198
255
253
193
254
254
192
255
255
199
255
255
212
255
255
218
255
255
222
255
255
216
255
255
210
255
255
211
255
255
223
255
255
227
255
255
224
255
255
217
255
255
214
255
255
217
255
255
217
255
255
217
255
255
222
255
255
217
255
255
207
255
255
206
255
255
208
255
255
212
255
255
198
255
255
195
255
255
200
255
255
200
255
255
203
255
255
204
255
255
202
255
255
210
255
255
216
255
255
217
255
255
224
255
255
234
255
255
244
255
255
254
255
255
255
255
255
255
255
255
255
255
255
254
255
255
235
255
255
222
255
255
226
255
255
234
255
255
240
255
255
240
255
255
236
255
255
232
255
255
229
255
255
229
255
255
229
255
255
231
255
255
217
255
255
215
255
255
223
255
255
225
255
255
225
255
255
224
255
255
222
255
255
229
255
255
237
255
255
246
255
255
255
255
255
255
255
255
255
255
255
255
255
255
255
255
255
255
255
255
255
255
255
255
255
255
255
255
255
255
255
255
255
255
255
255
255
255
255
255
255
255
255
255
254
255
255
250
255
255
247
255
255
243
255
255
233
255
253
226
255
246
215
255
251
227
255
252
230
255
252
231
255
254
233
255
249
226
255
253
230
255
255
245
255
255
238
255
255
240
255
255
239
255
255
235
255
253
239
253
244
222
254
248
231
254
245
227
251
240
224
255
255
251
255
255
255
255
255
253
255
255
255
251
245
236
237
216
192
234
213
188
245
225
202
251
235
215
255
246
230
255
254
236
255
255
244
255
255
255
255
255
255
255
255
255
255
255
255
255
255
255
255
255
255
255
255
255
255
255
255
255
255
255
255
255
255
255
255
255
255
255
255
255
255
255
255
255
255
255
255
255
255
255
252
255
255
235
255
255
227
255
255
212
255
255
211
255
255
213
255
255
209
255
255
205
255
255
212
255
255
214
255
255
218
255
255
218
255
255
219
255
255
222
255
255
231
255
255
241
255
255
248
255
255
250
255
255
247
255
255
242
255
255
237
255
255
232
255
255
234
255
255
236
255
255
241
255
255
241
255
255
239
255
255
237
255
255
230
255
255
220
255
255
216
255
255
213
255
255
216
255
255
220
255
255
224
255
255
222
255
255
228
255
255
233
255
255
232
255
255
230
255
255
227
255
255
227
255
255
227
255
255
232
255
255
238
255
255
238
255
255
232
255
255
227
255
255
220
255
255
218
255
255
211
255
255
208
255
255
215
255
255
217
255
255
214
255
255
212
255
255
220
255
255
230
255
255
223
255
255
207
255
255
194
255
249
186
255
252
189
255
255
199
255
255
207
255
255
209
255
255
211
255
255
216
255
255
220
255
255
218
255
255
204
255
255
198
255
255
209
253
255
198
252
255
194
255
255
200
255
255
210
255
255
216
255
255
220
255
255
214
255
255
205
255
255
203
255
255
214
255
255
222
255
255
221
255
255
212
255
255
207
255
255
209
255
255
210
255
255
209
255
255
217
255
255
218
255
255
213
255
255
210
255
255
211
255
255
206
255
254
194
255
251
190
255
253
195
255
255
197
255
255
195
255
255
200
255
255
201
255
255
208
255
255
217
255
255
220
255
255
228
255
255
234
255
255
241
255
255
254
255
255
255
255
255
255
255
255
255
255
255
244
255
255
224
255
255
219
255
255
223
255
255
232
255
255
238
255
255
235
255
255
230
255
255
222
255
255
220
255
255
221
255
255
227
255
255
231
255
255
225
255
255
219
255
255
221
255
255
224
255
255
220
255
255
214
255
255
213
255
255
224
255
255
239
255
255
245
255
255
253
255
255
255
255
255
255
255
255
255
255
255
255
255
255
255
255
255
255
255
255
255
255
255
255
255
255
255
255
255
255
255
255
255
255
255
255
255
255
255
255
255
255
255
255
254
255
255
254
255
255
255
255
255
246
255
255
240
255
252
228
255
253
227
255
248
220
255
245
220
255
251
225
255
250
226
254
242
218
255
250
227
255
255
241
255
253
231
255
251
229
255
254
233
255
255
238
255
253
238
255
252
236
255
255
249
254
251
237
255
255
251
255
255
254
255
255
255
255
255
255
255
254
250
245
230
207
238
217
192
253
233
210
254
248
232
255
253
235
255
255
245
255
255
250
255
255
254
255
255
255
255
255
255
255
255
255
255
255
255
255
255
255
255
255
255
255
255
255
255
255
255
255
255
255
255
255
255
255
255
255
255
255
255
255
255
255
255
255
255
255
255
251
255
255
230
255
255
225
255
255
213
255
255
218
255
255
223
255
255
221
255
255
217
255
255
221
255
255
223
255
255
224
255
255
215
255
255
206
255
255
206
255
255
214
255
255
221
255
255
231
255
255
237
255
255
240
255
255
238
255
255
231
255
255
230
255
255
226
255
255
224
255
255
226
255
255
227
255
255
222
255
255
219
255
255
220
255
255
222
255
255
221
255
255
217
255
255
221
255
255
227
255
255
232
255
255
235
255
255
238
255
255
240
255
255
243
255
255
239
255
255
234
255
255
234
255
255
235
255
255
237
255
255
242
255
255
242
255
255
233
255
255
226
255
255
226
255
255
221
255
255
215
255
255
216
255
255
221
255
255
222
255
255
226
255
255
226
255
255
233
255
255
242
255
255
234
255
255
219
255
255
207
255
255
201
255
255
200
255
255
208
255
255
211
255
255
207
255
255
208
255
255
214
255
255
212
255
255
205
255
255
196
255
255
193
254
255
207
250
255
194
251
255
189
253
255
194
255
255
201
255
255
212
255
255
216
255
255
208
255
255
199
255
255
197
255
255
203
255
255
209
255
255
213
255
255
209
255
255
202
255
255
203
255
255
203
255
255
206
255
255
213
255
255
216
255
255
215
255
255
210
255
255
207
255
255
199
252
245
187
254
237
180
255
239
183
255
250
189
255
255
191
255
255
192
255
255
195
255
255
205
255
255
221
255
255
229
255
255
230
255
255
230
255
255
233
255
255
244
255
255
250
255
255
251
255
255
242
255
255
221
255
255
215
255
255
216
255
255
221
255
255
234
255
255
240
255
255
233
255
255
224
255
255
216
255
255
215
255
255
223
255
255
231
255
255
234
255
255
235
255
255
228
255
255
226
255
255
230
255
255
230
255
255
219
255
255
214
255
255
223
255
255
242
255
255
253
255
255
255
255
255
255
255
255
255
255
255
255
255
255
255
255
255
255
255
255
255
255
255
255
255
255
255
255
255
255
255
255
255
255
255
255
255
255
255
255
255
255
255
255
255
255
255
255
255
255
255
255
255
255
255
255
255
255
255
245
255
255
232
255
253
229
255
248
220
255
253
230
255
251
229
255
250
224
252
235
208
247
228
202
255
243
217
255
251
226
255
254
227
255
253
227
255
253
229
255
255
240
255
255
249
255
255
251
255
255
251
255
255
254
255
255
255
255
255
255
255
255
255
255
255
254
252
243
222
255
251
231
255
249
231
255
254
245
255
251
236
255
255
244
255
254
241
255
255
251
255
255
255
255
255
255
255
255
255
255
255
255
255
255
255
255
255
255
255
255
255
255
255
255
255
255
255
255
255
255
255
255
255
255
255
255
255
255
255
255
255
255
255
255
255
255
255
241
255
255
234
255
255
223
255
255
226
255
255
231
255
255
234
255
255
237
255
255
236
255
255
229
255
255
218
255
255
203
255
255
190
255
255
187
255
255
195
255
255
206
255
255
223
255
255
231
255
255
235
255
255
232
255
255
224
255
255
218
255
255
215
255
255
217
255
255
218
255
255
218
255
255
214
255
255
215
255
255
221
255
255
220
255
255
223
255
255
229
255
255
233
255
255
239
255
255
242
255
255
245
255
255
245
255
255
243
255
255
250
255
255
252
255
255
249
255
255
247
255
255
248
255
255
246
255
255
245
255
255
243
255
255
234
255
255
227
255
255
232
255
255
228
255
255
223
255
255
223
255
255
223
255
255
220
255
255
228
255
255
231
255
255
235
255
255
235
255
255
232
255
255
228
255
255
220
255
255
214
255
255
210
255
255
212
255
255
210
255
255
206
255
255
215
255
255
224
255
255
222
255
255
209
255
255
197
255
254
198
253
255
196
252
253
186
254
254
183
254
255
186
254
255
191
255
255
200
255
255
211
255
255
210
255
255
201
255
255
191
255
255
197
255
255
201
255
255
204
255
255
203
255
255
199
255
255
203
255
255
200
255
255
209
255
255
214
255
255
213
255
255
212
255
255
206
255
255
202
254
254
195
248
241
184
247
233
176
253
236
179
255
251
191
255
255
196
255
255
195
255
255
196
255
255
211
255
255
228
255
255
235
255
255
234
255
255
226
255
255
224
255
255
226
255
255
230
255
255
227
255
255
224
255
255
215
255
255
213
255
255
216
255
255
223
255
255
240
255
255
243
255
255
238
255
255
219
255
255
211
255
255
213
255
255
228
255
255
237
255
255
238
255
255
242
255
255
236
255
255
234
255
255
234
255
255
228
255
255
219
255
255
220
255
255
228
255
255
242
255
255
254
255
255
255
255
255
255
255
255
255
255
255
255
255
255
255
255
255
255
255
255
255
255
255
255
255
255
255
255
255
255
255
255
255
255
255
255
255
255
255
255
255
255
255
255
255
255
255
255
255
255
255
255
255
255
255
255
254
255
255
249
255
255
242
255
254
232
255
254
230
255
255
241
255
252
226
255
246
218
253
239
212
246
228
202
248
229
202
253
235
207
254
246
217
255
252
226
255
244
217
255
254
239
255
255
239
255
255
251
255
255
255
255
255
255
255
255
255
255
255
255
255
255
255
255
255
255
254
252
245
255
255
253
255
255
245
255
255
240
255
252
229
255
254
234
255
251
232
255
255
243
255
255
247
255
255
253
255
255
255
255
255
255
255
255
255
255
255
255
255
255
255
255
255
255
255
255
255
255
255
255
255
255
255
255
255
255
255
255
255
255
255
255
255
255
255
255
255
254
255
255
249
255
255
240
255
255
233
255
255
235
255
255
238
255
255
243
255
255
246
255
255
239
255
255
222
255
255
197
255
255
180
255
253
177
255
254
181
255
255
196
255
255
213
255
255
222
255
255
230
255
255
227
255
255
221
255
255
214
255
255
215
255
255
223
255
255
224
255
255
224
255
255
222
255
255
224
255
255
227
255
255
231
255
255
236
255
255
235
255
255
242
255
255
244
255
255
244
255
255
246
255
255
244
255
255
242
255
255
246
255
255
254
255
255
255
255
255
255
255
255
255
255
255
254
255
255
251
255
255
241
255
255
235
255
255
234
255
255
239
255
255
238
255
255
232
255
255
223
255
255
217
255
255
217
255
255
220
255
255
222
255
255
230
255
255
230
255
255
227
255
255
226
255
255
223
255
255
221
255
255
218
255
255
216
255
255
212
255
255
214
255
255
221
255
255
230
255
255
235
255
255
224
255
255
215
255
255
211
255
255
191
255
255
188
255
255
184
255
255
184
255
255
189
255
255
199
255
255
206
255
255
209
255
255
209
255
255
190
255
255
190
255
255
196
255
255
196
255
255
197
254
255
194
255
255
200
255
255
201
255
255
217
255
255
223
255
255
214
255
255
209
252
255
199
253
255
198
252
255
193
248
247
188
246
240
184
250
243
188
255
254
198
255
255
206
255
255
205
255
255
208
255
255
226
255
255
235
255
255
239
255
255
240
255
255
233
255
255
226
255
255
228
255
255
228
255
255
221
255
255
221
255
255
221
255
255
221
255
255
225
255
255
233
255
255
248
255
255
249
255
255
242
255
255
224
255
255
212
255
255
218
255
255
234
255
255
243
255
255
246
255
255
249
255
255
243
255
255
236
255
255
236
255
255
231
255
255
228
255
255
225
255
255
227
255
255
245
255
255
255
255
255
255
255
255
255
255
255
255
255
255
255
255
255
255
255
255
255
255
255
255
255
255
255
255
255
255
255
255
255
255
255
255
255
255
255
255
255
255
255
255
255
255
255
255
255
255
255
255
255
255
255
255
255
255
255
255
255
255
255
255
255
251
255
255
242
255
255
238
255
255
246
255
250
226
255
249
224
255
245
220
253
239
212
249
229
202
250
229
203
250
229
202
253
244
219
255
247
221
255
253
235
255
255
253
255
255
248
255
255
254
255
255
255
255
255
254
255
255
253
255
255
255
255
255
255
255
251
242
255
255
254
255
255
247
255
255
243
255
254
231
254
246
218
255
253
231
255
254
232
255
255
238
255
255
255
255
255
255
255
255
255
255
255
255
255
255
255
255
255
255
255
255
255
255
255
255
255
255
255
255
255
255
255
255
255
255
255
255
255
255
255
255
255
255
255
255
255
255
255
254
255
255
248
255
255
237
255
255
234
255
255
231
255
255
232
255
255
237
255
255
235
255
255
223
255
255
206
255
255
190
255
254
187
255
255
193
255
255
204
255
255
213
255
255
217
255
255
222
255
255
220
255
255
220
255
255
215
255
255
220
255
255
232
255
255
237
255
255
233
255
255
224
255
255
222
255
255
224
255
255
231
255
255
237
255
255
237
255
255
242
255
255
247
255
255
246
255
255
245
255
255
244
255
255
243
255
255
245
255
255
252
255
255
255
255
255
255
255
255
255
255
255
255
255
255
254
255
255
244
255
255
237
255
255
240
255
255
242
255
255
242
255
255
235
255
255
223
255
255
217
255
255
219
255
255
217
255
255
214
255
255
216
255
255
219
255
255
220
255
255
222
255
255
227
255
255
226
255
255
224
255
255
223
255
255
219
255
255
220
255
255
227
255
255
239
255
255
248
255
255
239
255
255
234
255
255
231
255
255
195
255
255
194
255
255
192
255
255
186
255
255
195
255
255
204
255
255
208
255
255
209
255
255
206
255
255
199
255
255
198
255
255
198
255
255
194
255
255
195
254
255
194
255
255
203
255
255
207
255
255
224
255
255
229
255
255
219
254
255
209
246
255
193
250
255
197
252
255
199
250
254
196
244
248
190
246
249
193
253
255
205
255
255
221
255
255
223
255
255
223
255
255
236
255
255
246
255
255
250
255
255
252
255
255
244
255
255
240
255
255
242
255
255
241
255
255
237
255
255
235
255
255
236
255
255
236
255
255
237
255
255
246
255
255
254
255
255
254
255
255
246
255
255
226
255
255
217
255
255
227
255
255
237
255
255
244
255
255
249
255
255
254
255
255
246
255
255
233
255
255
235
255
255
240
255
255
246
255
255
241
255
255
226
255
255
239
255
255
255
255
255
255
255
255
255
255
255
255
255
255
255
255
255
255
255
255
255
255
255
255
255
255
255
255
255
255
255
255
255
255
255
255
255
255
255
255
255
255
255
255
255
255
255
255
255
255
255
255
255
255
255
255
255
255
255
255
255
255
255
255
255
255
255
255
250
255
255
250
255
255
249
255
255
236
255
254
234
254
239
214
244
226
199
253
234
207
253
237
211
253
238
214
252
236
212
255
242
217
255
249
228
255
255
250
255
255
254
255
255
255
255
255
255
255
255
254
255
255
254
255
255
255
255
255
255
255
255
250
255
255
254
255
255
245
255
254
239
253
243
219
254
245
221
255
253
230
255
249
222
255
255
242
255
255
255
255
255
255
255
255
255
255
255
255
255
255
255
255
255
255
255
255
255
255
255
255
255
255
255
255
255
255
255
255
255
255
255
255
255
255
255
255
255
255
255
255
255
255
255
255
255
255
251
255
255
240
255
255
232
255
255
222
255
255
224
255
255
229
255
255
233
255
255
229
255
255
215
255
255
207
255
255
204
255
255
206
255
255
212
255
255
217
255
255
219
255
255
217
255
255
216
255
255
215
255
255
217
255
255
226
255
255
232
255
255
235
255
255
230
255
255
217
255
255
216
255
255
218
255
255
227
255
255
235
255
255
239
255
255
246
255
255
252
255
255
247
255
255
243
255
255
242
255
255
242
255
255
243
255
255
249
255
255
255
255
255
255
255
255
255
255
255
255
255
255
254
255
255
247
255
255
242
255
255
245
255
255
246
255
255
245
255
255
237
255
255
224
255
255
222
255
255
217
255
255
216
255
255
209
255
255
207
255
255
213
255
255
222
255
255
229
255
255
234
255
255
233
255
255
227
255
255
231
255
255
227
255
255
226
255
255
227
255
255
239
255
255
250
255
255
246
255
255
234
255
255
231
255
255
209
255
255
208
255
255
202
255
255
199
255
255
204
255
255
215
255
255
215
255
255
210
255
255
204
255
255
206
255
255
207
255
255
206
255
255
198
252
255
193
253
255
197
255
255
205
255
255
213
255
255
229
255
255
234
255
255
227
255
255
215
250
255
199
253
255
205
254
255
213
254
255
207
252
255
202
254
255
204
255
255
213
255
255
230
255
255
237
255
255
237
255
255
242
255
255
253
255
255
255
255
255
255
255
255
254
255
255
253
255
255
253
255
255
252
255
255
252
255
255
253
255
255
255
255
255
252
255
255
250
255
255
255
255
255
255
255
255
255
255
255
252
255
255
229
255
255
224
255
255
235
255
255
242
255
255
242
255
255
250
255
255
254
255
255
247
255
255
233
255
255
228
255
255
240
255
255
254
255
255
254
255
255
254
255
255
251
255
255
254
255
255
255
255
255
255
255
255
255
255
255
255
255
255
255
255
255
255
255
255
255
255
255
255
255
255
255
255
255
255
255
255
255
255
255
255
255
255
255
255
255
255
255
255
255
255
255
255
255
255
255
255
255
255
255
255
255
255
255
255
255
255
255
255
255
255
255
255
249
255
255
249
255
255
246
255
253
234
255
243
217
253
241
214
247
230
203
254
242
216
254
239
214
255
248
224
255
241
218
255
251
229
255
255
242
255
255
254
255
255
255
255
255
255
255
255
254
255
255
255
255
255
255
255
255
255
255
255
249
255
255
255
255
255
246
255
254
233
255
245
220
255
253
232
255
252
229
255
248
223
255
255
252
255
255
255
255
255
255
255
255
255
255
255
255
255
255
255
255
255
255
255
255
255
255
255
255
255
255
255
255
255
255
255
255
255
255
255
255
255
255
255
255
255
255
255
255
255
255
255
254
255
255
248
255
255
231
255
255
218
255
255
204
255
255
200
255
255
208
255
255
226
255
255
231
255
255
223
255
255
219
255
255
219
255
255
223
255
255
224
255
255
219
255
255
216
255
255
215
255
255
217
255
255
217
255
255
219
255
255
225
255
255
221
255
255
215
255
255
205
255
255
193
255
255
201
255
255
211
255
255
224
255
255
238
255
255
242
255
255
253
255
255
255
255
255
254
255
255
251
255
255
252
255
255
251
255
255
249
255
255
247
255
255
254
255
255
255
255
255
255
255
255
254
255
255
248
255
255
241
255
255
243
255
255
248
255
255
251
255
255
248
255
255
239
255
255
231
255
255
233
255
255
231
255
255
226
255
255
217
255
255
211
255
255
217
255
255
228
255
255
231
255
255
234
255
255
236
255
255
232
255
255
235
255
255
234
255
255
227
255
255
219
255
255
219
255
255
226
255
255
237
255
255
233
255
255
231
255
255
219
255
255
217
255
255
212
255
255
211
255
255
218
255
255
225
255
255
222
255
255
211
255
255
205
255
255
214
255
255
222
255
255
215
255
255
211
254
255
208
254
255
206
255
255
213
255
255
219
255
255
232
255
255
239
255
255
232
255
255
216
255
255
211
255
255
218
255
255
232
255
255
226
255
255
220
255
255
217
255
255
228
255
255
243
255
255
249
255
255
246
255
255
247
255
255
251
255
255
254
255
255
255
255
255
255
255
255
255
255
255
255
255
255
255
255
255
255
255
255
255
255
255
255
255
255
255
255
255
255
255
255
255
255
255
255
255
255
255
255
255
252
255
255
242
255
255
245
255
255
251
255
255
249
255
255
247
255
255
248
255
255
252
255
255
243
255
255
233
255
255
227
255
255
236
255
255
253
255
255
255
255
255
255
255
255
255
255
255
255
255
255
255
255
255
255
255
255
255
255
255
255
255
255
255
255
255
255
255
255
255
255
255
255
255
255
255
255
255
255
255
255
255
255
255
255
255
255
255
255
255
255
255
255
255
255
255
255
255
255
251
255
255
253
255
255
255
255
255
254
255
255
255
255
255
253
255
255
252
255
255
251
255
255
244
255
255
241
255
255
238
255
255
237
255
252
230
255
250
225
254
237
212
254
246
221
255
249
227
255
247
224
255
255
241
255
255
252
255
255
252
255
255
254
255
255
254
255
255
253
255
255
255
255
255
255
255
255
254
255
255
255
255
254
246
255
253
236
255
253
234
255
254
237
255
250
229
255
254
238
255
255
254
255
255
255
255
255
255
255
255
255
255
255
255
255
255
255
255
255
255
255
255
255
255
255
255
255
255
255
255
255
255
255
255
255
255
255
255
255
255
255
255
255
255
255
255
255
255
255
251
255
255
242
255
255
228
255
255
217
255
255
204
255
255
193
255
255
201
255
255
219
255
255
236
255
255
240
255
255
244
255
255
244
255
255
246
255
255
240
255
255
229
255
255
219
255
255
224
255
255
230
255
255
225
255
255
228
255
255
229
255
255
218
255
255
202
255
255
188
255
255
181
255
255
192
255
255
212
255
255
230
255
255
245
255
255
253
255
255
255
255
255
255
255
255
255
255
255
255
255
255
255
255
255
255
255
255
252
255
255
245
255
255
246
255
255
253
255
255
252
255
255
244
255
255
237
255
255
239
255
255
248
255
255
254
255
255
253
255
255
245
255
255
239
255
255
240
255
255
234
255
255
241
255
255
234
255
255
224
255
255
224
255
255
224
255
255
231
255
255
236
255
255
239
255
255
240
255
255
239
255
255
241
255
255
241
255
255
229
255
255
213
255
255
209
255
255
212
255
255
226
255
255
231
255
255
230
255
255
226
255
255
224
255
255
224
255
255
223
255
255
230
255
255
233
255
255
228
255
255
219
255
255
212
255
255
226
255
255
240
255
255
235
255
255
228
255
255
225
255
255
227
255
255
220
255
255
223
255
255
229
255
255
241
255
255
239
255
255
231
255
255
227
255
255
230
255
255
244
255
255
246
255
255
239
255
255
234
255
255
245
255
255
250
255
255
252
255
255
249
255
255
245
255
255
251
255
255
255
255
255
255
255
255
255
255
255
255
255
255
255
255
255
255
255
255
255
255
255
255
255
255
255
255
255
255
255
255
254
255
255
252
255
255
253
255
255
255
255
255
254
255
255
254
255
255
255
255
255
255
255
255
255
255
255
255
255
255
255
255
255
254
255
255
245
255
255
235
255
255
235
255
255
239
255
255
252
255
255
255
255
255
255
255
255
255
255
255
255
255
255
255
255
255
255
255
255
255
255
255
255
255
255
255
255
255
255
255
255
255
255
255
255
255
255
255
255
255
255
255
255
255
255
255
255
255
255
255
255
255
255
255
255
255
255
255
255
255
255
255
255
255
255
255
255
253
255
255
249
255
255
249
255
255
250
255
255
246
255
255
244
255
255
238
255
253
234
252
242
212
248
237
206
252
245
220
255
253
225
255
247
222
254
236
211
255
251
229
254
244
221
255
250
234
255
255
255
255
255
251
255
255
250
255
255
254
255
255
253
255
255
255
255
255
255
255
255
255
255
255
253
255
247
232
255
255
248
255
251
235
255
252
236
255
249
225
255
254
249
255
255
255
255
255
255
255
255
255
255
255
255
255
255
255
255
255
255
255
255
255
255
255
255
255
255
255
255
255
255
255
255
255
255
255
255
255
255
255
255
255
255
255
255
255
255
255
255
255
255
248
255
255
247
255
255
240
255
255
228
255
255
206
255
255
202
255
255
215
255
255
233
255
255
246
255
255
253
255
255
255
255
255
255
255
255
255
255
255
254
255
255
241
255
255
227
255
255
229
255
255
235
255
255
237
255
255
242
255
255
237
255
255
223
255
255
206
255
255
193
255
255
191
255
255
202
255
255
226
255
255
249
255
255
255
255
255
255
255
255
255
255
255
255
255
255
255
255
255
255
255
255
255
255
255
255
255
255
254
255
255
247
255
255
249
255
255
250
255
255
247
255
255
235
255
255
236
255
255
243
255
255
250
255
255
252
255
255
250
255
255
241
255
255
234
255
255
235
255
255
230
255
255
234
255
255
234
255
255
233
255
255
231
255
255
232
255
255
235
255
255
237
255
255
241
255
255
240
255
255
240
255
255
247
255
255
246
255
255
235
255
255
214
255
255
207
255
255
208
255
255
220
255
255
228
255
255
233
255
255
219
255
255
222
255
255
229
255
255
235
255
255
238
255
255
243
255
255
238
255
255
227
255
255
223
255
255
234
255
255
250
255
255
251
255
255
242
255
255
233
255
255
232
255
255
225
255
255
218
255
255
223
255
255
240
255
255
245
255
255
248
255
255
250
255
255
247
255
255
252
255
255
251
255
255
253
255
255
253
255
255
253
255
255
254
255
255
254
255
255
252
255
255
248
255
255
250
255
255
254
255
255
255
255
255
255
255
255
255
255
255
255
255
255
255
255
255
255
255
255
255
255
255
255
255
255
255
255
255
254
255
255
252
255
255
253
255
255
254
255
255
255
255
255
255
255
255
255
255
255
255
255
255
255
255
255
255
255
255
255
255
255
255
255
255
253
255
255
251
255
255
247
255
255
251
255
255
254
255
255
255
255
255
255
255
255
255
255
255
255
255
255
255
255
255
255
255
255
255
255
255
255
255
255
255
255
255
255
255
255
255
255
255
255
255
255
255
255
255
255
255
255
255
255
255
255
255
255
255
255
255
255
255
255
255
255
255
255
255
255
255
255
255
253
255
255
250
255
255
242
255
255
240
255
255
246
255
255
241
255
255
243
255
254
236
255
245
215
247
228
196
234
215
185
229
210
180
248
230
201
252
236
209
251
233
208
255
248
226
255
250
229
255
252
232
255
254
243
255
251
240
255
255
243
255
254
245
255
255
255
255
255
255
255
255
255
255
255
255
255
255
249
255
255
250
255
254
245
255
253
239
255
255
247
255
255
242
255
255
252
255
255
255
255
255
255
255
255
255
255
255
255
255
255
255
255
255
255
255
255
255
255
255
255
255
255
255
255
255
255
255
255
255
255
255
255
255
255
255
255
255
255
255
255
255
255
255
255
255
255
255
255
255
252
255
255
249
255
255
240
255
255
221
255
255
221
255
255
227
255
255
237
255
255
241
255
255
250
255
255
255
255
255
255
255
255
255
255
255
255
255
255
254
255
255
243
255
255
232
255
255
235
255
255
245
255
255
251
255
255
250
255
255
244
255
255
224
255
255
216
255
255
218
255
255
226
255
255
239
255
255
253
255
255
255
255
255
255
255
255
255
255
255
255
255
255
255
255
255
252
255
255
252
255
255
254
255
255
255
255
255
254
255
255
250
255
255
248
255
255
247
255
255
237
255
255
236
255
255
240
255
255
242
255
255
241
255
255
241
255
255
234
255
255
226
255
255
225
255
255
223
255
255
226
255
255
234
255
255
237
255
255
233
255
255
234
255
255
242
255
255
243
255
255
243
255
255
232
255
255
231
255
255
246
255
255
247
255
255
237
255
255
221
255
255
214
255
255
217
255
255
226
255
255
233
255
255
239
255
255
217
255
255
213
255
255
220
255
255
232
255
255
235
255
255
238
255
255
239
255
255
224
255
255
225
255
255
238
255
255
251
255
255
252
255
255
242
255
255
231
255
255
231
255
255
222
255
255
211
255
255
213
255
255
229
255
255
240
255
255
249
255
255
254
255
255
253
255
255
252
255
255
250
255
255
255
255
255
255
255
255
255
255
255
255
255
255
255
255
255
254
255
255
252
255
255
254
255
255
253
255
255
255
255
255
254
255
255
255
255
255
255
255
255
255
255
255
255
255
255
255
255
255
255
255
255
255
255
255
254
255
255
251
255
255
255
255
255
254
255
255
255
255
255
255
255
255
255
255
255
255
255
255
255
255
255
255
255
255
255
255
255
255
255
255
255
255
255
255
255
255
255
255
255
255
255
255
255
255
255
255
255
255
255
255
255
255
255
255
255
255
255
255
255
255
255
255
255
255
255
255
255
255
255
255
255
255
255
255
255
255
255
255
255
255
255
255
255
255
255
255
255
255
255
255
255
255
255
255
255
255
255
255
255
255
255
255
255
255
255
255
255
255
253
255
255
249
255
255
249
255
255
253
255
255
248
255
255
243
255
255
238
255
254
230
255
247
218
253
236
207
247
227
200
239
219
192
232
212
185
239
218
192
243
230
207
254
245
222
255
246
223
253
249
227
255
252
242
255
244
221
255
253
238
255
249
228
255
255
251
255
255
253
255
255
250
255
255
255
255
255
252
255
255
245
255
252
244
255
255
255
255
255
255
255
255
249
255
255
251
255
255
255
255
255
255
255
255
255
255
255
255
255
255
255
255
255
255
255
255
255
255
255
255
255
255
255
255
255
255
255
255
255
255
255
255
255
255
255
255
255
255
255
255
255
255
255
255
255
255
255
255
255
250
255
255
244
255
255
239
255
255
227
255
255
226
255
255
226
255
255
223
255
255
211
255
255
217
255
255
231
255
255
246
255
255
252
255
255
254
255
255
253
255
255
246
255
255
243
255
255
235
255
255
241
255
255
248
255
255
253
255
255
253
255
255
241
255
255
239
255
255
241
255
255
249
255
255
253
255
255
255
255
255
255
255
255
255
255
255
255
255
255
255
255
255
251
255
255
236
255
255
234
255
255
243
255
255
253
255
255
255
255
255
255
255
255
254
255
255
253
255
255
248
255
255
239
255
255
236
255
255
235
255
255
237
255
255
241
255
255
237
255
255
230
255
255
223
255
255
219
255
255
224
255
255
229
255
255
235
255
255
232
255
255
233
255
255
242
255
255
248
255
255
245
255
255
227
255
255
224
255
255
241
255
255
253
255
255
246
255
255
234
255
255
226
255
255
226
255
255
230
255
255
235
255
255
242
255
255
227
255
255
214
255
255
209
255
255
221
255
255
232
255
255
239
255
255
236
255
255
222
255
255
218
255
255
228
255
255
244
255
255
246
255
255
235
255
255
227
255
255
218
255
255
209
255
255
197
255
255
198
255
255
209
255
255
222
255
255
238
255
255
247
255
255
242
255
255
244
255
255
248
255
255
255
255
255
255
255
255
255
255
255
255
255
255
255
255
255
255
255
255
255
255
255
255
255
255
255
255
255
254
255
255
251
255
255
255
255
255
255
255
255
255
255
255
255
255
255
255
255
255
253
255
255
249
255
255
242
255
255
245
255
255
248
255
255
249
255
255
252
255
255
255
255
255
255
255
255
255
255
255
253
255
255
255
255
255
255
255
255
255
255
255
255
255
255
255
255
255
255
255
255
255
255
255
255
255
255
255
255
255
255
255
255
255
255
255
255
255
255
255
255
255
255
255
255
255
255
255
255
255
255
255
255
255
255
255
255
255
255
255
255
255
255
255
255
255
255
255
255
255
255
255
255
255
255
255
255
255
255
255
255
255
255
255
255
255
255
254
255
255
251
255
255
252
255
255
254
255
255
252
255
255
241
255
255
237
255
255
236
255
255
231
255
254
234
255
252
230
253
240
213
246
225
198
240
218
194
243
219
196
224
198
175
226
204
181
252
239
216
247
228
205
253
239
219
254
247
226
252
239
215
255
246
222
255
252
246
255
252
241
255
252
235
255
253
244
255
255
246
255
252
237
255
250
232
252
236
218
254
246
231
253
243
224
255
253
241
255
255
251
255
255
255
255
255
255
255
255
255
255
255
255
255
255
255
255
255
255
255
255
255
255
255
255
255
255
255
255
255
255
255
255
255
255
255
255
255
255
255
255
255
255
255
255
255
255
255
254
255
255
243
255
255
232
255
255
231
255
255
221
255
255
220
255
255
217
255
255
209
255
254
186
255
254
180
255
255
197
255
255
210
255
255
217
255
255
233
255
255
244
255
255
246
255
255
249
255
255
243
255
255
239
255
255
239
255
255
245
255
255
252
255
255
251
255
255
249
255
255
251
255
255
254
255
255
255
255
255
255
255
255
254
255
255
252
255
255
252
255
255
253
255
255
250
255
255
239
255
255
236
255
255
245
255
255
254
255
255
255
255
255
255
255
255
255
255
255
255
255
255
255
255
255
254
255
255
249
255
255
242
255
255
243
255
255
248
255
255
249
255
255
244
255
255
236
255
255
227
255
255
229
255
255
232
255
255
231
255
255
226
255
255
223
255
255
238
255
255
253
255
255
247
255
255
219
255
255
212
255
255
229
255
255
251
255
255
247
255
255
240
255
255
232
255
255
232
255
255
234
255
255
237
255
255
248
255
255
239
255
255
231
255
255
216
255
255
211
255
255
223
255
255
234
255
255
240
255
255
229
255
255
211
255
255
214
255
255
230
255
255
239
255
255
231
255
255
216
255
255
210
255
255
206
255
255
196
255
255
183
255
255
191
255
255
203
255
255
221
255
255
228
255
255
226
255
255
228
255
255
240
255
255
255
255
255
255
255
255
255
255
255
255
255
255
255
255
255
255
255
255
255
255
255
255
255
255
255
255
255
255
255
255
255
255
255
255
255
255
255
255
255
255
255
255
255
255
255
253
255
255
233
255
255
226
255
255
222
255
255
231
255
255
231
255
255
244
255
255
250
255
255
255
255
255
255
255
255
255
255
255
254
255
255
255
255
255
255
255
255
252
255
255
251
255
255
253
255
255
254
255
255
255
255
255
255
255
255
255
255
255
255
255
255
255
255
255
255
255
255
255
255
255
255
255
255
255
255
255
255
255
255
255
255
255
255
255
255
255
255
255
255
255
255
255
255
255
255
255
255
255
255
255
255
255
255
255
255
255
255
255
255
254
255
255
253
255
255
255
255
255
255
255
255
255
255
255
255
255
255
255
255
255
253
255
255
243
255
255
246
255
255
252
255
255
253
255
255
242
255
253
229
254
243
216
249
236
211
241
222
197
233
210
186
236
214
191
247
232
210
253
240
218
253
237
216
254
241
219
251
236
211
255
243
219
255
254
249
255
254
248
255
250
240
252
243
223
251
240
218
248
238
218
243
225
200
236
212
187
253
239
215
249
226
198
255
246
224
255
255
243
255
255
255
255
255
255
255
255
255
255
255
255
255
255
255
255
255
255
255
255
255
255
255
255
255
255
255
255
255
255
255
255
255
255
255
255
255
255
255
255
255
255
255
255
255
255
255
245
255
255
223
255
255
214
255
255
223
255
255
216
255
255
217
255
255
220
255
255
211
255
255
203
255
255
207
255
255
199
255
255
198
255
255
195
255
255
207
255
255
239
255
255
251
255
255
255
255
255
253
255
255
243
255
255
232
255
255
238
255
255
245
255
255
243
255
255
244
255
255
244
255
255
253
255
255
255
255
255
255
255
255
255
255
255
255
255
255
250
255
255
255
255
255
255
255
255
249
255
255
249
255
255
255
255
255
255
255
255
255
255
255
255
255
255
255
255
255
255
255
255
255
255
255
255
255
255
255
255
255
255
255
255
254
255
255
255
255
255
255
255
255
254
255
255
239
255
255
236
255
255
238
255
255
235
255
255
227
255
255
214
255
255
217
255
255
238
255
255
251
255
255
243
255
255
214
255
255
205
255
255
223
255
255
242
255
255
245
255
255
240
255
255
234
255
255
238
255
255
237
255
255
236
255
255
244
255
255
239
255
255
238
255
255
224
255
255
209
255
255
213
255
255
229
255
255
239
255
255
232
255
255
213
255
255
220
255
255
232
255
255
238
255
255
229
255
255
219
255
255
222
255
255
218
255
255
212
255
255
196
255
255
190
255
255
200
255
255
221
255
255
226
255
255
227
255
255
222
255
255
242
255
255
255
255
255
255
255
255
255
255
255
255
255
255
255
255
255
255
255
255
251
255
255
248
255
255
249
255
255
255
255
255
255
255
255
255
255
255
255
255
255
255
255
255
255
255
255
240
255
255
208
255
255
205
255
255
206
255
255
220
255
255
221
255
255
237
255
255
251
255
255
255
255
255
255
255
255
255
255
255
255
255
255
255
255
255
255
255
255
242
255
255
234
255
255
234
255
255
240
255
255
249
255
255
254
255
255
253
255
255
254
255
255
255
255
255
255
255
255
255
255
255
255
255
255
255
255
255
255
255
255
255
255
255
255
255
255
255
255
255
255
255
255
255
255
255
255
255
255
255
255
255
255
255
255
255
255
255
255
255
255
255
255
255
252
255
255
255
255
255
255
255
255
255
255
255
253
255
255
245
255
255
240
255
255
245
255
255
249
255
255
253
255
255
250
255
255
249
255
255
236
255
254
228
254
249
222
252
236
209
236
215
191
243
224
200
240
220
196
254
244
220
252
237
215
254
248
225
250
234
211
250
230
208
255
252
242
255
255
253
255
255
255
255
251
236
241
220
197
228
206
181
234
212
187
253
243
217
254
245
219
252
241
214
255
253
238
255
255
248
255
255
254
255
255
255
255
255
255
255
255
255
255
255
255
255
255
255
255
255
255
255
255
255
255
255
255
255
255
255
255
255
255
255
255
255
255
255
255
255
255
254
255
255
247
255
255
221
255
255
203
255
255
211
255
255
225
255
255
220
255
255
212
255
255
224
255
255
225
255
255
217
255
255
229
255
255
214
255
255
213
255
255
207
255
255
209
255
255
238
255
255
254
255
255
255
255
255
255
255
255
253
255
255
236
255
255
236
255
255
241
255
255
230
255
255
221
255
255
233
255
255
248
255
255
255
255
255
255
255
255
255
255
255
255
255
255
255
255
255
255
255
255
255
255
255
255
255
255
255
255
255
255
255
255
255
255
255
255
255
255
255
255
255
255
255
255
255
255
255
255
255
255
255
255
255
255
255
255
255
255
255
255
255
255
255
255
255
255
255
255
255
255
255
249
255
255
248
255
255
245
255
255
239
255
255
222
255
255
217
255
255
226
255
255
246
255
255
247
255
255
235
255
255
214
255
255
213
255
255
225
255
255
234
255
255
234
255
255
231
255
255
224
255
255
228
255
255
231
255
255
234
255
255
231
255
255
228
255
255
234
255
255
229
255
255
210
255
255
207
255
255
222
255
255
237
255
255
234
255
255
222
255
255
223
255
255
235
255
255
243
255
255
232
255
255
213
255
255
218
255
255
232
255
255
234
255
255
227
255
255
215
255
255
213
255
255
233
255
255
237
255
255
235
255
255
230
255
255
243
255
255
252
255
255
255
255
255
255
255
255
255
255
255
255
255
255
255
255
255
249
255
255
236
255
255
235
255
255
253
255
255
255
255
255
255
255
255
255
255
255
255
255
255
251
255
255
228
255
255
204
255
255
205
255
255
216
255
255
222
255
255
225
255
255
236
255
255
253
255
255
255
255
255
255
255
255
255
255
255
255
255
255
255
255
255
255
255
255
242
255
255
224
255
255
221
255
255
217
255
255
227
255
255
236
255
255
237
255
255
248
255
255
255
255
255
255
255
255
255
255
255
255
255
255
255
255
255
254
255
255
255
255
255
255
255
255
255
255
255
255
255
255
255
255
255
255
255
255
255
255
255
255
255
255
255
255
255
255
255
255
254
255
255
253
255
255
249
255
255
255
255
255
254
255
255
247
255
255
237
255
253
238
255
253
238
255
255
254
255
255
253
255
255
254
255
255
245
255
252
226
255
247
219
248
233
204
238
220
193
234
213
189
235
216
192
237
215
192
243
224
201
253
238
215
245
227
203
253
242
219
246
225
203
254
247
233
253
250
240
255
255
254
254
249
232
242
221
196
222
201
177
251
236
210
255
244
214
254
242
211
255
248
219
255
251
232
255
254
238
255
252
233
255
255
249
255
255
255
255
255
255
255
255
255
255
255
255
255
255
255
255
255
255
255
255
255
255
255
255
255
255
255
255
255
255
255
255
255
255
255
252
255
255
228
255
254
200
255
254
200
255
255
226
255
255
241
255
255
240
255
255
232
255
255
226
255
255
238
255
255
231
255
255
230
255
255
222
255
255
220
255
255
215
255
255
224
255
255
246
255
255
255
255
255
255
255
255
255
255
255
255
255
255
248
255
255
253
255
255
253
255
255
230
255
255
204
255
255
213
255
255
235
255
255
253
255
255
255
255
255
255
255
255
255
255
255
255
255
255
251
255
255
249
255
255
250
255
255
255
255
255
255
255
255
255
255
255
253
255
255
254
255
255
255
255
255
255
255
255
255
255
255
255
255
255
255
255
255
255
255
255
255
255
255
255
255
255
255
255
255
255
255
255
255
255
255
255
255
255
255
255
255
249
255
255
232
255
255
233
255
255
245
255
255
254
255
255
251
255
255
232
255
255
213
255
255
223
255
255
237
255
255
236
255
255
229
255
255
215
255
255
210
255
255
212
255
255
220
255
255
224
255
255
222
255
255
225
255
255
232
255
255
230
255
255
218
255
255
207
255
255
212
255
255
228
255
255
229
255
255
228
255
255
225
255
255
229
255
255
244
255
255
233
255
255
211
255
255
211
255
255
242
255
255
254
255
255
251
255
255
240
255
255
230
255
255
236
255
255
247
255
255
244
255
255
243
255
255
247
255
255
249
255
255
253
255
255
255
255
255
255
255
255
255
255
255
255
255
255
246
255
255
227
255
255
223
255
255
249
255
255
255
255
255
255
255
255
255
255
255
254
255
255
245
255
255
225
255
255
213
255
255
218
255
255
226
255
255
236
255
255
235
255
255
243
255
255
253
255
255
255
255
255
255
255
255
255
255
255
255
255
255
255
255
255
255
255
255
247
255
255
227
255
255
220
255
255
214
255
255
216
255
255
217
255
255
234
255
255
246
255
255
255
255
255
255
255
255
255
255
255
255
255
255
255
255
255
253
255
255
254
255
255
255
255
255
255
255
255
255
255
255
255
255
255
255
255
255
255
255
255
255
255
255
255
255
255
255
255
255
255
255
255
250
255
255
251
255
255
251
255
255
250
255
255
247
255
255
243
255
255
248
255
255
254
255
255
252
255
254
238
255
255
246
255
255
242
255
255
236
249
236
208
229
211
182
219
198
171
224
200
177
240
217
194
244
219
197
231
204
183
246
228
206
250
232
209
251
233
208
252
233
209
254
250
235
253
251
241
252
247
233
244
229
204
232
214
189
224
207
181
243
228
200
250
234
202
252
234
200
253
243
212
255
251
222
255
251
221
249
224
194
255
250
229
255
255
254
255
255
255
255
255
255
255
255
255
255
255
255
255
255
255
255
255
255
255
255
255
255
255
255
255
255
255
255
255
255
255
255
254
255
255
250
255
255
225
255
255
238
255
255
252
255
255
255
255
255
254
255
255
253
255
255
242
255
255
239
255
255
237
255
255
229
255
255
227
255
255
223
255
255
221
255
255
228
255
255
249
255
255
255
255
255
255
255
255
254
255
255
243
255
255
246
255
255
255
255
255
254
255
255
235
255
255
208
255
255
208
255
255
215
255
255
241
255
255
255
255
255
255
255
255
255
255
255
247
255
255
241
255
255
241
255
255
238
255
255
251
255
255
255
255
255
253
255
255
241
255
255
235
255
255
240
255
255
248
255
255
254
255
255
253
255
255
255
255
255
255
255
255
250
255
255
254
255
255
254
255
255
252
255
255
255
255
255
255
255
255
255
255
255
250
255
255
243
255
255
244
255
255
254
255
255
255
255
255
253
255
255
236
255
255
227
255
255
242
255
255
253
255
255
247
255
255
232
255
255
215
255
255
204
255
255
212
255
255
223
255
255
222
255
255
222
255
255
226
255
255
230
255
255
229
255
255
225
255
255
215
255
255
208
255
255
208
255
255
214
255
255
229
255
255
222
255
255
226
255
255
245
255
255
241
255
255
225
255
255
222
255
255
240
255
255
255
255
255
255
255
255
250
255
255
237
255
255
236
255
255
246
255
255
248
255
255
250
255
255
249
255
255
249
255
255
243
255
255
254
255
255
255
255
255
255
255
255
255
255
255
245
255
255
230
255
255
231
255
255
249
255
255
255
255
255
255
255
255
255
255
255
255
255
255
245
255
255
228
255
255
224
255
255
228
255
255
231
255
255
239
255
255
240
255
255
241
255
255
248
255
255
255
255
255
255
255
255
255
255
255
255
255
255
255
255
255
255
255
255
253
255
255
248
255
255
248
255
255
239
255
255
231
255
255
216
255
255
246
255
255
254
255
255
255
255
255
255
255
255
255
255
255
251
255
255
242
255
255
248
255
255
252
255
255
255
255
255
255
255
255
255
255
255
255
255
255
255
255
255
255
255
255
255
255
255
255
255
255
255
255
255
255
255
255
255
255
255
251
255
255
254
255
255
255
255
255
255
255
255
254
255
255
254
255
255
251
255
254
241
255
254
233
255
254
233
255
253
230
255
254
236
245
236
212
203
185
159
208
188
164
230
209
185
227
206
183
251
236
212
231
210
187
224
200
178
249
229
205
251
233
208
253
243
216
255
255
251
255
255
247
254
249
227
249
234
210
227
209
185
216
199
169
221
205
172
238
222
188
246
230
197
251
235
202
254
247
217
255
253
224
254
241
214
255
253
243
255
255
253
255
255
255
255
255
255
255
255
255
255
255
255
255
255
255
255
255
255
255
255
255
255
255
255
255
255
255
255
255
255
255
255
255
255
255
253
255
255
246
255
255
251
255
255
255
255
255
255
255
255
255
255
255
255
255
255
255
255
255
254
255
255
254
255
255
248
255
255
241
255
255
236
255
255
230
255
255
234
255
255
251
255
255
255
255
255
253
255
255
234
255
255
219
255
255
243
255
255
255
255
255
255
255
255
246
255
255
222
255
255
213
255
255
204
255
255
219
255
255
240
255
255
254
255
255
248
255
255
235
255
255
229
255
255
234
255
255
231
255
255
230
255
255
239
255
255
239
255
255
231
255
255
225
255
255
227
255
255
239
255
255
245
255
255
245
255
255
253
255
255
255
255
255
255
255
255
255
255
255
254
255
255
247
255
255
254
255
255
255
255
255
249
255
255
230
255
255
237
255
255
242
255
255
244
255
255
254
255
255
254
255
255
247
255
255
244
255
255
253
255
255
255
255
255
255
255
255
247
255
255
226
255
255
211
255
255
222
255
255
234
255
255
229
255
255
225
255
255
226
255
255
235
255
255
237
255
255
228
255
255
217
255
255
216
255
255
204
255
255
210
255
255
230
255
255
229
255
255
224
255
255
251
255
255
254
255
255
242
255
255
233
255
255
250
255
255
255
255
255
255
255
255
248
255
255
237
255
255
240
255
255
247
255
255
253
255
255
255
255
255
252
255
255
245
255
255
240
255
255
254
255
255
255
255
255
254
255
255
242
255
255
227
255
255
225
255
255
237
255
255
248
255
255
252
255
255
255
255
255
255
255
255
255
255
255
253
255
255
234
255
255
229
255
255
238
255
255
246
255
255
244
255
255
235
255
255
233
255
255
249
255
255
255
255
255
255
255
255
255
255
255
255
255
255
255
255
255
255
255
255
255
255
255
255
255
255
255
255
255
255
255
255
251
255
253
220
255
255
246
255
255
255
255
255
255
255
255
255
255
255
254
255
255
238
255
255
237
255
255
252
255
255
252
255
255
255
255
255
255
255
255
255
255
255
255
255
255
255
255
255
255
255
255
255
255
255
255
255
255
255
255
255
255
255
255
255
255
255
254
255
255
254
255
255
255
255
255
255
255
254
252
255
253
240
255
255
248
255
252
228
255
254
236
255
248
225
255
250
225
255
251
230
251
236
210
241
222
197
229
209
184
223
203
178
219
197
174
231
210
187
216
192
170
223
199
177
240
219
196
248
230
205
255
249
226
255
255
255
250
244
233
235
214
193
224
200
179
215
197
173
202
185
155
213
196
165
226
209
179
240
223
193
254
240
209
254
245
216
255
246
217
254
234
207
255
245
221
255
254
237
255
255
249
255
255
255
255
255
255
255
255
255
255
255
255
255
255
255
255
255
255
255
255
255
255
255
255
255
255
255
255
255
255
255
255
255
255
255
255
255
255
255
255
255
255
255
255
255
255
255
255
255
255
255
255
255
255
255
255
255
255
255
255
255
255
255
255
255
255
255
255
254
255
255
247
255
255
246
255
255
253
255
255
253
255
255
236
255
255
212
255
255
213
255
255
241
255
255
255
255
255
255
255
255
248
255
255
246
255
255
232
255
255
211
255
255
208
255
255
231
255
255
250
255
255
249
255
255
241
255
255
242
255
255
248
255
255
245
255
255
231
255
255
236
255
255
244
255
255
243
255
255
239
255
255
241
255
255
250
255
255
248
255
255
244
255
255
254
255
255
255
255
255
255
255
255
255
255
255
255
255
255
249
255
255
249
255
255
245
255
254
218
255
255
211
255
255
238
255
255
244
255
255
228
255
255
235
255
255
249
255
255
251
255
255
253
255
255
255
255
255
255
255
255
255
255
255
253
255
255
235
255
255
222
255
255
233
255
255
237
255
255
230
255
255
235
255
255
215
255
255
229
255
255
234
255
255
228
255
255
219
255
255
217
255
255
207
255
255
208
255
255
228
255
255
228
255
255
219
255
255
246
255
255
255
255
255
245
255
255
243
255
255
255
255
255
255
255
255
255
255
255
250
255
255
241
255
255
244
255
255
253
255
255
255
255
255
255
255
255
254
255
255
245
255
255
242
255
255
253
255
255
254
255
255
237
255
255
213
255
255
200
255
255
213
255
255
241
255
255
249
255
255
254
255
255
253
255
255
254
255
255
255
255
255
255
255
255
249
255
255
242
255
255
243
255
255
249
255
255
244
255
255
243
255
255
246
255
255
254
255
255
255
255
255
255
255
255
255
255
255
255
255
255
255
255
255
255
255
255
255
255
255
255
255
255
255
255
255
255
255
255
255
255
255
243
254
253
233
255
255
255
255
255
255
255
255
255
255
255
247
255
255
228
255
255
230
255
255
248
255
255
253
255
255
254
255
255
255
255
255
255
255
255
255
255
255
255
255
255
255
255
255
254
255
255
253
255
255
251
255
255
246
255
252
237
255
254
243
255
255
247
255
255
250
255
255
249
254
250
230
254
253
245
255
253
243
250
234
208
247
232
207
248
234
208
253
243
218
253
244
219
250
235
209
231
213
188
202
182
157
212
192
167
201
177
155
204
180
158
210
186
163
219
195
172
232
211
187
247
230
205
246
237
213
255
255
251
248
233
210
246
232
207
238
222
198
229
211
188
199
182
153
207
190
161
216
199
172
239
222
194
250
237
208
254
243
215
255
251
226
255
250
225
255
239
215
255
252
229
255
255
239
255
255
253
255
255
255
255
255
255
255
255
255
255
255
255
255
255
255
255
255
255
255
255
255
255
255
255
255
255
255
255
255
255
255
255
255
255
255
255
255
255
255
255
255
255
255
255
255
255
255
255
255
255
255
255
255
255
255
255
255
255
255
255
255
255
255
255
255
255
255
255
255
255
255
254
255
255
253
255
255
251
255
255
236
255
255
217
255
255
205
255
255
236
255
255
255
255
255
255
255
255
255
255
255
255
255
255
249
255
255
236
255
255
241
255
255
253
255
255
255
255
255
255
255
255
255
255
255
255
255
255
255
255
255
255
255
255
255
255
255
255
255
255
255
255
255
255
255
255
255
255
255
255
255
255
254
255
255
255
255
255
253
255
255
255
255
255
255
255
255
255
255
255
255
255
255
255
255
255
252
255
255
248
255
255
240
254
253
220
255
255
232
255
255
253
255
255
247
255
255
223
255
255
224
255
255
245
255
255
254
255
255
254
255
255
255
255
255
255
255
255
255
255
255
251
255
255
240
255
255
231
255
255
235
255
255
244
255
255
251
255
255
255
255
255
211
255
255
214
255
255
224
255
255
219
255
255
213
255
255
215
255
255
204
255
255
198
255
255
211
255
255
214
255
255
209
255
255
232
255
255
244
255
255
232
255
255
240
255
255
255
255
255
255
255
255
255
255
255
255
255
255
252
255
255
254
255
255
255
255
255
255
255
255
255
255
255
252
255
255
243
255
255
244
255
255
252
255
255
240
255
255
217
255
255
206
255
255
193
255
255
202
255
255
219
255
255
243
255
255
255
255
255
254
255
255
247
255
255
253
255
255
255
255
255
254
255
255
249
255
255
247
255
255
233
255
255
231
255
255
249
255
255
255
255
255
255
255
255
255
255
255
255
255
255
255
255
255
255
255
255
255
255
255
255
255
255
255
255
255
255
255
255
255
255
255
255
255
255
255
255
255
253
254
253
234
255
255
255
255
255
255
255
255
255
255
255
247
255
255
228
255
255
235
255
255
243
255
255
252
255
255
255
255
255
255
255
255
255
255
255
255
255
255
255
255
255
253
255
255
236
255
255
230
255
249
223
246
233
201
250
235
202
255
252
225
255
250
222
255
251
225
255
255
238
255
255
246
255
255
251
254
245
224
244
228
202
226
204
180
225
203
179
235
214
190
245
228
202
250
234
208
220
205
179
199
182
156
196
175
150
194
172
148
198
176
152
211
188
164
241
217
193
234
213
189
243
222
193
244
228
199
255
254
239
255
254
240
248
238
213
223
204
180
207
189
165
174
157
133
198
180
156
215
198
173
234
217
192
251
239
211
255
250
223
255
249
225
255
253
233
255
255
241
255
255
250
255
253
228
255
255
250
255
255
255
255
255
255
255
255
255
255
255
255
255
255
255
255
255
255
255
255
255
255
255
255
255
255
255
255
255
255
255
255
255
255
255
255
255
255
255
255
255
255
255
255
255
255
255
255
255
255
255
255
255
255
255
255
255
255
255
255
255
255
255
255
255
255
255
255
255
255
255
255
255
255
255
255
255
254
255
255
237
255
255
224
255
255
200
255
255
218
255
255
252
255
255
255
255
255
255
255
255
255
255
255
255
255
255
255
255
255
255
255
255
255
255
255
255
255
255
255
255
255
255
255
255
255
255
255
255
255
255
255
255
255
255
255
255
255
255
255
255
255
255
255
255
255
255
255
255
255
255
255
255
255
255
255
255
255
255
255
255
255
255
255
255
255
255
255
255
255
255
255
255
254
255
255
243
255
255
243
255
255
250
255
255
251
255
255
255
255
255
255
255
255
251
255
255
230
255
255
240
255
255
253
255
255
255
255
255
253
255
255
246
255
255
254
255
255
255
255
255
252
255
255
239
255
255
229
255
255
238
255
255
253
255
255
255
255
255
255
255
255
214
255
255
213
255
255
218
255
255
211
255
255
217
255
255
224
255
253
199
255
235
177
255
239
179
255
253
200
255
255
217
255
255
212
255
255
217
255
255
216
255
255
223
255
255
254
255
255
255
255
255
255
255
255
255
255
255
255
255
255
255
255
255
255
255
255
255
255
255
255
255
255
236
255
255
230
255
255
238
255
255
239
255
255
224
255
255
210
255
255
215
255
255
211
255
255
205
255
255
212
255
255
231
255
255
250
255
255
249
255
255
233
255
255
233
255
255
246
255
255
245
255
255
241
255
255
242
255
255
221
255
255
228
255
255
253
255
255
255
255
255
255
255
255
255
255
255
255
255
255
254
255
255
254
255
255
255
255
255
254
255
255
253
255
255
253
255
255
255
255
255
255
255
255
255
255
255
240
255
255
238
255
255
255
255
255
255
255
255
255
255
255
239
255
253
220
255
254
233
255
255
243
255
255
245
255
255
253
255
255
255
255
255
255
255
255
255
255
255
255
255
255
253
255
255
236
255
253
222
254
241
208
252
241
211
255
254
240
255
255
251
255
255
255
255
255
251
255
255
245
255
254
233
255
253
235
252
242
216
252
238
213
234
213
189
218
196
172
218
197
172
225
208
182
237
221
195
225
210
184
199
181
155
184
163
138
186
164
141
200
178
154
209
187
163
241
222
197
246
231
206
241
222
193
252
243
214
255
255
243
251
245
230
243
229
203
224
206
181
212
194
170
199
181
157
197
179
156
210
192
169
229
211
189
242
227
201
254
239
214
255
244
220
255
254
234
255
255
249
255
253
242
255
253
226
255
254
238
255
255
255
255
255
255
255
255
255
255
255
255
255
255
255
255
255
255
255
255
255
255
255
255
255
255
255
255
255
255
255
255
255
255
255
255
255
255
255
255
255
255
255
255
255
255
255
255
255
255
255
255
255
255
255
255
255
255
255
255
255
255
255
255
255
255
255
255
255
255
255
255
255
255
255
255
255
255
255
255
252
255
255
240
255
255
219
255
255
221
255
255
248
255
255
252
255
255
255
255
255
255
255
255
255
255
255
255
255
255
255
255
255
255
255
255
255
255
255
255
255
255
255
255
255
255
255
255
255
255
255
255
255
255
255
255
255
255
255
255
255
255
255
255
255
255
255
255
255
255
255
255
255
255
255
255
255
255
255
255
255
255
255
255
254
255
255
246
255
255
253
255
255
245
255
255
244
255
255
245
255
255
252
255
255
255
255
255
255
255
255
255
255
255
255
255
255
253
255
255
254
255
255
255
255
255
255
255
255
252
255
255
232
255
255
235
255
255
250
255
255
255
255
255
252
255
255
235
255
255
236
255
255
253
255
255
255
255
255
255
255
255
227
255
255
228
255
255
221
255
255
220
255
255
243
255
255
249
255
253
209
255
216
159
255
186
138
255
230
180
255
255
215
255
255
208
255
255
196
255
255
193
255
255
222
255
255
254
255
255
255
255
255
255
255
255
252
255
255
255
255
255
255
255
255
255
255
255
255
255
255
251
255
255
229
255
255
229
255
255
237
255
255
232
255
255
213
255
255
205
255
255
218
255
255
227
255
255
226
255
255
227
255
255
230
255
255
235
255
255
232
255
255
222
255
255
230
255
255
233
255
255
232
255
255
235
255
255
230
255
255
221
255
255
231
255
255
251
255
255
251
255
255
248
255
255
255
255
255
255
255
255
255
255
255
255
255
255
255
255
255
252
255
255
250
255
255
255
255
255
255
255
255
255
255
255
255
255
255
246
255
255
253
255
255
255
255
255
255
255
255
253
255
255
233
255
255
220
255
255
237
255
255
238
255
255
239
255
255
245
255
255
253
255
255
255
255
255
255
255
255
255
255
255
255
255
255
254
255
255
246
255
255
235
255
255
244
255
255
255
255
255
255
255
255
252
255
254
236
255
248
224
251
244
225
251
240
216
246
230
205
255
250
226
253
245
221
232
213
190
216
197
173
213
196
170
204
188
162
200
184
159
192
175
150
192
174
149
209
188
164
202
180
156
210
189
165
225
207
181
237
220
194
223
207
176
241
228
201
254
252
238
253
243
221
251
240
215
210
192
167
193
175
151
199
181
158
164
147
126
183
167
146
211
195
174
236
220
195
252
236
212
255
252
230
255
254
232
251
240
218
254
241
216
251
234
203
255
253
232
255
255
255
255
255
255
255
255
255
255
255
255
255
255
255
255
255
255
255
255
255
255
255
255
255
255
255
255
255
255
255
255
255
255
255
255
255
255
255
255
255
255
255
255
255
255
255
255
255
255
255
255
255
255
255
255
255
255
255
255
255
255
255
255
255
255
255
255
255
255
255
255
255
255
255
255
255
255
255
255
255
255
255
254
255
255
246
255
255
235
255
255
243
255
255
234
255
255
239
255
255
251
255
255
255
255
255
255
255
255
255
255
255
255
255
255
255
255
255
255
255
255
255
255
255
255
255
255
255
255
255
253
255
255
253
255
255
246
255
255
251
255
255
253
255
255
253
255
255
255
255
255
255
255
255
255
255
255
255
255
255
254
255
255
238
255
255
230
255
255
251
255
255
248
255
255
253
255
255
246
255
255
255
255
255
255
255
255
255
255
255
255
255
255
255
255
255
255
255
255
255
255
255
255
255
255
255
255
255
252
255
255
231
255
255
211
255
255
226
255
255
249
255
255
254
255
255
246
255
255
229
255
255
246
255
255
255
255
255
255
255
255
230
255
255
236
255
255
226
255
255
232
255
255
251
255
255
247
255
252
205
255
211
158
255
200
156
255
216
167
255
248
186
255
255
204
255
255
209
255
255
203
255
255
225
255
255
252
255
255
255
255
255
254
255
255
250
255
255
255
255
255
255
255
255
255
255
255
253
255
255
242
255
255
239
255
255
241
255
255
241
255
255
241
255
255
219
253
255
203
253
255
202
255
255
226
255
255
235
255
255
234
255
255
231
255
255
231
255
255
232
255
255
232
255
255
235
255
255
230
255
255
222
255
255
229
255
255
239
255
255
232
255
255
235
255
255
242
255
255
234
255
255
237
255
255
255
255
255
255
255
255
255
255
255
255
255
255
255
255
255
254
255
255
254
255
255
254
255
255
251
255
255
255
255
255
255
255
255
236
255
255
255
255
255
255
255
255
255
255
255
252
255
255
234
255
254
230
255
255
241
255
255
241
255
255
239
255
255
243
255
255
247
255
255
255
255
255
255
255
255
255
255
255
255
255
255
252
255
255
242
255
255
245
255
255
252
255
255
252
255
255
251
255
255
241
255
251
226
251
239
212
243
222
198
223
201
177
231
214
190
254
253
235
255
255
235
253
243
222
236
220
196
213
197
172
186
170
145
174
157
134
189
171
148
201
184
159
194
175
150
201
182
157
231
213
187
249
232
206
231
214
188
230
214
185
245
229
200
236
220
194
232
211
188
228
208
184
204
185
161
193
177
152
202
185
163
180
165
144
188
174
153
216
201
180
224
209
185
237
222
198
252
241
219
254
238
216
242
218
195
248
226
201
247
226
198
255
254
237
255
255
251
255
255
255
255
255
255
255
255
255
255
255
255
255
255
255
255
255
255
255
255
255
255
255
255
255
255
255
255
255
255
255
255
255
255
255
255
255
255
255
255
255
255
255
255
255
255
255
255
255
255
255
255
255
255
255
255
255
255
255
255
255
255
255
255
255
255
255
255
255
255
255
255
255
255
255
255
255
255
255
255
255
255
255
254
255
255
253
255
255
255
255
255
243
255
255
236
255
255
245
255
255
255
255
255
255
255
255
255
255
255
255
255
255
255
255
255
255
255
255
250
255
255
233
255
255
234
255
255
232
255
255
231
255
255
232
255
255
247
255
255
252
255
255
247
255
255
253
255
255
255
255
255
250
255
255
253
255
255
252
249
252
210
255
255
244
255
255
255
255
255
255
255
255
255
255
255
254
255
255
255
255
255
255
255
255
255
255
255
255
255
255
255
255
255
255
255
255
255
255
255
255
255
255
255
255
255
255
255
255
241
255
255
220
255
255
218
255
255
231
255
255
250
255
255
243
255
255
222
255
255
233
255
255
248
255
255
246
255
255
229
255
255
232
255
255
227
255
255
234
255
255
254
255
255
250
255
254
217
255
220
173
255
247
204
255
252
213
255
250
189
255
254
195
255
255
221
255
255
233
255
255
234
255
255
238
255
255
243
255
255
249
255
255
236
255
255
251
255
255
255
255
255
254
255
255
244
255
255
237
255
255
252
255
255
250
255
255
250
255
255
254
255
255
241
252
255
210
251
255
205
255
255
229
255
255
228
255
255
228
255
255
229
255
255
217
255
255
220
255
255
226
255
255
227
255
255
222
255
255
214
255
255
218
255
255
243
255
255
249
255
255
237
255
255
240
255
255
243
255
255
242
255
255
254
255
255
255
255
255
255
255
255
255
255
255
255
255
255
255
255
255
255
255
255
251
255
255
236
255
255
250
255
255
253
255
255
248
255
255
255
255
255
255
255
255
255
255
255
254
255
255
237
255
254
224
255
255
229
255
255
239
255
255
237
255
254
233
255
255
248
255
255
255
255
255
255
255
255
255
255
255
255
255
255
255
255
255
245
255
255
237
255
254
231
255
255
230
255
255
232
255
254
227
255
252
226
254
241
213
243
220
196
229
206
183
247
233
213
249
237
217
255
254
239
255
254
244
248
234
211
225
211
188
194
180
156
179
162
140
183
165
142
203
185
160
201
184
158
216
200
174
241
225
199
250
233
207
224
207
181
223
206
179
233
216
190
229
211
187
217
199
175
224
206
181
229
212
188
216
201
179
212
197
177
172
157
137
186
171
150
207
193
172
225
212
191
253
245
225
255
249
228
254
247
229
253
244
221
247
223
200
254
242
218
255
255
246
255
255
254
255
255
255
255
255
255
255
255
255
255
255
255
255
255
255
255
255
255
255
255
255
255
255
255
255
255
255
255
255
255
255
255
255
255
255
255
255
255
255
255
255
255
255
255
255
255
255
255
255
255
255
255
255
255
255
255
255
255
255
255
255
255
255
255
255
255
255
255
255
255
255
255
255
255
255
255
255
255
255
255
255
255
255
255
255
255
255
255
255
255
255
255
255
255
255
246
255
255
242
255
255
252
255
255
255
255
255
255
255
255
251
255
255
248
255
255
244
255
255
240
255
255
224
255
255
229
255
255
245
255
255
250
255
255
250
255
255
251
255
255
255
255
255
250
255
255
249
255
255
254
255
255
240
255
255
246
255
255
236
252
254
223
255
255
251
255
255
255
255
255
254
255
255
248
255
255
254
255
255
255
255
255
255
255
255
250
255
255
247
255
255
231
255
255
239
255
255
254
255
255
255
255
255
255
255
255
255
255
255
243
255
255
247
255
255
238
255
255
238
255
255
241
255
255
227
255
255
224
255
255
234
255
255
238
255
255
239
255
255
240
255
255
227
255
255
219
254
254
216
255
255
254
255
255
255
255
255
251
255
253
231
255
255
239
255
255
251
255
255
227
255
255
221
255
255
228
255
255
228
255
255
234
255
255
236
255
255
240
252
254
224
255
255
231
255
255
248
255
255
255
255
255
251
255
255
251
255
255
242
255
255
253
255
255
255
255
255
255
255
255
255
255
255
254
255
255
235
255
255
226
255
255
225
255
255
220
255
255
235
255
255
222
255
255
208
255
255
214
255
255
214
255
255
219
255
255
216
255
255
212
255
255
216
255
255
235
255
255
254
255
255
255
255
255
253
255
255
254
255
255
255
255
255
255
255
255
255
255
255
255
255
255
255
255
255
255
255
255
255
255
255
255
255
255
255
255
255
243
255
255
242
255
255
242
255
255
247
255
255
255
255
255
255
255
255
255
255
255
253
255
255
231
255
251
217
255
249
215
255
252
219
255
255
234
255
255
243
255
255
255
255
255
255
255
255
255
255
255
255
255
255
253
255
255
240
254
248
215
250
234
197
254
238
204
255
244
209
255
255
232
255
255
234
255
255
240
255
252
236
254
246
225
248
236
213
254
241
218
253
243
220
255
254
237
255
255
246
249
238
217
240
228
204
204
189
165
176
158
135
181
162
138
190
171
147
200
184
158
221
205
179
237
220
194
235
216
192
226
208
184
218
199
175
227
208
183
238
220
196
229
210
186
226
210
185
235
220
196
239
225
202
221
206
186
160
145
126
180
165
146
219
204
185
249
238
218
250
240
221
255
252
234
255
248
227
238
221
197
251
232
207
255
249
223
255
254
245
255
255
255
255
255
255
255
255
255
255
255
255
255
255
255
255
255
255
255
255
255
255
255
255
255
255
255
255
255
255
255
255
255
255
255
255
255
255
255
255
255
255
255
255
255
255
255
255
255
255
255
255
255
255
255
255
255
255
255
255
255
255
255
255
255
255
255
255
255
255
255
255
255
255
255
255
255
255
255
255
255
255
255
255
255
255
251
255
255
252
255
255
255
255
255
255
255
255
251
255
255
237
255
255
236
255
255
252
255
255
255
255
255
245
255
255
241
255
255
233
255
255
227
255
255
233
255
255
246
255
255
253
255
255
255
255
255
255
255
255
255
255
255
254
255
255
244
255
255
238
255
255
249
255
255
250
254
255
239
251
255
218
255
255
239
255
255
237
255
255
235
255
253
217
255
254
214
255
255
235
255
255
241
255
255
241
255
255
224
255
255
213
255
249
189
255
248
203
255
255
246
255
255
249
255
255
255
255
255
255
255
255
255
255
255
252
255
255
239
255
255
240
255
255
237
255
255
223
255
255
242
255
255
240
255
255
241
255
255
239
255
255
243
255
255
225
255
255
217
250
247
200
255
255
248
255
255
252
255
255
254
255
255
246
255
255
231
254
255
222
255
255
219
255
255
232
255
255
248
255
255
231
255
255
210
255
255
232
255
255
246
255
255
228
255
255
233
255
255
247
255
255
254
255
255
252
255
255
255
255
255
245
255
255
249
255
255
255
255
255
255
255
255
255
255
255
255
255
255
253
255
255
245
255
255
218
254
255
219
255
255
239
255
255
223
255
255
230
255
255
235
255
255
234
255
255
232
255
255
239
255
255
228
255
255
224
255
255
248
255
255
249
255
255
253
255
255
255
255
255
255
255
255
255
255
255
255
255
255
255
255
255
255
255
255
253
255
255
241
255
255
249
255
255
255
255
255
255
255
255
254
255
255
249
255
255
234
255
255
252
255
255
255
255
255
255
255
255
255
255
255
250
255
255
234
255
252
219
255
249
215
255
252
223
255
255
242
255
255
251
255
255
255
255
255
255
255
255
255
255
255
255
255
255
251
255
255
244
255
253
229
255
253
219
253
238
202
255
251
215
255
255
229
255
255
242
255
255
252
255
255
252
255
254
242
254
249
232
254
247
227
251
245
221
255
250
228
255
254
238
254
248
227
239
227
203
214
199
176
175
158
135
184
167
143
198
182
157
211
195
169
226
210
184
237
221
195
233
217
192
243
226
202
236
219
195
230
213
188
239
222
197
236
219
194
238
224
198
220
208
183
240
229
205
239
228
207
167
153
134
192
177
158
224
209
190
236
223
204
252
244
225
255
248
229
242
229
210
244
230
208
255
243
220
255
255
243
255
255
252
255
255
255
255
255
255
255
255
255
255
255
255
255
255
255
255
255
255
255
255
255
255
255
255
255
255
255
255
255
255
255
255
255
255
255
255
255
255
255
255
255
255
255
255
255
255
255
255
255
255
255
255
255
255
255
255
255
255
255
255
255
255
255
255
255
255
255
255
255
255
255
255
255
255
255
255
255
255
255
255
255
255
255
255
255
255
255
255
255
251
255
255
243
255
255
247
255
255
255
255
255
250
255
255
232
255
255
251
255
255
255
255
255
250
255
255
254
255
255
241
255
255
230
255
255
243
255
255
239
255
255
242
255
255
244
255
255
235
255
255
251
255
255
254
255
255
246
255
255
237
255
255
245
255
255
251
244
255
215
252
255
217
255
255
234
255
255
250
255
255
235
248
229
170
254
227
163
255
238
178
255
250
195
255
253
202
255
255
204
255
254
200
255
241
169
255
218
161
255
245
200
255
255
227
255
255
255
255
255
255
255
255
244
255
255
228
255
255
228
255
255
229
255
255
233
255
255
232
255
255
249
255
255
246
255
255
251
255
255
251
254
255
231
255
255
223
255
255
224
255
255
229
255
255
245
254
255
222
255
255
250
255
255
236
254
255
222
253
255
220
254
255
214
255
255
229
255
255
247
255
255
244
255
255
233
255
255
224
255
255
243
255
255
234
255
255
229
255
255
236
255
255
240
255
255
246
255
255
250
255
255
245
255
255
235
255
255
228
255
255
228
255
255
246
255
255
249
255
255
246
255
255
250
255
255
250
255
255
246
255
255
236
255
255
229
255
255
243
255
255
249
255
255
254
255
255
255
255
255
254
255
255
249
255
255
236
255
255
253
255
255
255
255
255
249
255
255
255
255
255
255
255
255
255
255
255
255
255
255
255
255
255
255
255
255
254
255
255
226
255
255
229
255
255
247
255
255
254
255
255
252
255
255
253
255
255
236
255
255
255
255
255
255
255
255
255
255
255
255
255
255
249
255
255
237
255
251
217
255
250
217
255
255
231
255
255
247
255
255
253
255
255
255
255
255
255
255
255
255
255
255
255
255
255
254
255
255
250
255
255
239
255
255
237
255
255
229
255
255
229
255
255
241
255
255
250
255
255
255
255
255
255
255
255
250
255
255
249
255
254
240
255
252
229
245
232
209
255
253
234
252
250
231
223
210
187
218
202
179
182
167
143
205
190
165
211
197
171
216
200
174
229
213
188
233
218
192
237
222
196
248
234
208
250
235
210
249
236
210
242
228
202
242
228
203
248
236
210
236
225
199
223
212
189
239
229
208
194
181
162
181
167
148
208
194
175
235
222
203
252
243
225
238
227
209
223
207
190
254
249
230
255
254
234
255
255
250
255
255
255
255
255
255
255
255
255
255
255
255
255
255
255
255
255
255
255
255
255
255
255
255
255
255
255
255
255
255
255
255
255
255
255
255
255
255
255
255
255
255
255
255
255
255
255
255
255
255
255
255
255
255
255
255
255
255
255
255
255
255
255
255
255
255
255
255
255
255
255
255
255
255
255
255
255
255
255
255
255
255
255
255
255
255
255
255
255
255
255
255
246
255
255
235
255
255
248
255
255
255
255
255
253
255
255
233
255
255
247
255
255
252
255
255
238
255
254
234
255
253
219
255
254
211
255
255
238
255
255
221
255
255
212
255
255
210
255
255
201
255
255
227
255
255
245
255
255
253
255
255
240
254
254
228
243
246
207
225
242
188
254
255
219
255
255
238
255
255
255
255
255
245
254
253
206
249
239
187
236
211
154
253
225
169
242
198
143
249
212
153
254
233
171
255
250
176
255
227
155
255
232
167
255
253
196
255
255
246
255
253
236
238
217
173
244
239
193
255
255
233
255
255
233
255
255
239
255
255
242
255
255
248
255
255
251
255
255
255
255
255
249
237
251
187
255
255
225
255
255
218
255
255
238
255
255
232
237
254
195
254
255
231
255
255
242
250
255
214
255
255
238
255
255
234
255
255
232
255
255
228
255
255
213
255
255
244
255
255
245
255
255
238
255
255
242
255
255
228
255
255
235
254
255
212
255
255
224
254
255
217
255
255
213
255
255
219
255
255
206
255
255
198
255
255
205
255
255
211
255
255
200
255
255
209
255
255
228
255
255
246
255
255
246
255
255
224
255
255
236
255
255
245
255
255
249
255
255
246
255
255
222
255
255
201
255
255
203
255
255
230
255
255
254
255
255
245
255
255
255
255
255
250
255
255
254
255
255
254
255
255
254
255
255
255
255
255
253
255
255
229
255
255
224
255
255
232
255
255
238
255
255
239
255
255
251
255
255
248
255
255
255
255
255
255
255
255
255
255
255
255
255
255
254
255
255
232
255
253
219
255
250
217
255
254
228
255
255
246
255
255
255
255
255
255
255
255
255
255
255
255
255
255
255
255
255
253
255
255
248
255
255
249
255
255
248
255
255
250
255
255
248
255
255
250
255
255
255
255
255
255
255
255
255
255
255
255
255
255
255
255
255
251
255
251
230
249
237
212
253
248
226
251
249
231
211
198
175
198
182
159
185
169
146
214
199
174
215
201
174
216
202
176
224
210
184
225
211
185
235
221
195
245
231
205
249
235
209
246
233
207
249
236
210
243
231
205
245
233
207
241
229
204
222
210
188
216
207
188
184
173
154
175
162
143
195
182
163
235
223
204
250
242
225
209
195
177
230
215
197
255
254
236
255
255
247
255
255
255
255
255
255
255
255
255
255
255
255
255
255
255
255
255
255
255
255
255
255
255
255
255
255
255
255
255
255
255
255
255
255
255
255
255
255
255
255
255
255
255
255
255
255
255
255
255
255
255
255
255
255
255
255
255
255
255
255
255
255
255
255
255
255
255
255
255
255
255
255
255
255
255
255
255
255
255
255
255
255
255
255
255
255
255
255
255
255
255
255
255
255
255
255
255
255
255
255
255
255
255
255
253
255
255
240
255
255
237
255
255
236
255
255
219
255
255
205
255
246
193
255
238
180
255
250
196
255
255
227
255
255
219
255
255
218
255
255
212
255
255
193
255
255
209
255
255
204
255
255
225
251
253
228
230
238
191
233
248
195
235
252
193
249
255
203
255
255
231
255
255
254
255
255
243
255
255
220
255
255
219
255
254
203
254
250
203
233
215
167
239
205
156
233
185
138
231
195
142
255
252
186
255
254
184
255
255
198
255
255
236
254
249
200
234
224
168
230
234
175
255
255
237
254
255
233
255
255
225
255
255
235
255
255
225
255
255
245
255
255
255
255
255
235
205
244
149
249
255
221
255
255
240
255
255
233
250
255
208
233
254
189
250
255
214
254
255
227
250
255
213
255
255
215
255
255
250
255
255
244
255
255
231
255
255
213
255
255
210
255
255
233
255
255
237
255
255
237
251
255
210
255
255
228
252
255
204
254
255
206
245
254
202
249
252
190
255
255
231
255
255
208
255
255
185
255
255
199
255
255
224
255
255
198
255
255
203
255
255
215
255
255
222
255
255
239
255
255
221
255
255
242
255
255
254
255
255
255
255
255
230
255
255
204
255
255
217
255
255
210
255
255
200
255
255
238
255
255
235
255
255
248
255
255
232
255
252
197
255
255
218
255
255
221
255
254
222
255
254
225
255
255
231
255
255
232
255
255
220
255
255
222
255
255
219
255
255
230
255
255
250
255
255
255
255
255
255
255
255
255
255
255
255
255
255
254
255
255
240
255
255
232
255
253
225
255
254
229
255
255
240
255
255
254
255
255
255
255
255
255
255
255
255
255
255
252
255
255
248
255
255
249
255
255
241
255
255
233
255
255
239
255
255
251
255
255
254
255
255
255
255
255
255
255
255
255
255
255
255
255
255
255
255
255
255
255
253
233
254
247
223
252
245
219
255
253
232
213
203
180
164
149
126
183
168
145
215
201
176
210
196
170
216
202
176
222
208
182
215
201
175
225
211
185
233
219
193
242
228
202
239
225
199
244
230
204
239
227
201
237
225
199
230
218
193
216
204
183
204
195
175
170
159
140
155
142
123
191
179
160
245
232
213
227
215
196
209
195
177
247
234
216
255
255
244
255
255
255
255
255
255
255
255
255
255
255
255
255
255
255
255
255
255
255
255
255
255
255
255
255
255
255
255
255
255
255
255
255
255
255
255
255
255
255
255
255
255
255
255
255
255
255
255
255
255
255
255
255
255
255
255
255
255
255
255
255
255
255
255
255
255
255
255
255
255
255
255
255
255
255
255
255
255
255
255
255
255
255
255
255
255
255
255
255
255
255
255
255
255
255
255
255
255
255
255
255
254
255
255
255
255
255
255
255
255
244
255
255
247
255
255
242
255
255
226
255
255
202
255
255
218
255
248
196
255
244
195
255
255
217
255
255
216
255
255
221
255
255
200
255
255
206
255
255
205
255
255
203
255
255
205
252
252
202
249
253
213
243
255
207
253
255
216
255
255
212
255
248
215
255
245
223
255
252
238
255
254
220
255
247
189
255
254
200
245
255
198
241
253
203
255
255
230
243
238
189
223
212
162
255
254
198
255
255
206
255
255
214
255
255
239
255
255
217
255
255
220
246
254
197
254
255
221
240
255
207
243
255
199
254
255
215
254
253
208
255
254
239
255
255
248
255
255
251
195
245
134
236
255
186
253
255
243
255
255
244
250
255
213
238
255
193
254
255
214
250
255
211
247
255
213
255
255
222
253
255
226
254
255
230
255
255
229
255
255
234
253
255
216
255
255
225
254
255
220
248
255
206
251
255
204
252
255
204
255
255
201
255
255
199
255
255
218
255
255
210
255
255
213
255
255
219
255
255
197
255
253
171
255
255
216
255
255
227
255
255
203
255
253
192
255
254
198
255
255
242
255
255
236
255
255
244
255
255
252
255
255
235
255
255
195
255
253
183
255
251
182
255
255
220
255
255
209
255
255
217
255
255
215
255
255
231
255
255
248
255
255
207
255
254
193
255
248
183
255
245
193
255
248
200
255
255
211
255
255
221
255
255
245
255
255
249
255
255
249
255
255
232
255
255
254
255
255
255
255
255
255
255
255
255
255
255
255
255
255
255
255
255
245
255
255
236
255
254
227
255
254
225
255
255
236
255
255
244
255
255
255
255
255
254
255
255
245
255
255
233
255
255
234
255
255
238
255
255
238
255
255
237
255
255
253
255
255
253
255
255
255
255
255
255
255
255
255
255
255
255
255
255
255
255
255
255
255
255
255
255
255
240
255
248
223
255
248
222
255
251
226
241
233
211
162
149
127
178
164
144
211
198
175
208
195
170
218
204
178
215
202
176
218
206
180
209
197
171
216
203
177
222
209
182
228
214
188
240
227
200
244
232
206
232
222
196
227
216
193
187
176
156
183
175
156
154
143
126
129
118
99
201
190
170
240
227
209
207
194
176
227
214
196
253
244
227
255
255
249
255
255
255
255
255
255
255
255
255
255
255
255
255
255
255
255
255
255
255
255
255
255
255
255
255
255
255
255
255
255
255
255
255
255
255
255
255
255
255
255
255
255
255
255
255
255
255
255
255
255
255
255
255
255
255
255
255
255
255
255
255
255
255
255
255
255
255
255
255
255
255
255
255
255
255
255
255
255
255
255
255
255
255
255
255
255
255
255
255
255
255
255
255
255
255
255
255
255
255
255
255
243
255
255
222
255
254
218
255
241
188
255
253
221
255
255
251
255
255
244
255
255
217
255
253
222
254
215
171
255
244
193
255
255
211
255
255
202
255
255
190
255
253
175
255
255
213
255
255
235
255
255
206
255
254
206
255
255
248
253
255
224
249
255
202
255
255
224
253
241
198
236
194
159
220
175
141
231
206
158
242
237
180
253
253
215
255
255
226
246
255
204
253
255
241
255
255
248
253
255
207
252
255
216
251
255
200
255
255
217
255
255
226
255
255
238
255
255
243
255
255
236
254
255
227
246
255
210
229
252
186
242
255
200
254
255
210
250
251
198
254
255
226
255
255
230
255
255
245
213
237
135
219
253
169
248
255
214
247
255
213
253
255
215
237
255
196
254
255
212
254
255
212
255
255
242
255
255
239
248
255
213
255
255
241
255
252
214
255
253
223
255
255
231
255
255
234
253
255
197
234
249
182
250
255
207
247
255
207
244
255
200
253
255
200
255
255
212
255
246
184
255
248
189
255
255
216
255
255
188
255
251
171
255
251
171
255
255
231
255
255
225
255
253
202
253
255
210
255
255
237
255
253
222
255
255
236
255
255
235
255
255
210
255
255
189
255
255
188
255
255
216
255
255
252
255
255
224
255
255
203
255
255
221
255
255
197
255
255
242
255
255
222
255
247
193
255
209
147
254
225
147
254
208
143
255
234
169
255
251
205
255
253
231
255
244
203
255
242
184
255
255
224
255
255
255
255
255
255
255
255
255
255
255
255
255
255
255
255
255
254
255
255
246
255
255
242
255
255
242
255
254
228
255
255
231
255
255
243
255
255
255
255
255
255
255
255
249
255
255
249
255
255
244
255
255
244
255
255
237
255
255
240
255
255
252
255
255
249
255
255
254
255
255
255
255
255
255
255
255
255
255
255
255
255
255
255
255
255
255
255
255
245
254
250
227
254
248
223
253
245
220
232
223
201
185
173
151
182
169
150
203
191
170
209
197
173
217
204
180
217
207
180
217
208
180
208
196
170
209
197
171
214
201
175
218
204
178
225
211
185
241
229
204
240
230
207
218
209
188
172
161
141
164
157
138
128
118
102
126
116
98
204
193
173
241
229
211
207
195
177
235
223
205
255
250
237
255
255
255
255
255
255
255
255
255
255
255
255
255
255
255
255
255
255
255
255
255
255
255
255
255
255
255
255
255
255
255
255
255
255
255
255
255
255
255
255
255
255
255
255
255
255
255
255
255
255
255
255
255
255
255
255
255
255
255
255
255
255
255
255
255
255
255
255
255
255
255
255
255
255
255
255
255
255
255
255
255
255
255
255
255
255
255
255
255
255
255
255
255
255
255
255
255
255
255
255
255
255
255
255
252
255
255
221
254
246
195
246
184
131
255
235
188
255
255
251
255
255
234
255
249
216
254
217
171
255
243
202
254
255
203
255
255
197
255
255
186
255
246
164
255
228
154
254
248
187
255
250
204
255
255
219
255
255
216
255
255
223
255
255
204
255
255
212
254
250
213
222
191
151
238
210
167
231
213
161
245
243
191
243
250
195
251
255
211
253
255
224
251
254
206
255
255
249
255
255
241
255
255
227
247
255
223
246
254
202
255
255
226
255
255
239
255
255
239
255
255
244
255
255
213
255
255
218
252
255
223
225
247
194
229
250
189
255
254
211
253
252
206
251
255
216
255
255
225
255
255
233
249
254
197
216
253
157
242
255
198
231
250
202
225
253
170
231
255
195
244
255
203
255
255
232
255
255
249
255
255
239
246
255
201
255
255
231
255
248
206
255
231
175
249
246
198
254
255
222
254
254
195
248
247
180
255
255
211
255
255
226
242
253
204
255
255
221
255
255
221
255
253
206
255
255
239
255
255
235
255
253
181
255
231
147
255
249
180
255
255
219
255
255
216
255
255
231
255
255
232
255
255
212
250
249
213
254
255
233
255
255
241
255
255
198
255
255
213
255
255
216
255
255
222
255
255
255
255
255
239
255
255
204
255
255
214
255
255
203
254
255
218
255
255
218
255
243
187
255
204
153
251
231
161
245
212
145
255
240
181
255
255
198
255
229
167
255
215
156
255
224
171
255
255
236
255
255
255
255
255
255
255
255
255
255
255
255
255
255
255
255
255
253
255
255
241
255
255
239
255
255
235
255
255
229
255
255
226
255
255
244
255
255
255
255
255
255
255
255
249
255
255
242
255
255
236
255
255
230
255
254
221
255
252
224
255
255
245
255
255
246
255
255
253
255
255
255
255
255
255
255
255
255
255
255
255
255
255
255
255
255
255
255
255
253
255
255
247
255
250
231
247
239
216
214
205
183
179
167
146
178
165
145
190
178
157
201
189
165
210
199
177
209
202
173
221
213
183
209
197
171
209
197
171
213
199
175
213
198
175
222
207
184
224
212
190
239
229
209
206
198
178
156
146
126
140
133
114
106
96
80
131
121
103
214
203
182
230
222
203
221
212
194
248
240
220
255
254
247
255
255
253
255
255
255
255
255
255
255
255
255
255
255
255
255
255
255
255
255
255
255
255
255
255
255
255
255
255
255
255
255
255
255
255
255
255
255
255
255
255
255
255
255
255
255
255
255
255
255
255
255
255
255
255
255
255
255
255
255
255
255
255
255
255
255
255
255
255
255
255
255
255
255
255
255
255
255
255
255
255
255
255
255
255
255
255
255
255
255
255
255
255
255
255
255
255
255
255
255
255
255
255
255
254
251
253
211
239
229
166
255
238
168
255
251
198
255
255
234
255
245
198
255
230
178
255
247
199
243
251
197
236
249
185
249
249
191
255
255
217
255
247
194
253
234
181
248
246
190
255
252
199
255
255
225
255
255
207
255
255
204
255
252
181
255
255
212
250
249
191
240
221
166
255
251
212
255
254
234
255
255
248
255
255
237
242
251
183
237
247
176
252
255
204
255
255
247
255
255
247
255
255
240
236
249
206
243
252
205
255
255
248
255
255
251
255
255
233
255
255
234
254
253
196
253
252
197
255
255
251
245
253
210
248
252
206
255
255
217
250
255
213
255
255
229
255
255
231
255
255
240
255
255
239
234
254
179
237
255
193
234
249
208
222
248
182
221
254
185
236
255
197
255
255
230
255
255
235
254
255
223
233
253
179
252
255
211
255
255
225
254
255
229
233
244
179
249
255
208
253
254
206
248
236
182
255
249
197
255
255
218
250
255
215
251
255
197
255
252
211
255
255
212
251
255
210
249
255
202
249
255
206
253
252
200
255
255
203
255
255
214
255
255
215
255
255
213
255
255
224
255
255
207
250
247
208
253
253
246
252
255
229
252
255
229
255
255
218
255
255
224
255
255
226
255
255
243
255
255
230
254
255
190
255
255
205
255
255
212
250
255
189
255
255
203
255
237
168
253
233
180
255
247
198
255
252
194
255
255
209
255
246
173
255
243
184
255
217
165
255
230
183
255
255
239
255
255
255
255
255
255
255
255
255
255
255
255
255
255
255
255
255
252
255
255
238
255
255
229
255
255
229
255
255
237
255
255
235
255
255
249
255
255
255
255
255
248
255
255
229
255
254
221
255
254
221
255
255
222
255
253
219
255
255
236
255
255
247
255
255
253
255
255
255
255
255
255
255
255
255
255
255
255
255
255
255
255
255
255
255
255
255
255
255
255
255
255
253
255
255
247
249
243
221
184
176
154
167
158
135
175
165
144
178
167
146
180
169
149
200
192
171
205
198
171
214
207
177
204
195
167
208
196
171
206
193
168
209
196
170
212
199
173
210
199
176
229
221
200
202
195
176
146
137
120
108
99
82
91
83
67
135
127
110
213
205
185
226
214
198
240
229
212
252
244
228
255
255
247
255
255
248
255
255
255
255
255
255
255
255
255
255
255
255
255
255
255
255
255
255
255
255
255
255
255
255
255
255
255
255
255
255
255
255
255
255
255
255
255
255
255
255
255
255
255
255
255
255
255
255
255
255
255
255
255
255
255
255
255
255
255
255
255
255
255
255
255
255
255
255
255
255
255
255
255
255
255
255
255
255
255
255
255
255
255
255
255
255
255
255
255
255
255
255
255
255
255
255
255
255
255
255
255
243
255
255
235
226
238
189
254
254
208
255
255
220
255
244
193
255
246
208
255
255
249
255
255
214
248
251
189
241
248
195
242
237
216
255
255
251
253
252
209
255
255
217
255
255
224
255
255
227
255
255
210
255
254
202
255
249
203
255
231
161
255
255
232
255
255
193
255
250
195
255
249
203
255
254
239
255
255
241
244
253
215
233
248
185
253
255
232
252
255
214
255
255
246
255
255
228
254
254
228
232
242
191
245
249
218
255
255
255
255
255
247
255
255
226
247
254
209
252
254
191
251
254
192
255
255
233
255
255
232
254
255
235
255
255
224
241
254
196
254
255
238
255
255
217
255
255
216
253
255
244
237
255
198
242
255
195
228
249
193
225
251
188
228
254
180
227
253
186
252
255
225
255
255
226
254
255
231
235
253
182
247
255
194
255
255
222
243
252
205
201
218
150
248
255
216
255
255
228
243
252
220
255
255
220
255
255
221
251
255
206
249
255
182
255
252
191
255
255
199
255
255
218
255
255
202
252
255
194
252
255
203
255
255
223
255
255
219
255
255
211
255
255
221
251
251
219
255
255
245
251
246
230
251
247
228
249
255
226
255
255
242
255
255
235
255
255
247
255
255
238
234
221
191
251
243
204
242
246
169
255
255
205
255
255
226
239
255
171
255
255
202
255
254
203
255
255
233
255
255
233
255
255
183
255
255
195
255
255
214
255
250
196
255
227
160
255
227
155
255
255
216
255
255
255
255
255
255
255
255
255
255
255
255
255
255
255
255
255
252
255
255
238
255
255
230
255
255
232
255
255
237
255
255
243
255
255
252
255
255
254
255
255
236
255
255
224
255
254
221
255
255
222
255
255
223
255
252
218
255
254
231
255
255
252
255
255
251
255
255
252
255
255
255
255
255
255
255
255
255
255
255
255
255
255
255
255
255
255
255
255
255
255
255
255
255
255
254
248
246
232
180
172
151
157
149
128
169
159
139
168
158
138
176
165
145
180
172
151
193
185
162
194
187
161
196
188
160
195
183
158
197
186
162
201
189
165
204
192
168
202
194
172
212
205
186
190
184
166
140
131
114
100
91
74
82
73
57
140
132
115
207
199
179
237
228
211
252
243
226
254
246
229
255
254
240
255
255
251
255
255
255
255
255
255
255
255
255
255
255
255
255
255
255
255
255
255
255
255
255
255
255
255
255
255
255
255
255
255
255
255
255
255
255
255
255
255
255
255
255
255
255
255
255
255
255
255
255
255
255
255
255
255
255
255
255
255
255
255
255
255
255
255
255
255
255
255
255
255
255
255
255
255
255
255
255
255
255
255
255
255
255
255
255
255
255
255
255
255
255
255
255
255
255
255
255
255
255
255
255
253
255
255
253
252
253
239
255
255
220
255
255
218
255
255
234
255
254
225
255
254
247
254
255
236
251
255
187
255
255
224
255
255
246
255
255
255
255
255
253
255
255
242
255
255
236
255
255
232
255
255
198
255
255
203
251
239
195
253
184
134
255
227
174
255
252
190
255
238
190
255
218
161
255
234
186
248
253
226
230
249
189
255
255
228
255
255
247
255
255
211
255
255
235
255
255
235
247
252
211
231
246
180
248
251
222
255
255
255
255
255
253
255
255
249
223
231
183
239
249
189
237
246
177
255
255
206
246
253
210
242
255
201
252
255
218
246
243
186
255
245
196
255
255
212
255
255
231
253
255
246
238
255
199
255
255
250
247
255
223
234
254
190
237
255
188
236
255
196
251
255
227
255
255
233
255
255
246
234
244
204
221
240
169
246
250
191
219
239
170
192
215
152
234
252
188
250
254
231
245
254
224
253
255
217
252
255
203
253
254
199
252
255
185
254
232
166
255
251
205
255
255
238
248
254
191
255
255
209
252
255
191
255
255
223
255
255
203
255
255
230
254
255
214
244
247
196
254
254
221
250
250
227
246
250
218
246
255
216
255
255
234
255
255
218
255
255
248
245
230
173
221
189
138
254
254
221
251
254
215
255
255
217
255
255
247
233
255
167
250
255
197
248
253
209
255
255
232
255
255
244
255
255
203
255
254
213
255
254
224
255
236
179
255
241
153
255
253
179
255
255
209
255
255
254
255
255
255
255
255
255
255
255
247
255
252
243
255
255
247
255
255
240
255
255
233
255
255
230
255
255
237
255
255
241
255
255
244
255
255
251
255
255
241
255
254
222
255
253
213
255
245
206
255
243
207
255
251
219
255
255
234
255
255
237
255
255
240
255
255
250
255
255
255
255
255
255
255
255
255
255
255
255
255
255
255
255
255
255
255
255
255
255
255
255
255
255
255
253
252
244
191
183
164
148
140
121
153
143
124
157
147
128
164
154
134
158
150
129
173
165
145
182
175
153
194
187
160
183
173
149
183
171
150
196
186
164
200
190
169
203
196
177
197
192
173
178
173
156
136
127
110
101
92
75
82
73
57
146
137
120
215
207
187
247
242
224
255
252
234
254
249
232
255
255
240
255
255
255
255
255
255
255
255
255
255
255
255
255
255
255
255
255
255
255
255
255
255
255
255
255
255
255
255
255
255
255
255
255
255
255
255
255
255
255
255
255
255
255
255
255
255
255
255
255
255
255
255
255
255
255
255
255
255
255
255
255
255
255
255
255
255
255
255
255
255
255
255
255
255
255
255
255
255
255
255
255
255
255
255
255
255
255
255
255
255
255
255
255
255
255
255
255
255
255
255
255
255
255
255
255
255
255
254
255
255
254
255
255
232
255
255
199
255
255
240
255
253
205
254
251
220
253
255
245
245
251
180
255
255
225
255
255
225
255
255
242
255
255
251
255
255
252
255
255
228
255
255
223
255
255
220
255
255
194
243
235
184
235
190
140
255
227
166
255
254
197
255
255
241
255
243
215
255
229
177
241
247
193
248
250
215
253
254
221
255
255
227
251
253
199
255
255
217
255
255
254
252
255
236
219
238
175
254
255
231
255
255
251
252
255
232
237
247
199
239
242
189
245
249
201
229
233
169
244
253
190
236
251
205
250
255
222
249
255
207
228
228
168
235
220
155
255
252
208
255
254
222
254
255
221
232
254
180
248
255
233
255
255
241
254
255
232
254
255
230
254
255
240
255
255
252
254
255
244
254
255
234
233
240
203
216
226
166
216
225
166
179
192
144
240
250
217
228
253
188
239
250
199
228
250
195
252
255
231
246
255
204
250
254
223
249
255
197
245
241
174
248
250
206
252
255
226
233
253
182
244
252
203
251
255
201
254
255
204
252
255
203
251
255
210
237
251
205
249
255
222
249
253
200
253
255
205
242
249
190
246
254
186
250
237
198
244
229
193
245
237
215
241
234
180
247
246
191
249
255
212
250
255
228
254
255
222
255
255
236
220
251
166
246
254
213
241
249
202
245
252
203
255
255
246
255
255
243
246
254
218
255
255
222
254
232
164
254
250
168
255
255
190
255
255
217
255
255
255
255
255
255
255
253
249
255
255
255
255
255
250
253
251
232
255
255
246
255
255
235
255
255
226
255
255
228
255
255
241
255
255
251
255
255
255
255
255
246
255
255
222
255
250
210
255
252
213
255
255
223
255
255
235
255
255
229
255
253
222
255
254
228
255
255
251
255
255
255
255
255
255
255
255
255
255
255
255
255
255
255
255
255
255
255
255
255
255
255
255
255
255
255
254
253
249
199
191
172
137
130
111
136
128
109
142
134
116
158
150
131
151
143
124
160
152
133
168
160
140
179
175
148
174
167
144
177
167
149
178
170
151
198
190
171
192
185
167
194
187
169
161
154
136
130
122
105
109
98
82
94
82
66
156
147
131
224
216
199
252
248
231
255
254
239
255
255
240
255
255
243
255
255
255
255
255
255
255
255
255
255
255
255
255
255
255
255
255
255
255
255
255
255
255
255
255
255
255
255
255
255
255
255
255
255
255
255
255
255
255
255
255
255
255
255
255
255
255
255
255
255
255
255
255
255
255
255
255
255
255
255
255
255
255
255
255
255
255
255
255
255
255
255
255
255
255
255
255
255
255
255
255
255
255
255
255
255
255
255
255
255
255
255
255
255
255
255
255
255
255
255
255
255
255
255
255
255
255
255
255
255
255
255
255
239
255
252
209
255
250
202
255
255
227
255
255
219
255
255
247
255
255
205
255
255
210
255
255
203
255
255
206
255
255
226
255
255
236
255
255
219
254
252
188
255
255
221
255
255
240
250
239
189
240
226
158
251
248
180
255
247
194
255
255
201
255
247
220
255
254
234
255
254
232
249
249
222
254
255
234
255
255
239
249
247
209
255
255
238
255
255
243
253
255
239
222
234
187
253
255
213
250
254
212
237
254
187
247
254
211
251
252
220
255
255
216
255
255
213
253
255
222
245
249
215
211
227
168
243
251
205
241
241
180
247
244
183
253
241
188
255
231
197
249
254
213
240
254
186
241
253
219
255
255
240
252
255
228
254
255
226
255
255
237
254
255
243
252
255
247
254
255
246
228
236
201
219
222
180
179
184
142
159
171
126
214
228
196
249
254
232
227
245
188
223
249
184
242
253
220
236
251
201
220
236
191
246
255
207
223
245
186
227
253
189
248
255
215
215
242
172
240
251
195
244
255
198
251
255
197
254
255
222
255
255
238
232
243
198
238
251
201
251
255
199
247
253
205
211
229
163
235
244
162
213
165
115
192
123
89
245
225
194
255
255
249
237
253
208
212
234
178
246
254
203
245
255
208
255
255
207
212
245
153
244
252
215
234
247
199
241
250
206
253
254
236
255
255
251
239
251
208
253
255
235
251
250
216
251
251
211
255
255
220
255
255
237
255
255
255
255
255
255
255
255
253
255
255
253
255
255
253
248
246
232
251
247
227
255
255
235
255
254
223
255
252
220
255
255
237
255
255
253
255
255
250
255
255
230
255
254
216
255
251
212
255
254
220
255
255
231
255
255
238
255
255
231
255
255
233
255
255
249
255
255
254
255
255
255
255
255
255
255
255
255
255
255
255
255
255
255
255
255
255
255
255
255
255
255
255
255
255
255
255
255
253
216
210
193
124
116
98
134
126
107
127
119
100
151
143
125
135
128
109
147
139
120
153
144
125
150
144
119
181
177
150
169
161
141
167
159
140
176
168
149
189
182
164
171
164
146
151
144
126
122
114
96
111
100
84
110
98
82
172
162
146
232
225
207
255
252
236
255
254
240
255
255
239
255
255
246
255
255
255
255
255
255
255
255
255
255
255
255
255
255
255
255
255
255
255
255
255
255
255
255
255
255
255
255
255
255
255
255
255
255
255
255
255
255
255
255
255
255
255
255
255
255
255
255
255
255
255
255
255
255
255
255
255
255
255
255
255
255
255
255
255
255
255
255
255
255
255
255
255
255
255
255
255
255
255
255
255
255
255
255
255
255
255
255
255
255
255
255
255
255
255
255
255
255
255
255
255
255
255
255
255
255
255
255
255
255
247
255
255
217
255
253
213
255
249
204
255
255
224
255
255
220
255
255
250
255
255
233
255
255
234
255
255
241
254
255
224
255
255
222
249
247
196
250
248
191
255
255
205
255
255
242
255
255
252
255
255
241
255
254
209
253
254
212
255
250
219
254
254
205
255
255
228
255
255
235
255
255
254
255
255
254
255
255
255
255
255
252
255
255
246
255
255
253
255
255
243
255
255
250
251
255
216
255
255
246
255
255
244
248
254
220
250
253
233
255
255
254
254
255
235
254
255
220
255
255
244
255
255
239
251
252
223
253
254
213
246
246
196
239
238
178
213
191
142
238
171
140
246
254
216
213
242
167
220
242
190
249
254
230
247
255
218
254
255
246
255
255
230
254
255
230
231
251
210
250
255
240
240
245
214
213
216
163
165
174
135
217
227
179
200
225
174
244
250
227
223
229
180
245
252
202
245
251
213
251
253
222
227
242
180
242
255
202
224
244
184
219
245
176
234
252
200
204
234
166
225
240
184
237
254
194
231
250
172
253
255
206
252
255
218
237
245
202
218
238
166
237
254
187
230
249
183
211
232
181
233
249
186
233
209
147
177
124
82
218
186
140
242
246
211
248
253
220
233
241
195
237
253
197
226
249
189
244
253
193
202
237
139
240
249
197
232
249
193
244
250
203
253
254
222
239
250
205
235
251
195
248
254
213
255
255
252
255
255
251
255
255
228
255
255
239
255
255
252
255
255
255
255
255
254
255
255
251
249
249
236
251
251
229
254
247
220
252
246
216
254
243
211
254
245
211
251
241
212
255
255
246
255
255
247
255
254
223
255
243
205
255
241
202
255
252
215
255
253
223
255
255
230
255
255
237
255
255
252
255
255
255
255
255
255
255
255
253
255
255
255
255
255
255
255
255
255
255
255
255
255
255
255
255
255
255
255
255
255
255
255
255
255
255
255
234
228
212
121
112
94
132
123
105
127
117
99
133
123
105
123
114
95
133
123
105
133
122
104
133
126
104
169
168
140
157
151
129
153
145
127
150
143
125
169
162
144
149
142
124
130
122
105
123
113
95
118
107
89
132
122
104
187
178
160
235
227
209
253
247
229
255
252
234
255
255
243
255
255
252
255
255
255
255
255
255
255
255
255
255
255
255
255
255
255
255
255
255
255
255
255
255
255
255
255
255
255
255
255
255
255
255
255
255
255
255
255
255
255
255
255
255
255
255
255
255
255
255
255
255
255
255
255
255
255
255
255
255
255
255
255
255
255
255
255
255
255
255
255
255
255
255
255
255
255
255
255
255
255
255
255
255
255
255
255
255
255
255
255
255
255
255
255
255
255
255
255
255
255
255
255
255
255
255
255
255
255
255
255
255
231
255
255
212
255
244
176
255
242
178
255
255
220
255
255
236
255
255
249
255
255
246
255
255
255
255
255
233
254
255
213
255
255
229
248
248
209
249
248
183
249
248
207
255
255
250
255
255
197
255
255
200
255
244
167
255
248
206
255
255
226
255
255
221
251
254
221
255
255
254
255
255
249
252
252
244
255
255
254
255
255
255
255
255
252
255
255
227
255
255
247
255
255
230
250
255
195
253
250
219
250
243
211
255
251
212
255
255
249
255
255
237
255
255
232
255
255
223
255
255
211
255
255
241
251
248
205
252
255
193
239
250
194
239
252
190
240
230
172
241
192
159
254
255
243
229
239
204
207
226
161
251
254
243
249
255
229
252
255
216
255
255
223
254
255
209
249
255
221
235
249
203
255
255
233
251
251
230
233
233
202
248
248
213
244
244
211
250
246
193
241
245
192
248
250
211
255
255
217
255
255
216
255
255
224
251
255
198
245
254
216
222
237
180
223
241
187
213
237
175
230
240
199
242
248
198
242
253
199
240
251
197
242
250
202
250
254
221
217
232
166
228
245
181
231
241
203
183
211
158
238
245
202
232
246
169
227
226
156
209
203
142
222
232
173
194
217
162
244
254
201
212
236
176
185
215
151
197
224
155
193
228
141
242
251
191
218
245
187
247
254
219
255
255
237
243
252
219
194
231
142
222
243
163
247
253
212
255
255
244
252
255
220
248
255
226
252
255
242
255
255
255
255
255
244
255
255
239
253
253
233
210
208
174
227
229
194
234
222
189
238
227
193
242
226
192
251
241
210
255
254
242
255
255
251
255
255
234
255
255
222
255
252
216
255
247
208
255
243
208
255
254
226
255
255
241
255
255
248
255
255
251
255
255
254
255
255
254
255
255
255
255
255
255
255
255
255
255
255
255
255
255
255
255
255
255
255
255
255
255
255
255
255
255
253
234
228
211
147
138
120
121
110
92
128
117
99
125
114
96
120
109
91
113
102
84
119
109
91
117
109
90
146
145
117
142
138
113
138
130
111
136
127
111
150
143
125
147
140
123
102
94
77
123
112
94
137
127
104
159
150
130
191
183
164
230
222
203
245
237
218
254
253
238
255
255
243
255
255
249
255
255
255
255
255
255
255
255
255
255
255
255
255
255
255
255
255
255
255
255
255
255
255
255
255
255
255
255
255
255
255
255
255
255
255
255
255
255
255
255
255
255
255
255
255
255
255
255
255
255
255
255
255
255
255
255
255
255
255
255
255
255
255
255
255
255
255
255
255
255
255
255
255
255
255
255
255
255
255
255
255
255
255
255
255
255
255
255
255
255
255
255
255
255
255
255
255
255
255
255
255
255
255
255
255
255
255
255
255
255
245
255
255
234
255
251
192
255
255
230
255
255
247
255
255
250
255
254
235
255
255
255
255
255
255
255
255
251
253
254
219
255
254
233
255
255
241
255
255
205
250
251
219
255
255
254
255
255
242
255
255
201
255
249
175
255
251
183
255
255
208
252
255
227
249
255
206
255
255
248
255
255
247
255
255
247
253
255
227
254
255
243
254
255
240
248
254
201
253
253
237
255
255
243
255
255
216
255
255
249
255
255
247
255
255
243
254
254
238
254
254
206
255
255
221
253
255
216
253
254
225
253
255
238
238
226
168
247
253
191
241
248
187
250
255
195
252
245
206
226
163
131
242
255
211
245
247
217
236
252
186
252
255
207
253
255
235
242
255
194
250
255
211
237
253
189
236
254
208
247
254
229
254
253
210
255
254
234
255
255
254
255
255
249
255
251
210
255
255
206
251
249
218
249
248
208
255
255
200
255
255
201
255
255
207
254
255
212
230
247
196
226
240
194
253
255
219
249
253
213
239
241
202
246
246
197
237
245
194
188
208
151
174
188
134
230
241
181
241
250
188
211
233
173
244
248
233
224
237
184
240
248
195
236
251
189
202
207
136
194
179
118
207
217
157
207
238
175
240
252
182
207
227
170
229
251
192
204
236
159
203
228
156
251
254
210
251
255
228
249
255
226
247
253
213
244
251
224
168
184
116
203
223
153
222
240
166
231
238
207
213
241
182
217
241
187
241
249
217
255
255
251
255
255
235
255
255
227
255
255
227
250
251
222
179
184
144
209
210
173
220
209
178
243
227
193
238
221
190
253
246
223
255
255
241
255
255
237
255
254
223
255
246
208
255
241
203
255
253
222
255
254
231
255
255
231
255
255
237
255
255
249
255
255
251
255
255
252
255
255
255
255
255
255
255
255
255
255
255
255
255
255
255
255
255
255
255
255
255
255
255
255
255
255
253
218
212
195
154
144
126
116
105
88
125
114
96
122
111
93
117
106
88
103
92
74
105
96
77
99
88
73
124
122
93
143
142
112
132
121
103
121
109
94
127
120
102
138
131
113
115
107
90
125
114
96
161
151
124
160
152
130
193
185
166
226
218
199
248
240
222
255
254
240
255
255
239
255
255
239
255
255
255
255
255
255
255
255
255
255
255
255
255
255
255
255
255
255
255
255
255
255
255
255
255
255
255
255
255
255
255
255
255
255
255
255
255
255
255
255
255
255
255
255
255
255
255
255
255
255
255
255
255
255
255
255
255
255
255
255
255
255
255
255
255
255
255
255
255
255
255
255
255
255
255
255
255
255
255
255
255
255
255
255
255
255
255
255
255
255
255
255
255
255
255
255
255
255
255
255
255
255
255
255
255
255
255
255
255
255
252
255
255
252
255
253
245
253
255
238
255
255
251
255
255
246
255
254
225
255
255
254
254
255
231
255
255
251
255
255
238
255
255
232
255
255
251
255
255
228
255
255
247
255
255
238
255
255
246
255
255
218
255
248
179
255
243
178
255
255
216
255
255
237
255
255
215
254
255
231
255
255
249
255
255
242
250
255
230
252
255
234
252
255
218
255
255
244
254
255
240
254
255
240
255
255
240
255
255
237
255
255
251
255
255
239
255
255
245
255
255
243
255
255
242
250
255
231
255
255
234
255
255
233
251
250
230
246
248
204
249
249
178
254
255
213
248
248
222
237
237
186
247
255
222
246
251
195
245
253
197
249
255
187
253
255
216
232
252
201
245
255
200
231
244
185
235
241
184
250
250
213
248
250
231
249
249
180
255
254
214
255
254
223
254
244
180
255
255
194
248
250
201
238
236
189
255
255
221
255
255
182
255
255
188
255
255
223
239
245
193
239
247
222
244
251
226
253
254
203
252
252
218
247
244
199
245
249
204
230
242
213
196
210
169
237
241
195
245
255
210
249
254
223
248
253
234
251
255
217
255
255
210
253
255
234
243
253
210
211
208
155
192
208
148
211
234
173
243
253
190
233
244
189
240
252
211
208
234
165
212
237
172
250
253
228
254
255
239
255
255
231
253
254
214
229
237
193
169
168
122
226
231
174
234
249
187
193
220
163
213
233
179
208
231
168
238
247
203
255
255
248
255
255
231
255
255
225
255
255
225
255
255
230
251
251
223
179
181
147
184
189
158
228
220
184
251
235
202
254
246
221
255
255
245
255
255
243
255
254
225
255
254
225
255
254
219
255
255
235
255
253
221
255
248
213
255
255
233
255
255
242
255
255
242
255
255
253
255
255
254
255
255
254
255
255
255
255
255
255
255
255
255
255
255
255
255
255
255
255
255
255
255
255
251
216
210
191
148
139
121
122
111
95
115
103
86
110
98
82
111
100
83
105
93
76
100
89
70
106
93
78
105
97
74
148
146
115
117
107
87
124
111
92
122
111
91
144
132
113
140
126
106
125
115
98
171
163
132
168
156
139
194
183
165
220
209
191
242
231
210
251
240
218
255
249
228
255
254
236
255
255
254
255
255
255
255
255
255
255
255
255
255
255
255
255
255
255
255
255
255
255
255
255
255
255
255
255
255
255
255
255
255
255
255
255
255
255
255
255
255
255
255
255
255
255
255
255
255
255
255
255
255
255
255
255
255
255
255
255
255
255
255
255
255
255
255
255
255
255
255
255
255
255
255
255
255
255
255
255
255
255
255
255
255
255
255
255
255
255
255
255
255
255
255
255
255
255
255
255
255
255
255
255
253
255
255
255
255
255
251
255
255
255
255
255
247
255
255
235
255
255
249
255
255
247
255
255
247
254
255
235
255
255
235
255
255
243
255
255
237
255
255
227
255
255
231
255
255
254
255
255
227
255
255
251
255
255
242
255
255
245
253
255
227
255
254
193
255
255
228
255
255
221
252
255
222
253
255
224
254
255
244
253
255
236
252
255
238
251
255
232
254
255
232
253
255
248
255
255
227
254
255
236
249
254
220
255
255
254
255
255
243
255
255
249
255
255
222
255
255
253
255
255
255
255
255
242
249
252
218
253
254
230
253
252
240
240
242
180
255
255
228
255
255
224
252
251
198
247
254
200
242
248
205
234
243
184
252
255
221
250
255
202
246
255
198
232
250
199
243
255
185
250
254
199
241
250
183
240
238
185
246
248
196
238
237
196
249
244
208
255
253
203
241
242
157
252
252
191
246
247
218
246
246
178
252
253
235
254
254
196
255
251
179
255
255
210
249
252
211
219
231
188
238
245
230
226
239
181
239
243
181
253
251
209
248
250
211
244
251
210
249
254
213
237
251
219
254
255
236
255
255
243
255
255
233
255
255
242
237
246
177
239
239
192
255
255
255
251
245
233
230
231
194
244
254
217
239
248
193
253
254
226
250
251
206
217
234
170
219
237
181
253
255
223
254
255
224
250
252
205
250
254
211
194
213
160
162
170
126
222
236
179
226
248
197
235
251
224
247
249
226
226
227
186
248
247
219
255
255
241
255
255
241
255
255
236
255
255
235
255
255
235
255
254
224
248
240
205
163
169
134
158
168
133
240
231
202
245
230
203
255
253
232
255
255
241
255
255
232
255
255
232
255
255
235
255
255
246
255
255
240
255
255
236
255
255
248
255
255
236
255
255
249
255
255
253
255
255
254
255
255
255
255
255
255
255
255
255
255
255
255
255
255
255
255
255
255
255
255
255
255
254
244
226
219
198
149
141
123
122
111
95
108
96
80
108
96
80
109
98
77
102
91
73
99
87
70
103
90
75
104
94
75
148
149
117
107
99
77
124
114
96
121
111
91
190
184
159
158
144
122
170
164
134
160
153
129
177
165
147
183
172
154
205
194
176
219
207
186
246
234
212
253
245
224
255
253
241
255
255
252
255
255
255
255
255
255
255
255
255
255
255
255
255
255
255
255
255
255
255
255
255
255
255
255
255
255
255
255
255
255
255
255
255
255
255
255
255
255
255
255
255
255
255
255
255
255
255
255
255
255
255
255
255
255
255
255
255
255
255
255
255
255
255
255
255
255
255
255
255
255
255
255
255
255
255
255
255
255
255
255
255
255
255
255
255
255
255
255
255
255
255
255
255
255
255
255
255
255
255
255
255
253
255
255
255
255
255
245
255
255
255
255
255
252
255
255
241
255
255
255
255
255
255
255
255
251
251
255
227
255
255
247
255
255
244
255
255
215
255
255
211
255
255
222
255
255
248
255
255
251
255
255
252
255
255
255
255
255
221
255
255
244
255
253
235
255
254
227
255
255
230
255
255
228
248
254
217
245
254
211
252
255
209
252
249
204
250
253
233
250
252
227
252
254
242
255
255
252
255
255
228
248
253
190
253
254
229
255
255
250
255
255
248
255
255
251
255
255
245
255
255
255
255
255
229
243
249
223
252
255
212
255
254
225
251
247
198
254
255
216
255
255
249
244
239
192
249
255
229
238
252
190
245
250
199
243
252
195
250
254
199
243
254
194
239
251
209
247
253
219
243
251
182
221
239
176
203
202
158
245
243
206
252
253
245
255
251
237
254
245
205
241
250
176
250
246
196
246
249
215
238
229
164
254
254
231
255
255
232
255
255
199
255
255
239
243
247
203
225
233
200
209
223
183
251
255
236
243
249
185
250
249
211
255
255
227
254
255
208
248
254
219
253
255
225
255
255
252
255
255
242
255
255
221
254
254
236
222
237
169
246
244
211
255
255
247
255
255
255
255
255
240
250
253
209
246
246
210
255
255
240
255
255
226
231
246
185
218
241
187
254
255
239
220
235
169
230
242
186
248
254
215
238
250
209
245
250
227
239
253
215
245
252
229
244
251
232
249
253
243
252
255
244
249
248
231
231
232
192
247
248
226
255
255
240
255
255
233
255
255
239
255
255
226
252
244
206
238
226
192
143
145
116
188
190
162
245
235
207
255
254
238
255
255
245
255
255
238
255
254
226
255
255
237
255
255
240
255
255
251
255
255
249
255
255
234
255
255
244
255
255
251
255
255
250
255
255
252
255
255
255
255
255
250
255
255
255
255
255
255
255
255
255
255
255
255
255
255
255
255
254
250
227
219
199
165
157
139
121
111
94
103
92
76
105
94
78
136
129
100
109
98
77
102
90
75
88
76
61
90
81
64
127
129
100
117
115
88
109
101
85
124
114
95
222
220
206
199
187
162
185
182
143
141
134
114
176
166
147
181
170
152
189
177
160
208
196
176
235
223
200
239
229
208
255
255
250
255
255
255
255
255
255
255
255
255
255
255
255
255
255
255
255
255
255
255
255
255
255
255
255
255
255
255
255
255
255
255
255
255
255
255
255
255
255
255
255
255
255
255
255
255
255
255
255
255
255
255
255
255
255
255
255
255
255
255
255
255
255
255
255
255
255
255
255
255
255
255
255
255
255
255
255
255
255
255
255
255
255
255
255
255
255
255
255
255
255
255
255
255
255
255
255
255
255
255
255
255
255
255
255
255
255
255
255
255
255
255
255
255
255
255
255
255
255
255
255
255
255
255
255
255
255
255
255
248
255
255
243
255
254
236
255
255
247
255
255
245
255
255
237
255
255
241
255
255
239
255
255
242
255
255
247
253
255
223
255
255
248
253
255
225
254
255
243
255
255
251
255
255
255
255
255
255
248
252
218
253
255
217
250
245
219
241
238
176
246
245
207
251
254
213
236
243
202
254
255
248
255
255
251
255
255
242
241
249
204
255
255
239
255
255
254
253
255
238
255
255
248
249
252
235
247
251
218
250
255
229
250
255
196
249
252
213
224
235
176
251
254
240
242
252
227
235
240
212
254
251
230
236
245
180
242
247
197
249
254
220
252
255
213
244
254
192
246
251
209
229
240
176
255
255
210
230
250
178
239
243
198
234
241
192
255
255
252
254
253
225
220
207
152
224
240
173
247
242
197
243
248
202
221
224
176
252
253
223
255
255
237
255
255
241
255
252
231
250
248
207
252
255
234
251
253
228
251
252
228
241
250
193
253
255
235
255
255
232
254
255
214
255
255
252
255
255
231
249
251
215
255
255
251
255
255
237
255
255
237
242
250
193
238
245
196
254
255
254
255
255
255
254
254
230
253
253
217
254
252
228
255
255
221
255
255
207
235
249
185
228
253
190
242
251
192
217
238
166
243
249
206
250
255
215
245
255
230
241
253
219
231
248
191
219
244
176
212
238
171
226
245
186
243
254
201
226
229
192
251
251
240
241
242
224
249
252
228
247
251
216
253
253
230
255
250
219
238
224
189
243
228
193
215
209
176
160
167
136
202
201
170
253
248
224
255
254
243
255
255
238
255
255
222
255
255
220
255
255
235
255
255
239
255
255
239
255
255
235
255
255
246
255
255
247
255
255
241
255
255
248
255
255
255
255
255
243
255
255
250
255
255
255
255
255
255
255
255
255
255
255
255
255
254
241
218
209
182
143
135
119
118
108
93
96
87
70
92
84
66
167
168
129
106
97
74
92
82
66
80
71
57
79
70
55
89
86
63
141
144
109
94
83
65
143
136
110
244
244
238
175
170
139
187
180
150
190
178
159
144
134
117
168
156
139
172
161
143
203
190
172
211
198
175
233
222
200
255
250
239
255
255
255
255
255
255
255
255
255
255
255
255
255
255
255
255
255
255
255
255
255
255
255
255
255
255
255
255
255
255
255
255
255
255
255
255
255
255
255
255
255
255
255
255
255
255
255
255
255
255
255
255
255
255
255
255
255
255
255
255
255
255
255
255
255
255
255
255
255
255
255
255
255
255
255
255
255
255
255
255
255
255
255
255
255
255
255
255
255
255
255
255
255
255
255
255
255
255
255
255
255
255
255
255
255
255
255
255
255
255
255
255
255
255
255
255
255
255
255
255
255
255
255
255
255
255
255
254
224
255
252
218
255
254
241
253
254
226
255
255
242
255
255
226
255
255
249
255
255
239
254
253
225
250
247
213
255
255
251
255
255
252
255
255
255
255
255
240
255
255
239
255
255
254
255
255
239
255
240
212
255
177
150
252
241
218
248
250
206
252
251
234
255
255
230
243
247
215
249
252
221
255
255
248
255
255
241
252
253
247
254
255
226
254
255
246
255
255
236
248
248
224
223
223
189
251
252
220
248
255
197
251
255
207
247
254
220
252
255
223
254
255
242
234
240
213
242
241
231
239
238
214
238
249
175
252
253
211
254
255
218
254
255
227
254
255
239
254
255
249
244
246
215
255
255
235
238
252
185
249
253
212
227
246
212
241
254
228
248
255
201
218
226
167
244
254
181
253
255
191
248
255
199
240
242
224
236
237
190
254
254
242
250
254
228
250
245
198
255
255
233
255
255
225
255
255
226
236
246
196
230
242
187
244
255
205
255
255
242
255
255
233
255
255
214
255
255
231
252
255
212
255
255
230
255
255
252
254
254
238
255
255
235
246
254
227
255
255
241
255
255
248
255
255
249
254
255
211
255
255
224
255
255
203
253
253
201
231
249
185
240
252
197
252
254
202
253
255
214
254
255
237
251
255
227
232
253
192
222
241
175
201
221
157
232
252
193
225
237
182
207
225
174
212
222
175
217
225
179
248
247
227
255
255
246
249
252
228
202
216
175
225
228
186
246
235
200
226
216
172
222
214
176
213
201
168
203
195
162
178
184
151
229
227
196
255
255
241
255
255
231
255
255
228
255
255
225
255
255
235
255
255
245
255
255
236
255
255
239
255
255
245
255
255
240
255
255
232
255
255
233
255
255
249
255
255
246
255
255
245
255
255
255
255
255
255
255
255
255
255
255
255
253
251
232
227
222
187
138
133
110
113
104
88
99
90
73
92
84
66
192
199
155
108
101
78
81
71
58
75
69
52
93
87
68
98
92
72
167
168
131
196
196
163
229
234
192
248
249
244
199
203
169
190
183
157
225
218
205
199
189
172
171
160
141
183
173
150
199
184
166
218
209
194
223
209
186
254
252
242
255
255
255
255
255
255
255
255
255
255
255
255
255
255
255
255
255
254
255
255
249
255
255
255
255
255
255
255
255
255
255
255
255
255
255
255
255
255
255
255
255
255
255
255
255
255
255
255
255
255
255
255
255
255
255
255
255
255
255
255
255
255
255
255
255
255
255
255
255
255
255
255
255
255
255
255
255
255
255
255
255
255
255
255
255
255
255
255
255
255
255
255
255
255
255
255
255
255
254
255
255
255
255
255
255
255
255
255
255
255
255
255
255
255
255
255
255
255
255
255
255
255
255
255
255
255
255
255
253
255
255
255
255
255
255
255
255
243
252
254
229
255
255
230
255
255
254
255
255
241
255
255
241
245
244
201
249
246
232
255
255
255
255
255
252
255
255
231
255
254
213
255
248
184
255
255
211
255
192
155
255
181
151
255
239
221
246
246
240
244
245
231
247
250
231
255
255
242
244
249
200
255
255
232
255
255
235
255
255
254
255
255
251
255
255
253
255
255
248
254
254
241
212
208
161
247
246
219
248
253
231
255
255
251
251
254
204
255
255
222
241
253
222
254
255
252
242
244
223
235
240
211
239
253
185
253
255
224
245
254
214
250
254
196
254
255
225
254
255
246
255
255
252
254
255
210
237
250
176
247
252
184
184
218
169
221
243
199
239
255
199
221
241
171
245
255
191
255
255
193
253
255
210
251
255
208
255
255
251
255
255
244
251
254
206
254
255
226
255
255
245
255
255
224
255
255
220
249
254
205
249
255
216
243
255
210
250
255
201
255
255
232
253
255
233
255
255
240
255
255
238
255
255
221
255
255
253
255
255
239
254
255
239
250
255
231
255
255
232
255
255
249
255
255
253
251
252
233
255
255
254
255
255
240
255
255
251
251
254
240
253
253
231
255
255
218
255
255
236
255
255
238
251
254
233
222
243
176
221
246
168
213
239
173
232
248
191
210
227
165
215
224
187
179
195
132
191
210
145
223
226
184
250
250
222
253
251
225
244
246
230
204
216
167
182
189
150
230
234
187
235
229
190
227
209
179
236
222
190
247
249
232
238
239
198
255
254
213
255
255
233
255
255
227
255
255
221
255
255
243
255
255
251
255
255
232
255
255
236
255
255
247
255
255
243
255
255
232
255
255
230
255
255
248
255
255
242
255
255
246
255
255
254
255
255
255
255
255
255
255
255
255
251
250
235
217
212
179
170
166
131
136
126
106
119
111
89
97
92
71
193
207
159
105
100
74
70
62
50
77
71
53
148
150
111
116
105
85
177
185
140
229
243
195
199
208
161
247
247
242
218
225
203
144
137
115
156
145
127
170
156
143
163
154
135
209
205
176
213
201
182
222
213
194
235
224
198
255
253
250
255
255
255
255
255
255
255
255
254
255
255
254
255
255
255
255
255
250
255
255
243
255
255
251
255
255
255
255
255
255
255
255
255
255
255
255
255
255
255
255
255
255
255
255
255
255
255
255
255
255
255
255
255
255
255
255
255
255
255
255
255
255
255
255
255
255
255
255
255
255
255
255
255
255
255
255
255
255
255
255
255
255
255
255
255
255
255
255
255
255
255
255
255
255
249
240
254
242
212
255
255
248
255
255
255
255
255
255
255
255
255
255
255
255
255
255
252
255
255
245
255
255
247
255
255
243
255
246
226
255
252
234
255
251
238
255
255
251
255
255
247
255
255
224
253
253
246
253
253
235
255
255
250
252
252
212
250
241
199
255
255
242
254
253
241
254
252
210
255
251
219
255
215
149
255
252
231
255
227
199
255
238
188
255
242
205
254
248
236
255
255
248
253
254
251
246
246
226
248
253
216
255
255
214
255
255
231
255
255
244
254
255
245
254
255
241
254
255
248
251
252
229
222
210
155
252
249
223
239
250
205
255
255
250
253
255
202
224
235
175
224
243
203
255
255
254
243
245
221
250
252
234
238
245
189
253
255
215
241
247
204
240
246
196
254
254
228
246
255
208
255
255
242
255
255
228
249
255
206
235
248
173
215
231
182
245
251
202
247
254
213
215
234
170
249
255
194
255
255
196
254
254
201
255
255
240
255
255
247
255
255
236
251
252
203
255
254
237
255
255
212
255
255
243
255
255
221
254
255
208
255
255
227
253
255
224
239
249
188
254
254
215
251
255
214
255
255
225
254
255
226
255
255
214
255
255
239
255
255
236
255
255
237
255
255
255
255
255
236
255
255
255
255
255
249
252
252
216
251
253
206
255
255
244
255
255
234
255
255
213
255
255
238
255
255
234
252
254
238
244
248
214
238
250
189
244
252
207
235
249
194
243
251
208
212
224
167
184
200
140
230
235
181
222
232
163
198
217
146
183
193
134
222
225
169
233
233
207
253
253
230
243
245
202
186
203
158
227
237
187
250
250
214
251
242
212
248
238
203
255
255
243
254
255
229
251
248
198
255
255
233
252
255
214
250
255
208
249
254
215
255
255
245
255
255
230
255
251
215
255
253
229
255
255
239
255
255
227
255
255
229
255
255
242
255
252
209
255
255
247
255
255
250
255
255
255
255
255
255
255
255
255
252
253
239
190
189
156
201
203
164
193
186
151
182
172
138
133
131
105
192
210
160
154
154
119
64
58
46
96
95
71
213
225
169
165
172
122
235
243
200
190
193
155
189
180
148
246
247
223
239
248
228
142
141
114
138
130
114
148
135
123
174
167
146
219
219
195
195
187
155
173
162
142
222
212
187
255
255
250
255
255
253
255
255
253
255
255
241
255
255
242
255
253
242
255
255
244
255
255
244
255
255
251
255
255
253
255
255
251
255
255
255
255
255
254
255
255
255
255
255
255
255
255
255
255
255
255
255
255
255
255
255
255
255
255
255
255
255
255
255
255
255
255
255
255
255
255
255
255
255
255
255
255
255
255
255
255
255
255
255
255
255
255
255
255
254
255
255
251
255
255
254
242
226
203
248
225
191
255
255
232
255
255
254
255
255
251
255
254
242
255
253
222
255
245
205
255
250
208
255
250
206
254
237
189
233
210
163
242
217
169
255
250
214
255
255
235
255
255
236
255
255
218
255
255
244
255
255
226
255
255
219
255
255
247
254
253
222
255
253
242
255
255
245
253
246
203
255
251
232
254
238
209
250
184
158
255
229
201
253
236
186
240
229
181
240
229
207
255
254
252
255
255
255
255
255
245
241
251
193
251
244
207
248
241
216
252
251
225
250
249
230
246
248
216
254
252
224
251
249
221
221
205
166
241
236
196
242
247
200
253
253
218
251
253
193
232
238
180
242
248
230
249
251
240
249
249
219
241
244
205
240
251
196
250
255
208
242
245
208
243
248
205
249
250
206
242
251
198
252
255
227
255
255
245
252
255
233
248
255
211
253
255
231
252
251
226
251
254
229
243
250
203
255
255
219
255
255
212
253
254
195
255
255
244
255
255
238
247
247
204
253
255
236
255
255
251
248
252
202
252
254
223
255
255
244
255
255
229
250
252
213
253
254
218
251
253
229
255
255
236
255
255
236
255
255
237
236
248
194
254
255
224
253
255
216
254
255
243
255
255
224
255
255
234
255
255
227
255
255
240
255
255
243
255
255
209
252
254
218
255
255
229
255
255
235
255
255
248
255
255
250
255
255
244
251
254
226
249
252
224
250
252
234
235
237
204
250
253
215
245
248
195
230
232
177
221
225
170
230
236
189
255
255
240
240
244
207
181
188
136
237
237
185
245
245
205
255
255
228
244
242
190
199
214
162
229
245
182
214
224
176
220
219
186
244
242
214
255
255
250
252
255
236
253
254
213
255
255
230
252
255
212
242
255
196
240
255
198
252
255
229
255
255
241
255
255
230
255
255
250
255
255
254
255
255
240
255
255
234
255
255
241
255
254
232
255
255
242
255
255
249
255
255
253
255
255
255
255
255
255
255
255
248
204
198
176
165
165
139
226
229
186
244
237
194
190
186
147
216
237
174
222
226
172
124
118
98
127
129
98
252
253
225
250
253
221
236
240
194
190
188
151
167
161
148
254
255
246
250
253
244
194
196
154
233
232
200
199
199
168
225
229
196
235
242
211
192
191
149
180
172
145
240
230
191
254
253
242
255
255
240
255
255
232
252
251
221
252
250
219
255
252
227
255
254
226
255
254
240
255
255
251
255
255
249
255
255
253
255
255
247
255
255
249
255
255
255
255
255
255
255
255
255
255
255
255
255
255
255
255
255
255
255
255
255
255
255
255
255
255
255
255
255
255
255
255
255
255
255
254
255
255
255
255
255
255
255
255
255
255
255
255
255
255
254
255
255
249
252
247
229
230
212
186
242
224
187
255
247
208
255
253
231
255
247
214
255
253
213
253
246
210
255
252
207
246
231
187
239
213
163
226
191
142
189
160
120
217
194
143
255
254
231
255
255
231
255
255
235
250
255
224
255
255
229
252
249
218
255
255
202
232
221
168
249
245
234
253
255
242
255
255
249
248
248
212
250
252
223
255
242
218
255
177
135
247
204
158
243
239
182
244
229
180
246
227
193
253
249
242
255
255
244
254
255
244
237
242
211
241
229
187
246
238
216
255
254
240
245
243
212
253
252
232
243
243
203
222
206
167
218
196
157
201
201
150
245
251
198
238
243
174
228
232
163
221
231
171
245
248
215
229
234
209
232
235
199
198
209
164
244
249
193
254
254
211
255
255
230
255
255
244
252
252
214
252
253
198
254
255
239
255
255
232
255
255
248
252
254
235
252
254
221
255
253
211
252
254
216
251
253
209
255
255
232
255
255
232
255
255
210
255
255
222
252
252
212
254
255
243
255
255
240
251
252
202
239
249
199
235
242
186
254
255
228
253
254
235
245
253
213
253
255
222
255
255
255
255
255
244
255
255
254
255
255
239
220
241
179
249
251
224
250
255
212
254
255
218
255
255
214
254
255
207
255
255
228
255
255
232
255
255
229
255
255
207
255
255
253
255
255
231
255
255
249
255
255
252
255
255
254
255
255
237
255
255
243
255
255
244
255
255
231
254
255
208
253
254
237
253
254
215
254
254
199
239
243
203
254
255
221
253
255
222
255
255
239
224
229
181
240
241
192
255
255
233
255
255
217
253
246
193
241
249
196
228
247
185
253
255
214
224
229
183
252
252
218
255
255
234
249
255
215
255
255
242
255
255
224
255
255
230
241
255
192
251
255
208
245
255
220
255
255
253
255
252
209
255
255
243
255
255
254
255
255
254
255
255
252
255
255
242
255
255
249
255
255
227
255
255
246
255
255
238
255
255
255
255
255
254
255
255
247
205
196
173
198
188
160
247
245
205
255
255
243
254
254
235
253
255
233
254
254
244
147
147
119
228
233
211
255
255
242
255
255
242
229
233
186
234
236
202
203
194
166
255
255
251
255
255
254
223
222
194
246
245
228
241
245
226
227
239
198
247
250
234
231
235
188
213
204
165
254
253
214
253
251
219
253
255
220
254
255
234
254
252
218
254
250
211
255
255
238
255
255
253
255
255
248
255
255
255
255
255
254
255
255
255
255
255
239
255
255
253
255
255
255
255
255
255
255
255
255
255
255
255
255
255
255
255
255
255
255
255
255
255
255
255
255
255
255
255
255
255
255
255
255
255
255
255
255
255
255
255
255
255
255
255
255
255
255
255
255
250
242
255
254
247
253
251
239
226
220
207
231
213
191
243
240
206
251
249
215
255
251
217
250
245
223
241
240
220
254
253
227
253
254
222
248
245
194
233
224
151
206
192
140
240
236
176
253
254
222
255
255
233
252
253
238
239
254
189
249
255
210
251
249
224
254
255
219
252
250
198
227
217
178
251
254
232
255
255
255
252
252
235
255
255
232
255
251
222
248
245
212
245
239
197
236
229
174
252
253
224
255
255
244
255
254
238
255
254
240
254
255
243
245
244
212
255
255
230
238
225
201
249
247
221
255
254
228
251
252
221
234
235
189
228
221
184
214
198
152
231
222
166
249
250
213
226
234
159
225
233
169
243
247
211
245
251
209
238
240
207
242
244
202
237
241
219
254
255
216
253
254
210
255
255
223
255
255
245
255
255
252
254
255
201
254
255
227
255
255
232
255
255
244
255
255
252
255
255
232
255
255
210
254
255
215
254
254
216
255
255
218
255
255
229
255
255
240
255
255
225
252
252
205
250
254
205
254
255
211
254
255
200
252
253
223
236
250
186
245
253
196
244
251
223
255
255
247
255
255
236
254
255
240
248
253
218
255
255
249
255
255
247
226
248
194
251
254
237
248
254
210
246
254
199
255
255
224
240
244
185
247
251
188
253
255
208
249
255
203
249
253
191
255
255
230
255
255
217
255
255
254
255
255
249
255
255
231
255
255
248
255
255
245
255
255
235
255
255
230
254
255
225
255
255
244
255
255
222
255
255
214
255
255
239
255
255
247
254
255
212
255
255
228
255
255
211
249
252
192
255
255
242
255
255
235
255
255
209
249
254
205
248
255
205
255
255
214
255
255
236
255
255
236
249
255
212
242
255
195
254
255
246
253
255
219
253
255
217
234
254
188
235
247
187
233
252
207
255
255
253
255
255
236
255
255
239
255
255
253
255
255
255
255
255
242
252
253
219
255
255
245
255
255
219
255
255
237
255
255
255
255
255
255
255
255
252
255
255
246
244
239
221
223
220
177
255
255
217
255
255
255
255
255
234
255
255
245
255
255
255
246
247
242
255
255
243
255
255
234
255
255
252
250
254
229
255
255
250
240
238
206
254
254
248
255
255
255
254
255
242
255
255
239
255
255
255
230
237
201
248
250
228
244
249
196
239
236
193
246
245
196
254
254
233
254
255
219
254
255
215
255
254
219
255
254
221
255
255
247
255
255
252
255
255
251
255
255
250
255
255
255
255
255
250
255
255
249
255
255
255
255
255
255
255
255
255
255
255
255
255
255
255
255
255
255
255
255
255
255
255
255
255
255
255
255
255
255
255
255
255
255
255
255
255
255
255
255
255
255
255
255
255
255
255
255
255
255
255
255
254
250
250
246
225
255
255
246
248
244
231
242
238
224
255
255
238
255
255
248
232
231
210
216
205
171
151
135
95
227
227
199
251
254
222
254
254
231
249
251
188
210
207
144
242
254
199
252
255
214
255
255
239
252
253
220
248
254
203
242
255
199
231
228
190
254
253
226
239
233
181
249
253
218
251
253
222
255
255
238
245
246
225
255
255
228
251
242
191
241
238
186
244
234
187
225
218
166
250
253
231
255
255
252
249
250
238
255
254
245
255
255
238
254
254
229
255
255
246
252
251
234
253
252
219
249
247
196
220
213
166
233
230
179
231
231
208
188
173
131
238
238
200
239
247
216
219
227
163
238
238
192
249
254
222
245
249
205
217
229
183
223
235
188
232
233
220
248
254
217
255
255
226
254
255
211
253
254
213
255
255
237
239
255
188
226
246
191
244
254
202
254
255
231
255
255
236
253
255
205
250
255
191
250
254
202
244
252
202
253
255
202
255
255
212
254
255
232
255
255
224
245
248
185
249
251
191
251
255
197
255
255
206
229
239
190
210
226
165
249
252
204
237
248
197
249
252
233
254
255
222
245
251
202
248
253
199
248
255
219
243
254
223
225
252
185
241
255
206
227
243
187
219
240
179
247
255
203
231
241
184
221
229
163
248
253
197
251
255
215
255
255
214
253
252
195
255
255
237
255
255
252
255
255
240
255
255
230
255
255
251
255
255
230
255
255
213
255
255
204
255
255
230
255
255
211
255
255
225
255
255
236
255
255
228
255
255
252
255
255
212
255
255
228
251
255
214
251
255
205
255
255
214
255
255
225
255
255
212
255
255
219
255
255
218
255
255
230
255
255
226
255
255
242
253
255
208
248
255
201
255
255
250
255
255
247
253
255
219
239
254
190
225
240
175
221
250
189
254
255
238
255
255
240
255
255
239
255
255
241
255
255
255
255
255
246
255
255
241
241
244
212
235
236
181
255
255
235
255
255
253
255
255
255
255
255
249
255
255
255
255
255
249
245
243
220
255
255
229
255
255
250
255
255
253
255
255
254
255
255
255
253
255
230
255
255
241
255
255
228
255
255
242
255
255
238
255
255
248
242
245
215
255
255
253
255
255
250
254
255
227
255
255
236
255
255
255
252
255
236
254
255
233
255
255
234
255
255
246
255
255
235
255
255
232
255
255
236
255
255
228
255
255
219
255
255
242
255
255
249
255
255
235
255
255
245
255
255
243
255
255
248
255
255
245
255
255
255
255
255
255
255
255
255
255
255
253
255
255
255
255
255
255
255
255
255
255
255
255
255
255
255
255
255
255
255
255
255
255
255
255
255
255
253
255
255
250
255
255
255
255
255
255
255
255
255
255
255
255
255
255
255
255
255
241
235
235
218
240
239
221
255
253
243
254
255
240
252
252
234
219
218
177
253
253
230
230
236
192
240
241
216
255
255
244
251
255
225
255
255
217
251
253
207
246
254
201
255
255
228
255
255
244
255
255
251
255
255
250
254
255
226
249
248
211
255
255
230
255
254
222
251
253
194
245
246
197
255
255
229
253
255
223
255
255
217
252
252
223
247
252
204
248
246
202
226
233
185
252
255
235
255
255
231
255
255
244
255
255
245
255
255
231
255
255
219
255
255
248
245
233
186
254
253
229
251
252
236
240
241
211
243
245
205
253
253
239
221
211
177
249
249
238
218
235
179
225
242
171
250
251
224
253
255
224
243
253
195
242
248
205
203
213
177
195
196
172
254
255
248
253
255
223
250
255
205
238
247
190
231
244
176
240
253
204
227
243
206
211
233
174
235
250
201
252
255
223
239
251
180
245
252
180
254
255
192
254
255
206
255
255
222
255
255
240
253
255
221
255
255
220
239
242
178
236
247
176
226
245
180
254
255
207
234
240
197
233
246
196
253
254
217
253
254
219
236
242
192
254
255
215
236
243
191
248
251
212
253
255
202
241
255
197
227
254
182
234
254
201
216
238
182
193
212
157
228
247
187
231
247
184
229
232
174
244
252
189
255
255
235
255
255
218
255
255
208
255
255
237
255
255
233
254
255
215
255
255
222
255
255
255
255
255
238
255
255
210
253
255
199
255
255
224
255
255
230
255
255
215
255
255
221
255
255
225
255
255
239
255
255
244
255
255
217
251
255
202
239
249
187
255
255
217
255
255
202
253
255
201
255
255
229
255
255
228
255
255
225
255
255
221
255
255
247
254
255
207
255
255
225
255
255
252
255
255
250
255
255
232
254
255
215
248
255
204
222
252
176
246
255
211
255
255
220
255
255
241
255
255
239
255
255
253
255
255
244
255
255
246
249
252
213
245
249
210
255
255
223
255
255
240
255
255
247
255
255
232
255
255
255
255
255
255
255
255
252
255
255
251
255
255
248
255
255
255
255
255
255
255
255
255
255
255
237
255
255
220
251
254
202
251
254
206
253
255
218
253
255
216
250
255
221
255
255
248
255
255
232
255
255
229
254
254
213
255
255
252
255
255
240
251
255
220
251
255
214
255
255
254
253
255
248
253
255
219
255
255
238
255
255
242
255
255
233
255
255
244
255
255
223
255
255
238
255
255
233
255
255
240
255
255
242
255
255
254
255
255
255
255
255
255
255
255
255
255
255
244
255
255
255
255
255
255
255
255
253
255
255
253
255
255
251
255
255
251
255
255
246
255
255
255
255
255
253
255
255
246
255
255
255
255
255
255
255
255
255
255
255
255
255
255
255
255
255
249
242
244
233
253
253
247
255
255
248
255
255
239
255
255
236
247
246
219
254
254
237
246
250
212
241
247
210
255
255
250
252
255
221
255
255
224
255
255
222
255
255
213
255
255
240
255
255
243
255
255
245
255
255
229
255
255
227
255
255
242
255
255
237
255
255
249
255
255
225
255
254
212
254
254
224
255
255
233
253
251
196
252
252
220
255
255
237
255
255
238
242
252
211
253
255
224
251
252
216
255
255
242
254
255
226
254
255
241
255
255
220
255
255
253
255
254
234
254
255
245
248
248
230
255
255
243
255
255
237
253
254
233
253
253
251
255
255
255
251
253
242
223
244
183
253
255
235
254
255
245
244
255
204
255
255
238
251
252
238
251
251
243
255
255
255
255
255
246
233
252
197
243
254
206
206
222
157
218
235
185
229
245
212
220
235
181
209
221
164
196
213
155
234
235
172
243
240
175
255
253
198
255
255
227
255
255
235
255
254
231
255
255
240
255
255
248
255
255
220
242
252
180
217
229
165
252
254
203
249
253
198
242
254
192
254
255
226
246
254
205
248
251
197
251
254
204
241
250
201
243
253
202
255
255
193
250
255
192
246
255
202
239
250
195
230
249
186
217
236
175
233
251
184
247
255
196
254
255
203
252
255
192
249
255
205
255
255
212
255
255
230
255
255
236
255
255
223
255
255
242
255
255
223
255
255
252
255
255
229
255
255
215
250
255
205
254
255
221
255
255
245
255
255
236
255
255
223
255
255
206
255
255
211
255
255
228
255
255
229
255
255
213
244
245
187
246
245
185
250
253
189
255
255
233
255
255
226
252
255
198
254
255
209
255
255
212
255
255
224
252
255
210
255
255
229
255
255
231
255
255
245
253
255
223
255
255
241
254
255
219
231
252
174
247
255
201
255
255
214
255
255
246
255
255
251
255
255
255
254
255
236
253
255
220
255
255
229
255
255
238
253
255
213
254
255
222
255
255
233
255
255
244
255
255
252
255
255
238
255
255
227
255
255
249
255
255
253
255
255
250
255
255
250
255
255
246
255
255
242
255
255
215
255
255
225
254
255
219
254
255
237
255
255
236
255
255
239
255
255
252
255
255
236
255
255
247
255
255
226
255
255
251
250
255
225
246
255
207
255
255
224
255
255
236
255
255
247
255
255
236
255
255
233
255
255
254
255
255
255
254
255
233
252
255
218
255
255
224
255
255
234
255
255
225
255
255
248
255
255
255
255
255
253
255
255
246
255
255
249
255
255
250
255
255
253
255
255
254
255
255
241
255
255
249
255
255
241
255
255
248
255
255
243
255
255
255
255
255
247
255
255
251
255
255
255
255
255
255
255
255
255
255
255
253
255
255
255
255
255
255
255
255
252
255
255
244
255
255
217
255
255
231
255
255
223
255
255
251
255
255
255
255
255
241
255
255
236
254
255
236
248
255
219
255
255
233
255
255
210
255
255
205
255
255
233
255
255
248
255
255
239
255
255
222
254
255
203
254
255
244
255
255
238
255
255
242
253
253
201
254
255
210
254
254
248
255
255
252
255
255
254
255
255
255
255
255
245
255
255
240
252
255
230
252
255
216
255
255
230
255
255
225
255
255
221
255
255
236
253
255
240
255
255
255
255
255
249
255
255
247
248
250
218
255
255
251
255
255
254
249
247
208
255
255
252
254
254
249
254
255
245
245
254
231
252
255
224
255
255
243
255
255
248
255
255
240
255
255
254
254
255
245
255
255
241
255
255
227
250
255
217
250
255
220
219
231
183
218
237
178
229
251
186
241
250
193
210
217
167
177
179
128
254
251
214
255
242
210
255
247
208
255
255
225
255
255
213
255
254
214
255
254
224
255
255
248
255
255
229
254
254
211
243
240
182
252
255
214
247
252
198
234
252
193
250
255
217
222
243
183
248
253
214
242
252
204
232
252
189
238
255
190
255
255
204
254
255
203
250
255
207
240
247
190
241
250
187
251
255
202
254
255
196
253
255
203
255
255
211
255
255
210
245
255
193
253
255
196
255
255
235
255
255
238
253
255
217
255
255
237
255
255
235
255
255
254
255
255
226
255
255
224
255
255
216
255
255
217
255
255
247
255
255
234
255
255
225
255
255
208
255
255
204
255
255
216
254
255
218
254
255
218
254
254
223
250
251
180
253
255
216
255
255
253
255
255
247
254
255
212
248
255
196
255
255
211
255
255
241
255
255
230
254
255
217
254
255
213
255
255
243
255
255
230
255
255
254
255
255
239
253
255
189
255
255
215
255
255
230
255
255
248
255
255
247
255
255
255
255
255
243
255
255
211
255
255
213
255
255
219
255
255
245
255
255
219
255
255
240
255
255
252
255
255
251
255
255
245
255
255
220
255
255
220
255
255
233
255
255
251
255
255
230
255
255
246
255
255
242
255
255
223
255
255
252
255
255
237
255
255
248
255
255
250
255
255
247
255
255
252
255
255
240
255
255
240
255
255
243
255
255
238
254
255
203
246
255
199
255
255
247
255
255
220
255
255
202
255
255
209
255
255
235
255
255
255
255
255
254
255
255
222
255
255
217
255
255
222
254
255
241
255
255
241
255
255
252
255
255
254
255
255
253
255
255
230
255
255
247
255
255
254
255
255
243
255
255
249
255
255
248
255
255
232
255
255
229
254
255
236
255
255
238
255
255
242
255
255
244
255
255
254
255
255
246
255
255
251
255
255
255
255
255
252
255
255
253
255
255
254
255
255
231
255
255
254
255
255
246
255
255
232
255
255
223
255
255
255
255
255
255
255
255
255
255
255
253
254
255
250
247
255
210
254
255
215
254
255
198
255
255
225
255
255
226
255
255
252
255
255
223
255
255
221
254
255
210
250
255
206
255
255
237
255
255
240
254
255
215
254
255
214
252
250
231
255
255
248
255
255
246
255
255
255
255
255
253
255
255
242
255
255
245
252
255
218
250
254
210
254
255
223
255
255
224
249
249
198
255
255
249
255
255
250
255
255
255
255
255
250
255
255
220
255
255
229
255
255
253
255
255
236
255
255
228
252
254
235
254
255
245
255
255
253
255
255
236
250
255
215
255
255
250
255
255
247
253
255
241
255
255
251
254
255
214
246
255
196
237
254
200
253
255
239
254
255
245
236
249
198
209
229
162
244
250
215
201
213
169
192
193
142
254
238
173
255
223
173
255
211
162
255
252
207
255
255
208
255
255
236
255
250
207
255
249
219
255
251
209
255
253
235
255
246
208
255
255
236
249
255
203
253
255
213
239
252
202
218
243
178
224
244
188
252
255
224
232
250
188
245
255
194
255
255
217
254
255
214
233
244
189
221
226
180
234
233
191
245
245
197
253
254
207
255
255
217
255
255
216
255
255
238
255
255
243
255
255
214
255
255
210
255
255
229
249
255
212
254
255
235
255
255
247
255
255
251
255
255
223
255
255
241
255
255
228
255
255
220
255
255
243
255
255
238
255
255
232
255
255
211
253
254
190
255
255
230
251
255
215
253
255
231
255
255
234
255
255
209
255
255
233
255
255
255
255
255
255
255
255
239
254
255
221
248
255
207
255
255
253
255
255
243
255
255
225
254
255
212
253
255
214
255
255
233
255
255
252
255
255
247
255
255
227
255
255
222
254
255
225
255
255
252
255
255
242
255
255
241
255
255
230
254
255
211
255
255
216
255
255
217
255
255
239
255
255
220
255
255
251
255
255
239
255
255
249
255
255
247
255
255
226
255
255
229
255
255
230
255
255
243
255
255
239
255
255
252
255
255
239
255
255
219
255
255
252
255
255
255
255
255
253
255
255
238
255
255
239
255
255
232
255
255
225
255
255
248
255
255
245
254
255
212
254
255
196
255
255
216
255
255
230
255
255
230
255
255
213
255
255
207
255
255
221
255
255
250
255
255
247
255
255
209
255
255
221
255
255
246
252
255
230
255
255
254
255
255
250
255
255
241
255
255
249
255
255
253
255
255
248
255
255
251
255
255
248
255
255
254
255
255
255
255
255
226
255
255
219
248
255
207
255
255
218
255
255
220
255
255
243
255
255
254
255
255
252
255
255
250
255
255
246
255
255
249
255
255
255
255
255
254
255
255
226
255
255
255
255
255
253
255
255
236
255
255
225
255
255
241
255
255
251
255
255
255
255
255
252
255
255
254
255
255
239
255
255
220
255
255
211
255
255
220
255
254
205
254
254
215
255
255
237
253
255
225
245
255
202
217
240
177
236
249
190
255
255
237
255
255
243
255
255
223
255
255
223
254
255
225
255
255
249
255
255
242
255
255
254
255
255
241
255
255
248
251
255
212
249
255
197
255
255
248
255
255
235
254
255
209
255
255
254
255
255
247
255
255
236
249
255
224
255
255
220
255
255
243
254
255
230
255
255
222
255
255
208
255
255
238
255
255
244
251
255
229
254
255
230
252
255
236
252
255
243
255
255
250
246
254
229
255
255
253
253
255
211
251
255
196
238
254
193
251
255
231
255
255
253
252
255
232
241
251
205
235
247
205
179
182
141
187
187
140
250
248
199
255
254
206
255
243
180
255
252
186
254
252
187
254
255
225
255
244
186
255
243
189
255
223
175
255
222
175
255
231
193
254
255
225
241
254
193
251
255
205
226
248
186
236
253
194
236
252
195
249
255
213
251
255
212
246
255
190
255
255
227
234
238
192
197
207
156
167
171
133
198
199
161
217
218
171
252
254
224
255
255
231
255
255
239
255
255
255
255
255
255
255
255
243
255
255
221
255
255
239
254
255
225
255
255
231
255
255
249
255
255
250
255
255
224
255
255
243
255
255
232
254
255
209
252
255
208
255
255
225
255
255
221
253
254
196
249
251
182
255
255
218
254
255
221
255
255
236
255
255
225
255
255
223
255
255
252
255
255
255
255
255
255
255
255
254
255
255
245
255
255
225
255
255
247
255
255
254
255
255
246
253
255
214
250
255
203
255
255
238
255
255
231
253
255
220
255
255
239
255
255
252
255
255
251
255
255
239
255
255
251
255
255
232
255
255
216
255
255
228
255
255
209
255
255
234
255
255
244
255
255
226
255
255
227
255
255
235
255
255
235
255
255
225
252
255
212
255
255
223
255
255
216
255
255
218
255
255
229
255
255
225
251
255
203
255
255
221
255
255
254
255
255
255
255
255
234
255
255
236
255
255
247
255
255
234
254
255
222
251
255
204
254
255
209
253
255
208
252
255
208
255
255
251
255
255
235
255
255
245
255
255
226
255
255
220
255
255
205
255
255
241
255
255
254
255
255
249
255
255
251
255
255
239
254
255
216
253
255
221
254
255
216
254
255
225
255
255
249
255
255
252
255
255
236
255
255
239
255
255
230
255
255
254
255
255
250
255
255
216
255
255
223
253
255
210
255
255
229
255
255
243
255
255
231
255
255
236
255
255
254
255
255
255
255
255
239
255
255
230
255
255
251
255
255
251
252
255
206
255
255
242
255
255
254
255
255
252
255
255
230
255
255
236
255
255
241
255
255
249
255
255
255
255
255
251
255
255
249
255
255
225
255
255
218
255
255
222
255
255
229
255
255
246
255
255
254
255
255
252
250
254
219
213
235
175
236
248
191
255
255
233
255
255
255
252
255
232
252
255
220
254
255
221
255
255
229
255
255
235
255
255
245
254
255
218
255
255
244
255
255
237
254
255
231
255
255
235
255
255
232
255
255
250
255
255
255
255
255
255
255
255
247
254
255
236
255
255
234
255
255
222
255
255
233
255
255
250
255
255
229
255
255
237
255
255
237
253
255
235
255
255
223
255
255
245
255
255
253
255
255
255
253
254
245
253
254
244
255
255
220
255
255
207
255
255
212
255
255
230
252
255
240
255
255
250
253
255
225
252
254
216
210
212
162
220
220
174
244
253
199
253
255
196
255
255
190
255
253
205
250
243
184
253
255
225
255
253
204
255
255
217
255
235
193
255
232
179
255
254
226
255
255
240
250
253
185
249
254
200
235
253
196
252
255
229
255
255
233
255
255
226
254
255
224
234
248
175
243
250
194
207
220
165
202
216
169
193
207
158
217
232
183
242
251
215
254
255
225
252
255
218
252
255
227
255
255
253
255
255
255
255
255
246
255
255
233
255
255
233
255
255
217
255
255
212
255
255
244
255
255
253
255
255
225
255
255
228
255
255
245
255
255
220
255
255
207
255
255
219
255
255
223
255
255
221
255
255
225
255
255
224
255
255
253
255
255
252
255
255
233
255
255
214
255
255
238
255
255
255
255
255
254
255
255
246
255
255
236
255
255
215
255
255
226
255
255
237
255
255
252
255
255
250
254
255
209
255
255
228
255
255
235
255
255
246
255
255
242
255
255
250
255
255
254
255
255
223
255
255
229
255
255
226
255
255
230
255
255
245
255
255
216
255
255
248
255
255
251
255
255
218
255
255
212
255
255
235
255
255
246
255
255
228
253
255
204
255
255
223
255
255
206
255
255
200
255
255
206
255
255
204
254
255
203
255
255
227
255
255
252
255
255
248
255
255
252
255
255
255
255
255
255
255
255
232
255
255
218
254
255
213
255
255
218
255
255
225
255
255
237
255
255
245
255
255
235
255
255
241
255
255
231
255
255
224
255
255
208
255
255
220
255
255
228
255
255
247
255
255
253
255
255
232
254
255
210
245
255
195
255
255
220
255
255
230
255
255
238
255
255
253
255
255
217
255
255
210
255
255
216
255
255
242
255
255
240
255
255
234
255
255
239
255
255
217
255
255
205
255
255
236
255
255
253
255
255
226
252
255
230
255
255
239
255
255
253
255
255
231
255
255
249
255
255
241
251
255
215
254
255
212
255
255
244
255
255
251
255
255
246
255
255
254
255
255
254
255
255
253
255
255
255
255
255
245
255
255
231
255
255
235
255
255
226
255
255
229
255
255
215
255
255
238
255
255
250
255
255
248
252
254
232
238
251
198
253
255
232
255
255
249
255
255
255
255
255
254
255
255
254
255
255
246
255
255
228
255
255
254
255
255
242
253
254
214
255
255
228
255
255
253
255
255
255
255
255
226
255
255
228
255
255
247
255
255
255
255
255
255
255
255
251
255
255
228
255
255
235
255
255
218
255
255
228
255
255
231
255
255
241
255
255
241
255
255
248
255
255
246
253
255
231
228
249
188
249
255
236
255
255
252
254
255
237
254
255
242
255
255
229
254
255
206
255
255
215
252
255
212
253
255
233
255
255
254
255
255
250
255
255
241
253
253
210
254
254
206
246
255
203
247
255
196
255
255
199
255
255
243
255
255
253
255
255
244
255
255
227
255
255
229
255
254
233
255
254
215
255
255
250
255
255
239
255
255
198
254
255
207
253
255
221
255
255
251
255
255
236
255
255
223
255
255
229
238
242
189
210
223
160
211
232
171
232
247
194
247
253
210
246
254
209
255
255
250
255
255
249
255
255
244
255
255
248
255
255
255
255
255
255
255
255
238
255
255
242
255
255
237
255
255
210
255
255
206
255
255
223
255
255
243
255
255
232
255
255
233
255
255
237
255
255
210
255
255
208
255
255
217
255
255
243
255
255
249
255
255
242
255
255
247
255
255
255
255
255
250
255
255
224
255
255
233
255
255
244
255
255
252
255
255
254
255
255
249
255
255
231
255
255
214
255
255
229
255
255
226
255
255
233
255
255
255
255
255
232
255
255
233
255
255
254
255
255
255
255
255
255
255
255
255
255
255
252
255
255
215
255
255
225
255
255
252
255
255
253
255
255
240
255
255
229
255
255
253
255
255
230
255
255
209
255
255
207
255
255
223
255
255
253
255
255
222
255
255
216
255
255
244
255
255
214
255
255
201
253
255
191
241
252
172
254
255
208
255
255
234
255
255
252
255
255
237
255
255
239
255
255
252
255
255
246
255
255
218
255
255
225
255
255
226
255
255
208
255
255
231
255
255
248
255
255
219
255
255
217
255
255
250
255
255
236
255
255
231
255
255
236
255
255
215
247
255
190
255
255
208
255
255
209
255
255
219
255
255
206
254
255
196
255
255
214
255
255
213
255
255
211
255
255
228
254
255
202
255
255
200
255
255
203
254
255
212
255
255
239
245
251
210
255
255
224
255
255
209
255
255
205
255
255
232
255
255
254
255
255
237
241
254
197
255
255
220
255
255
254
255
255
253
255
255
255
255
255
252
255
255
240
252
255
219
255
255
236
255
255
253
255
255
243
255
255
255
255
255
254
255
255
254
255
255
247
255
255
253
255
255
242
255
255
215
255
255
222
255
255
232
255
254
211
255
255
227
255
255
249
255
255
253
254
255
224
254
255
233
255
255
241
255
255
232
255
255
255
255
255
253
252
254
226
255
255
251
251
255
218
255
255
225
255
255
214
255
255
222
255
255
236
255
255
249
255
255
255
255
255
242
255
255
228
255
255
236
255
255
255
255
255
255
255
255
244
255
255
221
255
255
223
255
255
215
255
255
214
255
255
220
255
255
241
255
255
247
255
255
255
255
255
255
252
255
222
242
254
200
247
255
211
255
255
249
255
255
246
255
255
251
255
255
245
255
255
229
255
255
218
255
255
223
255
255
220
255
255
228
255
255
251
255
255
254
255
255
233
255
255
225
255
255
217
251
255
200
252
255
195
255
255
222
255
255
251
255
255
228
251
255
199
255
255
230
255
255
253
255
255
231
255
255
238
255
255
233
254
255
211
243
255
201
244
255
208
255
255
230
255
255
243
255
255
237
254
255
225
250
255
222
204
228
164
220
246
181
251
255
216
255
255
228
255
255
226
254
255
244
255
255
255
255
255
251
255
255
240
255
255
252
255
255
250
255
255
237
255
255
254
255
255
237
255
255
217
255
255
210
252
255
192
251
255
209
255
255
228
255
255
237
255
255
237
255
255
207
255
255
205
255
255
205
255
255
224
255
255
232
255
255
242
255
255
247
255
255
238
252
254
208
250
252
202
255
255
217
255
255
233
255
255
237
255
255
249
255
255
253
255
255
254
255
255
240
255
255
233
255
255
239
255
255
239
255
255
243
255
255
241
255
255
244
255
255
252
255
255
250
255
255
247
255
255
255
255
255
252
255
255
222
255
255
247
255
255
255
255
255
255
255
255
244
255
255
240
255
255
253
255
255
248
255
255
236
255
255
220
253
255
200
255
255
226
255
255
219
255
255
226
255
255
255
255
255
234
255
255
210
255
255
206
253
255
196
255
255
204
255
255
227
255
255
255
255
255
254
255
255
242
255
255
248
255
255
220
255
255
207
255
255
219
255
255
227
255
255
214
254
255
212
248
255
208
255
255
212
255
255
216
255
255
250
255
255
243
255
255
250
255
255
251
255
255
218
248
255
193
255
255
203
255
255
205
255
255
204
254
255
196
251
255
188
248
254
191
238
254
188
249
255
196
255
255
221
255
255
201
255
255
206
255
255
207
254
255
209
254
255
220
247
251
195
255
255
221
255
255
220
255
255
225
255
255
251
255
255
252
255
255
233
255
255
207
255
255
208
252
253
202
255
255
248
255
255
255
255
255
246
255
255
230
255
255
238
255
255
243
255
255
248
255
255
254
255
255
255
255
255
254
255
255
234
255
255
209
255
255
229
255
255
254
255
255
254
255
255
237
255
255
238
255
255
245
255
255
245
255
255
254
255
255
254
255
255
247
255
255
254
255
255
246
255
255
249
255
255
253
254
255
230
248
254
208
250
253
222
240
253
199
255
255
210
254
255
204
250
255
201
255
255
229
255
255
245
255
255
249
255
255
230
254
255
219
255
255
225
255
255
254
255
255
248
255
255
235
255
255
237
255
255
224
245
254
203
249
254
211
255
255
245
255
255
244
252
255
232
253
255
239
255
255
255
250
255
228
242
255
201
251
255
208
255
255
233
255
255
252
255
255
255
255
255
241
253
255
224
252
255
205
255
255
240
255
255
235
255
255
219
255
255
248
255
255
255
255
255
230
255
255
241
255
255
244
255
255
222
255
255
214
255
255
218
255
255
225
254
255
214
251
255
197
255
255
223
255
255
249
255
255
221
255
255
214
255
255
226
249
255
214
237
251
197
237
253
200
255
255
227
255
255
247
255
255
240
251
255
222
252
255
226
225
252
188
230
254
192
243
254
207
251
255
221
255
255
227
249
255
210
255
255
242
255
255
253
255
255
246
255
255
237
255
255
235
255
255
228
255
255
249
255
255
231
255
255
221
252
255
203
243
254
187
254
255
224
255
255
228
255
255
220
255
255
251
255
255
245
255
255
222
255
255
200
255
255
208
255
255
219
255
255
223
255
255
219
254
255
215
248
250
192
255
255
201
255
255
202
255
255
217
255
255
229
255
255
246
255
255
248
255
255
250
255
255
249
255
255
244
255
255
250
255
255
253
255
255
234
255
255
219
255
255
229
255
255
238
255
255
242
255
255
242
255
255
254
255
255
242
255
255
242
255
255
255
255
255
254
255
255
242
255
255
252
255
255
255
255
255
254
255
255
255
255
255
255
255
255
248
254
255
220
255
255
220
255
255
237
255
255
241
255
255
255
255
255
244
252
255
202
255
255
214
255
255
219
255
255
217
255
255
212
255
255
253
255
255
238
255
255
205
255
255
228
255
255
215
255
255
216
254
255
207
244
254
187
253
255
194
253
255
194
252
255
202
255
255
207
255
255
222
255
255
246
255
255
255
255
255
253
255
255
245
255
255
226
255
255
207
255
255
213
255
255
219
255
255
213
253
255
200
245
254
192
248
254
200
236
254
184
245
255
192
255
255
210
255
255
200
255
255
206
255
255
202
255
255
209
255
255
214
255
255
214
255
255
225
255
255
227
255
255
229
255
255
254
255
255
245
255
255
229
255
255
217
255
255
231
255
255
236
255
255
253
255
255
249
255
255
225
244
237
184
252
253
211
253
255
221
255
254
214
255
255
234
255
255
254
255
255
250
255
255
223
255
255
196
255
255
206
255
255
250
255
255
255
255
255
235
255
255
214
255
255
232
255
255
249
255
255
252
255
255
247
255
255
242
255
255
251
255
255
234
255
255
246
255
255
254
255
255
244
253
254
228
251
255
220
234
255
194
252
255
212
253
255
198
249
255
195
255
255
218
255
255
232
253
255
215
254
255
210
253
255
202
255
255
209
255
255
238
255
255
241
255
255
250
255
255
251
254
255
223
235
248
182
248
252
206
255
255
236
255
255
230
248
255
206
246
255
215
255
255
253
255
255
249
245
255
209
243
255
195
255
255
237
255
255
255
254
255
244
255
255
231
250
255
211
254
255
206
255
255
218
252
255
213
254
255
217
255
255
232
255
255
249
255
255
248
255
255
253
255
255
251
255
255
239
255
255
224
255
255
211
255
255
218
255
255
216
255
255
215
255
255
233
255
255
245
255
255
230
255
255
240
255
255
237
250
255
216
245
253
201
243
253
198
255
255
219
255
255
220
255
255
215
249
255
214
254
255
227
244
255
205
236
255
199
235
253
200
254
255
228
255
255
240
255
255
223
255
255
234
255
255
255
255
255
255
255
255
229
255
255
230
255
255
232
255
255
235
255
255
222
255
255
216
239
250
188
243
252
190
255
255
231
255
255
227
255
255
208
255
255
236
255
255
246
255
255
227
255
255
211
255
255
233
255
255
233
255
255
225
255
255
214
255
255
208
254
254
195
255
255
197
255
255
197
255
255
204
255
255
210
255
255
236
255
255
251
255
255
247
255
255
255
255
255
255
255
255
248
255
255
251
255
255
249
255
255
237
255
255
231
255
255
249
255
255
240
255
255
246
255
255
251
255
255
231
255
255
244
255
255
251
255
255
238
255
255
217
255
255
249
255
255
255
255
255
255
255
255
255
255
255
255
255
255
252
255
255
255
255
255
244
255
255
240
255
255
245
255
255
255
255
255
237
251
255
196
255
255
202
255
255
215
255
255
233
255
255
203
255
255
244
255
255
240
255
255
219
255
255
223
255
255
205
255
255
204
253
255
195
242
254
174
252
255
189
255
255
200
255
255
218
253
255
201
253
255
216
255
255
243
255
255
243
255
255
240
255
255
237
255
255
215
253
255
200
255
255
205
252
255
199
249
255
201
247
255
198
254
255
225
255
255
243
250
255
198
250
254
195
255
255
216
255
255
215
255
255
207
255
255
219
255
255
223
255
255
215
255
255
209
255
255
231
255
255
219
255
255
221
255
255
243
255
255
220
255
255
206
252
252
202
255
255
225
255
255
241
255
255
249
255
255
226
255
255
215
251
250
210
245
251
195
248
254
207
255
252
211
254
247
194
255
255
243
255
255
253
255
255
229
255
255
204
255
255
216
255
255
243
255
255
254
255
255
227
254
255
209
255
255
222
255
255
225
255
255
250
255
255
255
255
255
239
255
255
231
255
255
232
255
255
234
255
255
248
255
255
255
255
255
252
252
255
227
237
255
197
249
255
203
254
255
205
254
255
204
255
255
219
254
255
221
255
255
209
253
255
202
255
255
205
255
255
221
255
255
234
253
254
211
252
255
225
255
255
248
255
255
239
249
253
193
253
253
217
255
255
234
255
255
233
255
255
206
248
255
208
255
255
252
255
255
251
254
255
220
254
255
212
255
255
251
255
255
250
237
252
213
254
255
223
250
255
208
255
255
214
255
255
216
251
255
206
253
255
205
255
255
222
255
255
234
255
255
248
255
255
253
255
255
249
255
255
232
255
255
221
253
255
210
252
255
218
255
255
228
255
255
224
255
255
235
255
255
254
255
255
251
255
255
255
255
255
241
255
255
213
255
255
203
255
255
202
255
255
212
255
255
211
255
255
210
255
255
229
255
255
244
255
255
222
241
252
197
229
247
189
253
255
224
255
255
241
255
255
241
255
255
233
255
255
253
255
255
255
255
255
234
255
255
236
255
255
240
255
255
242
255
255
235
254
255
219
241
252
191
247
250
187
255
255
216
255
254
211
255
254
204
255
255
229
255
255
236
255
255
217
255
255
223
255
255
254
255
255
251
255
255
241
255
255
224
255
255
213
255
255
203
255
255
200
254
255
204
255
255
202
255
255
216
255
255
228
255
255
240
255
255
250
255
255
255
255
255
254
255
255
237
255
255
231
255
255
252
255
255
255
255
255
250
255
255
255
255
255
248
255
255
233
255
255
244
255
255
231
255
255
216
255
255
221
255
255
217
255
255
211
255
255
242
255
255
252
255
255
255
255
255
255
255
255
247
255
255
226
255
255
248
255
255
255
255
255
255
255
255
254
255
255
255
254
255
225
244
255
188
254
255
204
255
255
217
255
255
233
255
255
212
255
255
222
255
255
233
255
255
218
255
255
234
255
255
218
255
255
198
255
255
203
255
255
202
255
255
206
255
255
212
255
255
232
253
255
209
254
255
221
255
255
247
255
255
211
255
255
208
255
255
221
255
255
211
254
255
207
255
255
207
241
251
189
234
249
186
247
254
197
255
255
217
255
255
233
255
255
214
255
255
215
255
255
229
255
255
230
255
255
214
255
255
249
255
255
252
255
255
209
255
255
197
255
255
212
255
255
204
255
255
209
255
255
216
255
255
218
250
253
192
235
242
175
254
255
206
253
255
212
255
255
223
255
255
211
255
255
214
255
255
239
254
255
236
254
255
245
255
255
231
255
255
220
255
255
231
255
255
233
255
255
233
255
255
242
255
255
241
255
255
234
255
255
238
247
253
196
255
255
222
255
255
230
255
255
212
254
255
218
255
255
242
253
253
210
255
255
219
255
255
227
255
255
233
255
255
246
255
255
254
255
255
233
254
255
217
254
255
223
253
255
208
255
254
202
255
255
206
255
255
228
254
255
230
253
255
196
254
255
196
249
255
196
255
255
236
255
255
242
255
255
222
253
255
203
253
255
203
255
255
234
251
253
225
232
230
181
249
248
198
255
255
227
255
255
204
255
255
222
255
255
248
254
255
237
254
255
221
255
255
224
255
255
243
255
255
233
230
245
201
254
255
231
249
255
209
246
254
201
254
255
220
255
255
240
255
255
220
254
255
212
254
255
226
255
255
252
255
255
255
255
255
250
255
255
226
255
255
239
252
255
225
241
255
208
253
255
221
255
255
222
255
255
227
255
255
251
255
255
248
255
255
248
255
255
227
255
255
212
255
255
200
255
255
193
255
255
204
255
255
226
255
255
222
255
255
233
255
255
244
255
255
226
254
255
219
251
255
213
255
255
212
255
255
219
255
255
224
255
255
216
255
255
230
255
255
255
255
255
253
255
255
242
255
255
244
255
255
245
255
255
236
255
255
221
254
255
205
255
255
207
255
255
231
255
255
225
255
255
216
255
255
229
255
255
223
255
255
206
255
255
212
255
255
241
255
255
248
255
255
245
255
255
225
255
255
216
255
255
213
255
255
210
255
255
208
255
255
211
255
255
223
255
255
227
255
255
221
255
255
249
255
255
255
255
255
252
255
255
229
255
255
224
255
255
242
255
255
255
255
255
255
255
255
255
255
255
255
255
255
251
255
255
245
255
255
235
255
255
216
255
255
217
255
255
220
255
255
221
255
255
236
255
255
238
255
255
254
255
255
255
255
255
242
255
255
209
255
255
223
255
255
252
255
255
251
255
255
255
255
255
251
255
255
220
255
255
210
255
255
206
255
255
219
255
255
225
255
255
237
255
255
229
255
255
220
255
255
208
255
255
226
255
255
219
255
255
207
255
255
205
255
255
210
255
255
221
255
255
220
255
255
232
255
255
220
255
255
235
255
255
246
255
255
217
255
255
216
255
255
219
254
255
205
255
255
223
255
255
232
248
255
208
250
255
207
255
255
214
253
255
197
255
255
211
255
253
209
255
255
210
255
255
227
255
255
213
255
255
203
255
255
238
255
255
253
249
255
199
251
255
198
255
255
213
255
255
209
254
255
201
254
255
220
255
255
239
253
255
216
252
255
205
255
255
221
254
255
214
253
255
203
254
255
211
255
255
223
255
255
214
252
255
218
254
255
243
255
255
235
255
255
244
255
255
249
255
255
230
255
255
219
255
255
253
255
255
251
255
255
228
255
255
214
251
255
194
255
255
223
255
255
241
255
255
224
253
255
204
254
255
201
251
250
188
255
255
221
255
255
233
255
255
245
255
255
253
255
255
255
255
255
254
255
255
249
255
255
254
255
255
231
255
255
219
255
255
217
255
255
242
255
255
243
253
255
198
247
255
187
242
255
184
252
255
208
255
255
231
255
255
235
255
255
219
255
255
210
255
255
243
255
255
248
233
230
184
239
244
185
242
249
192
253
255
204
255
255
235
255
255
232
236
254
198
249
255
216
255
255
247
252
255
236
249
255
214
243
250
199
255
255
239
251
255
213
252
255
208
253
255
213
255
255
240
255
255
223
254
255
204
254
255
218
255
255
255
255
255
255
255
255
251
254
255
220
255
255
245
255
255
239
249
255
219
254
255
225
255
255
212
255
255
217
255
255
235
255
255
231
255
255
220
255
255
224
255
255
241
255
255
230
255
255
204
255
255
202
255
255
213
255
255
219
255
255
217
255
255
237
255
255
238
255
255
235
255
255
239
255
255
219
253
255
196
245
255
191
253
255
203
255
255
216
255
255
248
255
255
254
255
255
235
255
255
237
255
255
245
255
255
237
255
255
219
255
255
215
255
255
223
255
255
244
255
255
237
255
255
239
255
255
234
255
255
219
255
255
208
255
255
209
255
255
214
255
255
239
255
255
242
255
255
222
255
255
211
255
255
209
255
255
216
255
255
213
255
255
213
255
255
215
255
255
211
255
255
217
255
255
247
255
255
255
255
255
245
255
255
232
255
255
236
255
255
246
255
255
255
255
255
255
255
255
255
255
255
255
255
255
255
255
255
251
255
255
248
255
255
228
255
255
224
255
255
238
255
255
236
255
255
228
255
255
224
255
255
240
255
255
250
255
255
247
255
255
245
255
255
239
255
255
242
255
255
238
255
255
233
255
255
222
255
255
212
255
255
218
255
255
206
255
255
213
255
255
212
255
255
219
255
255
210
255
255
198
255
255
204
255
255
220
255
255
220
255
255
219
255
255
206
255
255
208
255
255
215
255
255
214
255
255
211
255
255
215
255
255
247
255
255
247
255
255
219
255
255
225
255
255
223
255
255
206
255
255
232
255
255
251
255
255
226
255
255
224
255
255
225
251
255
196
246
246
182
252
244
189
254
254
207
255
255
217
255
255
204
255
255
205
255
255
226
255
255
240
248
255
197
253
255
204
255
255
217
255
255
202
254
255
196
254
255
212
255
255
236
255
255
221
252
255
207
255
255
218
255
255
221
254
255
216
255
255
228
255
255
224
255
255
223
253
255
216
253
255
230
255
255
241
255
255
242
255
255
254
255
255
233
255
255
216
255
255
235
255
255
234
255
255
223
255
255
210
253
255
199
255
255
205
255
255
224
255
255
213
254
243
176
254
244
163
255
255
186
255
255
218
255
255
234
255
255
225
255
255
233
255
255
237
255
255
238
255
255
248
255
255
241
255
255
223
255
255
244
255
255
249
255
255
242
255
255
238
255
255
222
252
255
204
244
255
186
246
255
188
255
255
211
254
255
225
255
255
225
255
255
219
255
255
228
251
252
208
238
237
183
252
253
208
241
249
192
249
254
200
255
255
236
254
255
231
218
247
191
246
255
221
255
255
245
244
255
223
234
253
203
240
247
191
255
255
234
255
255
223
255
255
223
253
255
213
252
255
211
255
255
206
255
255
195
255
255
222
255
255
255
255
255
255
255
255
251
254
255
215
255
255
220
251
255
220
250
255
216
255
255
223
254
255
208
251
255
201
252
255
213
252
255
210
252
255
207
254
255
217
255
255
250
255
255
247
255
255
230
255
255
216
241
253
190
239
253
195
252
255
207
255
255
239
255
255
250
255
255
230
255
255
224
255
255
218
253
255
198
240
254
183
243
251
191
255
255
209
255
255
231
255
255
237
255
255
217
255
255
215
255
255
224
255
255
222
255
255
227
255
255
231
255
255
231
255
255
238
255
255
240
255
255
231
255
255
239
255
255
244
255
255
241
255
255
232
255
255
216
255
255
231
255
255
237
255
255
221
255
255
217
255
255
218
255
255
232
255
255
229
255
255
227
255
255
223
255
255
224
255
255
235
255
255
246
255
255
253
255
255
242
255
255
242
255
255
255
255
255
245
255
255
254
255
255
255
255
255
255
255
255
255
255
255
255
255
255
255
255
255
255
255
255
243
255
255
236
255
255
244
255
255
236
255
255
220
254
255
216
252
255
216
255
255
225
255
255
230
255
255
251
255
255
255
255
255
254
255
255
252
255
255
221
255
255
203
255
255
212
255
255
222
255
255
213
255
255
209
255
255
197
255
255
202
255
255
203
255
255
194
255
253
182
255
255
189
255
255
205
255
255
209
255
255
215
255
255
219
255
255
214
255
255
208
255
255
211
255
255
217
255
255
239
255
255
236
255
255
235
255
255
241
255
255
227
255
255
213
255
255
230
255
255
254
255
255
228
255
255
218
255
255
221
250
255
188
248
252
182
255
253
199
255
255
209
255
255
215
255
255
210
255
255
211
255
255
217
255
255
222
255
255
213
255
255
213
255
255
216
250
255
202
239
250
186
249
252
188
255
255
207
253
255
204
250
255
209
251
255
204
253
255
206
255
255
223
255
255
230
255
255
237
255
255
246
255
255
231
255
255
244
255
255
230
255
255
233
255
255
238
255
255
225
255
255
210
255
255
213
255
255
229
255
255
229
255
255
210
255
255
212
255
255
215
255
255
227
255
251
201
235
201
137
234
188
106
253
239
148
255
255
207
255
255
235
255
255
220
255
255
227
255
255
224
255
255
226
255
255
227
255
255
218
255
255
227
255
255
252
255
255
246
255
255
219
255
255
222
255
255
234
253
255
199
250
255
191
253
255
197
255
255
205
254
255
218
255
255
230
255
255
220
255
255
206
244
253
186
249
252
198
255
255
220
241
233
186
250
249
206
255
255
233
254
255
230
235
252
205
244
255
214
255
255
235
255
255
238
245
253
217
237
247
184
250
255
212
253
255
219
255
255
228
251
255
212
247
255
194
254
255
195
255
255
207
255
255
239
255
255
255
255
255
255
255
255
251
255
255
217
255
255
207
253
255
208
250
255
202
253
255
206
251
255
203
244
255
196
243
255
203
239
255
205
237
255
201
253
255
212
255
255
220
255
254
214
255
255
223
255
255
225
237
252
189
232
252
193
252
255
214
255
255
235
255
255
244
255
255
228
255
255
225
255
255
217
255
255
202
248
255
192
244
250
191
252
252
199
255
255
215
255
255
221
255
255
207
255
255
202
255
255
206
255
255
210
255
255
224
255
255
227
255
255
228
255
255
238
255
255
238
255
255
232
255
255
236
255
255
249
255
255
252
255
255
254
255
255
249
255
255
248
255
255
238
254
255
214
253
255
208
255
255
216
255
255
228
255
255
235
255
255
232
255
255
230
255
255
241
255
255
248
255
255
252
255
255
253
255
255
245
255
255
245
255
255
253
255
255
238
255
255
232
255
255
249
255
255
249
255
255
247
255
255
253
255
255
255
255
255
255
255
255
253
255
255
242
255
255
235
255
255
224
255
255
209
254
255
210
254
255
213
254
255
208
255
255
210
255
255
232
255
255
248
255
255
255
255
255
254
255
255
224
255
255
216
255
255
224
255
255
227
255
255
225
255
255
207
255
255
193
255
255
197
255
254
188
255
249
174
255
252
183
255
255
208
255
255
214
255
255
207
255
255
238
255
255
251
255
255
238
255
255
211
253
255
206
254
255
212
255
255
226
255
255
232
255
255
238
255
255
239
255
255
230
255
255
225
255
255
231
255
255
249
255
255
230
255
255
212
255
255
207
254
255
196
254
255
196
255
255
209
255
255
211
255
255
211
255
255
211
254
255
206
254
255
209
255
255
219
255
255
225
255
255
223
255
255
216
251
255
202
247
254
195
254
255
198
255
255
202
252
255
209
244
255
204
240
253
192
242
252
194
254
255
221
255
255
227
255
255
233
255
255
239
255
255
227
255
255
226
250
255
211
251
255
205
255
255
214
255
255
208
255
255
205
255
255
218
255
255
227
255
255
223
254
255
207
255
255
217
255
255
225
255
255
224
253
250
203
232
206
149
214
176
113
233
208
133
255
253
191
255
255
212
251
250
191
247
245
191
255
254
221
255
255
250
255
255
246
255
255
249
255
255
252
255
255
236
254
254
216
255
255
210
255
255
222
255
255
232
253
255
198
251
255
191
255
255
206
255
255
202
254
255
204
255
255
227
255
255
239
255
255
220
245
253
198
249
253
204
255
255
224
254
250
209
254
254
216
255
255
231
255
255
249
253
255
231
239
254
203
246
255
206
253
255
218
245
254
203
251
254
215
241
255
204
242
255
202
249
255
202
235
255
188
233
255
185
252
255
209
255
255
227
255
255
247
255
255
254
255
255
253
255
255
246
255
255
226
255
255
210
255
255
203
255
255
197
254
255
202
254
255
211
249
255
204
237
255
200
234
255
203
239
254
206
254
255
220
255
255
205
250
249
188
251
248
194
247
252
194
236
248
187
238
252
197
253
255
214
252
255
204
255
255
219
255
255
237
255
255
235
255
255
227
255
255
207
254
255
201
255
255
206
255
255
213
255
255
217
255
255
212
255
253
206
255
255
217
255
255
204
255
255
205
255
255
208
255
255
207
255
255
224
255
255
238
255
255
238
255
255
238
255
255
228
255
255
218
255
255
228
255
255
248
255
255
253
255
255
252
255
255
230
252
255
208
252
255
204
255
255
209
255
255
219
255
255
232
255
255
237
255
255
241
255
255
248
255
255
249
255
255
254
255
255
253
255
255
239
255
255
228
255
255
233
255
255
229
255
255
223
255
255
231
255
255
234
255
255
227
255
255
236
255
255
251
255
255
254
255
255
252
255
255
241
255
255
234
255
255
222
255
255
212
255
255
212
253
255
208
254
255
207
255
255
209
255
255
213
255
255
222
255
255
249
255
255
251
255
255
223
255
255
217
255
255
224
255
255
231
255
255
234
255
255
224
255
255
219
255
255
200
255
235
167
255
234
164
255
255
201
255
255
241
255
255
241
255
255
220
255
255
240
255
255
255
255
255
245
254
255
215
254
255
212
255
255
217
255
255
229
255
255
230
255
255
229
255
255
221
255
255
227
255
255
233
255
255
231
255
255
247
255
255
244
255
255
220
255
255
206
255
255
210
255
255
208
252
255
211
244
255
206
252
255
214
254
255
213
254
255
209
254
255
207
255
255
216
255
255
232
255
255
231
255
255
218
255
255
215
255
255
227
255
255
221
255
255
215
252
255
214
241
254
201
240
253
193
247
255
204
249
255
216
255
255
224
255
255
219
253
255
214
249
255
209
240
254
201
243
255
199
252
255
205
254
255
205
255
255
195
255
255
203
254
255
212
255
255
224
254
255
216
254
255
202
255
255
220
255
255
228
254
255
215
241
250
199
232
231
176
225
213
162
229
220
162
246
241
171
250
242
173
252
241
178
253
249
189
255
255
234
255
255
255
255
255
254
255
254
247
243
239
213
216
206
169
235
230
180
247
244
191
253
252
202
255
255
210
252
255
190
253
255
192
254
255
203
254
255
197
254
255
212
255
255
247
255
255
255
255
255
232
249
254
205
245
252
200
255
255
238
255
255
237
255
255
218
255
255
213
255
255
238
255
255
239
250
255
207
249
255
196
245
255
189
247
255
196
255
255
219
250
255
209
238
255
188
232
255
175
225
255
169
229
254
184
252
255
216
255
255
244
255
255
246
255
255
237
253
255
225
252
255
220
255
255
224
255
255
215
255
255
205
255
254
199
255
255
208
255
255
217
248
255
202
244
255
207
253
255
230
254
255
233
255
255
223
252
255
199
254
255
198
255
255
213
254
254
217
247
254
209
246
255
206
247
255
207
247
255
198
254
255
212
255
255
230
255
255
235
255
255
227
255
255
211
255
255
203
255
255
216
255
255
227
255
255
230
255
255
224
255
255
225
255
255
231
255
255
222
255
255
213
255
254
205
248
247
192
255
254
208
255
255
221
255
255
225
255
255
221
255
255
217
255
255
217
255
255
233
255
255
236
255
255
222
252
253
208
249
254
204
250
255
206
255
255
212
255
255
214
255
255
214
255
255
225
255
255
234
255
255
245
255
255
244
255
255
240
255
255
243
255
255
239
255
255
226
255
255
212
255
255
218
255
255
239
255
255
243
255
255
247
255
255
247
255
255
234
255
255
229
255
255
237
255
255
250
255
255
252
255
255
250
255
255
243
255
255
229
255
255
211
254
255
206
255
255
207
255
255
207
255
255
208
255
255
205
255
255
208
255
255
227
255
255
229
255
255
207
255
255
207
255
255
212
255
255
224
255
255
224
255
255
221
255
255
218
255
255
200
255
236
170
255
241
170
255
255
204
255
255
221
255
255
219
255
253
204
255
254
215
255
255
239
255
255
238
253
255
214
255
255
217
255
255
223
255
255
234
255
255
227
255
255
235
255
255
237
255
255
230
255
255
226
255
255
223
255
255
246
255
255
255
255
255
236
255
255
219
255
255
216
255
255
216
254
255
220
247
255
210
250
255
213
252
255
217
253
255
212
254
255
212
250
255
210
255
255
222
255
255
224
255
255
218
255
255
223
255
255
242
255
255
232
254
255
212
245
254
204
240
255
200
237
255
195
242
255
202
246
255
208
252
255
215
254
255
210
252
255
211
244
255
205
239
253
198
237
250
193
245
255
200
252
255
200
255
255
198
255
255
207
247
255
201
243
254
201
244
255
203
251
255
205
255
255
222
255
255
230
254
255
214
240
248
198
239
248
198
246
251
205
243
249
196
239
235
177
239
230
167
246
244
182
253
255
201
255
255
228
255
255
242
255
255
236
246
240
198
199
193
148
184
174
134
199
196
148
219
215
169
249
248
202
255
255
216
254
255
201
254
255
202
251
255
198
252
255
199
255
255
250
255
255
255
255
255
252
255
255
234
255
255
220
255
255
220
255
255
220
254
255
213
255
255
207
255
255
201
255
255
210
255
255
228
255
255
219
249
255
195
244
255
189
244
253
191
255
255
212
253
255
208
246
255
192
229
255
168
232
255
174
241
255
192
254
255
226
255
255
254
255
255
246
253
255
212
238
248
194
238
248
195
254
255
213
255
255
222
255
255
215
255
255
210
255
255
209
252
255
206
243
255
191
244
255
200
255
255
241
255
255
243
255
255
215
252
255
202
254
255
203
255
255
220
255
255
242
255
255
239
250
255
216
242
255
199
250
255
199
255
255
213
255
255
220
255
255
221
255
255
222
255
255
211
255
255
210
255
255
225
255
255
244
255
255
246
255
255
233
255
255
230
255
255
231
255
255
227
255
255
216
254
254
206
249
248
195
255
254
207
255
255
223
255
255
225
255
255
221
255
255
224
255
255
229
255
255
248
255
255
242
255
255
217
249
249
191
243
251
194
253
255
206
255
255
216
255
255
221
255
255
218
255
255
219
255
255
228
255
255
239
255
255
236
255
255
228
255
255
225
255
255
223
254
255
210
254
255
206
255
255
224
255
255
244
255
255
254
255
255
253
255
255
251
255
255
240
255
255
239
255
255
241
255
255
243
255
255
249
255
255
253
255
255
247
255
255
232
255
255
215
255
255
208
255
255
207
255
255
204
253
255
199
255
255
202
255
255
211
255
255
220
255
255
216
255
255
204
255
255
208
255
255
214
255
255
223
255
255
229
255
255
228
255
255
221
255
255
208
255
252
188
255
252
182
255
255
203
255
255
195
255
252
192
255
244
191
255
251
204
255
255
225
255
255
229
251
255
213
248
255
209
255
255
222
255
255
234
255
255
231
255
255
249
255
255
245
255
255
227
251
255
213
254
255
215
255
255
242
255
255
255
255
255
246
255
255
226
255
255
207
255
255
213
255
255
227
255
255
220
255
255
214
245
255
211
250
255
213
255
255
216
253
255
210
255
255
216
255
255
223
255
255
231
255
255
233
255
255
236
255
255
220
252
253
204
239
250
197
242
255
204
237
255
200
234
249
195
231
240
188
232
240
188
252
254
204
255
255
217
246
255
207
242
253
197
242
251
194
251
255
206
254
255
208
254
255
204
252
255
204
244
255
201
237
255
196
242
255
202
250
255
212
255
255
225
255
255
226
245
253
206
237
251
199
247
254
211
254
255
221
248
255
211
241
245
190
229
233
170
231
247
184
240
255
199
254
255
209
255
255
219
255
255
217
248
246
192
216
216
161
190
186
138
196
199
148
207
212
162
235
235
188
247
249
201
252
253
202
255
255
209
248
255
200
243
253
186
255
255
231
255
255
252
255
255
255
255
255
254
255
255
251
255
255
224
251
255
200
254
255
207
255
255
214
254
255
200
243
254
184
249
255
204
255
255
220
252
255
204
244
255
194
252
255
211
255
255
224
232
245
184
238
253
184
242
255
183
249
255
190
254
255
204
255
255
217
255
255
231
254
255
214
243
249
186
227
238
178
229
241
181
249
254
201
255
255
222
255
255
231
255
255
224
255
255
212
251
254
194
238
252
181
227
248
175
246
255
210
255
255
227
254
255
213
246
254
198
247
254
197
254
255
204
255
255
226
255
255
232
254
255
216
248
255
195
250
255
193
255
255
208
255
255
219
255
255
225
255
255
226
255
255
217
255
255
221
255
255
236
255
255
253
255
255
250
255
255
233
255
255
212
255
255
215
254
255
216
251
255
208
248
254
203
252
255
204
255
255
216
255
255
235
255
255
238
255
255
235
255
255
231
255
255
235
255
255
243
255
255
237
255
255
221
252
254
201
243
250
193
254
255
206
255
255
212
255
255
218
255
255
216
255
255
220
255
255
229
255
255
235
255
255
226
255
255
224
255
255
218
255
255
213
251
255
204
253
255
209
255
255
224
255
255
238
255
255
249
255
255
249
255
255
236
255
255
239
255
255
248
255
255
246
255
255
232
255
255
232
255
255
234
255
255
236
255
255
227
255
255
221
255
255
215
255
255
204
255
255
197
251
255
192
255
255
202
255
255
211
255
255
214
255
255
217
255
255
224
255
255
230
255
255
228
255
255
233
255
255
232
255
255
231
255
255
230
255
255
220
255
255
204
255
255
193
255
255
197
255
255
196
255
254
199
255
254
205
255
255
210
255
255
220
255
255
220
247
254
205
242
254
200
253
255
214
255
255
229
255
255
233
255
255
233
254
255
222
248
255
207
244
255
204
254
255
215
255
255
232
255
255
248
255
255
243
255
255
220
251
254
200
253
255
211
255
255
226
255
255
223
251
255
207
245
255
209
252
255
214
255
255
214
255
255
214
254
255
215
253
255
217
255
255
235
255
255
236
255
255
225
254
255
212
251
255
204
244
254
202
248
255
211
246
255
210
233
249
196
221
229
178
228
232
182
253
254
205
254
255
218
248
255
208
243
253
198
247
254
199
255
255
212
250
254
207
245
253
199
245
254
198
243
254
198
238
255
197
244
255
203
244
255
206
252
255
216
250
255
212
225
244
189
230
248
194
247
255
211
250
255
215
240
253
205
231
241
186
225
230
172
227
239
180
236
251
191
253
255
217
255
255
231
255
255
216
254
255
200
245
246
187
230
228
174
218
222
168
213
222
167
220
225
174
222
227
175
237
245
184
252
255
201
252
255
199
233
244
171
247
254
190
255
255
228
255
255
250
255
255
255
255
255
242
247
254
205
242
253
193
255
255
207
255
255
212
251
255
196
231
250
178
242
252
192
255
255
217
253
255
209
249
255
203
255
255
219
253
255
220
203
210
152
228
239
172
249
255
187
255
255
197
255
255
198
252
255
192
254
255
193
255
255
185
250
253
189
247
252
199
249
254
205
253
255
204
255
255
219
255
255
232
255
255
227
255
255
216
251
254
197
247
255
192
235
252
181
246
255
196
255
255
221
255
255
219
251
255
202
248
255
198
255
255
207
255
255
212
255
255
216
255
255
208
255
255
199
255
255
200
255
255
209
255
255
225
255
255
232
255
255
234
255
255
217
255
255
227
255
255
237
255
255
250
255
255
239
255
255
222
254
255
204
255
255
212
254
255
210
249
254
204
244
252
199
252
255
206
255
255
218
255
255
231
255
255
229
255
255
230
255
255
226
255
255
225
255
255
231
255
255
235
255
255
224
254
255
208
245
250
194
253
254
204
255
255
212
255
255
214
255
255
213
254
255
215
255
255
221
255
255
226
255
255
214
255
255
222
255
255
225
255
255
221
255
255
215
254
255
214
255
255
219
255
255
225
255
255
234
255
255
229
255
255
227
255
255
240
255
255
248
255
255
240
255
255
227
255
255
222
255
255
224
253
255
219
252
255
216
255
255
221
255
255
219
255
255
206
255
255
198
251
255
192
252
255
199
255
255
205
255
255
210
255
255
218
255
255
234
255
255
247
255
255
242
255
255
235
255
255
228
255
255
225
255
255
234
255
255
231
255
255
218
255
255
207
255
255
201
255
255
201
255
255
205
255
255
212
255
255
216
255
255
214
255
255
213
245
253
200
240
250
196
254
255
215
255
255
227
255
255
234
255
255
218
248
252
198
238
251
193
240
254
197
253
255
210
255
255
219
255
255
232
255
255
224
254
255
211
253
255
206
255
255
214
255
255
217
252
255
212
246
255
206
250
255
214
252
255
211
255
255
212
255
255
216
255
255
221
254
255
221
255
255
226
255
255
228
255
255
219
254
255
212
246
254
202
249
254
207
252
255
214
248
255
211
234
252
196
229
238
185
240
245
193
254
255
205
252
255
211
247
255
208
246
254
203
245
255
202
248
255
207
240
250
200
231
240
188
238
247
192
234
245
188
228
244
184
235
250
189
236
252
192
239
255
204
231
255
200
213
240
182
220
241
186
235
252
199
237
251
200
230
243
193
229
238
183
226
231
175
218
229
171
227
241
180
248
254
198
254
255
206
246
253
193
252
252
191
255
247
187
255
244
186
245
240
181
232
239
182
234
240
186
232
237
184
232
242
183
248
254
198
254
255
198
244
251
179
235
244
175
243
250
196
247
254
218
253
255
237
247
254
215
232
245
189
236
246
188
252
254
200
247
250
193
239
250
185
229
246
178
229
245
174
241
252
185
242
253
193
253
255
212
255
255
219
246
255
209
223
227
171
236
243
183
248
255
194
248
255
195
243
252
189
235
246
177
247
254
187
255
255
201
255
255
213
255
255
228
255
255
230
255
255
219
255
255
222
255
255
229
255
255
227
255
255
230
255
255
216
255
255
211
254
255
204
255
255
202
255
255
212
255
255
213
255
255
213
255
255
216
255
255
217
254
255
201
249
251
192
253
253
197
255
255
203
255
255
206
255
255
215
255
255
233
255
255
237
255
255
232
255
255
216
255
255
226
255
255
226
255
255
232
255
255
221
255
255
209
254
255
208
255
255
218
255
255
215
255
255
215
254
255
213
255
255
216
255
255
215
255
255
221
255
255
222
255
255
215
255
255
214
255
255
215
255
255
228
255
255
229
255
255
226
255
255
218
254
255
212
254
255
207
255
255
213
255
255
208
254
255
209
248
255
205
250
255
207
254
255
212
255
255
216
255
255
222
255
255
228
255
255
224
255
255
219
255
255
217
255
255
218
254
255
212
254
255
212
253
255
211
255
255
222
255
255
239
255
255
252
255
255
235
255
255
222
255
255
217
249
255
211
244
255
207
246
255
209
253
255
218
255
255
216
255
255
211
254
254
201
250
252
196
251
254
201
253
255
201
255
255
202
255
255
212
255
255
231
255
255
242
255
255
236
255
255
236
255
255
229
255
255
226
255
255
233
255
255
237
255
255
226
255
255
217
255
255
208
255
255
204
255
255
208
255
255
214
255
255
215
253
255
208
250
255
203
245
254
199
239
249
194
250
254
208
255
255
219
255
255
219
252
252
204
234
237
182
227
231
176
236
243
186
244
248
193
254
254
206
255
255
212
248
252
204
248
254
201
255
255
213
255
255
212
254
255
207
250
255
208
245
255
212
252
255
216
254
255
213
254
255
209
255
255
226
255
255
233
255
255
227
251
255
211
249
254
207
244
253
202
241
250
199
240
248
196
244
251
200
249
255
208
244
255
204
236
254
196
239
248
192
241
249
193
247
252
196
244
254
204
246
255
209
245
252
203
240
252
201
241
254
206
237
249
203
232
240
190
231
240
187
224
233
178
221
232
173
231
242
182
231
247
186
229
252
195
219
250
190
210
239
180
210
234
177
224
243
189
232
246
195
232
241
192
236
240
187
229
232
177
221
236
176
232
246
185
245
254
192
242
254
187
233
250
180
242
237
174
248
223
167
246
224
169
243
234
176
236
239
184
235
238
185
226
230
179
223
234
179
237
245
188
243
243
188
237
239
179
226
230
173
227
239
184
230
247
192
227
244
192
224
239
185
231
241
186
239
248
191
244
250
192
237
246
185
241
248
184
245
249
189
229
237
175
226
237
172
231
247
184
248
255
209
247
255
205
240
255
194
247
253
193
253
255
206
252
255
206
239
254
197
232
246
187
229
244
179
241
254
187
254
255
201
255
255
218
255
255
237
255
255
237
255
255
235
255
255
229
255
255
229
255
255
226
255
255
238
255
255
239
255
255
230
255
255
220
255
255
218
255
255
204
254
254
197
255
255
206
255
255
219
255
255
220
255
255
208
240
245
186
241
247
188
250
253
197
253
253
202
254
254
209
255
255
221
255
255
229
255
255
228
255
255
223
255
255
226
255
255
221
255
255
216
255
255
215
255
255
213
255
255
220
255
255
219
255
255
217
255
255
216
255
255
218
255
255
216
255
255
211
255
255
212
255
255
215
255
255
212
255
255
209
255
255
215
255
255
230
255
255
226
255
255
220
255
255
214
255
255
225
255
255
221
255
255
211
250
254
198
246
254
199
242
254
201
245
255
205
253
255
212
255
255
220
255
255
222
255
255
223
255
255
212
254
255
205
255
255
209
255
255
218
254
255
212
246
255
200
238
252
197
249
255
212
255
255
235
255
255
243
255
255
231
255
255
223
253
255
211
247
255
204
241
254
198
244
255
202
251
255
209
255
255
213
255
255
211
255
255
206
253
254
205
254
255
207
255
255
205
253
255
200
255
255
206
255
255
220
255
255
230
255
255
229
255
255
226
255
255
230
255
255
234
255
255
236
255
255
235
255
255
230
255
255
220
254
255
208
252
255
202
255
255
213
255
255
211
249
255
204
240
247
193
239
246
194
245
253
202
239
249
196
237
248
192
247
251
203
252
254
205
242
246
193
230
237
180
223
231
174
225
232
174
235
240
182
247
251
194
241
250
192
233
242
187
235
243
190
248
253
201
250
253
198
252
255
200
252
255
206
251
255
213
254
255
214
255
255
212
255
255
217
255
255
238
255
255
241
251
255
219
241
254
201
238
248
193
231
245
191
226
238
185
233
242
190
235
243
191
241
250
197
239
253
198
243
255
202
246
255
203
242
252
194
238
250
195
236
249
198
240
252
200
235
245
193
237
247
200
240
252
207
235
250
203
232
246
196
231
244
191
231
240
187
228
238
181
231
246
185
227
248
188
218
243
185
210
238
181
208
235
178
215
238
182
232
249
196
245
254
211
250
254
212
250
252
203
242
250
195
233
250
192
236
254
194
247
255
198
235
250
187
223
243
178
231
233
171
233
217
160
233
216
162
236
232
176
232
239
185
221
225
174
218
223
173
220
230
177
229
233
183
232
231
183
230
230
181
223
226
176
220
230
175
227
238
183
227
237
184
233
240
189
239
246
192
240
248
191
239
250
188
241
247
182
250
250
189
250
246
191
228
229
176
222
228
175
228
238
186
246
254
205
241
253
201
231
246
186
243
244
182
253
254
204
254
255
216
246
255
208
237
252
195
238
251
189
244
253
190
253
255
197
255
255
216
255
255
232
255
255
227
255
255
235
255
255
233
255
255
229
255
255
225
255
255
240
255
255
245
255
255
237
255
255
238
255
255
228
253
254
204
243
246
190
248
248
192
253
254
206
255
255
222
255
255
220
250
254
204
244
250
197
244
251
197
242
245
193
241
241
191
252
250
205
255
255
222
255
255
225
255
255
232
255
255
240
255
255
232
255
255
223
255
255
227
255
255
225
255
255
222
251
255
210
250
255
204
252
255
205
255
255
210
255
254
206
255
251
199
255
255
208
255
255
214
255
255
213
255
255
208
254
255
213
255
255
235
255
255
237
255
255
223
255
255
214
255
255
224
255
255
226
255
255
212
250
254
201
246
255
202
251
255
210
254
255
213
255
255
214
255
255
217
255
255
216
255
255
213
254
255
202
249
253
196
255
255
205
255
255
212
255
255
215
251
255
204
239
252
198
247
255
209
255
255
224
255
255
229
255
255
228
255
255
220
255
255
213
248
255
199
244
253
196
244
254
196
251
255
205
255
255
213
255
255
214
255
255
215
255
255
218
254
255
213
254
255
206
255
255
205
255
255
208
255
255
221
255
255
225
255
255
225
255
255
224
255
255
225
255
255
225
255
255
224
255
255
223
255
255
216
255
255
210
253
255
204
251
255
204
254
255
207
252
255
206
244
253
198
235
243
189
239
246
194
249
255
207
245
254
202
237
248
192
232
239
184
240
244
190
236
242
186
227
237
177
226
237
177
228
237
177
233
241
182
244
252
193
243
251
195
235
245
187
237
246
187
240
248
187
245
250
191
250
254
196
254
255
205
255
255
214
255
255
213
254
255
207
255
255
215
255
255
232
254
255
228
243
255
205
238
253
196
240
252
194
237
249
195
230
240
186
231
239
186
230
238
186
233
246
192
239
254
201
249
255
212
253
255
213
244
255
203
236
252
198
235
253
200
232
251
196
233
249
195
235
247
197
237
250
201
232
248
199
229
247
196
232
247
194
237
249
194
233
245
188
230
248
186
227
250
190
214
239
181
207
232
176
208
233
176
224
244
189
244
254
209
255
255
231
255
255
225
252
255
211
247
255
204
245
255
206
249
255
209
253
255
206
248
255
199
235
250
191
226
238
177
228
225
167
230
223
168
233
234
178
233
240
187
226
230
180
227
231
181
223
230
175
222
225
175
227
228
179
226
228
179
219
224
174
218
226
175
224
232
180
231
238
187
237
242
190
236
241
188
232
240
183
231
242
179
243
248
183
249
248
189
246
238
186
233
228
178
224
225
175
225
234
183
243
252
202
239
247
198
222
232
177
237
232
178
243
244
189
253
255
209
254
255
216
248
254
203
246
254
195
248
252
194
252
252
198
255
255
220
255
255
242
255
255
245
255
255
232
255
255
230
255
255
217
255
255
220
255
255
239
255
255
247
255
255
245
255
255
241
255
255
234
253
255
213
241
246
194
236
238
183
243
249
191
254
255
210
255
255
225
255
255
229
255
255
221
249
254
206
241
249
196
242
246
195
246
245
198
254
255
213
255
255
225
255
255
231
255
255
240
255
255
237
255
255
238
255
255
239
255
255
238
255
255
230
252
255
211
239
254
191
243
254
193
254
253
196
252
245
191
252
241
188
254
252
201
255
255
220
255
255
214
252
255
204
250
255
205
254
255
222
254
255
230
253
255
218
252
255
205
255
255
217
255
255
223
255
255
214
254
255
211
251
255
210
255
255
216
255
255
218
255
255
213
255
255
215
255
255
214
255
255
210
255
255
209
254
255
209
255
255
213
255
255
216
255
255
210
252
255
203
245
254
200
250
255
210
253
255
217
254
255
219
254
255
215
255
255
216
255
255
214
253
255
202
251
255
197
248
255
196
252
255
203
255
255
213
255
255
226
255
255
235
255
255
227
255
255
222
254
255
211
254
255
204
255
255
208
255
255
224
255
255
229
255
255
227
255
255
225
255
255
218
255
255
213
254
255
206
251
251
200
250
252
199
249
254
199
250
255
202
250
255
205
253
255
206
250
255
201
237
247
189
241
248
193
250
254
205
253
255
210
249
255
206
238
250
192
233
242
184
230
234
178
226
231
174
229
239
177
235
246
184
237
247
187
242
252
193
250
255
201
253
255
206
252
255
202
252
255
198
249
254
192
247
253
192
251
255
198
255
255
206
255
255
212
255
255
213
255
255
211
255
255
215
255
255
223
254
255
218
246
254
203
243
254
199
248
255
204
247
254
200
241
249
193
239
245
192
233
242
189
230
247
192
242
255
208
251
255
215
249
255
212
239
254
203
234
253
199
235
255
202
232
255
201
240
255
207
238
251
201
236
249
198
228
243
190
223
240
188
226
243
189
232
246
191
228
242
184
226
246
184
225
252
190
216
241
184
211
233
180
211
233
177
231
249
194
250
255
215
255
255
232
255
255
221
254
255
215
253
255
216
253
255
217
255
255
218
255
255
216
252
255
204
238
254
192
230
245
178
231
231
171
236
229
175
240
238
185
236
243
191
238
242
192
235
238
187
225
229
173
222
227
173
221
225
174
221
226
175
220
227
176
223
230
180
227
234
184
229
234
185
225
227
177
219
223
170
221
228
171
222
232
170
238
241
175
254
249
185
252
238
182
242
226
175
228
225
175
225
233
181
231
243
193
221
233
185
213
226
173
243
239
183
248
248
192
253
255
206
255
255
215
254
255
210
253
255
207
254
255
208
255
255
204
255
255
223
255
255
243
255
255
254
255
255
249
255
255
230
255
255
216
255
255
214
255
255
233
255
255
243
255
255
251
255
255
240
255
255
238
255
255
219
249
254
201
237
246
183
241
250
186
253
255
208
255
255
231
255
255
242
255
255
235
254
255
214
251
255
208
250
255
206
250
255
204
250
255
203
255
255
221
255
255
235
255
255
240
255
255
246
255
255
253
255
255
254
255
255
254
255
255
241
252
255
210
244
255
190
245
254
187
251
252
190
254
248
193
251
239
188
254
249
199
255
255
232
255
255
229
255
255
215
248
254
200
245
253
200
242
253
200
240
254
196
247
255
202
252
255
207
254
255
213
255
255
215
254
255
212
255
255
217
255
255
223
255
255
226
255
255
223
255
255
217
255
255
214
255
255
216
255
255
224
255
255
237
255
255
245
255
255
242
255
255
222
251
253
199
246
251
195
248
254
202
247
254
204
243
249
198
247
251
199
254
255
205
255
255
210
255
255
207
254
255
204
253
255
200
254
255
203
255
255
214
255
255
226
255
255
238
255
255
237
255
255
222
254
255
208
251
254
199
254
255
203
255
255
212
255
255
223
255
255
219
255
255
221
255
255
216
255
255
211
254
254
203
249
244
192
243
240
187
241
247
190
244
253
194
249
255
200
252
255
203
246
254
196
243
251
192
250
254
201
255
255
216
255
255
216
252
255
210
243
255
194
235
245
182
219
223
164
218
219
162
229
234
173
239
247
185
243
253
193
248
255
200
255
255
212
255
255
215
255
255
206
255
255
202
255
255
201
253
255
199
251
255
205
252
255
207
255
255
213
255
255
213
255
255
212
255
255
214
255
255
220
255
255
220
254
255
208
251
255
205
253
255
211
254
255
209
252
255
202
244
248
196
237
245
192
230
246
192
240
254
206
251
255
214
250
255
210
246
254
204
235
253
197
238
255
203
235
255
205
241
255
209
243
255
207
238
253
197
230
243
185
222
236
176
220
232
175
223
234
179
223
235
179
229
249
191
233
254
199
223
247
192
217
237
189
222
239
186
228
246
193
242
252
203
247
252
206
249
254
206
254
255
215
255
255
226
253
255
223
255
255
224
255
255
222
254
255
214
241
255
196
235
252
182
239
242
180
239
236
180
244
246
193
235
245
193
235
244
192
234
241
189
227
235
178
224
232
175
217
225
170
222
229
177
227
234
184
229
236
185
229
236
185
224
229
179
219
221
172
216
219
168
216
221
163
232
234
170
254
251
181
255
255
192
255
253
194
252
238
183
233
229
175
222
230
178
219
231
182
208
221
172
208
221
172
247
250
191
250
254
198
253
255
202
255
255
209
255
255
215
255
255
218
255
255
218
255
255
208
255
255
216
255
255
239
255
255
251
255
255
254
255
255
238
255
255
223
255
255
219
255
255
233
255
255
236
255
255
245
255
255
238
255
255
236
255
255
222
254
255
210
249
255
193
248
255
187
255
255
208
255
255
228
255
255
239
255
255
232
253
255
216
252
255
212
254
255
211
252
255
203
246
254
196
251
255
209
255
255
241
255
255
253
255
255
255
255
255
255
255
255
255
255
255
255
255
255
243
254
255
209
249
252
190
247
250
187
255
255
204
255
254
206
255
247
198
255
254
214
255
255
236
255
255
237
255
255
226
245
249
196
236
240
182
231
240
178
232
244
181
241
254
195
252
255
207
254
255
215
255
255
226
255
255
227
255
255
239
255
255
245
255
255
236
255
255
224
255
255
216
254
250
207
253
247
207
255
254
227
255
255
248
255
255
254
255
255
253
255
255
234
251
251
201
245
248
193
243
248
192
241
245
193
238
239
187
241
242
190
251
251
198
255
255
205
255
255
204
255
255
204
255
255
208
255
255
209
255
255
213
255
255
221
255
255
228
255
255
231
255
255
219
251
255
203
246
251
195
248
252
195
253
255
198
255
255
204
255
255
204
255
255
211
255
255
214
255
255
209
255
255
205
254
249
197
250
246
194
241
240
187
241
245
189
247
254
197
250
255
201
246
253
195
252
255
205
255
255
223
255
255
229
255
255
229
255
255
214
253
255
198
242
253
184
220
227
165
209
210
154
225
227
169
235
240
181
243
252
195
249
255
203
255
255
214
255
255
208
255
255
202
255
255
196
255
255
202
255
255
209
251
255
210
248
255
209
249
255
212
253
255
210
255
255
209
255
255
208
255
255
219
255
255
220
255
255
210
253
255
205
253
255
207
255
255
215
255
255
207
248
248
196
240
242
191
238
247
196
242
254
207
253
255
216
254
255
215
248
255
205
239
255
199
238
255
202
240
255
208
245
255
211
249
255
212
242
255
201
230
246
185
226
240
177
225
234
175
223
231
175
226
238
184
234
252
198
241
255
209
230
251
199
221
241
189
224
246
194
223
242
191
226
235
186
234
236
186
250
248
198
254
255
207
252
254
211
253
255
216
255
255
233
255
255
224
253
255
214
241
255
195
233
251
182
235
245
184
240
247
188
237
251
191
228
244
190
228
241
188
231
243
189
232
241
184
226
236
178
221
229
174
222
229
177
222
229
179
222
228
178
222
229
178
221
228
177
224
229
177
222
223
169
227
220
163
251
237
169
255
252
177
255
253
182
255
247
186
255
234
181
238
224
174
215
219
167
203
214
163
204
216
165
213
225
174
252
254
200
243
254
193
245
253
193
251
255
201
255
255
213
255
255
221
255
255
225
255
255
216
255
255
217
255
255
227
255
255
238
255
255
247
255
255
235
255
255
228
255
255
221
255
255
229
255
255
238
255
255
241
255
255
237
255
255
228
255
255
227
255
255
229
255
255
219
255
255
201
255
255
204
255
255
218
255
255
233
255
255
234
255
255
225
252
255
213
254
255
212
254
255
208
249
254
196
246
254
197
255
255
235
255
255
255
255
255
255
255
255
255
255
255
255
255
255
255
255
255
242
253
253
205
248
246
187
250
250
192
255
255
209
255
255
217
255
255
217
255
255
229
255
255
237
255
255
238
255
255
221
249
250
195
247
245
189
243
245
186
245
250
193
251
255
210
255
255
231
255
255
244
255
255
253
255
255
254
255
255
254
255
255
254
255
255
251
255
255
241
255
255
228
253
244
211
238
224
193
242
229
199
252
246
224
255
254
239
255
255
240
255
253
222
250
247
200
242
243
190
240
244
188
243
245
190
245
243
190
251
248
195
252
250
196
254
254
201
255
255
203
253
255
201
255
255
208
255
255
212
255
255
212
252
255
207
253
255
212
254
255
216
255
255
211
252
254
200
243
247
190
241
245
186
244
246
184
250
251
186
253
255
190
253
255
200
254
255
204
255
254
203
255
252
200
255
251
197
248
243
190
238
235
183
241
243
190
246
253
200
252
255
207
254
255
210
255
255
226
255
255
235
255
255
239
255
255
232
255
255
215
255
255
201
245
254
187
225
234
171
211
215
161
224
227
174
228
230
176
236
243
187
248
255
203
255
255
215
253
255
204
254
255
196
255
255
198
255
255
216
255
255
223
254
255
221
245
255
210
245
255
210
251
255
206
254
255
206
255
254
204
255
255
214
255
255
213
255
255
208
252
255
199
252
255
200
255
255
205
255
255
202
250
248
196
244
242
193
244
252
201
248
255
212
255
255
218
255
255
216
254
255
210
244
255
203
239
255
201
243
255
208
247
255
212
249
255
211
242
255
200
234
252
191
233
246
187
240
245
191
239
239
189
240
248
197
240
255
203
244
255
210
232
251
199
221
242
189
223
247
195
227
244
195
230
238
190
243
242
193
254
249
200
252
250
200
242
245
195
247
253
205
255
255
220
255
255
220
254
255
209
239
252
190
228
239
177
226
237
179
232
244
186
230
248
187
224
242
184
223
240
183
227
243
187
229
243
186
230
240
184
226
233
179
222
229
177
219
226
175
211
218
167
214
223
169
218
228
172
224
232
174
229
226
171
244
222
165
255
235
168
255
246
175
255
237
172
255
225
169
255
216
167
243
211
166
218
209
160
202
205
153
204
213
161
223
228
176
254
255
201
242
252
193
236
245
187
243
251
194
249
253
203
255
255
217
255
255
228
255
255
224
255
255
218
255
255
215
255
255
218
255
255
227
255
255
226
255
255
226
255
255
219
255
255
222
255
255
238
255
255
237
255
255
235
248
255
212
255
255
230
255
255
240
255
255
241
255
255
227
255
255
207
255
255
212
255
255
228
255
255
236
255
255
228
255
255
220
255
255
218
255
255
215
255
255
204
247
255
197
253
255
216
255
255
250
255
255
255
255
255
255
255
255
255
255
255
252
255
255
230
253
253
202
252
251
194
254
254
198
255
255
207
255
255
219
255
255
224
255
255
227
255
255
229
255
255
227
255
255
220
255
255
217
255
255
227
255
255
228
255
255
226
255
255
234
255
255
243
255
255
251
255
255
255
255
255
255
255
255
255
255
255
255
255
255
255
255
255
252
255
254
236
252
241
210
239
223
194
224
208
183
214
198
176
224
209
186
234
221
192
236
225
191
236
230
184
234
233
183
235
240
185
248
251
195
255
254
202
255
255
207
254
254
200
253
254
199
255
255
205
254
255
204
254
255
208
255
255
213
255
255
215
251
255
205
244
255
198
251
255
206
254
255
205
251
254
198
242
246
187
228
232
173
233
234
173
240
242
174
244
251
183
242
252
188
245
251
192
251
247
193
247
236
185
248
237
185
242
237
182
235
233
179
238
243
191
244
254
203
250
255
211
254
255
219
255
255
233
255
255
236
255
255
235
255
255
221
255
255
206
255
255
200
246
252
189
234
240
181
225
230
177
227
231
180
232
235
182
236
243
187
243
252
196
248
255
207
251
255
204
255
255
202
255
255
208
255
255
227
255
255
230
255
255
224
246
255
208
243
255
203
253
255
206
255
255
206
255
255
205
255
255
206
255
255
208
255
255
206
255
255
200
254
255
199
251
255
195
250
254
192
248
247
194
250
249
200
251
255
208
250
255
212
255
255
216
255
255
212
253
255
208
244
255
202
238
255
198
240
255
201
247
255
210
246
255
205
240
255
197
243
255
201
244
254
197
251
254
203
253
253
205
254
255
212
252
255
212
247
255
206
234
251
196
227
246
193
235
253
203
243
254
208
250
254
211
255
255
215
255
254
206
250
243
193
245
239
191
251
249
201
255
255
213
255
255
215
248
253
200
232
236
179
223
225
171
226
231
179
232
243
188
229
245
184
224
242
179
225
243
182
226
244
185
227
241
184
228
237
182
229
232
179
228
229
176
227
229
174
219
227
170
218
228
169
214
226
166
218
227
167
234
225
169
250
212
160
255
212
155
255
210
153
255
202
149
255
194
149
255
194
152
246
194
154
231
203
157
216
206
156
219
217
164
230
232
180
255
255
201
243
252
195
230
239
184
238
244
190
244
251
200
254
255
213
255
255
224
255
255
230
255
255
221
255
255
213
255
255
206
253
255
205
254
255
212
255
255
217
255
255
214
255
255
216
255
255
231
255
255
235
254
255
231
238
252
203
251
255
218
255
255
237
255
255
246
255
255
234
255
255
214
255
255
210
255
255
217
255
255
227
255
255
229
254
255
216
254
255
212
255
255
214
255
255
207
251
255
201
250
255
206
255
255
237
255
255
255
255
255
253
255
255
253
255
255
240
255
255
215
255
255
204
255
255
204
255
255
209
255
255
209
255
255
209
255
255
217
255
255
228
255
255
230
255
255
227
255
255
227
255
255
235
255
255
241
255
255
244
255
255
239
255
255
237
255
255
237
255
255
242
255
255
249
255
255
251
255
255
249
255
255
244
254
250
232
253
244
219
252
239
210
253
239
207
253
242
209
242
227
197
223
208
181
203
186
162
185
171
143
214
206
171
232
232
187
235
241
191
241
251
196
245
252
193
253
254
198
255
255
201
255
255
201
251
254
195
250
255
197
252
255
205
251
255
207
255
255
212
254
255
210
252
255
207
248
255
202
248
255
199
252
255
203
248
254
195
238
244
183
223
228
168
225
226
164
231
235
167
240
249
181
238
250
185
241
248
188
249
245
191
245
233
182
241
234
180
234
235
178
228
232
176
229
237
184
238
252
199
246
255
209
254
255
223
255
255
233
255
255
230
255
255
222
255
254
209
251
242
195
248
244
195
240
242
187
236
240
186
231
235
184
230
231
182
231
236
183
235
243
186
240
251
194
239
251
197
252
254
202
255
255
208
255
255
212
255
255
220
255
255
220
255
255
215
248
255
202
244
255
196
252
255
202
255
255
204
255
255
206
255
255
206
255
255
208
255
255
210
255
255
201
252
255
193
244
254
187
244
249
185
245
246
193
251
254
204
255
255
214
255
255
218
255
255
221
255
255
215
253
255
208
241
253
197
235
251
193
238
255
195
245
255
204
246
255
204
243
255
201
249
255
208
253
255
206
255
255
212
255
255
213
255
255
216
255
255
213
250
255
204
243
254
199
244
255
205
252
255
219
255
255
226
255
255
229
255
255
225
255
255
210
253
248
195
251
245
194
255
252
208
255
255
223
254
255
212
243
248
196
226
227
177
224
222
174
225
226
180
231
239
185
239
252
190
236
253
189
232
251
188
231
247
188
228
240
184
228
234
180
235
239
185
240
245
186
243
248
186
238
247
179
224
236
169
221
231
169
223
223
166
244
217
167
250
196
152
252
185
137
253
181
134
253
179
134
253
173
134
254
179
140
254
190
153
250
211
168
245
220
168
246
229
165
240
238
176
255
255
199
243
253
191
230
240
182
235
245
189
244
254
199
254
255
212
255
255
223
255
255
232
255
255
226
255
255
210
255
255
200
248
255
195
246
255
198
249
255
201
252
255
207
254
255
212
254
255
224
253
255
226
248
255
215
232
248
194
235
250
193
253
255
216
255
255
227
255
255
222
255
255
216
255
255
211
255
255
212
255
255
210
255
255
211
249
255
201
248
255
198
251
255
203
253
255
205
251
255
200
250
255
199
255
255
228
255
255
250
255
255
244
255
255
239
255
255
228
255
255
208
255
255
212
255
255
215
255
255
222
255
255
223
255
255
220
255
255
227
255
255
232
255
255
228
254
255
222
252
255
214
253
255
217
255
255
232
255
255
243
255
255
234
252
253
217
243
242
205
234
231
194
228
221
187
227
217
186
229
219
187
224
212
180
217
205
174
219
206
179
221
211
178
241
233
197
255
252
214
252
241
204
231
216
183
209
193
163
193
181
148
215
218
177
239
247
200
241
251
202
246
255
205
244
254
196
246
253
191
250
253
191
250
254
191
247
253
189
243
252
186
243
252
193
242
255
199
245
255
201
250
255
202
253
255
202
252
255
202
249
255
198
249
255
197
245
254
190
238
246
181
230
234
173
231
236
171
231
237
170
238
246
181
241
252
190
245
251
194
252
250
194
252
245
190
244
243
185
234
242
183
231
241
183
231
243
186
235
250
195
242
255
207
252
255
219
255
255
225
255
255
223
255
255
218
255
252
206
245
231
186
238
225
182
228
227
176
225
225
174
224
224
175
226
225
178
234
236
185
236
243
187
245
250
195
251
253
203
255
254
208
255
255
213
255
255
212
255
255
214
255
255
211
255
255
205
254
255
200
253
255
195
255
255
203
255
255
209
255
255
212
255
255
214
255
255
214
255
255
210
255
255
198
250
255
187
245
253
189
243
248
189
247
249
195
251
255
206
255
255
216
255
255
221
255
255
224
255
255
216
253
255
208
243
252
197
243
252
196
248
255
198
251
255
206
253
255
210
252
255
208
253
255
211
255
255
216
255
255
213
255
255
210
254
255
207
250
255
201
250
255
201
252
255
208
253
255
216
255
255
232
255
255
237
255
255
230
255
255
216
255
255
205
255
255
202
255
255
209
255
255
222
255
255
222
252
255
209
237
243
190
229
231
178
229
228
177
233
236
185
236
246
188
244
254
195
246
255
197
244
255
194
241
254
192
239
251
191
244
250
195
251
254
206
254
255
207
255
255
203
246
255
191
243
249
182
246
244
179
250
234
177
252
210
164
237
179
140
231
159
123
232
165
125
234
170
126
238
160
123
250
173
140
255
196
163
255
223
178
255
235
177
255
236
172
254
240
175
249
255
198
235
248
186
223
236
175
228
239
179
242
252
192
254
255
212
255
255
226
255
255
231
255
255
226
255
255
216
254
255
203
248
255
197
244
255
195
244
255
197
252
255
209
255
255
222
254
255
221
249
255
217
235
251
199
235
252
196
238
253
195
250
255
204
255
255
215
255
255
221
255
255
218
255
255
217
255
255
215
255
255
212
254
255
207
242
251
195
238
249
191
243
254
198
245
254
198
247
255
197
247
254
196
255
255
223
255
255
241
255
255
236
255
255
229
255
255
222
255
255
211
255
255
223
255
255
236
255
255
234
255
255
231
255
255
225
255
255
219
255
255
221
254
255
216
240
247
201
226
234
189
222
227
186
231
233
194
233
237
198
223
228
186
215
221
174
201
203
159
181
180
139
170
167
129
155
151
117
146
141
107
147
142
109
148
143
111
145
141
108
155
155
116
183
183
141
234
235
190
251
248
202
241
235
192
224
218
177
215
210
169
226
231
188
252
255
221
254
255
225
254
255
218
248
255
204
239
249
187
245
251
189
246
252
191
244
253
191
239
248
184
231
241
178
236
249
186
243
255
192
251
255
198
254
255
203
255
255
204
254
255
202
249
255
195
248
255
193
242
250
188
234
240
180
234
241
178
233
241
175
237
247
184
244
254
196
247
254
198
252
255
198
253
254
196
249
254
193
243
253
192
246
254
197
244
254
196
245
254
199
250
255
209
254
255
213
255
255
215
255
255
214
255
255
214
255
254
205
245
233
188
229
218
175
213
212
163
212
211
162
218
216
169
219
217
170
234
237
186
246
250
196
254
255
206
255
255
210
255
255
217
255
255
216
255
255
218
255
255
221
255
255
219
255
255
215
255
255
209
255
255
203
255
255
210
255
255
217
255
255
225
255
255
227
255
255
220
255
255
206
255
255
191
250
255
188
252
255
194
251
254
197
249
254
199
249
255
203
251
255
211
254
255
220
255
255
228
255
255
217
253
255
204
248
254
199
253
255
204
255
255
212
255
255
218
255
255
218
255
255
218
255
255
218
255
255
216
254
255
209
252
255
204
253
255
203
249
255
199
253
255
204
255
255
212
255
255
224
255
255
232
255
255
230
255
255
220
255
255
208
255
255
206
255
255
208
255
255
210
255
255
213
254
254
211
244
249
198
234
244
188
234
242
184
234
238
182
238
246
189
248
255
199
252
255
203
253
255
204
252
255
200
254
255
202
253
255
207
255
255
217
255
255
226
255
255
222
255
255
212
255
255
199
255
255
195
255
254
194
255
243
187
253
206
163
226
168
132
212
154
119
216
169
127
224
171
128
228
162
126
238
183
145
251
208
170
255
232
185
255
232
177
255
228
168
255
228
168
244
255
199
230
246
184
216
231
168
222
233
170
242
252
189
254
255
206
255
255
221
255
255
224
255
255
221
255
255
213
253
255
205
249
255
200
248
255
198
243
255
197
252
255
213
255
255
233
255
255
228
253
255
222
238
252
199
235
252
195
243
255
199
250
255
206
255
255
213
255
255
220
255
255
221
255
255
223
255
255
219
255
255
213
253
255
207
242
250
196
231
240
187
235
247
193
244
253
198
250
255
202
254
255
206
255
255
220
255
255
234
255
255
230
255
255
222
255
255
216
255
255
217
255
255
226
255
255
243
255
255
238
255
255
229
255
255
218
252
251
205
250
252
208
235
242
196
199
207
162
178
184
144
166
171
135
172
179
138
186
196
150
194
205
157
199
210
161
194
203
153
178
184
137
167
170
127
163
167
128
171
175
136
175
179
138
171
176
131
166
171
123
176
186
131
199
210
153
215
227
168
233
242
185
236
242
189
225
229
178
227
229
182
232
240
194
253
255
227
255
255
234
254
255
224
253
255
212
247
254
198
251
254
200
253
255
203
253
255
204
249
254
198
241
248
187
237
244
180
248
254
190
254
255
197
255
255
204
255
255
206
255
255
205
250
255
196
246
255
193
241
249
191
235
243
185
235
244
183
233
244
181
240
251
191
243
255
198
246
254
198
247
255
197
246
254
193
248
255
194
248
255
197
254
255
206
253
255
204
255
255
205
254
255
209
255
255
210
255
255
212
255
255
214
255
255
211
255
253
203
249
240
194
233
225
180
216
215
168
223
222
175
227
226
179
226
225
177
235
237
186
252
253
201
255
255
213
255
255
212
255
255
217
255
255
224
255
255
231
255
255
238
255
255
234
255
255
229
255
255
223
255
255
220
255
255
223
255
255
233
255
255
240
255
255
237
255
255
227
255
255
208
255
255
188
247
252
184
249
252
189
249
254
196
246
254
196
244
255
198
242
255
202
250
255
211
255
255
216
255
255
212
255
255
208
255
255
204
255
255
211
255
255
221
255
255
222
255
255
229
255
255
231
255
255
229
254
255
216
249
255
204
248
255
200
253
255
203
254
255
207
255
255
215
255
255
222
255
255
234
255
255
235
255
255
226
255
255
210
255
255
209
255
255
215
255
255
216
255
254
206
254
246
196
249
247
200
248
253
203
241
252
198
240
252
193
240
250
190
241
251
192
253
255
204
255
255
207
255
255
209
255
255
205
255
255
204
255
255
214
255
255
223
255
255
229
255
255
220
255
255
214
255
255
209
255
255
204
255
255
197
255
241
183
251
205
160
223
172
137
211
170
133
215
184
141
214
179
134
216
174
133
225
200
155
239
222
174
253
233
182
255
226
177
255
214
165
255
203
154
243
254
204
224
243
184
211
230
168
222
233
171
240
249
186
254
255
200
255
255
211
255
255
217
255
255
215
255
255
212
254
255
208
252
255
207
248
255
201
245
255
197
254
255
210
255
255
224
255
255
230
255
255
221
251
255
204
248
254
203
247
255
202
252
255
205
255
255
211
255
255
220
255
255
226
255
255
223
255
255
217
255
255
215
253
255
206
243
253
198
232
243
189
232
242
188
244
252
196
253
255
209
255
255
219
255
255
225
255
255
227
255
255
222
255
255
216
255
255
212
255
255
219
255
255
227
255
255
233
255
255
230
255
255
221
251
251
204
236
232
185
224
225
179
202
207
161
171
178
134
163
172
128
161
170
125
175
188
139
190
205
153
199
214
161
199
214
161
201
214
161
189
199
147
188
197
145
202
212
162
217
227
181
216
229
180
213
225
174
208
218
166
207
223
160
222
241
174
230
249
182
228
244
180
230
243
185
228
238
186
235
245
194
246
254
205
253
255
218
255
255
226
255
255
224
255
255
214
255
255
209
255
255
212
255
255
218
255
255
222
255
255
216
254
255
204
251
253
192
250
255
190
254
255
197
255
255
202
255
255
205
255
255
205
255
255
207
251
255
202
242
250
195
239
247
192
238
248
189
233
244
185
239
251
193
243
255
199
246
254
198
246
254
198
244
254
195
246
255
196
246
255
198
251
255
205
255
255
211
255
255
208
255
255
208
255
255
208
255
255
210
255
255
213
255
255
208
255
255
205
254
252
205
249
247
195
241
241
189
241
243
191
241
244
191
237
239
188
241
242
191
253
253
204
255
255
217
255
255
215
255
255
215
255
255
222
255
255
231
255
255
241
255
255
237
255
255
232
255
255
229
255
255
227
255
255
234
255
255
246
255
255
249
255
255
243
255
255
229
255
255
208
255
255
187
253
253
181
247
252
187
246
254
195
243
255
194
238
255
194
237
255
197
239
255
199
249
255
204
255
255
208
255
255
207
255
255
208
255
255
211
255
255
216
255
255
222
255
255
233
255
255
232
255
255
227
251
255
211
243
255
198
250
255
202
255
255
212
255
255
219
255
255
227
255
255
234
255
255
239
255
255
241
255
255
234
255
255
219
255
255
221
255
255
218
255
255
212
255
255
206
255
251
203
254
253
210
255
255
219
253
255
213
248
255
204
251
255
203
250
255
202
254
255
207
255
255
210
255
255
214
255
255
207
255
255
198
254
255
204
254
255
213
255
255
216
255
255
212
255
255
212
255
255
207
255
255
202
255
252
190
255
232
173
248
210
162
232
197
158
226
200
159
221
203
156
215
196
148
209
194
145
220
215
163
236
231
178
247
233
181
254
225
175
254
207
163
250
198
153
236
253
201
221
242
185
212
236
175
218
237
174
238
250
188
252
255
199
255
255
209
255
255
213
255
255
206
252
255
205
248
255
205
244
255
203
243
255
197
244
254
195
247
254
198
255
255
212
255
255
218
255
255
217
255
255
212
255
255
214
254
255
210
254
255
208
255
255
210
255
255
214
255
255
222
255
255
217
255
255
208
254
255
206
250
255
199
248
255
201
244
253
198
241
252
195
251
255
205
255
255
218
255
255
227
255
255
231
255
255
224
254
255
213
252
255
207
254
255
205
254
255
206
255
255
217
255
255
222
255
255
219
255
255
213
248
250
197
229
227
174
215
215
164
201
205
154
187
193
143
183
192
142
183
194
141
198
212
156
206
221
163
214
229
171
221
237
178
220
236
179
212
225
169
213
225
169
226
240
185
244
253
205
245
254
208
243
254
204
236
249
193
231
247
183
237
253
186
244
255
191
236
250
187
227
243
184
233
248
190
243
254
197
252
255
205
254
255
206
255
255
217
255
255
218
255
255
213
255
255
211
255
255
217
255
255
226
255
255
230
255
255
223
255
255
213
255
255
202
253
254
193
253
255
194
255
255
198
255
255
202
255
255
204
255
255
212
255
255
215
255
255
211
252
255
207
246
254
197
242
252
193
244
254
196
246
255
199
249
255
203
251
255
205
245
255
197
248
255
198
253
255
205
252
255
206
255
255
210
255
255
213
255
255
213
255
255
209
255
255
210
255
255
212
255
255
208
255
255
207
255
255
207
255
255
210
255
255
212
254
255
206
250
253
199
244
249
191
243
247
194
254
254
209
255
255
224
255
255
229
255
255
223
255
255
220
255
255
220
255
255
227
255
255
227
255
255
223
255
255
221
255
255
222
255
255
227
255
255
238
255
255
247
255
255
247
255
255
232
255
255
211
255
255
193
255
255
184
255
254
188
252
255
193
246
255
194
239
254
192
230
248
186
232
247
187
243
254
195
251
255
201
255
255
206
255
255
207
255
255
205
255
255
207
255
255
214
255
255
229
255
255
229
255
255
217
244
255
203
238
254
192
251
255
205
255
255
220
255
255
228
255
255
233
255
255
240
255
255
245
255
255
249
255
255
242
255
255
229
255
255
226
255
255
221
255
255
223
255
255
226
255
255
232
255
255
236
255
255
237
255
255
226
254
255
211
255
255
210
255
255
211
255
255
214
255
255
211
255
255
206
252
252
197
245
248
190
248
252
195
251
255
201
255
255
212
255
255
211
255
255
209
254
255
203
253
254
193
255
246
184
252
233
176
250
229
179
245
228
180
243
233
186
226
224
175
214
214
163
210
211
160
225
231
178
242
246
192
252
250
197
246
234
181
236
212
163
234
205
157
221
241
185
218
239
181
220
244
184
226
249
188
241
254
198
251
255
200
255
255
206
255
255
207
251
255
204
243
255
198
246
255
205
239
255
201
239
252
197
237
251
192
241
251
191
252
255
197
255
255
205
255
255
216
255
255
219
255
255
219
255
255
214
255
255
211
255
255
208
255
255
211
255
255
213
255
255
212
255
255
209
255
255
207
255
255
203
255
255
207
255
255
211
253
255
206
254
255
209
255
255
219
255
255
228
255
255
235
255
255
226
255
255
213
249
255
201
250
255
198
250
255
199
255
255
205
255
255
213
255
255
218
255
255
218
255
255
205
246
248
188
232
232
174
218
219
164
209
212
159
205
212
156
207
218
159
222
236
173
228
242
180
239
252
192
240
254
195
239
253
196
235
249
191
235
248
190
242
253
198
253
255
214
255
255
220
252
255
213
247
255
205
248
255
201
249
254
198
251
255
197
242
252
192
235
251
191
240
253
193
248
255
195
254
255
198
255
255
203
255
255
209
255
255
211
255
255
209
255
255
211
255
255
215
255
255
225
255
255
230
255
255
232
255
255
223
255
255
207
254
255
197
250
253
192
255
255
199
255
255
205
255
255
206
255
255
217
255
255
221
255
255
223
255
255
218
254
255
209
253
255
204
251
255
200
249
255
200
251
255
205
254
255
209
254
255
207
254
255
206
255
255
207
255
255
213
255
255
211
255
255
215
255
255
217
255
255
210
255
255
206
255
255
210
255
255
213
255
255
215
255
255
214
255
255
219
255
255
223
255
255
213
255
255
202
249
254
195
252
255
206
255
255
220
255
255
235
255
255
232
255
255
224
255
255
214
255
255
206
255
255
209
255
255
211
255
255
208
255
255
203
255
255
203
255
255
208
255
255
220
255
255
228
255
255
234
255
255
227
255
255
214
255
255
203
255
255
196
255
255
192
255
255
193
251
255
190
239
250
187
230
243
181
231
243
182
240
253
191
249
255
202
255
255
211
255
255
209
255
255
201
255
255
202
255
255
212
255
255
220
255
255
217
252
255
205
235
253
193
239
254
194
255
255
213
255
255
224
255
255
233
255
255
235
255
255
233
255
255
243
255
255
250
255
255
244
255
255
231
255
255
224
255
255
225
255
255
235
255
255
246
255
255
254
255
255
253
255
255
242
255
255
226
255
255
220
255
255
220
255
255
222
255
255
217
255
255
212
255
254
205
243
240
188
237
237
185
250
252
201
255
255
213
255
255
216
255
255
214
255
255
209
253
255
205
247
254
194
247
246
186
249
242
187
252
244
192
252
246
197
249
249
199
233
240
189
226
232
181
226
231
180
239
244
192
252
253
203
255
255
209
246
249
194
233
232
178
228
220
168
212
234
172
216
237
177
226
248
188
231
254
193
244
255
205
252
255
206
255
255
206
255
255
205
247
255
200
244
255
201
244
255
206
239
255
205
234
254
199
231
251
192
237
251
190
252
255
196
255
255
200
255
255
216
255
255
222
255
255
224
255
255
226
255
255
220
255
255
213
255
255
211
255
255
209
255
255
209
255
255
209
255
255
206
255
255
203
255
255
206
255
255
212
255
255
211
255
255
213
255
255
215
255
255
228
255
255
232
255
255
222
255
255
212
254
255
207
251
255
198
251
255
200
253
255
205
254
255
211
255
255
219
255
255
220
255
255
210
254
255
198
244
248
181
231
232
169
225
228
168
226
234
169
232
242
178
242
253
189
250
255
198
254
255
210
253
255
211
252
255
208
252
255
210
252
255
209
253
255
209
255
255
219
255
255
225
255
255
220
254
255
213
255
255
213
255
255
212
255
255
208
251
255
202
247
255
200
250
255
199
255
255
198
255
255
194
255
255
198
255
255
201
255
255
203
255
255
204
255
255
210
255
255
215
255
255
225
255
255
226
255
255
230
255
255
227
255
255
217
255
255
209
255
255
201
255
255
204
255
255
210
255
255
210
255
255
217
255
255
221
255
255
227
255
255
225
255
255
218
255
255
211
255
255
207
254
255
206
253
255
206
255
255
211
255
255
215
255
255
213
255
255
212
255
255
211
255
255
209
255
255
212
255
255
217
255
255
215
255
255
206
255
255
209
255
255
215
255
255
218
255
255
218
255
255
219
255
255
221
255
255
213
255
255
201
254
255
201
255
255
215
255
255
225
255
255
233
255
255
231
255
255
220
255
255
208
255
255
199
255
255
195
255
255
190
255
255
188
255
255
188
255
255
187
255
255
190
255
255
198
255
255
206
255
255
215
255
255
219
255
255
216
255
255
212
255
255
207
255
255
200
255
255
197
255
255
192
249
252
184
237
246
182
238
250
188
242
254
194
250
255
204
255
255
215
255
255
210
255
255
209
255
255
214
255
255
215
255
255
209
254
255
204
246
254
195
232
248
186
245
254
198
255
255
219
255
255
225
255
255
235
255
255
230
255
255
225
255
255
232
255
255
238
255
255
234
255
255
229
255
255
226
255
255
232
255
255
247
255
255
252
255
255
255
255
255
252
255
255
237
255
255
222
255
255
219
255
255
219
255
255
220
255
255
218
255
255
215
255
254
205
249
243
194
248
245
197
255
255
220
255
255
227
255
255
223
255
255
217
255
255
211
255
255
205
251
255
198
246
250
192
251
252
197
253
254
202
251
251
202
247
249
200
241
247
197
238
242
189
240
244
191
246
249
196
253
255
204
252
255
205
246
254
199
241
248
192
237
239
185
166
184
130
169
186
136
177
195
147
182
200
152
193
202
164
200
202
165
201
202
163
200
202
161
193
202
156
192
202
157
193
202
162
192
202
165
188
202
161
188
202
158
189
201
152
197
201
153
202
202
158
202
202
167
202
202
176
202
202
179
202
202
183
202
202
179
202
202
171
202
202
168
202
202
164
202
202
165
202
202
166
202
202
163
202
202
159
202
202
162
202
202
165
202
202
166
202
202
169
201
202
168
202
202
175
202
202
180
202
202
177
202
202
170
202
202
167
202
202
160
198
202
157
201
202
162
201
202
166
202
202
174
202
202
174
202
202
167
201
202
158
196
201
144
190
192
137
187
190
137
189
196
139
196
201
149
200
202
157
202
202
162
202
202
170
202
202
176
202
202
173
202
202
174
202
202
175
202
202
172
202
202
175
202
202
178
202
202
177
202
202
172
202
202
171
202
202
172
202
202
170
202
202
164
200
202
161
201
202
159
202
202
156
202
202
152
202
202
156
202
202
157
202
202
155
202
202
156
202
201
155
202
202
161
202
202
169
202
202
176
202
202
181
202
202
181
202
202
178
202
202
170
202
202
166
202
202
163
202
202
169
202
202
170
202
202
173
202
202
173
202
202
175
202
202
175
202
202
173
202
202
171
202
202
168
201
202
164
199
202
161
202
202
167
202
202
171
202
202
172
202
202
172
202
202
164
202
202
163
202
202
165
202
202
168
202
202
169
202
202
163
202
202
162
202
202
168
202
202
174
202
202
174
202
202
174
202
202
172
202
202
165
202
202
159
202
202
164
202
202
170
202
202
172
202
202
179
202
202
177
202
202
170
202
202
162
202
202
156
202
202
154
202
202
150
202
202
148
202
202
147
202
202
145
202
202
147
202
202
147
202
202
153
202
202
160
202
202
168
202
202
173
202
202
174
202
202
169
202
202
169
202
202
160
202
202
156
202
202
153
200
201
153
198
202
158
196
202
158
198
202
161
202
202
168
202
202
169
202
202
170
202
202
168
202
202
166
202
202
159
199
202
154
194
201
149
192
201
151
197
202
160
202
202
172
202
202
176
202
202
183
202
202
176
202
202
171
202
202
175
202
202
177
202
202
176
202
202
175
202
202
180
202
202
189
202
202
201
202
202
202
202
202
201
202
202
195
202
202
181
202
202
172
202
202
170
202
202
170
202
202
170
202
202
173
202
202
169
202
201
162
202
201
162
202
200
165
202
202
179
202
202
183
202
202
183
202
202
177
202
202
165
202
202
162
200
202
159
199
202
156
201
202
162
200
202
161
196
198
158
193
195
155
192
194
154
192
194
150
193
195
151
194
197
153
197
202
160
194
202
159
192
202
159
190
199
155
191
196
153
