P3
# Created by GIMP version 2.10.34 PNM plug-in
200 200
255
255
255
255
255
255
255
255
255
255
255
255
255
255
255
255
255
255
255
255
255
255
255
255
255
255
255
255
255
255
255
255
255
255
255
255
255
255
255
255
255
255
255
255
255
255
255
255
255
255
255
255
255
255
255
255
255
255
255
255
255
255
255
255
255
255
255
255
255
255
255
255
255
255
255
255
255
255
255
255
255
255
255
255
255
255
255
255
255
255
255
255
255
255
255
255
255
255
255
255
255
255
255
255
255
255
255
255
255
255
255
255
255
255
255
255
255
255
255
255
255
255
255
255
255
255
255
255
255
255
255
255
255
255
255
255
255
255
255
255
255
255
255
255
255
255
255
255
255
255
255
255
255
255
255
255
255
255
255
255
255
255
255
255
255
255
255
255
255
255
255
255
255
255
255
255
255
255
255
255
255
255
255
255
255
255
255
255
255
255
255
255
255
255
255
255
255
255
255
255
255
255
255
255
255
255
255
255
255
255
255
255
255
255
255
255
255
255
255
255
255
255
255
255
255
255
255
255
255
255
255
255
255
255
255
255
255
255
255
255
255
255
255
255
255
255
255
255
255
255
255
255
255
255
255
255
255
255
255
255
255
255
255
255
255
255
255
255
255
255
255
255
255
255
255
255
255
255
255
255
255
255
255
255
255
255
255
255
255
255
255
255
255
255
255
255
255
255
255
255
255
255
255
255
255
255
255
255
255
255
255
255
255
255
255
255
255
255
255
255
255
255
255
255
255
255
255
255
255
255
255
255
255
255
255
255
255
255
255
255
255
255
255
255
255
255
255
255
255
255
255
255
255
255
255
255
255
255
255
255
255
255
255
255
255
255
255
255
255
255
255
255
255
255
255
255
255
255
255
255
255
255
255
255
255
255
255
255
255
255
255
255
255
255
255
255
255
255
255
255
255
255
255
255
255
255
255
255
255
255
255
255
255
255
255
255
255
255
255
255
255
255
255
255
255
255
255
255
255
255
255
255
255
255
255
255
255
255
255
255
255
255
255
255
255
255
255
255
255
255
255
255
255
255
255
255
255
255
255
255
255
255
255
255
255
255
255
255
255
255
255
255
255
255
255
255
255
255
255
255
255
255
255
255
255
255
255
255
255
255
255
255
255
255
255
255
255
255
255
255
255
255
255
255
255
255
255
255
255
255
255
255
255
255
255
255
255
255
255
255
255
255
255
255
255
255
255
255
255
255
255
255
255
255
255
255
255
255
255
255
255
255
255
255
255
255
255
255
255
255
255
255
255
255
255
255
255
255
255
255
255
255
255
255
255
255
255
255
255
255
255
255
255
255
255
255
255
255
255
255
255
255
255
255
255
255
255
255
255
255
255
255
255
255
255
255
255
255
255
255
255
255
255
255
255
255
255
255
255
255
255
255
255
255
255
255
255
255
255
255
255
255
255
255
255
255
255
255
255
255
255
255
255
255
255
255
255
255
255
255
255
255
255
255
255
255
255
255
255
255
255
255
255
255
255
255
255
255
255
255
255
255
255
255
255
255
255
255
255
255
255
255
255
255
255
255
255
255
255
255
255
255
255
255
255
255
255
255
255
255
255
255
255
255
255
255
255
255
255
255
255
255
255
255
255
255
255
255
255
255
255
255
255
255
255
255
255
255
255
255
255
255
255
255
255
255
255
255
255
255
255
255
255
255
255
255
255
255
255
255
255
255
255
255
255
255
255
255
255
255
255
255
255
255
255
255
255
255
255
255
255
255
255
255
255
255
255
255
255
255
255
255
255
255
255
255
255
255
255
255
255
255
255
255
255
255
255
255
255
255
255
255
255
255
255
255
255
255
255
255
255
255
255
255
255
255
255
255
255
255
255
255
255
255
255
255
255
255
255
255
255
255
255
255
255
255
255
255
255
255
255
255
255
255
255
255
255
255
255
255
255
255
255
255
255
255
255
255
255
255
255
255
255
255
255
255
255
255
255
255
255
255
255
255
255
255
255
255
255
255
255
255
255
255
255
255
255
255
255
255
255
255
255
255
255
255
255
255
255
255
255
255
255
255
255
255
255
255
255
255
255
255
255
255
255
255
255
255
255
255
255
255
255
255
255
255
255
255
255
255
255
255
255
255
255
255
255
255
255
255
255
255
255
255
255
255
255
255
255
255
255
255
255
255
255
255
255
255
255
255
255
255
255
255
255
255
255
255
255
255
255
255
255
255
255
255
255
255
255
255
255
255
255
255
255
255
255
255
255
255
255
255
255
255
255
255
255
255
255
255
255
255
255
255
255
255
255
255
255
255
255
255
255
255
255
255
255
255
255
255
255
255
255
255
255
255
255
255
255
255
255
255
255
255
255
255
255
255
255
255
255
255
255
255
255
255
255
255
255
255
255
255
255
255
255
255
255
255
255
255
255
255
255
255
255
255
255
255
255
255
255
255
255
255
255
255
255
255
255
255
255
255
255
255
255
255
255
255
255
255
255
255
255
255
255
255
255
255
255
255
255
255
255
255
255
255
255
255
255
255
255
255
255
255
255
255
255
255
255
255
255
255
255
255
255
255
255
255
255
255
255
255
255
255
255
255
255
255
255
255
255
255
255
255
255
255
255
255
255
255
255
255
255
255
255
255
255
255
255
255
255
255
255
255
255
255
255
255
255
255
255
255
255
255
255
255
255
255
255
255
255
255
255
255
255
255
255
255
255
255
255
255
255
255
255
255
255
255
255
255
255
255
255
255
255
255
255
255
255
255
255
255
255
255
255
255
255
255
255
255
255
255
255
255
255
255
255
255
255
255
255
255
255
255
255
255
255
255
255
255
255
255
255
255
255
255
255
255
255
255
255
255
255
255
255
255
255
255
255
255
255
255
255
255
255
255
255
255
255
255
255
255
255
255
255
255
255
255
255
255
255
255
255
255
255
255
255
255
255
255
255
255
255
255
255
255
255
255
255
255
255
255
255
255
255
255
255
255
255
255
255
255
255
255
255
255
255
255
255
255
255
255
255
255
255
255
255
255
255
255
255
255
255
255
255
255
255
255
255
255
255
255
255
255
255
255
255
255
255
255
255
255
255
255
255
255
255
255
255
255
255
255
255
255
255
255
255
255
255
255
255
255
255
255
255
255
255
255
255
255
255
255
255
255
255
255
255
255
255
255
255
255
255
255
255
255
255
255
255
255
255
255
255
255
255
255
255
255
255
255
255
255
255
255
255
255
255
255
255
255
255
255
255
255
255
255
255
255
255
255
255
255
255
255
255
255
255
255
255
255
255
255
255
255
255
255
255
255
255
255
255
255
255
255
255
255
255
255
255
255
255
255
255
255
255
255
255
255
255
255
255
255
255
255
255
255
255
255
255
255
255
255
255
255
255
255
255
255
255
255
255
255
255
255
255
255
255
255
255
255
255
255
255
255
255
255
255
255
255
255
255
255
255
255
255
255
255
255
255
255
255
255
255
255
255
255
255
255
255
255
255
255
255
255
255
255
255
255
255
255
255
255
255
255
255
255
255
255
255
255
255
255
255
255
255
255
255
255
255
255
255
255
255
255
255
255
255
255
255
255
255
255
255
255
255
255
255
255
255
255
255
255
255
255
255
255
255
255
255
255
255
255
255
255
255
255
255
255
255
255
255
255
255
255
255
255
255
255
255
255
255
255
255
255
255
255
255
255
255
255
255
255
255
255
255
255
255
255
255
255
255
255
255
255
255
255
255
255
255
255
255
255
255
255
255
255
255
255
255
255
255
255
255
255
255
255
255
255
255
255
255
255
255
255
255
255
255
255
255
255
255
255
255
255
255
255
255
255
255
255
255
255
255
255
255
255
255
255
255
255
255
255
255
255
255
255
255
255
255
255
255
255
255
255
255
255
255
255
255
255
255
255
255
255
255
255
255
255
255
255
255
255
255
255
255
255
255
255
255
255
255
255
255
255
255
255
255
255
255
255
255
255
255
255
255
255
255
255
255
255
255
255
255
255
255
255
255
255
255
255
255
255
255
255
255
255
255
255
255
255
255
255
255
255
255
255
255
255
255
255
255
255
255
255
255
255
255
255
255
255
255
255
255
255
255
255
255
255
255
255
255
255
255
255
255
255
255
255
255
255
255
255
255
255
255
255
255
255
255
255
255
255
255
255
255
255
255
255
255
255
255
255
255
255
255
255
255
255
255
255
255
255
255
255
255
255
255
255
255
255
255
255
255
255
255
255
255
255
255
255
255
255
255
255
255
255
255
255
255
255
255
255
255
255
255
255
255
255
255
255
255
255
255
255
255
255
255
255
255
255
255
255
255
255
255
255
255
255
255
255
255
255
255
255
255
255
255
255
255
255
255
255
255
255
255
255
255
255
255
255
255
255
255
255
255
255
255
255
255
255
255
255
255
255
255
255
255
255
255
255
255
255
255
255
255
255
255
255
255
255
255
255
255
255
255
255
255
255
255
255
255
255
255
255
255
255
255
255
255
255
255
255
255
255
255
255
255
255
255
255
255
255
255
255
255
255
255
255
255
255
255
255
255
255
255
255
255
255
255
255
255
255
255
255
255
255
255
255
255
255
255
255
255
255
255
255
255
255
255
255
255
255
255
255
255
255
255
255
255
255
255
255
255
255
255
255
255
255
255
255
255
255
255
255
255
255
255
255
255
255
255
255
255
255
255
255
255
255
255
255
255
255
255
255
255
255
255
255
255
255
255
255
255
255
255
255
255
255
255
255
255
255
255
255
255
255
255
255
255
255
255
255
255
255
255
255
255
255
255
255
255
255
255
255
255
255
255
255
255
255
255
255
255
255
255
255
255
255
255
255
255
255
255
255
255
255
255
255
255
255
255
255
255
255
255
255
255
255
255
255
255
255
255
255
255
255
255
255
255
255
255
255
255
255
255
255
255
255
255
255
255
255
255
255
255
255
255
255
255
255
255
255
255
255
255
255
255
255
255
255
255
255
255
255
255
255
255
255
255
255
255
255
255
255
255
255
255
255
255
255
255
255
255
255
255
255
255
255
255
255
255
255
255
255
255
255
255
255
255
255
255
255
255
255
255
255
255
255
255
255
255
255
255
255
255
255
255
255
255
255
255
255
255
255
255
255
255
255
255
255
255
255
255
255
255
255
255
255
255
255
255
255
255
255
255
255
255
255
255
255
255
255
255
255
255
255
255
255
255
255
255
255
255
255
255
255
255
255
255
255
255
255
255
255
255
255
255
255
255
255
255
255
255
255
255
255
255
255
255
255
255
255
255
255
255
255
255
255
255
255
255
255
255
255
255
255
255
255
255
255
255
255
255
255
255
255
255
255
255
255
255
255
255
255
255
255
255
255
255
255
255
255
255
255
255
255
255
255
255
255
255
255
255
255
255
255
255
255
255
255
255
255
255
255
255
255
255
255
255
255
255
255
255
255
255
255
255
255
255
255
255
255
255
255
255
255
255
255
255
255
255
255
255
255
255
255
255
255
255
255
255
255
255
255
255
255
255
255
255
255
255
255
255
255
255
255
255
255
255
255
255
255
255
255
255
255
255
255
255
255
255
255
255
255
255
255
255
255
255
255
255
255
255
255
255
255
255
255
255
255
255
255
255
255
255
255
255
255
255
255
255
255
255
255
255
255
255
255
255
255
255
255
255
255
255
255
255
255
255
255
255
255
255
255
255
255
255
255
255
255
255
255
255
255
255
255
255
255
255
255
255
255
255
255
255
255
255
255
255
255
255
255
255
255
255
255
255
255
255
255
255
255
255
255
255
255
255
255
255
255
255
255
255
255
255
255
255
255
255
255
255
255
255
255
255
255
255
255
255
255
255
255
255
255
255
255
255
255
255
255
255
255
255
255
255
255
255
255
255
255
255
255
255
255
255
255
255
255
255
255
255
255
255
255
255
255
255
255
255
255
255
255
255
255
255
255
255
255
255
255
255
255
255
255
255
255
255
255
255
255
255
255
255
255
255
255
255
255
255
255
255
255
255
255
255
255
255
255
255
255
255
255
255
255
255
255
255
255
255
255
255
255
255
255
255
255
255
255
255
255
255
255
255
255
255
255
255
255
255
255
255
255
255
255
255
255
255
255
255
255
255
255
255
255
255
255
255
255
255
255
255
255
255
255
255
255
255
255
255
255
255
255
255
255
255
255
255
255
255
255
255
255
255
255
255
255
255
255
255
255
255
255
255
255
255
255
255
255
255
255
255
255
255
255
255
255
255
255
255
255
255
255
255
255
255
255
255
255
255
255
255
255
255
255
255
255
255
255
255
255
255
255
255
255
255
255
255
255
255
255
255
255
255
255
255
255
255
255
255
255
255
255
255
255
255
255
255
255
255
255
255
255
255
255
255
255
255
255
255
255
255
255
255
255
255
255
255
255
255
255
255
255
255
255
255
255
255
255
255
255
255
255
255
255
255
255
255
255
255
255
255
255
255
255
255
255
255
255
255
255
255
255
255
255
255
255
255
255
255
255
255
255
255
255
255
255
255
255
255
255
255
255
255
255
255
255
255
255
255
255
255
255
255
255
255
255
255
255
255
255
255
255
255
255
255
255
255
255
255
255
255
255
255
255
255
255
255
255
255
255
255
255
255
255
255
255
255
255
255
255
255
255
255
255
255
255
255
255
255
255
255
255
255
255
255
255
255
255
255
255
255
255
255
255
255
255
255
255
255
255
255
255
255
255
255
255
255
255
255
255
255
255
255
255
255
255
255
255
255
255
255
255
255
255
255
255
255
255
255
255
255
255
255
255
255
255
255
255
255
255
255
255
255
255
255
255
255
255
255
255
255
255
255
255
255
255
255
255
255
255
255
255
255
255
255
255
255
255
255
255
255
255
255
255
255
255
255
255
255
255
255
255
255
255
255
255
255
255
255
255
255
255
255
255
255
255
255
255
255
255
255
255
255
255
255
255
255
255
255
255
255
255
255
255
255
255
255
255
255
255
255
255
255
255
255
255
255
255
255
255
255
255
255
255
255
255
255
255
255
255
255
255
255
255
255
255
255
255
255
255
255
255
255
255
255
255
255
255
255
255
255
255
255
255
255
255
255
255
255
255
255
255
255
255
255
255
255
255
255
255
255
255
255
255
255
255
255
255
255
255
255
255
255
255
255
255
255
255
255
255
255
255
255
255
255
255
255
255
255
255
255
255
255
255
255
255
255
255
255
255
255
255
255
255
255
255
255
255
255
255
255
255
255
255
255
255
255
255
255
255
255
255
255
255
255
255
255
255
255
255
255
255
255
255
255
255
255
255
255
255
255
255
255
255
255
255
255
255
255
255
255
255
255
255
255
255
255
255
255
255
255
255
255
255
255
255
255
255
255
255
255
255
255
255
255
255
255
255
255
255
255
255
255
255
255
255
255
255
255
255
255
255
255
255
255
255
255
255
255
255
255
255
255
255
255
255
255
255
255
255
255
255
255
255
255
255
255
255
255
255
255
255
255
255
255
255
255
255
255
255
255
255
255
255
255
255
255
255
255
255
255
255
255
255
255
255
255
255
255
255
255
255
255
255
255
255
255
255
255
255
255
255
255
255
255
255
255
255
255
255
255
255
255
255
255
255
255
255
255
255
255
255
255
255
255
255
255
255
255
255
255
255
255
255
255
255
255
255
255
255
255
255
255
255
255
255
255
255
255
255
255
255
255
255
255
255
255
255
255
255
255
255
255
255
255
255
255
255
255
255
255
255
255
255
255
255
255
255
255
255
255
255
255
255
255
255
255
255
255
255
255
255
255
255
255
255
255
255
255
255
255
255
255
255
255
255
255
255
255
255
255
255
255
255
255
255
255
255
255
255
255
255
255
255
255
255
255
255
255
255
255
255
255
255
255
255
255
255
255
255
255
255
255
255
255
255
255
255
255
255
255
255
255
255
255
255
255
255
255
255
255
255
255
255
255
255
255
255
255
255
255
255
255
255
255
255
255
255
255
255
255
255
255
255
255
255
255
255
255
255
255
255
255
255
255
255
255
255
255
255
255
255
255
255
255
255
255
255
255
255
255
255
255
255
255
255
255
255
255
255
255
255
255
255
255
255
255
255
255
255
255
255
255
255
255
255
255
255
255
255
255
255
255
255
255
255
255
255
255
255
255
255
255
255
255
255
255
255
255
255
255
255
255
255
255
255
255
255
255
255
255
255
255
255
255
255
255
255
255
255
255
255
255
255
255
255
255
255
255
255
255
255
255
255
255
255
255
255
255
255
255
255
255
255
255
255
255
255
255
255
255
255
255
255
255
255
255
255
255
255
255
255
255
255
255
255
255
255
255
255
255
255
255
255
255
255
255
255
255
255
255
255
255
255
255
255
255
255
255
255
255
255
255
255
255
255
255
255
255
255
255
255
255
255
255
255
255
255
255
255
255
255
255
255
255
255
255
255
255
255
255
255
255
255
255
255
255
255
255
255
255
255
255
255
255
255
255
255
255
255
255
255
255
255
255
255
255
255
255
255
255
255
255
255
255
255
255
255
255
255
255
255
255
255
255
255
255
255
255
255
255
255
255
255
255
255
255
255
255
255
255
255
255
255
255
255
255
255
255
255
255
255
255
255
255
255
255
255
255
255
255
255
255
255
255
255
255
255
255
255
255
255
255
255
255
255
255
255
255
255
255
255
255
255
255
255
255
255
255
255
255
255
255
255
255
255
255
255
255
255
255
255
255
255
255
255
255
255
255
255
255
255
255
255
255
255
255
255
255
255
255
255
255
255
255
255
255
255
255
255
255
255
255
255
255
255
255
255
255
255
255
255
255
255
255
255
255
255
255
255
255
255
255
255
255
255
255
255
255
255
255
255
255
255
255
255
255
255
255
255
255
255
255
255
255
255
255
255
255
255
255
255
255
255
255
255
255
255
255
255
255
255
255
255
255
255
255
255
255
255
255
255
255
255
255
255
255
255
255
255
255
255
255
255
255
255
255
255
255
255
255
255
255
255
255
255
255
255
255
255
255
255
255
255
255
255
255
255
255
255
255
255
255
255
255
255
255
255
255
255
255
255
255
255
255
255
255
255
255
255
255
255
255
255
255
255
255
255
255
255
255
255
255
255
255
255
255
255
255
255
255
255
255
255
255
255
255
255
255
255
255
255
255
255
255
255
255
255
255
255
255
255
255
255
255
255
255
255
255
255
255
255
255
255
255
255
255
255
255
255
255
255
255
255
255
255
255
255
255
255
255
255
255
255
255
255
255
255
255
255
255
255
255
255
255
255
255
255
255
255
255
255
255
255
255
255
255
255
255
255
255
255
255
255
255
255
255
255
255
255
255
255
255
255
255
255
255
255
255
255
255
255
255
255
255
255
255
255
255
255
255
255
255
255
255
255
255
255
255
255
255
255
255
255
255
255
255
255
255
255
255
255
255
255
255
255
255
255
255
255
255
255
255
255
255
255
255
255
255
255
255
255
255
255
255
255
255
255
255
255
255
255
255
255
255
255
255
255
255
255
255
255
255
255
255
255
255
255
255
255
255
255
255
255
255
255
255
255
255
255
255
255
255
255
255
255
255
255
255
255
255
255
255
255
255
255
255
255
255
255
255
255
255
255
255
255
255
255
255
255
255
255
255
255
255
255
255
255
255
255
255
255
255
255
255
255
255
255
255
255
255
255
255
255
255
255
255
255
255
255
255
255
255
255
255
255
255
255
255
255
255
255
255
255
255
255
255
255
255
255
255
255
255
255
255
255
255
255
255
255
255
255
255
255
255
255
255
255
255
255
255
255
255
255
255
255
255
255
255
255
255
255
255
255
255
255
255
255
255
255
255
255
255
255
255
255
255
255
255
255
255
255
255
255
255
255
255
255
255
255
255
255
255
255
255
255
255
255
255
255
255
255
255
255
255
255
255
255
255
255
255
255
255
255
255
255
255
255
255
255
255
255
255
255
255
255
255
255
255
255
255
255
255
255
255
255
255
255
255
255
255
255
255
255
255
255
255
255
255
255
255
255
255
255
255
255
255
255
255
255
255
255
255
255
255
255
255
255
255
255
255
255
255
255
255
255
255
255
255
255
255
255
255
255
255
255
255
255
255
255
255
255
255
255
255
255
255
255
255
255
255
255
255
255
255
255
255
255
255
255
255
255
255
255
255
255
255
255
255
255
255
255
255
255
255
255
255
255
255
255
255
255
255
255
255
255
255
255
255
255
255
255
255
255
255
255
255
255
255
255
255
255
255
255
255
255
255
255
255
255
255
255
255
255
255
255
255
255
255
255
255
255
255
255
255
255
255
255
255
255
255
255
255
255
255
255
255
255
255
255
255
255
255
255
255
255
255
255
255
255
255
255
255
255
255
255
255
255
255
255
255
255
255
255
255
255
255
255
255
255
255
255
255
255
255
255
255
255
255
255
255
255
255
255
255
255
255
255
255
255
255
255
255
255
255
255
255
255
255
255
255
255
255
255
255
255
255
255
255
255
255
255
255
255
255
255
255
255
255
255
255
255
255
255
255
255
255
255
255
255
255
255
255
255
255
255
255
255
255
255
255
255
255
255
255
255
255
255
255
255
255
255
255
255
255
255
255
255
255
255
255
255
255
255
255
255
255
255
255
255
255
255
255
255
255
255
255
255
255
255
255
255
255
255
255
255
255
255
255
255
255
255
255
255
255
255
255
255
255
255
255
255
255
255
255
255
255
255
255
255
255
255
255
255
255
255
255
255
255
255
255
255
255
255
255
255
255
255
255
255
255
255
255
255
255
255
255
255
255
255
255
255
255
255
255
255
255
255
255
255
255
255
255
255
255
255
255
255
255
255
255
255
255
255
255
255
255
255
255
255
255
255
255
255
255
255
255
255
255
255
255
255
255
255
255
255
255
255
255
255
255
255
255
255
255
255
255
255
255
255
255
255
255
255
255
255
255
255
255
255
255
255
255
255
255
255
255
255
255
255
255
255
255
255
255
255
255
255
255
255
255
255
255
255
255
255
255
255
255
255
255
255
255
255
255
255
255
255
255
255
255
255
255
255
255
255
255
255
255
255
255
255
255
255
255
255
255
255
255
255
255
255
255
255
255
255
255
255
255
255
255
255
255
255
255
255
255
255
255
255
255
255
255
255
255
255
255
255
255
255
255
255
255
255
255
255
255
255
255
255
255
255
255
255
255
255
255
255
255
255
255
255
255
255
255
255
255
255
255
255
255
255
255
255
255
255
255
255
255
255
255
255
255
255
255
255
255
255
255
255
255
255
255
255
255
255
255
255
255
255
255
255
255
255
255
255
255
255
255
255
255
255
255
255
255
255
255
255
255
255
255
255
255
255
255
255
255
255
255
255
255
255
255
255
255
255
255
255
255
255
255
255
255
255
255
255
255
255
255
255
255
255
255
255
255
255
255
255
255
255
255
255
255
255
255
255
255
255
255
255
255
255
255
255
255
255
255
255
255
255
255
255
255
255
255
255
255
255
255
255
255
255
255
255
255
255
255
255
255
255
255
255
255
255
255
255
255
255
255
255
255
255
255
255
255
255
255
255
255
255
255
255
255
255
255
255
255
255
255
255
255
255
255
255
255
255
255
255
255
255
255
255
255
255
255
255
255
255
255
255
255
255
255
255
255
255
255
255
255
255
255
255
255
255
255
255
255
255
255
255
255
255
255
255
255
255
255
255
255
255
255
255
255
255
255
255
255
255
255
255
255
255
255
255
255
255
255
255
255
255
255
255
255
255
255
255
255
255
255
255
255
255
255
255
255
255
255
255
255
255
255
255
255
255
255
255
255
255
255
255
255
255
255
255
255
255
255
255
255
255
255
255
255
255
255
255
255
255
255
255
255
255
255
255
255
255
255
255
255
255
255
255
255
255
255
255
255
255
255
255
255
255
255
255
255
255
255
255
255
255
255
255
255
255
255
255
255
255
255
255
255
255
255
255
255
255
255
255
255
255
255
255
255
255
255
255
255
255
255
255
255
255
255
255
255
255
255
255
255
255
255
255
255
255
255
255
255
255
255
255
255
255
255
255
255
255
255
255
255
255
255
255
255
255
255
255
255
255
255
255
255
255
255
255
255
255
255
255
255
255
255
255
255
255
255
255
255
255
255
255
255
255
255
255
255
255
255
255
255
255
255
255
255
255
255
255
255
255
255
255
255
255
255
255
255
255
255
255
255
255
255
255
255
255
255
255
255
255
255
255
255
255
255
255
255
255
255
255
255
255
255
255
255
255
255
255
255
255
255
255
255
255
255
255
255
255
255
255
255
255
255
255
255
255
255
255
255
255
255
255
255
255
255
255
255
255
255
255
255
255
255
255
255
255
255
255
255
255
255
255
255
255
255
255
255
255
255
255
255
255
255
255
255
255
255
255
255
255
255
255
255
255
255
255
255
255
255
255
255
255
255
255
255
255
255
255
255
255
255
255
255
255
255
255
255
255
255
255
255
255
255
255
255
255
255
255
255
255
255
255
255
255
255
255
255
255
255
255
255
255
255
255
255
255
255
255
255
255
255
255
255
255
255
255
255
255
255
255
255
255
255
255
255
255
255
255
255
255
255
255
255
255
255
255
255
255
255
255
255
255
255
255
255
255
255
255
255
255
255
255
255
255
255
255
255
255
255
255
255
255
255
255
255
255
255
255
255
255
255
255
255
255
255
255
255
255
255
255
255
255
255
255
255
255
255
255
255
255
255
255
255
255
255
255
255
255
255
255
255
255
255
255
255
255
255
255
255
255
255
255
255
255
255
255
255
255
255
255
255
255
255
255
255
255
255
255
255
255
255
255
255
255
255
255
255
255
255
255
255
255
255
255
255
255
255
255
255
255
255
255
255
255
255
255
255
255
255
255
255
255
255
255
255
255
255
255
255
255
255
255
255
255
255
255
255
255
255
255
255
255
255
255
255
255
255
255
255
255
255
255
255
255
255
255
255
255
255
255
255
255
255
255
255
255
255
255
255
255
255
255
255
255
255
255
255
255
255
255
255
255
255
255
255
255
255
255
255
255
255
255
255
255
255
255
255
255
255
255
255
255
255
255
255
255
255
255
255
255
255
255
255
255
255
255
255
255
255
255
255
255
255
255
255
255
255
255
255
255
255
255
255
255
255
255
255
255
255
255
255
255
255
255
255
255
255
255
255
255
255
255
255
255
255
255
255
255
255
255
255
255
255
255
255
255
255
255
255
255
255
255
255
255
255
255
255
255
255
255
255
255
255
255
255
255
255
255
255
255
255
255
255
255
255
255
255
255
255
255
255
255
255
255
255
255
255
255
255
255
255
255
255
255
255
255
255
255
255
255
255
255
255
255
255
255
255
255
255
255
255
255
255
255
255
255
255
255
255
255
255
255
255
255
255
255
255
255
255
255
255
255
255
255
255
255
255
255
255
255
255
255
255
255
255
255
255
255
255
255
255
255
255
255
255
255
255
255
255
255
255
255
255
255
255
255
255
255
255
255
255
255
255
255
255
255
255
255
255
255
255
255
255
255
255
255
255
255
255
255
255
255
255
255
255
255
255
255
255
255
255
255
255
255
255
255
255
255
255
255
255
255
255
255
255
255
255
255
255
255
255
255
255
255
255
255
255
255
255
255
255
255
255
255
255
255
255
255
255
255
255
255
255
255
255
255
255
255
255
255
255
255
255
255
255
255
255
255
255
254
255
255
254
255
255
255
255
255
255
255
255
255
255
255
255
255
255
255
255
255
255
255
255
255
255
255
255
255
255
255
255
255
255
255
255
255
255
255
255
255
255
255
255
255
255
255
255
255
255
255
255
255
255
255
255
255
255
255
255
255
255
255
255
255
255
255
255
255
255
255
255
255
255
255
255
255
255
255
255
255
255
255
255
255
255
255
255
255
255
255
255
255
255
255
255
255
255
255
255
255
255
255
255
255
255
255
255
255
255
255
255
255
255
255
255
255
255
255
255
255
255
255
255
255
255
255
255
255
255
255
255
255
255
255
255
255
255
255
255
255
255
255
255
255
255
255
255
255
255
255
255
255
255
255
255
255
255
255
255
255
255
255
255
255
255
255
255
255
255
255
255
255
255
255
255
255
255
255
255
255
255
255
255
255
255
255
255
255
255
255
255
255
255
255
255
255
255
255
255
255
255
255
255
255
255
255
255
255
255
255
255
255
255
255
255
255
255
255
255
255
255
255
255
255
255
255
255
255
255
255
255
255
255
255
255
255
255
255
255
255
255
255
255
255
255
255
255
255
255
255
255
255
255
255
255
255
255
255
255
255
255
255
255
255
255
255
255
255
255
255
255
255
255
255
255
255
255
255
255
255
255
255
255
255
255
255
255
255
255
255
255
255
255
255
255
255
255
255
255
255
255
255
255
255
255
255
255
255
255
255
255
255
255
255
255
255
255
255
255
255
255
255
255
255
255
255
255
255
255
255
255
255
255
255
255
255
255
255
255
255
255
255
255
255
255
255
255
255
255
255
255
255
255
255
255
255
255
255
255
255
255
255
255
255
255
255
255
255
255
255
255
255
255
255
255
255
255
255
255
255
255
255
255
255
255
255
255
255
255
255
255
255
255
255
255
255
255
255
255
255
255
255
255
255
255
255
255
255
255
255
255
255
255
255
255
255
255
255
255
255
255
255
255
255
255
255
255
255
255
255
255
255
255
255
255
255
255
255
255
255
255
255
255
255
255
255
255
255
255
255
255
255
255
255
255
255
255
255
255
255
255
255
255
255
255
255
255
255
255
255
255
255
255
255
255
255
255
255
255
255
255
255
255
255
255
255
255
255
255
255
255
255
255
255
255
255
255
255
255
255
255
255
255
255
255
255
255
255
255
255
255
255
255
255
255
255
255
255
255
255
255
255
255
255
255
255
255
255
255
255
255
255
255
255
255
255
255
255
255
255
255
255
255
255
255
255
255
255
255
255
255
255
255
255
255
255
255
255
255
255
255
255
255
255
255
255
255
255
255
255
255
255
255
255
255
255
255
255
255
255
255
255
255
255
255
255
255
255
255
255
255
255
255
255
255
255
254
255
255
254
255
255
252
255
255
255
255
255
255
255
255
255
255
255
255
255
255
255
255
255
255
255
255
255
255
255
255
255
255
255
255
255
255
255
255
255
255
255
255
255
255
255
255
255
255
255
255
255
255
255
255
255
255
255
255
255
255
255
255
255
255
255
255
255
255
255
255
255
255
255
255
255
255
255
255
255
255
255
255
255
255
255
255
255
255
255
255
255
255
255
255
255
255
255
255
255
255
255
255
255
255
255
255
255
255
255
255
255
255
255
255
255
255
255
255
255
255
255
255
255
255
255
255
255
255
255
255
255
255
255
255
255
255
255
255
255
255
255
255
255
255
255
255
255
255
255
255
255
255
255
255
255
255
255
255
255
255
255
255
255
255
255
255
255
255
255
255
255
255
255
255
255
255
255
255
255
255
255
255
255
255
255
255
255
255
255
255
255
255
255
255
255
255
255
255
255
255
255
255
255
255
255
255
255
255
255
255
255
255
255
255
255
255
255
255
255
255
255
255
255
255
255
255
255
255
255
255
255
255
255
255
255
255
255
255
255
255
255
255
255
255
255
255
255
255
255
255
255
255
255
255
255
255
255
255
255
255
255
255
255
255
255
255
255
255
255
255
255
255
255
255
255
255
255
255
255
255
255
255
255
255
255
255
255
255
255
255
255
255
255
255
255
255
255
255
255
255
255
255
255
255
255
255
255
255
255
255
255
255
255
255
255
255
255
255
255
255
255
255
255
255
255
255
255
255
255
255
255
255
255
255
255
255
255
255
255
255
255
255
255
255
255
255
255
255
255
255
255
255
255
255
255
255
255
255
255
255
255
255
255
255
255
255
255
255
255
255
255
255
255
255
255
255
255
255
255
255
255
255
255
255
255
255
255
255
255
255
255
255
255
255
255
255
255
255
255
255
255
255
255
255
255
255
255
255
255
255
255
255
255
255
255
255
255
255
255
255
255
255
255
255
255
255
255
255
255
255
255
255
255
255
255
255
255
255
255
255
255
255
255
255
255
255
255
255
255
255
255
255
255
255
255
255
255
255
255
255
255
255
255
255
255
255
255
255
255
255
255
255
255
255
255
255
255
255
255
255
255
255
255
255
255
255
255
255
255
255
255
255
255
255
255
255
255
255
255
255
255
255
255
255
255
255
255
255
255
255
255
255
255
255
255
255
255
255
255
255
255
255
255
255
255
255
255
255
255
255
255
255
255
255
255
255
255
255
255
255
255
255
255
255
255
255
255
255
255
255
255
255
255
255
255
255
255
255
255
255
255
255
255
255
255
255
255
255
255
255
255
255
255
255
255
255
255
255
255
255
255
255
255
255
255
255
255
255
255
255
255
255
255
253
255
255
254
255
255
252
255
255
251
255
255
250
255
255
255
255
255
255
255
255
255
255
255
255
255
255
255
255
255
255
255
255
255
255
255
255
255
255
255
255
255
255
255
255
255
255
255
255
255
255
255
255
255
255
255
255
255
255
255
255
255
255
255
255
255
255
255
255
255
255
255
255
255
255
255
255
255
255
255
255
255
255
255
255
255
255
255
255
255
255
255
255
255
255
255
255
255
255
255
255
255
255
255
255
255
255
255
255
255
255
255
255
255
255
255
255
255
255
255
255
255
255
255
255
255
255
255
255
255
255
255
255
255
255
255
255
255
255
255
255
255
255
255
255
255
255
255
255
255
255
255
255
255
255
255
255
255
255
255
255
255
255
255
255
255
255
255
255
255
255
255
255
255
255
255
255
255
255
255
255
255
255
255
255
255
255
255
255
255
255
255
255
255
255
255
255
255
255
255
255
255
255
255
255
255
255
255
255
255
255
255
255
255
255
255
255
255
255
255
255
255
255
255
255
255
255
255
255
255
255
255
255
255
255
255
255
255
255
255
255
255
255
255
255
255
255
255
255
255
255
255
255
255
255
255
255
255
255
255
255
255
255
255
255
255
255
255
255
255
255
255
255
255
255
255
255
255
255
255
255
255
255
255
255
255
255
255
255
255
255
255
255
255
255
255
255
255
255
255
255
255
255
255
255
255
255
255
255
255
255
255
255
255
255
255
255
255
255
255
255
255
255
255
255
255
255
255
255
255
255
255
255
255
255
255
255
255
255
255
255
255
255
255
255
255
255
255
255
255
255
255
255
255
255
255
255
255
255
255
255
255
255
255
255
255
255
255
255
255
255
255
255
255
255
255
255
255
255
255
255
255
255
255
255
255
255
255
255
255
255
255
255
255
255
255
255
255
255
255
255
255
255
255
255
255
255
255
255
255
255
255
255
255
255
255
255
255
255
255
255
255
255
255
255
255
255
255
255
255
255
255
255
255
255
255
255
255
255
255
255
255
255
255
255
255
255
255
255
255
255
255
255
255
255
255
255
255
255
255
255
255
255
255
255
255
255
255
255
255
255
255
255
255
255
255
255
255
255
255
255
255
255
255
255
255
255
255
255
255
255
255
255
255
255
255
255
255
255
255
255
255
255
255
255
255
255
255
255
255
255
255
255
255
255
255
255
255
255
255
255
255
255
255
255
255
255
255
255
255
255
255
255
255
255
255
255
255
255
255
255
255
255
255
255
255
255
255
255
255
255
255
255
255
255
255
255
255
255
255
255
255
255
255
255
255
255
255
255
255
255
255
255
255
255
255
255
255
255
255
255
255
255
255
255
255
255
255
255
255
255
255
255
255
255
255
255
255
255
255
254
255
255
253
255
255
250
255
255
250
255
255
250
255
255
255
255
255
255
255
255
255
255
255
255
255
255
255
255
255
255
255
255
255
255
255
255
255
255
255
255
255
255
255
255
255
255
255
255
255
255
255
255
255
255
255
255
255
255
255
255
255
255
255
255
255
255
255
255
255
255
255
255
255
255
255
255
255
255
255
255
255
255
255
255
255
255
255
255
255
255
255
255
255
255
255
255
255
255
255
255
255
255
255
255
255
255
255
255
255
255
255
255
255
255
255
255
255
255
255
255
255
255
255
255
255
255
255
255
255
255
255
255
255
255
255
255
255
255
255
255
255
255
255
255
255
255
255
255
255
255
255
255
255
255
255
255
255
255
255
255
255
255
255
255
255
255
255
255
255
255
255
255
255
255
255
255
255
255
255
255
255
255
255
255
255
255
255
255
255
255
255
255
255
255
255
255
255
255
255
255
255
255
255
255
255
255
255
255
255
255
255
255
255
255
255
255
255
255
255
255
255
255
255
255
255
255
255
255
255
255
255
255
255
255
255
255
255
255
255
255
255
255
255
255
255
255
255
255
255
255
255
255
255
255
255
255
255
255
255
255
255
255
255
255
255
255
255
255
255
255
255
255
255
255
255
255
255
255
255
255
255
255
255
255
255
255
255
255
255
255
255
255
255
255
255
255
255
255
255
255
255
255
255
255
255
255
255
255
255
255
255
255
255
255
255
255
255
255
255
255
255
255
255
255
255
255
255
255
255
255
255
255
255
255
255
255
255
255
255
255
255
255
255
255
255
255
255
255
255
255
255
255
255
255
255
255
255
255
255
255
255
255
255
255
255
255
255
255
255
255
255
255
255
255
255
255
255
255
255
255
255
255
255
255
255
255
255
255
255
255
255
255
255
255
255
255
255
255
255
255
255
255
255
255
255
255
255
255
255
255
255
255
255
255
255
255
255
255
255
255
255
255
255
255
255
255
255
255
255
255
255
255
255
255
255
255
255
255
255
255
255
255
255
255
255
255
255
255
255
255
255
255
255
255
255
255
255
255
255
255
255
255
255
255
255
255
255
255
255
255
255
255
255
255
255
255
255
255
255
255
255
255
255
255
255
255
255
255
255
255
255
255
255
255
255
255
255
255
255
255
255
255
255
255
255
255
255
255
255
255
255
255
255
255
255
255
255
255
255
255
255
255
255
255
254
255
255
254
255
255
255
255
255
255
255
255
255
255
255
255
255
255
255
255
255
255
255
255
255
255
255
255
255
255
255
255
255
255
255
255
255
255
255
255
255
255
255
255
255
255
255
255
255
255
255
255
255
255
255
255
255
255
255
255
254
255
255
254
255
255
253
255
255
252
255
255
251
255
255
251
255
255
249
255
255
249
255
255
248
255
255
248
255
255
255
255
255
255
255
255
255
255
255
255
255
255
255
255
255
255
255
255
255
255
255
255
255
255
255
255
255
255
255
255
255
255
255
255
255
255
255
255
255
255
255
255
255
255
255
255
255
255
255
255
255
255
255
255
255
255
255
255
255
255
255
255
255
255
255
255
255
255
255
255
255
255
255
255
255
255
255
255
255
255
255
255
255
255
255
255
255
255
255
255
255
255
255
255
255
255
255
255
255
255
255
255
255
255
255
255
255
255
255
255
255
255
255
255
255
255
255
255
255
255
255
255
255
255
255
255
255
255
255
255
255
255
255
255
255
255
255
255
255
255
255
255
255
255
255
255
255
255
255
255
255
255
255
255
255
255
255
255
255
255
255
255
255
255
255
255
255
255
255
255
255
255
255
255
255
255
255
255
255
255
255
255
255
255
255
255
255
255
255
255
255
255
255
255
255
255
255
255
255
255
255
255
255
255
255
255
255
255
255
255
255
255
255
255
255
255
255
255
255
255
255
255
255
255
255
255
255
255
255
255
255
255
255
255
255
255
255
255
255
255
255
255
255
255
255
255
255
255
255
255
255
255
255
255
255
255
255
255
255
255
255
255
255
255
255
255
255
255
255
255
255
255
255
255
255
255
255
255
255
255
255
255
255
255
255
255
255
255
255
255
255
255
255
255
255
255
255
255
255
255
255
255
255
255
255
255
255
255
255
255
255
255
255
255
255
255
255
255
255
255
255
255
255
255
255
255
255
255
255
255
255
255
255
255
255
255
255
255
255
255
255
255
255
255
255
255
255
255
255
255
255
255
255
255
255
255
255
255
255
255
255
255
255
255
255
255
255
255
255
255
255
255
255
255
255
255
255
255
255
255
255
255
255
255
255
255
255
255
255
255
255
255
255
255
255
255
255
255
255
255
255
255
255
255
255
255
255
255
255
255
255
255
255
255
255
255
255
255
255
255
255
255
255
255
255
255
255
255
255
255
255
255
255
255
255
255
255
255
255
255
255
255
255
255
255
255
255
255
255
255
255
255
255
255
255
255
255
255
255
255
255
255
255
255
255
255
255
255
255
255
255
255
255
255
255
255
255
255
255
255
255
255
255
255
255
255
255
255
255
255
255
255
255
255
255
255
255
255
255
255
255
255
255
255
254
255
255
254
255
255
253
255
255
253
255
255
254
255
255
255
255
255
255
255
255
255
255
255
255
255
255
255
255
255
255
255
255
255
255
255
255
255
255
255
255
255
255
255
255
255
255
255
255
255
255
255
255
255
254
255
255
254
255
255
253
255
255
252
255
255
252
255
255
252
255
255
248
255
255
248
255
255
248
255
255
248
255
255
246
255
255
246
255
255
245
255
255
245
255
255
255
255
255
255
255
255
255
255
255
255
255
255
255
255
255
255
255
255
255
255
255
255
255
255
255
255
255
255
255
255
255
255
255
255
255
255
255
255
255
255
255
255
255
255
255
255
255
255
255
255
255
255
255
255
255
255
255
255
255
255
255
255
255
255
255
255
255
255
255
255
255
255
255
255
255
255
255
255
255
255
255
255
255
255
255
255
255
255
255
255
255
255
255
255
255
255
255
255
255
255
255
255
255
255
255
255
255
255
255
255
255
255
255
255
255
255
255
255
255
255
255
255
255
255
255
255
255
255
255
255
255
255
255
255
255
255
255
255
255
255
255
255
255
255
255
255
255
255
255
255
255
255
255
255
255
255
255
255
255
255
255
255
255
255
255
255
255
255
255
255
255
255
255
255
255
255
255
255
255
255
255
255
255
255
255
255
255
255
255
255
255
255
255
255
255
255
255
255
255
255
255
255
255
255
255
255
255
255
255
255
255
255
255
255
255
255
255
255
255
255
255
255
255
255
255
255
255
255
255
255
255
255
255
255
255
255
255
255
255
255
255
255
255
255
255
255
255
255
255
255
255
255
255
255
255
255
255
255
255
255
255
255
255
255
255
255
255
255
255
255
255
255
255
255
255
255
255
255
255
255
255
255
255
255
255
255
255
255
255
255
255
255
255
255
255
255
255
255
255
255
255
255
255
255
255
255
255
255
255
255
255
255
255
255
255
255
255
255
255
255
255
255
255
255
255
255
255
255
255
255
255
255
255
255
255
255
255
255
255
255
255
255
255
255
255
255
255
255
255
255
255
255
255
255
255
255
255
255
255
255
255
255
255
255
255
255
255
255
255
255
255
255
255
255
255
255
255
255
255
255
255
255
255
255
255
255
255
255
255
255
255
255
255
255
255
255
255
255
255
255
255
255
255
255
255
255
255
255
255
255
255
255
255
255
255
255
255
255
255
255
255
255
255
255
255
255
255
255
255
255
255
255
255
255
255
255
255
255
255
255
255
255
255
255
255
255
255
255
255
255
255
255
255
255
255
255
255
255
255
255
255
255
255
255
255
255
255
255
255
255
255
255
255
255
255
255
255
255
255
255
255
255
255
255
255
255
255
255
255
255
255
255
255
255
255
255
255
255
255
255
255
255
255
255
254
255
255
254
255
255
253
255
255
252
255
255
252
255
255
253
255
255
252
255
255
253
255
255
255
255
255
255
255
255
255
255
255
255
255
255
253
255
255
253
255
255
252
255
255
252
255
255
253
255
255
252
255
255
250
255
255
251
255
255
249
255
255
249
255
255
249
255
255
247
255
255
247
255
255
245
255
255
245
255
255
243
255
255
242
255
255
243
255
255
243
255
255
241
255
255
255
255
255
255
255
255
255
255
255
255
255
255
255
255
255
255
255
255
255
255
255
255
255
255
255
255
255
255
255
255
255
255
255
255
255
255
255
255
255
255
255
255
255
255
255
255
255
255
255
255
255
255
255
255
255
255
255
255
255
255
255
255
255
255
255
255
255
255
255
255
255
255
255
255
255
255
255
255
255
255
255
255
255
255
255
255
255
255
255
255
255
255
255
255
255
255
255
255
255
255
255
255
255
255
255
255
255
255
255
255
255
255
255
255
255
255
255
255
255
255
255
255
255
255
255
255
255
255
255
255
255
255
255
255
255
255
255
255
255
255
255
255
255
255
255
255
255
255
255
255
255
255
255
255
255
255
255
255
255
255
255
255
255
255
255
255
255
255
255
255
255
255
255
255
255
255
255
255
255
255
255
255
255
255
255
255
255
255
255
255
255
255
255
255
255
255
255
255
255
255
255
255
255
255
255
255
255
255
255
255
255
255
255
255
255
255
255
255
255
255
255
255
255
255
255
255
255
255
255
255
255
255
255
255
255
255
255
255
255
255
255
255
255
255
255
255
255
255
255
255
255
255
255
255
255
255
255
255
255
255
255
255
255
255
255
255
255
255
255
255
255
255
255
255
255
255
255
255
255
255
255
255
255
255
255
255
255
255
255
255
255
255
255
255
255
255
255
255
255
255
255
255
255
255
255
255
255
255
255
255
255
255
255
255
255
255
255
255
255
255
255
255
255
255
255
255
255
255
255
255
255
255
255
255
255
255
255
255
255
255
255
255
255
255
255
255
255
255
255
255
255
255
255
255
255
255
255
255
255
255
255
255
255
255
255
255
255
255
255
255
255
255
255
255
255
255
255
255
255
255
255
255
255
255
255
255
255
255
255
255
255
255
255
255
255
255
255
255
255
255
255
255
255
255
255
255
255
255
255
255
255
255
255
255
255
255
255
255
255
255
255
255
255
255
255
255
255
255
255
255
255
255
255
255
255
255
255
255
255
255
255
255
255
255
255
255
255
255
255
255
255
255
255
255
255
255
255
255
255
255
255
255
255
255
255
255
255
255
255
255
255
255
255
255
255
255
255
255
255
255
255
255
255
255
255
255
255
255
255
255
255
255
255
255
255
255
255
255
255
255
255
255
255
255
254
255
255
254
255
255
254
255
255
252
255
255
252
255
255
252
255
255
252
255
255
249
255
255
252
255
255
252
255
255
254
255
255
252
255
255
252
255
255
249
255
255
248
255
255
247
255
255
248
255
255
248
255
255
247
255
255
246
255
255
246
255
255
245
255
255
246
255
255
248
255
255
247
255
255
246
255
255
242
255
255
240
255
255
240
255
255
238
255
255
238
255
255
238
255
255
255
255
255
255
255
255
255
255
255
255
255
255
255
255
255
255
255
255
255
255
255
255
255
255
255
255
255
255
255
255
255
255
255
255
255
255
255
255
255
255
255
255
255
255
255
255
255
255
255
255
255
255
255
255
255
255
255
255
255
255
255
255
255
255
255
255
255
255
255
255
255
255
255
255
255
255
255
255
255
255
255
255
255
255
255
255
255
255
255
255
255
255
255
255
255
255
255
255
255
255
255
255
255
255
255
255
255
255
255
255
255
255
255
255
255
255
255
255
255
255
255
255
255
255
255
255
255
255
255
255
255
255
255
255
255
255
255
255
255
255
255
255
255
255
255
255
255
255
255
255
255
255
255
255
255
255
255
255
255
255
255
255
255
255
255
255
255
255
255
255
255
255
255
255
255
255
255
255
255
255
255
255
255
255
255
255
255
255
255
255
255
255
255
255
255
255
255
255
255
255
255
255
255
255
255
255
255
255
255
255
255
255
255
255
255
255
255
255
255
255
255
255
255
255
255
255
255
255
255
255
255
255
255
255
255
255
255
255
255
255
255
255
255
255
255
255
255
255
255
255
255
255
255
255
255
255
255
255
255
255
255
255
255
255
255
255
255
255
255
255
255
255
255
255
255
255
255
255
255
255
255
255
255
255
255
255
255
255
255
255
255
255
255
255
255
255
255
255
255
255
255
255
255
255
255
255
255
255
255
255
255
255
255
255
255
255
255
255
255
255
255
255
255
255
255
255
255
255
255
255
255
255
255
255
255
255
255
255
255
255
255
255
255
255
255
255
255
255
255
255
255
255
255
255
255
255
255
255
255
255
255
255
255
255
255
255
255
255
255
255
255
255
255
255
255
255
255
255
255
255
255
255
255
255
255
255
255
255
255
255
255
255
255
255
255
255
255
255
255
255
255
255
255
255
255
255
255
255
255
255
255
255
255
255
255
255
255
255
255
255
255
255
255
255
255
255
255
255
255
255
255
255
255
255
255
255
255
255
255
255
255
255
255
255
255
255
255
255
255
255
255
255
255
255
255
255
255
255
255
255
255
255
255
255
255
255
255
255
255
255
255
255
255
255
255
255
255
255
255
255
255
255
255
255
255
255
255
255
255
255
255
255
255
255
255
255
255
255
255
255
255
255
255
255
255
255
255
254
255
255
254
255
255
254
255
255
254
255
255
252
255
255
252
255
255
250
255
255
253
255
255
254
255
255
254
255
255
251
255
255
251
255
255
249
255
255
249
255
255
248
255
255
246
255
255
247
255
255
246
255
255
246
255
255
244
255
255
244
255
255
244
255
255
245
255
255
247
255
255
247
255
255
244
255
255
242
255
255
240
255
255
240
255
255
239
255
255
238
255
255
255
255
255
255
255
255
255
255
255
255
255
255
255
255
255
255
255
255
255
255
255
255
255
255
255
255
255
255
255
255
255
255
255
255
255
255
255
255
255
255
255
255
255
255
255
255
255
255
255
255
255
255
255
255
255
255
255
255
255
255
255
255
255
255
255
255
255
255
255
255
255
255
255
255
255
255
255
255
255
255
255
255
255
255
255
255
255
255
255
255
255
255
255
255
255
255
255
255
255
255
255
255
255
255
255
255
255
255
255
255
255
255
255
255
255
255
255
255
255
255
255
255
255
255
255
255
255
255
255
255
255
255
255
255
255
255
255
255
255
255
255
255
255
255
255
255
255
255
255
255
255
255
255
255
255
255
255
255
255
255
255
255
255
255
255
255
255
255
255
255
255
255
255
255
255
255
255
255
255
255
255
255
255
255
255
255
255
255
255
255
255
255
255
255
255
255
255
255
255
255
255
255
255
255
255
255
255
255
255
255
255
255
255
255
255
255
255
255
255
255
255
255
255
255
255
255
255
255
255
255
255
255
255
255
255
255
255
255
255
255
255
255
255
255
255
255
255
255
255
255
255
255
255
255
255
255
255
255
255
255
255
255
255
255
255
255
255
255
255
255
255
255
255
255
255
255
255
255
255
255
255
255
255
255
255
255
255
255
255
255
255
255
255
255
255
255
255
255
255
255
255
255
255
255
255
255
255
255
255
255
255
255
255
255
255
255
255
255
255
255
255
255
255
255
255
255
255
255
255
255
255
255
255
255
255
255
255
255
255
255
255
255
255
255
255
255
255
255
255
255
255
255
255
255
255
255
255
255
255
255
255
255
255
255
255
255
255
255
255
255
255
255
255
255
255
255
255
255
255
255
255
255
255
255
255
255
255
255
255
255
255
255
255
255
255
255
255
255
255
255
255
255
255
255
255
255
255
255
255
255
255
255
255
255
255
255
255
255
255
255
255
255
255
255
255
255
255
255
255
255
255
255
255
255
255
255
255
255
255
255
255
255
255
255
255
255
255
255
255
255
255
255
255
255
255
255
255
255
255
255
255
255
255
255
255
255
255
255
255
255
255
255
255
255
255
255
255
255
255
255
255
255
255
255
255
255
255
255
255
255
255
255
255
255
255
255
255
255
255
255
255
255
255
255
255
255
255
254
255
255
254
255
255
254
255
255
254
255
255
253
255
255
252
255
255
252
255
255
253
255
255
253
255
255
253
255
255
252
255
255
252
255
255
248
255
255
248
255
255
247
255
255
246
255
255
244
255
255
244
255
255
246
255
255
244
255
255
243
255
255
243
255
255
243
255
255
245
255
255
245
255
255
244
255
255
242
255
255
241
255
255
239
255
255
238
255
255
238
255
255
255
255
255
255
255
255
255
255
255
255
255
255
255
255
255
255
255
255
255
255
255
255
255
255
255
255
255
255
255
255
255
255
255
255
255
255
255
255
255
255
255
255
255
255
255
255
255
255
255
255
255
255
255
255
255
255
255
255
255
255
255
255
255
255
255
255
255
255
255
255
255
255
255
255
255
255
255
255
255
255
255
255
255
255
255
255
255
255
255
255
255
255
255
255
255
255
255
255
255
255
255
255
255
255
255
255
255
255
255
255
255
255
255
255
255
255
255
255
255
255
255
255
255
255
255
255
255
255
255
255
255
255
255
255
255
255
255
255
255
255
255
255
255
255
255
255
255
255
255
255
255
255
255
255
255
255
255
255
255
255
255
255
255
255
255
255
255
255
255
255
255
255
255
255
255
255
255
255
255
255
255
255
255
255
255
255
255
255
255
255
255
255
255
255
255
255
255
255
255
255
255
255
255
255
255
255
255
255
255
255
255
255
255
255
255
255
255
255
255
255
255
255
255
255
255
255
255
255
255
255
255
255
255
255
255
255
255
255
255
255
255
255
255
255
255
255
255
255
255
255
255
255
255
255
255
255
255
255
255
255
255
255
255
255
255
255
255
255
255
255
255
255
255
255
255
255
255
255
255
255
255
255
255
255
255
255
255
255
255
255
255
255
255
255
255
255
255
255
255
255
255
255
255
255
255
255
255
255
255
255
255
255
255
255
255
255
255
255
255
255
255
255
255
255
255
255
255
255
255
255
255
255
255
255
255
255
255
255
255
255
255
255
255
255
255
255
255
255
255
255
255
255
255
255
255
255
255
255
255
255
255
255
255
255
255
255
255
255
255
255
255
255
255
255
255
255
255
255
255
255
255
255
255
255
255
255
255
255
255
255
255
255
255
255
255
255
255
255
255
255
255
255
255
255
255
255
255
255
255
255
255
255
255
255
255
255
255
255
255
255
255
255
255
255
255
255
255
255
255
255
255
255
255
255
255
255
255
255
255
255
255
255
255
255
255
255
255
255
255
255
255
255
255
255
255
255
255
255
255
255
255
255
255
255
255
255
255
255
255
255
255
255
255
255
255
255
255
255
255
255
255
255
255
255
255
255
255
255
255
255
255
255
255
255
255
255
255
255
255
255
255
255
255
255
255
255
255
255
255
255
255
255
255
254
255
255
255
255
255
254
255
255
254
255
255
254
255
255
252
255
255
252
255
255
253
255
255
254
255
255
254
255
255
250
255
255
248
255
255
248
255
255
247
255
255
245
255
255
245
255
255
245
255
255
243
255
255
243
255
255
245
255
255
242
255
255
243
255
255
241
255
255
241
255
255
241
255
255
241
255
255
239
255
255
238
255
255
237
255
255
255
255
255
255
255
255
255
255
255
255
255
255
255
255
255
255
255
255
255
255
255
255
255
255
255
255
255
255
255
255
255
255
255
255
255
255
255
255
255
255
255
255
255
255
255
255
255
255
255
255
255
255
255
255
255
255
255
255
255
255
255
255
255
255
255
255
255
255
255
255
255
255
255
255
255
255
255
255
255
255
255
255
255
255
255
255
255
255
255
255
255
255
255
255
255
255
255
255
255
255
255
255
255
255
255
255
255
255
255
255
255
255
255
255
255
255
255
255
255
255
255
255
255
255
255
255
255
255
255
255
255
255
255
255
255
255
255
255
255
255
255
255
255
255
255
255
255
255
255
255
255
255
255
255
255
255
255
255
255
255
255
255
255
255
255
255
255
255
255
255
255
255
255
255
255
255
255
255
255
255
255
255
255
255
255
255
255
255
255
255
255
255
255
255
255
255
255
255
255
255
255
255
255
255
255
255
255
255
255
255
255
255
255
255
255
255
255
255
255
255
255
255
255
255
255
255
255
255
255
255
255
255
255
255
255
255
255
255
255
255
255
255
255
255
255
255
255
255
255
255
255
255
255
255
255
255
255
255
255
255
255
255
255
255
255
255
255
255
255
255
255
255
255
255
255
255
255
255
255
255
255
255
255
255
255
255
255
255
255
255
255
255
255
255
255
255
255
255
255
255
255
255
255
255
255
255
255
255
255
255
255
255
255
255
255
255
255
255
255
255
255
255
255
255
255
255
255
255
255
255
255
255
255
255
255
255
255
255
255
255
255
255
255
255
255
255
255
255
255
255
255
255
255
255
255
255
255
255
255
255
255
255
255
255
255
255
255
255
255
255
255
255
255
255
255
255
255
255
255
255
255
255
255
255
255
255
255
255
255
255
255
255
255
255
255
255
255
255
255
255
255
255
255
255
255
255
255
255
255
255
255
255
255
255
255
255
255
255
255
255
255
255
255
255
255
255
255
255
255
255
255
255
255
255
255
255
255
255
255
255
255
255
255
255
255
255
255
255
255
255
255
255
255
255
255
255
255
255
255
255
255
255
255
255
255
255
255
255
255
255
255
255
255
255
255
255
255
255
255
255
255
255
255
255
255
255
255
255
255
255
255
255
255
255
255
255
255
255
255
255
255
255
255
255
255
255
255
255
255
255
255
255
255
255
255
255
255
255
255
255
255
255
255
255
255
254
255
255
254
255
255
253
255
255
254
255
255
254
255
255
254
255
255
250
255
255
247
255
255
249
255
255
245
255
255
245
255
255
245
255
255
245
255
255
245
255
255
245
255
255
245
255
255
243
255
255
243
255
255
241
255
255
241
255
255
240
255
255
238
255
255
239
255
255
239
255
255
239
255
255
255
255
255
255
255
255
255
255
255
255
255
255
255
255
255
255
255
255
255
255
255
255
255
255
255
255
255
255
255
255
255
255
255
255
255
255
255
255
255
255
255
255
255
255
255
255
255
255
255
255
255
255
255
255
255
255
255
255
255
255
255
255
255
255
255
255
255
255
255
255
255
255
255
255
255
255
255
255
255
255
255
255
255
255
255
255
255
255
255
255
255
255
255
255
255
255
255
255
255
255
255
255
255
255
255
255
255
255
255
255
255
255
255
255
255
255
255
255
255
255
255
255
255
255
255
255
255
255
255
255
255
255
255
255
255
255
255
255
255
255
255
255
255
255
255
255
255
255
255
255
255
255
255
255
255
255
255
255
255
255
255
255
255
255
255
255
255
255
255
255
255
255
255
255
255
255
255
255
255
255
255
255
255
255
255
255
255
255
255
255
255
255
255
255
255
255
255
255
255
255
255
255
255
255
255
255
255
255
255
255
255
255
255
255
255
255
255
255
255
255
255
255
255
255
255
255
255
255
255
255
255
255
255
255
255
255
255
255
255
255
255
255
255
255
255
255
255
255
255
255
255
255
255
255
255
255
255
255
255
255
255
255
255
255
255
255
255
255
255
255
255
255
255
255
255
255
255
255
255
255
255
255
255
255
255
255
255
255
255
255
255
255
255
255
255
255
255
255
255
255
255
255
255
255
255
255
255
255
255
255
255
255
255
255
255
255
255
255
255
255
255
255
255
255
255
255
255
255
255
255
255
255
255
255
255
255
255
255
255
255
255
255
255
255
255
255
255
255
255
255
255
255
255
255
255
255
255
255
255
255
255
255
255
255
255
255
255
255
255
255
255
255
255
255
255
255
255
255
255
255
255
255
255
255
255
255
255
255
255
255
255
255
255
255
255
255
255
255
255
255
255
255
255
255
255
255
255
255
255
255
255
255
255
255
255
255
255
255
255
255
255
255
255
255
255
255
255
255
255
255
255
255
255
255
255
255
255
255
255
255
255
255
255
255
255
255
255
255
255
255
255
255
255
255
255
255
255
255
255
255
255
255
255
255
255
255
255
255
255
255
255
255
255
255
255
255
255
255
255
255
255
255
255
255
255
255
255
255
255
255
255
255
255
255
255
255
255
255
255
255
255
255
255
255
255
255
255
255
255
255
255
255
255
255
255
255
255
255
255
255
255
255
255
255
255
255
255
255
255
255
255
254
255
255
254
255
255
254
255
255
254
255
255
250
255
255
248
255
255
247
255
255
245
255
255
244
255
255
243
255
255
243
255
255
242
255
255
243
255
255
242
255
255
240
255
255
241
255
255
240
255
255
239
255
255
239
255
255
239
255
255
239
255
255
239
255
255
238
255
255
255
255
255
255
255
255
255
255
255
255
255
255
255
255
255
255
255
255
255
255
255
255
255
255
255
255
255
255
255
255
255
255
255
255
255
255
255
255
255
255
255
255
255
255
255
255
255
255
255
255
255
255
255
255
255
255
255
255
255
255
255
255
255
255
255
255
255
255
255
255
255
255
255
255
255
255
255
255
255
255
255
255
255
255
255
255
255
255
255
255
255
255
255
255
255
255
255
255
255
255
255
255
255
255
255
255
255
255
255
255
255
255
255
255
255
255
255
255
255
255
255
255
255
255
255
255
255
255
255
255
255
255
255
255
255
255
255
255
255
255
255
255
255
255
255
255
255
255
255
255
255
255
255
255
255
255
255
255
255
255
255
255
255
255
255
255
255
255
255
255
255
255
255
255
255
255
255
255
255
255
255
255
255
255
255
255
255
255
255
255
255
255
255
255
255
255
255
255
255
255
255
255
255
255
255
255
255
255
255
255
255
255
255
255
255
255
255
255
255
255
255
255
255
255
255
255
255
255
255
255
255
255
255
255
255
255
255
255
255
255
255
255
255
255
255
255
255
255
255
255
255
255
255
255
255
255
255
255
255
255
255
255
255
255
255
255
255
255
255
255
255
255
255
255
255
255
255
255
255
255
255
255
255
255
255
255
255
255
255
255
255
255
255
255
255
255
255
255
255
255
255
255
255
255
255
255
255
255
255
255
255
255
255
255
255
255
255
255
255
255
255
255
255
255
255
255
255
255
255
255
255
255
255
255
255
255
255
255
255
255
255
255
255
255
255
255
255
255
255
255
255
255
255
255
255
255
255
255
255
255
255
255
255
255
255
255
255
255
255
255
255
255
255
255
255
255
255
255
255
255
255
255
255
255
255
255
255
255
255
255
255
255
255
255
255
255
255
255
255
255
255
255
255
255
255
255
255
255
255
255
255
255
255
255
255
255
255
255
255
255
255
255
255
255
255
255
255
255
255
255
255
255
255
255
255
255
255
255
255
255
255
255
255
255
255
255
255
255
255
255
255
255
255
255
255
255
255
255
255
255
255
255
255
255
255
255
255
255
255
255
255
255
255
255
255
255
255
255
255
255
255
255
255
255
255
255
255
255
255
255
255
255
255
255
255
255
255
255
255
255
255
255
255
255
255
255
255
254
255
255
255
255
255
255
255
255
255
255
255
255
255
255
255
255
255
255
255
255
255
255
255
254
255
255
254
255
255
254
255
255
253
255
255
250
255
255
248
255
255
247
255
255
245
255
255
244
255
255
243
255
255
241
255
255
240
255
255
240
255
255
240
255
255
239
255
255
240
255
255
240
255
255
239
255
255
237
255
255
238
255
255
238
255
255
237
255
255
236
255
255
255
255
255
255
255
255
255
255
255
255
255
255
255
255
255
255
255
255
255
255
255
255
255
255
255
255
255
255
255
255
255
255
255
255
255
255
255
255
255
255
255
255
255
255
255
255
255
255
255
255
255
255
255
255
255
255
255
255
255
255
255
255
255
255
255
255
255
255
255
255
255
255
255
255
255
255
255
255
255
255
255
255
255
255
255
255
255
255
255
255
255
255
255
255
255
255
255
255
255
255
255
255
255
255
255
255
255
255
255
255
255
255
255
255
255
255
255
255
255
255
255
255
255
255
255
255
255
255
255
255
255
255
255
255
255
255
255
255
255
255
255
255
255
255
255
255
255
255
255
255
255
255
255
255
255
255
255
255
255
255
255
255
255
255
255
255
255
255
255
255
255
255
255
255
255
255
255
255
255
255
255
255
255
255
255
255
255
255
255
255
255
255
255
255
255
255
255
255
255
255
255
255
255
255
255
255
255
255
255
255
255
255
255
255
255
255
255
255
255
255
255
255
255
255
255
255
255
255
255
255
255
255
255
255
255
255
255
255
255
255
255
255
255
255
255
255
255
255
255
255
255
255
255
255
255
255
255
255
255
255
255
255
255
255
255
255
255
255
255
255
255
255
255
255
255
255
255
255
255
255
255
255
255
255
255
255
255
255
255
255
255
255
255
255
255
255
255
255
255
255
255
255
255
255
255
255
255
255
255
255
255
255
255
255
255
255
255
255
255
255
255
255
255
255
255
255
255
255
255
255
255
255
255
255
255
255
255
255
255
255
255
255
255
255
255
255
255
255
255
255
255
255
255
255
255
255
255
255
255
255
255
255
255
255
255
255
255
255
255
255
255
255
255
255
255
255
255
255
255
255
255
255
255
255
255
255
255
255
255
255
255
255
255
255
255
255
255
255
255
255
255
255
255
255
255
255
255
255
255
255
255
255
255
255
255
255
255
255
255
255
255
255
255
255
255
255
255
255
255
255
255
255
255
255
255
255
255
255
255
255
255
255
255
255
255
255
255
255
255
255
255
255
255
255
255
255
255
255
255
255
255
255
255
255
255
255
255
255
255
255
255
255
255
255
255
255
255
255
255
255
255
255
255
255
255
255
255
255
255
255
255
255
255
255
255
255
255
255
255
255
255
255
255
255
254
255
255
254
255
255
254
255
255
255
255
255
255
255
255
255
255
255
255
255
255
255
255
255
254
255
255
254
255
255
254
255
255
252
255
255
252
255
255
249
255
255
247
255
255
246
255
255
244
255
255
244
255
255
243
255
255
239
255
255
238
255
255
238
255
255
238
255
255
238
255
255
239
255
255
239
255
255
237
255
255
235
255
255
235
255
255
235
255
255
234
255
255
233
255
255
255
255
255
255
255
255
255
255
255
255
255
255
255
255
255
255
255
255
255
255
255
255
255
255
255
255
255
255
255
255
255
255
255
255
255
255
255
255
255
255
255
255
255
255
255
255
255
255
255
255
255
255
255
255
255
255
255
255
255
255
255
255
255
255
255
255
255
255
255
255
255
255
255
255
255
255
255
255
255
255
255
255
255
255
255
255
255
255
255
255
255
255
255
255
255
255
255
255
255
255
255
255
255
255
255
255
255
255
255
255
255
255
255
255
255
255
255
255
255
255
255
255
255
255
255
255
255
255
255
255
255
255
255
255
255
255
255
255
255
255
255
255
255
255
255
255
255
255
255
255
255
255
255
255
255
255
255
255
255
255
255
255
255
255
255
255
255
255
255
255
255
255
255
255
255
255
255
255
255
255
255
255
255
255
255
255
255
255
255
255
255
255
255
255
255
255
255
255
255
255
255
255
255
255
255
255
255
255
255
255
255
255
255
255
255
255
255
255
255
255
255
255
255
255
255
255
255
255
255
255
255
255
255
255
255
255
255
255
255
255
255
255
255
255
255
255
255
255
255
255
255
255
255
255
255
255
255
255
255
255
255
255
255
255
255
255
255
255
255
255
255
255
255
255
255
255
255
255
255
255
255
255
255
255
255
255
255
255
255
255
255
255
255
255
255
255
255
255
255
255
255
255
255
255
255
255
255
255
255
255
255
255
255
255
255
255
255
255
255
255
255
255
255
255
255
255
255
255
255
255
255
255
255
255
255
255
255
255
255
255
255
255
255
255
255
255
255
255
255
255
255
255
255
255
255
255
255
255
255
255
255
255
255
255
255
255
255
255
255
255
255
255
255
255
255
255
255
255
255
255
255
255
255
255
255
255
255
255
255
255
255
255
255
255
255
255
255
255
255
255
255
255
255
255
255
255
255
255
255
255
255
255
255
255
255
255
255
255
255
255
255
255
255
255
255
255
255
255
255
255
255
255
255
255
255
255
255
255
255
255
255
255
255
255
255
255
255
255
255
255
255
255
255
255
255
255
255
255
255
255
255
255
255
255
255
255
255
255
255
255
255
255
255
255
255
255
255
255
255
255
255
255
255
255
255
255
255
255
255
255
255
255
255
255
255
255
255
255
255
255
255
254
255
255
252
255
255
253
255
255
254
255
255
254
255
255
255
255
255
255
255
255
255
255
255
255
255
255
255
255
255
254
255
255
254
255
255
253
255
255
251
255
255
249
255
255
247
255
255
245
255
255
240
255
255
241
255
255
240
255
255
236
255
255
235
255
255
237
255
255
238
255
255
238
255
255
238
255
255
238
255
255
238
255
255
236
255
255
235
255
255
237
255
255
235
255
255
229
255
255
255
255
255
255
255
255
255
255
255
255
255
255
255
255
255
255
255
255
255
255
255
255
255
255
255
255
255
255
255
255
255
255
255
255
255
255
255
255
255
255
255
255
255
255
255
255
255
255
255
255
255
255
255
255
255
255
255
255
255
255
255
255
255
255
255
255
255
255
255
255
255
255
255
255
255
255
255
255
255
255
255
255
255
255
255
255
255
255
255
255
255
255
255
255
255
255
255
255
255
255
255
255
255
255
255
255
255
255
255
255
255
255
255
255
255
255
255
255
255
255
255
255
255
255
255
255
255
255
255
255
255
255
255
255
255
255
255
255
255
255
255
255
255
255
255
255
255
255
255
255
255
255
255
255
255
255
255
255
255
255
255
255
255
255
255
255
255
255
255
255
255
255
255
255
255
255
255
255
255
255
255
255
255
255
255
255
255
255
255
255
255
255
255
255
255
255
255
255
255
255
255
255
255
255
255
255
255
255
255
255
255
255
255
255
255
255
255
255
255
255
255
255
255
255
255
255
255
255
255
255
255
255
255
255
255
255
255
255
255
255
255
255
255
255
255
255
255
255
255
255
255
255
255
255
255
255
255
255
255
255
255
255
255
255
255
255
255
255
255
255
255
255
255
255
255
255
255
255
255
255
255
255
255
255
255
255
255
255
255
255
255
255
255
255
255
255
255
255
255
255
255
255
255
255
255
255
255
255
255
255
255
255
255
255
255
255
255
255
255
255
255
255
255
255
255
255
255
255
255
255
255
255
255
255
255
255
255
255
255
255
255
255
255
255
255
255
255
255
255
255
255
255
255
255
255
255
255
255
255
255
255
255
255
255
255
255
255
255
255
255
255
255
255
255
255
255
255
255
255
255
255
255
255
255
255
255
255
255
255
255
255
255
255
255
255
255
255
255
255
255
255
255
255
255
255
255
255
255
255
255
255
255
255
255
255
255
255
255
255
255
255
255
255
255
255
255
255
255
255
255
255
255
255
255
255
255
255
255
255
255
255
255
255
255
255
255
255
255
255
255
255
255
255
255
255
255
255
255
255
255
255
255
255
255
255
255
255
255
255
255
255
255
255
255
255
255
255
255
255
255
255
255
255
255
255
255
255
255
255
255
255
255
255
255
255
254
255
255
254
255
255
253
255
255
254
255
255
253
255
255
255
255
255
255
255
255
255
255
255
255
255
255
255
255
255
255
255
255
254
255
255
254
255
255
253
255
255
253
255
255
252
255
255
249
255
255
247
255
255
245
255
255
241
255
255
239
255
255
237
255
255
235
255
255
235
255
255
237
255
255
239
255
255
240
255
255
240
255
255
240
255
255
239
255
255
237
255
255
235
255
255
237
255
255
235
255
255
230
255
255
255
255
255
255
255
255
255
255
255
255
255
255
255
255
255
255
255
255
255
255
255
255
255
255
255
255
255
255
255
255
255
255
255
255
255
255
255
255
255
255
255
255
255
255
255
255
255
255
255
255
255
255
255
255
255
255
255
255
255
255
255
255
255
255
255
255
255
255
255
255
255
255
255
255
255
255
255
255
255
255
255
255
255
255
255
255
255
255
255
255
255
255
255
255
255
255
255
255
255
255
255
255
255
255
255
255
255
255
255
255
255
255
255
255
255
255
255
255
255
255
255
255
255
255
255
255
255
255
255
255
255
255
255
255
255
255
255
255
255
255
255
255
255
255
255
255
255
255
255
255
255
255
255
255
255
255
255
255
255
255
255
255
255
255
255
255
255
255
255
255
255
255
255
255
255
255
255
255
255
255
255
255
255
255
255
255
255
255
255
255
255
255
255
255
255
255
255
255
255
255
255
255
255
255
255
255
255
255
255
255
255
255
255
255
255
255
255
255
255
255
255
255
255
255
255
255
255
255
255
255
255
255
255
255
255
255
255
255
255
255
255
255
255
255
255
255
255
255
255
255
255
255
255
255
255
255
255
255
255
255
255
255
255
255
255
255
255
255
255
255
255
255
255
255
255
255
255
255
255
255
255
255
255
255
255
255
255
255
255
255
255
255
255
255
255
255
255
255
255
255
255
255
255
255
255
255
255
255
255
255
255
255
255
255
255
255
255
255
255
255
255
255
255
255
255
255
255
255
255
255
255
255
255
255
255
255
255
255
255
255
255
255
255
255
255
255
255
255
255
255
255
255
255
255
255
255
255
255
255
255
255
255
255
255
255
255
255
255
255
255
255
255
255
255
255
255
255
255
255
255
255
255
255
255
255
255
255
255
255
255
255
255
255
255
255
255
255
255
255
255
255
255
255
255
255
255
255
255
255
255
255
255
255
255
255
255
255
255
255
255
255
255
255
255
255
255
255
255
255
255
255
255
255
255
255
255
255
255
255
255
255
255
255
255
255
255
255
255
255
255
255
255
255
255
255
255
255
255
255
255
255
255
255
255
255
255
255
255
255
255
255
255
255
255
255
255
255
255
255
255
255
255
255
255
255
255
255
255
255
255
255
255
255
255
255
254
255
255
254
255
255
253
255
255
255
255
255
254
255
255
255
255
255
255
255
255
255
255
255
254
255
255
254
255
255
255
255
255
254
255
255
254
255
255
253
255
255
251
255
255
251
255
255
249
255
255
247
255
255
245
255
255
242
255
255
239
255
255
237
255
255
236
255
255
236
255
255
237
255
255
239
255
255
242
255
255
243
255
255
243
255
255
242
255
255
239
255
255
238
255
255
239
255
255
236
255
255
231
255
255
255
255
255
255
255
255
255
255
255
255
255
255
255
255
255
255
255
255
255
255
255
255
255
255
255
255
255
255
255
255
255
255
255
255
255
255
255
255
255
255
255
255
255
255
255
255
255
255
255
255
255
255
255
255
255
255
255
255
255
255
255
255
255
255
255
255
255
255
255
255
255
255
255
255
255
255
255
255
255
255
255
255
255
255
255
255
255
255
255
255
255
255
255
255
255
255
255
255
255
255
255
255
255
255
255
255
255
255
255
255
255
255
255
255
255
255
255
255
255
255
255
255
255
255
255
255
255
255
255
255
255
255
255
255
255
255
255
255
255
255
255
255
255
255
255
255
255
255
255
255
255
255
255
255
255
255
255
255
255
255
255
255
255
255
255
255
255
255
255
255
255
255
255
255
255
255
255
255
255
255
255
255
255
255
255
255
255
255
255
255
255
255
255
255
255
255
255
255
255
255
255
255
255
255
255
255
255
255
255
255
255
255
255
255
255
255
255
255
255
255
255
255
255
255
255
255
255
255
255
255
255
255
255
255
255
255
255
255
255
255
255
255
255
255
255
255
255
255
255
255
255
255
255
255
255
255
255
255
255
255
255
255
255
255
255
255
255
255
255
255
255
255
255
255
255
255
255
255
255
255
255
255
255
255
255
255
255
255
255
255
255
255
255
255
255
255
255
255
255
255
255
255
255
255
255
255
255
255
255
255
255
255
255
255
255
255
255
255
255
255
255
255
255
255
255
255
255
255
255
255
255
255
255
255
255
255
255
255
255
255
255
255
255
255
255
255
255
255
255
255
255
255
255
255
255
255
255
255
255
255
255
255
255
255
255
255
255
255
255
255
255
255
255
255
255
255
255
255
255
255
255
255
255
255
255
255
255
255
255
255
255
255
255
255
255
255
255
255
255
255
255
255
255
255
255
255
255
255
255
255
255
255
255
255
255
255
255
255
255
255
255
255
255
255
255
255
255
255
255
255
255
255
255
255
255
255
255
255
255
255
255
255
255
255
255
255
255
255
255
255
255
255
255
255
255
255
255
255
255
255
255
255
255
255
255
255
255
255
255
255
255
255
255
255
255
255
255
255
255
255
255
255
255
255
255
255
255
255
255
255
255
255
255
255
255
255
255
255
254
255
255
254
255
255
255
255
255
255
255
255
255
255
255
255
255
255
255
255
255
255
255
255
254
255
255
254
255
255
254
255
255
254
255
255
252
255
255
250
255
255
250
255
255
248
255
255
247
255
255
247
255
255
242
255
255
240
255
255
239
255
255
238
255
255
238
255
255
237
255
255
239
255
255
242
255
255
245
255
255
245
255
255
245
255
255
242
255
255
240
255
255
239
255
255
236
255
255
236
255
255
255
255
255
255
255
255
255
255
255
255
255
255
255
255
255
255
255
255
255
255
255
255
255
255
255
255
255
255
255
255
255
255
255
255
255
255
255
255
255
255
255
255
255
255
255
255
255
255
255
255
255
255
255
255
255
255
255
255
255
255
255
255
255
255
255
255
255
255
255
255
255
255
255
255
255
255
255
255
255
255
255
255
255
255
255
255
255
255
255
255
255
255
255
255
255
255
255
255
255
255
255
255
255
255
255
255
255
255
255
255
255
255
255
255
255
255
255
255
255
255
255
255
255
255
255
255
255
255
255
255
255
255
255
255
255
255
255
255
255
255
255
255
255
255
255
255
255
255
255
255
255
255
255
255
255
255
255
255
255
255
255
255
255
255
255
255
255
255
255
255
255
255
255
255
255
255
255
255
255
255
255
255
255
255
255
255
255
255
255
255
255
255
255
255
255
255
255
255
255
255
255
255
255
255
255
255
255
255
255
255
255
255
255
255
255
255
255
255
255
255
255
255
255
255
255
255
255
255
255
255
255
255
255
255
255
255
255
255
255
255
255
255
255
255
255
255
255
255
255
255
255
255
255
255
255
255
255
255
255
255
255
255
255
255
255
255
255
255
255
255
255
255
255
255
255
255
255
255
255
255
255
255
255
255
255
255
255
255
255
255
255
255
255
255
255
255
255
255
255
255
255
255
255
255
255
255
255
255
255
255
255
255
255
255
255
255
255
255
255
255
255
255
255
255
255
255
255
255
255
255
255
255
255
255
255
255
255
255
255
255
255
255
255
255
255
255
255
255
255
255
255
255
255
255
255
255
255
255
255
255
255
255
255
255
255
255
255
255
255
255
255
255
255
255
255
255
255
255
255
255
255
255
255
255
255
255
255
255
255
255
255
255
255
255
255
255
255
255
255
255
255
255
255
255
255
255
255
255
255
255
255
255
255
255
255
255
255
255
255
255
255
255
255
255
255
255
255
255
255
255
255
255
255
255
255
255
255
255
255
255
255
255
255
255
255
255
255
255
255
255
255
255
255
255
255
255
255
255
255
255
255
255
255
255
255
255
255
255
255
255
255
255
255
255
255
255
255
255
255
255
255
255
255
255
255
255
255
255
255
255
255
255
255
255
255
255
255
255
254
255
255
253
255
255
255
255
255
255
255
255
255
255
255
255
255
255
255
255
255
255
255
255
254
255
255
254
255
255
253
255
255
254
255
255
254
255
255
252
255
255
252
255
255
249
255
255
247
255
255
247
255
255
242
255
255
240
255
255
240
255
255
241
255
255
241
255
255
238
255
255
239
255
255
242
255
255
243
255
255
243
255
255
243
255
255
243
255
255
242
255
255
238
255
255
237
255
255
236
255
255
255
255
255
255
255
255
255
255
255
255
255
255
255
255
255
255
255
255
255
255
255
255
255
255
255
255
255
255
255
255
255
255
255
255
255
255
255
255
255
255
255
255
255
255
255
255
255
255
255
255
255
255
255
255
255
255
255
255
255
255
255
255
255
255
255
255
255
255
255
255
255
255
255
255
255
255
255
255
255
255
255
255
255
255
255
255
255
255
255
255
255
255
255
255
255
255
255
255
255
255
255
255
255
255
255
255
255
255
255
255
255
255
255
255
255
255
255
255
255
255
255
255
255
255
255
255
255
255
255
255
255
255
255
255
255
255
255
255
255
255
255
255
255
255
255
255
255
255
255
255
255
255
255
255
255
255
255
255
255
255
255
255
255
255
255
255
255
255
255
255
255
255
255
255
255
255
255
255
255
255
255
255
255
255
255
255
255
255
255
255
255
255
255
255
255
255
255
255
255
255
255
255
255
255
255
255
255
255
255
255
255
255
255
255
255
255
255
255
255
255
255
255
255
255
255
255
255
255
255
255
255
255
255
255
255
255
255
255
255
255
255
255
255
255
255
255
255
255
255
255
255
255
255
255
255
255
255
255
255
255
255
255
255
255
255
255
255
255
255
255
255
255
255
255
255
255
255
255
255
255
255
255
255
255
255
255
255
255
255
255
255
255
255
255
255
255
255
255
255
255
255
255
255
255
255
255
255
255
255
255
255
255
255
255
255
255
255
255
255
255
255
255
255
255
255
255
255
255
255
255
255
255
255
255
255
255
255
255
255
255
255
255
255
255
255
255
255
255
255
255
255
255
255
255
255
255
255
255
255
255
255
255
255
255
255
255
255
255
255
255
255
255
255
255
255
255
255
255
255
255
255
255
255
255
255
255
255
255
255
255
255
255
255
255
255
255
255
255
255
255
255
255
255
255
255
255
255
255
255
255
255
255
255
255
255
255
255
255
255
255
255
255
255
255
255
255
255
255
255
255
255
255
255
255
255
255
255
255
255
255
255
255
255
255
255
255
255
255
255
255
255
255
255
255
255
255
255
255
255
255
255
255
255
255
255
255
255
255
255
255
255
255
255
255
255
255
255
255
255
255
255
255
255
255
255
255
255
255
255
255
255
255
255
255
255
255
255
255
255
255
255
255
255
255
255
255
255
255
255
255
255
255
255
255
255
255
255
255
255
255
255
255
254
255
255
254
255
255
255
255
255
254
255
255
254
255
255
255
255
255
254
255
255
250
255
255
249
255
255
247
255
255
244
255
255
245
255
255
243
255
255
242
255
255
242
255
255
239
255
255
240
255
255
244
255
255
244
255
255
243
255
255
243
255
255
243
255
255
241
255
255
238
255
255
236
255
255
236
255
255
255
255
255
255
255
255
255
255
255
255
255
255
255
255
255
255
255
255
255
255
255
255
255
255
255
255
255
255
255
255
255
255
255
255
255
255
255
255
255
255
255
255
255
255
255
255
255
255
255
255
255
255
255
255
255
255
255
255
255
255
255
255
255
255
255
255
255
255
255
255
255
255
255
255
255
255
255
255
255
255
255
255
255
255
255
255
255
255
255
255
255
255
255
255
255
255
255
255
255
255
255
255
255
255
255
255
255
255
255
255
255
255
255
255
255
255
255
255
255
255
255
255
255
255
255
255
255
255
255
255
255
255
255
255
255
255
255
255
255
255
255
255
255
255
255
255
255
255
255
255
255
255
255
255
255
255
255
255
255
255
255
255
255
255
255
255
255
255
255
255
255
255
255
255
255
255
255
255
255
255
255
255
255
255
255
255
255
255
255
255
255
255
255
255
255
255
255
255
255
255
255
255
255
255
255
255
255
255
255
255
255
255
255
255
255
255
255
255
255
255
255
255
255
255
255
255
255
255
255
255
255
255
255
255
255
255
255
255
255
255
255
255
255
255
255
255
255
255
255
255
255
255
255
255
255
255
255
255
255
255
255
255
255
255
255
255
255
255
255
255
255
255
255
255
255
255
255
255
255
255
255
255
255
255
255
255
255
255
255
255
255
255
255
255
255
255
255
255
255
255
255
255
255
255
255
255
255
255
255
255
255
255
255
255
255
255
255
255
255
255
255
255
255
255
255
255
255
255
255
255
255
255
255
255
255
255
255
255
255
255
255
255
255
255
255
255
255
255
255
255
255
255
255
255
255
255
255
255
255
255
255
255
255
255
255
255
255
255
255
255
255
255
255
255
255
255
255
255
255
255
255
255
255
255
255
255
255
255
255
255
255
255
255
255
255
255
255
255
255
255
255
255
255
255
255
255
255
255
255
255
255
255
255
255
255
255
255
255
255
255
255
255
255
255
255
255
255
255
255
255
255
255
255
255
255
255
255
255
255
255
255
255
255
255
255
255
255
255
255
255
255
255
255
255
255
255
255
255
255
255
255
255
255
255
255
255
255
255
255
255
255
255
255
255
255
255
255
255
255
255
255
255
255
255
255
255
255
255
255
255
255
255
255
255
255
255
255
255
255
255
255
255
255
255
255
255
255
255
255
255
255
255
255
255
255
255
255
255
255
255
255
255
255
255
255
255
255
255
255
255
255
255
255
255
255
255
255
255
255
255
255
255
255
252
255
255
250
255
255
248
255
255
247
255
255
247
255
255
246
255
255
245
255
255
245
255
255
243
255
255
245
255
255
246
255
255
246
255
255
245
255
255
245
255
255
245
255
255
243
255
255
240
255
255
239
255
255
239
255
255
255
255
255
255
255
255
255
255
255
255
255
255
255
255
255
255
255
255
255
255
255
255
255
255
255
255
255
255
255
255
255
255
255
255
255
255
255
255
255
255
255
255
255
255
255
255
255
255
255
255
255
255
255
255
255
255
255
255
255
255
255
255
255
255
255
255
255
255
255
255
255
255
255
255
255
255
255
255
255
255
255
255
255
255
255
255
255
255
255
255
255
255
255
255
255
255
255
255
255
255
255
255
255
255
255
255
255
255
255
255
255
255
255
255
255
255
255
255
255
255
255
255
255
255
255
255
255
255
255
255
255
255
255
255
255
255
255
255
255
255
255
255
255
255
255
255
255
255
255
255
255
255
255
255
255
255
255
255
255
255
255
255
255
255
255
255
255
255
255
255
255
255
255
255
255
255
255
255
255
255
255
255
255
255
255
255
255
255
255
255
255
255
255
255
255
255
255
255
255
255
255
255
255
255
255
255
255
255
255
255
255
255
255
255
255
255
255
255
255
255
255
255
255
255
255
255
255
255
255
255
255
255
255
255
255
255
255
255
255
255
255
255
255
255
255
255
255
255
255
255
255
255
255
255
255
255
255
255
255
255
255
255
255
255
255
255
255
255
255
255
255
255
255
255
255
255
255
255
255
255
255
255
255
255
255
255
255
255
255
255
255
255
255
255
255
255
255
255
255
255
255
255
255
255
255
255
255
255
255
255
255
255
255
255
255
255
255
255
255
255
255
255
255
255
255
255
255
255
255
255
255
255
255
255
255
255
255
255
255
255
255
255
255
255
255
255
255
255
255
255
255
255
255
255
255
255
255
255
255
255
255
255
255
255
255
255
255
255
255
255
255
255
255
255
255
255
255
255
255
255
255
255
255
255
255
255
255
255
255
255
255
255
255
255
255
255
255
255
255
255
255
255
255
255
255
255
255
255
255
255
255
255
255
255
255
255
255
255
255
255
255
255
255
255
255
255
255
255
255
255
255
255
255
255
255
255
255
255
255
255
255
255
255
255
255
255
255
255
255
255
255
255
255
255
255
255
255
255
255
255
255
255
255
255
255
255
255
255
255
255
255
255
255
255
255
255
255
255
255
255
255
255
255
255
255
255
255
255
255
255
255
255
255
255
255
255
255
255
255
255
255
255
255
255
255
255
255
255
255
255
255
255
255
255
255
255
255
255
255
255
255
255
255
255
255
255
255
255
255
255
255
255
255
255
255
255
255
255
255
255
255
255
255
253
255
255
251
255
255
251
255
255
250
255
255
249
255
255
248
255
255
248
255
255
247
255
255
246
255
255
247
255
255
250
255
255
249
255
255
249
255
255
249
255
255
247
255
255
246
255
255
242
255
255
239
255
255
241
255
255
255
255
255
255
255
255
255
255
255
255
255
255
255
255
255
255
255
255
255
255
255
255
255
255
255
255
255
255
255
255
255
255
255
255
255
255
255
255
255
255
255
255
255
255
255
255
255
255
255
255
255
255
255
255
255
255
255
255
255
255
255
255
255
255
255
255
255
255
255
255
255
255
255
255
255
255
255
255
255
255
255
255
255
255
255
255
255
255
255
255
255
255
255
255
255
255
255
255
255
255
255
255
255
255
255
255
255
255
255
255
255
255
255
255
255
255
255
255
255
255
255
255
255
255
255
255
255
255
255
255
255
255
255
255
255
255
255
255
255
255
255
255
255
255
255
255
255
255
255
255
255
255
255
255
255
255
255
255
255
255
255
255
255
255
255
255
255
255
255
255
255
255
255
255
255
255
255
255
255
255
255
255
255
255
255
255
255
255
255
255
255
255
255
255
255
255
255
255
255
255
255
255
255
255
255
255
255
255
255
255
255
255
255
255
255
255
255
255
255
255
255
255
255
255
255
255
255
255
255
255
255
255
255
255
255
255
255
255
255
255
255
255
255
255
255
255
255
255
255
255
255
255
255
255
255
255
255
255
255
255
255
255
255
255
255
255
255
255
255
255
255
255
255
255
255
255
255
255
255
255
255
255
255
255
255
255
255
255
255
255
255
255
255
255
255
255
255
255
255
255
255
255
255
255
255
255
255
255
255
255
255
255
255
255
255
255
255
255
255
255
255
255
255
255
255
255
255
255
255
255
255
255
255
255
255
255
255
255
255
255
255
255
255
255
255
255
255
255
255
255
255
255
255
255
255
255
255
255
255
255
255
255
255
255
255
255
255
255
255
255
255
255
255
255
255
255
255
255
255
255
255
255
255
255
255
255
255
255
255
255
255
255
255
255
255
255
255
255
255
255
255
255
255
255
255
255
255
255
255
255
255
255
255
255
255
255
255
255
255
255
255
255
255
255
255
255
255
255
255
255
255
255
255
255
255
255
255
255
255
255
255
255
255
255
255
255
255
255
255
255
255
255
255
255
255
255
255
255
255
255
255
255
255
255
255
255
255
255
255
255
255
255
255
255
255
255
255
255
255
255
255
255
255
255
255
255
255
255
255
255
255
255
255
255
255
255
255
255
255
255
255
255
255
255
255
255
255
255
255
255
255
255
255
255
255
255
255
255
255
255
255
255
255
255
255
255
255
255
255
255
255
255
255
255
255
255
255
255
255
255
255
255
255
255
255
255
255
255
255
254
255
255
251
255
255
251
255
255
252
255
255
253
255
255
253
255
255
251
255
255
251
255
255
254
255
255
255
255
255
255
255
255
255
255
255
254
255
255
254
255
255
253
255
255
252
255
255
250
255
255
255
255
255
255
255
255
255
255
255
255
255
255
255
255
255
255
255
255
255
255
255
255
255
255
255
255
255
255
255
255
255
255
255
255
255
255
255
255
255
255
255
255
255
255
255
255
255
255
255
255
255
255
255
255
255
255
255
255
255
255
255
255
255
255
255
255
255
255
255
255
255
255
255
255
255
255
255
255
255
255
255
255
255
255
255
255
255
255
255
255
255
255
255
255
255
255
255
255
255
255
255
255
255
255
255
255
255
255
255
255
255
255
255
255
255
255
255
255
255
255
255
255
255
255
255
255
255
255
255
255
255
255
255
255
255
255
255
255
255
255
255
255
255
255
255
255
255
255
255
255
255
255
255
255
255
255
255
255
255
255
255
255
255
255
255
255
255
255
255
255
255
255
255
255
255
255
255
255
255
255
255
255
255
255
255
255
255
255
255
255
255
255
255
255
255
255
255
255
255
255
255
255
255
255
255
255
255
255
255
255
255
255
255
255
255
255
255
255
255
255
255
255
255
255
255
255
255
255
255
255
255
255
255
255
255
255
255
255
255
255
255
255
255
255
255
255
255
255
255
255
255
255
255
255
255
255
255
255
255
255
255
255
255
255
255
255
255
255
255
255
255
255
255
255
255
255
255
255
255
255
255
255
255
255
255
255
255
255
255
255
255
255
255
255
255
255
255
255
255
255
255
255
255
255
255
255
255
255
255
255
255
255
255
255
255
255
255
255
255
255
255
255
255
255
255
255
255
255
255
255
255
255
255
255
255
255
255
255
255
255
255
255
255
255
255
255
255
255
255
255
255
255
255
255
255
255
255
255
255
255
255
255
255
255
255
255
255
255
255
255
255
255
255
255
255
255
255
255
255
255
255
255
255
255
255
255
255
255
255
255
255
255
255
255
255
255
255
255
255
255
255
255
255
255
255
255
255
255
255
255
255
255
255
255
255
255
255
255
255
255
255
255
255
255
255
255
255
255
255
255
255
255
255
255
255
255
255
255
255
255
255
255
255
255
255
255
255
255
255
255
255
255
255
255
255
255
255
255
255
255
255
255
255
255
255
255
255
255
255
255
255
255
255
255
255
255
255
255
255
255
255
255
255
255
255
255
255
255
255
255
255
255
255
255
255
255
255
255
255
255
255
255
255
255
255
255
255
255
255
255
255
255
255
255
255
255
255
255
255
255
255
255
255
255
255
255
255
255
255
255
255
255
255
255
255
255
255
255
255
255
255
255
255
255
255
255
255
255
255
255
255
255
255
255
255
255
255
255
255
255
255
255
255
255
255
255
255
255
255
255
255
255
255
255
255
255
255
255
255
255
255
255
255
255
255
255
255
255
255
255
255
255
255
255
255
255
255
255
255
255
255
255
255
255
255
255
255
255
255
255
255
255
255
255
255
255
255
255
255
255
255
255
255
255
255
255
255
255
255
255
255
255
255
255
255
255
255
255
255
255
255
255
255
255
255
255
255
255
255
255
255
255
255
255
255
255
255
255
255
255
255
255
255
255
255
255
255
255
255
255
255
255
255
255
255
255
255
255
255
255
255
255
255
255
255
255
255
255
255
255
255
255
255
255
255
255
255
255
255
255
255
255
255
255
255
255
255
255
255
255
255
255
255
255
255
255
255
255
255
255
255
255
255
255
255
255
255
255
255
255
255
255
255
255
255
255
255
255
255
255
255
255
255
255
255
255
255
255
255
255
255
255
255
255
255
255
255
255
255
255
255
255
255
255
255
255
255
255
255
255
255
255
255
255
255
255
255
255
255
255
255
255
255
255
255
255
255
255
255
255
255
255
255
255
255
255
255
255
255
255
255
255
255
255
255
255
255
255
255
255
255
255
255
255
255
255
255
255
255
255
255
255
255
255
255
255
255
255
255
255
255
255
255
255
255
255
255
255
255
255
255
255
255
255
255
255
255
255
255
255
255
255
255
255
255
255
255
255
255
255
255
255
255
255
255
255
255
255
255
255
255
255
255
255
255
255
255
255
255
255
255
255
255
255
255
255
255
255
255
255
255
255
255
255
255
255
255
255
255
255
255
255
255
255
255
255
255
255
255
255
255
255
255
255
255
255
255
255
255
255
255
255
255
255
255
255
255
255
255
255
255
255
255
255
255
255
255
255
255
255
255
255
255
255
255
255
255
255
255
255
255
255
255
255
255
255
255
255
255
255
255
255
255
255
255
255
255
255
255
255
255
255
255
255
255
255
255
255
255
255
255
255
255
255
255
255
255
255
255
255
255
255
255
255
255
255
255
255
255
255
255
255
255
255
255
255
255
255
255
255
255
255
255
255
255
255
255
255
255
255
255
255
255
255
255
255
255
255
255
255
255
255
255
255
255
255
255
255
255
255
255
255
255
255
255
255
255
255
255
255
255
255
255
255
255
255
255
255
255
255
255
255
255
255
255
255
255
255
255
255
255
255
255
255
255
255
255
255
255
255
255
255
255
255
255
255
255
255
255
255
255
255
255
255
255
255
255
255
255
255
255
255
255
255
255
255
255
255
255
255
255
255
255
255
255
255
255
255
255
255
255
255
255
255
255
255
255
255
255
255
255
255
255
255
255
255
255
255
255
255
255
255
255
255
255
255
255
255
255
255
255
255
255
255
255
255
255
255
255
255
255
255
255
255
255
255
255
255
255
255
255
255
255
255
255
255
255
255
255
255
255
255
255
255
255
255
255
255
255
255
255
255
255
255
255
255
255
255
255
255
255
255
255
255
255
255
255
255
255
255
255
255
255
255
255
255
255
255
255
255
255
255
255
255
255
255
255
255
255
255
255
255
255
255
255
255
255
255
255
255
255
255
255
255
255
255
255
255
255
255
255
255
255
255
255
255
255
255
255
255
255
255
255
255
255
255
255
255
255
255
255
255
255
255
255
255
255
255
255
255
255
255
255
255
255
255
255
255
255
255
255
255
255
255
255
255
255
255
255
255
255
255
255
255
255
255
255
255
255
255
255
255
255
255
255
255
255
255
255
255
255
255
255
255
255
255
255
255
255
255
255
255
255
255
255
255
255
255
255
255
255
255
255
255
255
255
255
255
255
255
255
255
255
255
255
255
255
255
255
255
255
255
255
255
255
255
255
255
255
255
255
255
255
255
255
255
255
255
255
255
255
255
255
255
255
255
255
255
255
255
255
255
255
255
255
255
255
255
255
255
255
255
255
255
255
255
255
255
255
255
255
255
255
255
255
255
255
255
255
255
255
255
255
255
255
255
255
255
255
255
255
255
255
255
255
255
255
255
255
255
255
255
255
255
255
255
255
255
255
255
255
255
255
255
255
255
255
255
255
255
255
255
255
255
255
255
255
255
255
255
255
255
255
255
255
255
255
255
255
255
255
255
255
255
255
255
255
255
255
255
255
255
255
255
255
255
255
255
255
255
255
255
255
255
255
255
255
255
255
255
255
255
255
255
255
255
255
255
255
255
255
255
255
255
255
255
255
255
255
255
255
255
255
255
255
255
255
255
255
255
255
255
255
255
255
255
255
255
255
255
255
255
255
255
255
255
255
255
255
255
255
255
255
255
255
255
255
255
255
255
255
255
255
255
255
255
255
255
255
255
255
255
255
255
255
255
255
255
255
255
255
255
255
255
255
255
255
255
255
255
255
255
255
255
255
255
255
255
255
255
255
255
255
255
255
255
255
255
255
255
255
255
255
255
255
255
255
255
255
255
255
255
255
255
255
255
255
255
255
255
255
255
255
255
255
255
255
255
255
255
255
255
255
255
255
255
255
255
255
255
255
255
255
255
255
255
255
255
255
255
255
255
255
255
255
255
255
255
255
255
255
255
255
255
255
255
255
255
255
255
255
255
255
255
255
255
255
255
255
255
255
255
255
255
255
255
255
255
255
255
255
255
255
255
255
255
255
255
255
255
255
255
255
255
255
255
255
255
255
255
255
255
255
255
255
255
255
255
255
255
255
255
255
255
255
255
255
255
255
255
255
255
255
255
255
255
255
255
255
255
255
255
255
255
255
255
255
255
255
255
255
255
255
255
255
255
255
255
255
255
255
255
255
255
255
255
255
255
255
255
255
255
255
255
255
255
255
255
255
255
255
255
255
255
255
255
255
255
255
255
255
255
255
255
255
255
255
255
255
255
255
255
255
255
255
255
255
255
255
255
255
255
255
255
255
255
255
255
255
255
255
255
255
255
255
255
255
255
255
255
255
255
255
255
255
255
255
255
255
255
255
255
255
255
255
255
255
255
255
255
255
255
255
255
255
255
255
255
255
255
255
255
255
255
255
255
255
255
255
255
255
255
255
255
255
255
255
255
255
255
255
255
255
255
255
255
255
255
255
255
255
255
255
255
255
255
255
255
255
255
255
255
255
255
255
255
255
255
255
255
255
255
255
255
255
255
255
255
255
255
255
255
255
255
255
255
255
255
255
255
255
255
255
255
255
255
255
255
255
255
255
255
255
255
255
255
255
255
255
255
255
255
255
255
255
255
255
255
255
255
255
255
255
255
255
255
255
255
255
255
255
255
255
255
255
255
255
255
255
255
255
255
255
255
255
255
255
255
255
255
255
255
255
255
255
255
255
255
255
255
255
255
255
255
255
255
255
255
255
255
255
255
255
255
255
255
255
255
255
255
255
255
255
255
255
255
255
255
255
255
255
255
255
255
255
255
255
255
255
255
255
255
255
255
255
255
255
255
255
255
255
255
255
255
255
255
255
255
255
255
255
255
255
255
255
255
255
255
255
255
255
255
255
255
255
255
255
255
255
255
255
255
255
255
255
255
255
255
255
255
255
255
255
255
255
255
255
255
255
255
255
255
255
255
255
255
255
255
255
255
255
255
255
255
255
255
255
255
255
255
255
255
255
255
255
255
255
255
255
255
255
255
255
255
255
255
255
255
255
255
255
255
255
255
255
255
255
255
255
255
255
255
255
255
255
255
255
255
255
255
255
255
255
255
255
255
255
255
255
255
255
255
255
255
255
255
255
255
255
255
255
255
255
255
255
255
255
255
255
255
255
255
255
255
255
255
255
255
255
255
255
255
255
255
255
255
255
255
255
255
255
255
255
255
255
255
255
255
255
255
255
255
255
255
255
255
255
255
255
255
255
255
255
255
255
255
255
255
255
255
255
255
255
255
255
255
255
255
255
255
255
255
255
255
255
255
255
255
255
255
255
255
255
255
255
255
255
255
255
255
255
255
255
255
255
255
255
255
255
255
255
255
255
255
255
255
255
255
255
255
255
255
255
255
255
255
255
255
255
255
255
255
255
255
255
255
255
255
255
255
255
255
255
255
255
255
255
255
255
255
255
255
255
255
255
255
255
255
255
255
255
255
255
255
255
255
255
255
255
255
255
255
255
255
255
255
255
255
255
255
255
255
255
255
255
255
255
255
255
255
255
255
255
255
255
255
255
255
255
255
255
255
255
255
255
255
255
255
255
255
255
255
255
255
255
255
255
255
255
255
255
255
255
255
255
255
255
255
255
255
255
255
255
255
255
255
255
255
255
255
255
255
255
255
255
255
255
255
255
255
255
255
255
255
255
255
255
255
255
255
255
255
255
255
255
255
255
255
255
255
255
255
255
255
255
255
255
255
255
255
255
255
255
255
255
255
255
255
255
255
255
255
255
255
255
255
255
255
255
255
255
255
255
255
255
255
255
255
255
255
255
255
255
255
255
255
255
255
255
255
255
255
255
255
255
255
255
255
255
255
255
255
255
255
255
255
255
255
255
255
255
255
255
255
255
255
255
255
255
255
255
255
255
255
255
255
255
255
255
255
255
255
255
255
255
255
255
255
255
255
255
255
255
255
255
255
255
255
255
255
255
255
255
255
255
255
255
255
255
255
255
255
255
255
255
255
255
255
255
255
255
255
255
255
255
255
255
255
255
255
255
255
255
255
255
255
255
255
255
255
255
255
255
255
255
255
255
255
255
255
255
255
255
255
255
255
255
255
255
255
255
255
255
255
255
255
255
255
255
255
255
255
255
255
255
255
255
255
255
255
255
255
255
255
255
255
255
255
255
255
255
255
255
255
255
255
255
255
255
255
255
255
255
255
255
255
255
255
255
255
255
255
255
255
255
255
255
255
255
255
255
255
255
255
255
255
255
255
255
255
255
255
255
255
255
255
255
255
255
255
255
255
255
255
255
255
255
255
255
255
255
255
255
255
255
255
255
255
255
255
255
255
255
255
255
255
255
255
255
255
255
255
255
255
255
255
255
255
255
255
255
255
255
255
255
255
255
255
255
255
255
255
255
255
255
255
255
255
255
255
255
255
255
255
255
255
255
255
255
255
255
255
255
255
255
255
255
255
255
255
255
255
255
255
255
255
255
255
255
255
255
255
255
255
255
255
255
255
255
255
255
255
255
255
255
255
255
255
255
255
255
255
255
255
255
255
255
255
255
255
255
255
255
255
255
255
255
255
255
255
255
255
255
255
255
255
255
255
255
255
255
255
255
255
255
255
255
255
255
255
255
255
255
255
255
255
255
255
255
255
255
255
255
255
255
255
255
255
255
255
255
255
255
255
255
255
255
255
255
255
255
255
255
255
255
255
255
255
255
255
255
255
255
255
255
255
255
255
255
255
255
255
255
255
255
255
255
255
255
255
255
255
255
255
255
255
255
255
255
255
255
255
255
255
255
255
255
255
255
255
255
255
255
255
255
255
255
255
255
255
255
255
255
255
255
255
255
255
255
255
255
255
255
255
255
255
255
255
255
255
255
255
255
255
255
255
255
255
255
255
255
255
255
255
255
255
255
255
255
255
255
255
255
255
255
255
255
255
255
255
255
255
255
255
255
255
255
255
255
255
255
255
255
255
255
255
255
255
255
255
255
255
255
255
255
255
255
255
255
255
255
255
255
255
255
255
255
255
255
255
255
255
255
255
255
255
255
255
255
255
255
255
255
255
255
255
255
255
255
255
255
255
255
255
255
255
255
255
255
255
255
255
255
255
255
255
255
255
255
255
255
255
255
255
255
255
255
255
255
255
255
255
255
255
255
255
255
255
255
255
255
255
255
255
255
255
255
255
255
255
255
255
255
255
255
255
255
255
255
255
255
255
255
255
255
255
255
255
255
255
255
255
255
255
255
255
255
255
255
255
255
255
255
255
255
255
255
255
255
255
255
255
255
255
255
255
255
255
255
255
255
255
255
255
255
255
255
255
255
255
255
255
255
255
255
255
255
255
255
255
255
255
255
255
255
255
255
255
255
255
255
255
255
255
255
255
255
255
255
255
255
255
255
255
255
255
255
255
255
255
255
255
255
255
255
255
255
255
255
255
255
255
255
255
255
255
255
255
255
255
255
255
255
255
255
255
255
255
255
255
255
255
255
255
255
255
255
255
255
255
255
255
255
255
255
255
255
255
255
255
255
255
255
255
255
255
255
255
255
255
255
255
255
255
255
255
255
255
255
255
255
255
255
255
255
255
255
255
255
255
255
255
255
255
255
255
255
255
255
255
255
255
255
255
255
255
255
255
255
255
255
255
255
255
255
255
255
255
255
255
255
255
255
255
255
255
255
255
255
255
255
255
255
255
255
255
255
255
255
255
255
255
255
255
255
255
255
255
255
255
255
255
255
255
255
255
255
255
255
255
255
255
255
255
255
255
255
255
255
255
255
255
255
255
255
255
255
255
255
255
255
255
255
255
255
255
255
255
255
255
255
255
255
255
255
255
255
255
255
255
255
255
255
255
255
255
255
255
255
255
255
255
255
255
255
255
255
255
255
255
255
255
255
255
255
255
255
255
255
255
255
255
255
255
255
255
255
255
255
255
255
255
255
255
255
255
255
255
255
255
255
255
255
255
255
255
255
255
255
255
255
255
255
255
255
255
255
255
255
255
255
255
255
255
255
255
255
255
255
255
255
255
255
255
255
255
255
255
255
255
255
255
255
255
255
255
255
255
255
255
255
255
255
255
255
255
255
255
255
255
255
255
255
255
255
255
255
255
255
255
255
255
255
255
255
255
255
255
255
255
255
255
255
255
255
255
255
255
255
255
255
255
255
255
255
255
255
255
255
255
255
255
255
255
255
255
255
255
255
255
255
255
255
255
255
255
255
255
255
255
255
255
255
255
255
255
255
255
255
255
255
255
255
255
255
255
255
255
255
255
255
255
255
255
255
255
255
255
255
255
255
255
255
255
255
255
255
255
255
255
255
255
255
255
255
255
255
255
255
255
255
255
255
255
255
255
255
255
255
255
255
255
255
255
255
255
255
255
255
255
255
255
255
255
255
255
255
255
255
255
255
255
255
255
255
255
255
255
255
255
255
255
255
255
255
255
255
255
255
255
255
255
255
255
255
255
255
255
255
255
255
255
255
255
255
255
255
255
255
255
255
255
255
255
255
255
255
255
255
255
255
255
255
255
255
255
255
255
255
255
255
255
255
255
255
255
255
255
255
255
255
255
255
255
255
255
255
255
255
255
255
255
255
255
255
255
255
255
255
255
255
255
255
255
255
255
255
255
255
255
255
255
255
255
255
255
255
255
255
255
255
255
255
255
255
255
255
255
255
255
255
255
255
255
255
255
255
255
255
255
255
255
255
255
255
255
255
255
255
255
255
255
255
255
255
255
255
255
255
255
255
255
255
255
255
255
255
255
255
255
255
255
255
255
255
255
255
255
255
255
255
255
255
255
255
255
255
255
255
255
255
255
255
255
255
255
255
255
255
255
255
255
255
255
255
255
255
255
255
255
255
255
255
255
255
255
255
255
255
255
255
255
255
255
255
255
255
255
255
255
255
255
255
255
255
255
255
255
255
255
255
255
255
255
255
255
255
255
255
255
255
255
255
255
255
255
255
255
255
255
255
255
255
255
255
255
255
255
255
255
255
255
255
255
255
255
255
255
255
255
255
255
255
255
255
255
255
255
255
255
255
255
255
255
255
255
255
255
255
255
255
255
255
255
255
255
255
255
255
255
255
255
255
255
255
255
255
255
255
255
255
255
255
255
255
255
255
255
255
255
255
255
255
255
255
255
255
255
255
255
255
255
255
255
255
255
255
255
255
255
255
255
255
255
255
255
255
255
255
255
255
255
255
255
255
255
255
255
255
255
255
255
255
255
255
255
255
255
255
255
255
255
255
255
255
255
255
255
255
255
255
255
255
255
255
255
255
255
255
255
255
255
255
255
255
255
255
255
255
255
255
255
255
255
255
255
255
255
255
255
255
255
255
255
255
255
255
255
255
255
255
255
255
255
255
255
255
255
255
255
255
255
255
255
255
255
255
255
255
255
255
255
255
255
255
255
255
255
255
255
255
255
255
255
255
255
255
255
255
255
255
255
255
255
255
255
255
255
255
255
255
255
255
255
255
255
255
255
255
255
255
255
255
255
255
255
255
255
255
255
255
255
255
255
255
255
255
255
255
255
255
255
255
255
255
255
255
255
255
255
255
255
255
255
255
255
255
255
255
255
255
255
255
255
255
255
255
255
255
255
255
255
255
255
255
255
255
255
255
255
255
255
255
255
255
255
255
255
255
255
255
255
255
255
255
255
255
255
255
255
255
255
255
255
255
255
255
255
255
255
255
255
255
255
255
255
255
255
255
255
255
255
255
255
255
255
255
255
255
255
255
255
255
255
255
255
255
255
255
255
255
255
255
255
255
255
255
255
255
255
255
255
255
255
255
255
255
255
255
255
255
255
255
255
255
255
255
255
255
255
255
255
255
255
255
255
255
255
255
255
255
255
255
255
255
255
255
255
255
255
255
255
255
255
255
255
255
255
255
255
255
255
255
255
255
255
255
255
255
255
255
255
255
255
255
255
255
255
255
255
255
255
255
255
255
255
255
255
255
255
255
255
255
255
255
255
255
255
255
255
255
255
255
255
255
255
255
255
255
255
255
255
255
255
255
255
255
255
255
255
255
255
255
255
255
255
255
255
255
255
255
255
255
255
255
255
255
255
255
255
255
255
255
255
255
255
255
255
255
255
255
255
255
255
255
255
255
255
255
255
255
255
255
255
255
255
255
255
255
255
255
255
255
255
255
255
255
255
255
255
255
255
255
255
255
255
255
255
255
255
255
255
255
255
255
255
255
255
255
255
255
255
255
255
255
255
255
255
255
255
255
255
255
255
255
255
255
255
255
255
255
255
255
255
255
255
255
255
255
255
255
255
255
255
255
255
255
255
255
255
255
255
255
255
255
255
255
255
255
255
255
255
255
255
255
255
255
255
255
255
255
255
255
255
255
255
255
255
255
255
255
255
255
255
255
255
255
255
255
255
255
255
255
255
255
255
255
255
255
255
255
255
255
255
255
255
255
255
255
255
255
255
255
255
255
255
255
255
255
255
255
255
255
255
255
255
255
255
255
255
255
255
255
255
255
255
255
255
255
255
255
255
255
255
255
255
255
255
255
255
255
255
255
255
255
255
255
255
255
255
255
255
255
255
255
255
255
255
255
255
255
255
255
255
255
255
255
255
255
255
255
255
255
255
255
255
255
255
255
255
255
255
255
255
255
255
255
255
255
255
255
255
255
255
255
255
255
255
255
255
255
255
255
255
255
255
255
255
255
255
255
255
255
255
255
255
255
255
255
255
255
255
255
255
255
255
255
255
255
255
255
255
255
255
255
255
255
255
255
255
255
255
255
255
255
255
255
255
255
255
255
255
255
255
255
255
255
255
255
255
255
255
255
255
255
255
255
255
255
255
255
255
255
255
255
255
255
255
255
255
255
255
255
255
255
255
255
255
255
255
255
255
255
255
255
255
255
255
255
255
255
255
255
255
255
255
255
255
255
255
255
255
255
255
255
255
255
255
255
255
255
255
255
255
255
255
255
255
255
255
255
255
255
255
255
255
255
255
255
255
255
255
255
255
255
255
255
255
255
255
255
255
255
255
255
255
255
255
255
255
255
255
255
255
255
255
255
255
255
255
255
255
255
255
255
255
255
255
255
255
255
255
255
255
255
255
255
255
255
255
255
255
255
255
255
255
255
255
255
255
255
255
255
255
255
255
255
255
255
255
255
255
255
255
255
255
255
255
255
255
255
255
255
255
255
255
255
255
255
255
255
255
255
255
255
255
255
255
255
255
255
255
255
255
255
255
255
255
255
255
255
255
255
255
255
255
255
255
255
255
255
255
255
255
255
255
255
255
255
255
255
255
255
255
255
255
255
255
255
255
255
255
255
255
255
255
255
255
255
255
255
255
255
255
255
255
255
255
255
255
255
255
255
255
255
255
255
255
255
255
255
255
255
255
255
255
255
255
255
255
255
255
255
255
255
255
255
255
255
255
255
255
255
255
255
255
255
255
255
255
255
255
255
255
255
255
255
255
255
255
255
255
255
255
255
255
255
255
255
255
255
255
255
255
255
255
255
255
255
255
255
255
255
255
255
255
255
255
255
255
255
255
255
255
255
255
255
255
255
255
255
255
255
255
255
255
255
255
255
255
255
255
255
255
255
255
255
255
255
255
255
255
255
255
255
255
255
255
255
255
255
255
255
255
255
255
255
255
255
255
255
255
255
255
255
255
255
255
255
255
255
255
255
255
255
255
255
255
255
255
255
255
255
255
255
255
255
255
255
255
255
255
255
255
255
255
255
255
255
255
255
255
255
255
255
255
255
255
255
255
255
255
255
255
255
255
255
255
255
255
255
255
255
255
255
255
255
255
255
255
255
255
255
255
255
255
255
255
255
255
255
255
255
255
255
255
255
255
255
255
255
255
255
255
255
255
255
255
255
255
255
255
255
255
255
255
255
255
255
255
255
255
255
255
255
255
255
255
255
255
255
255
255
255
255
255
255
255
255
255
255
255
255
255
255
255
255
255
255
255
255
255
255
255
255
255
255
255
255
255
255
255
255
255
255
255
255
255
255
255
255
255
255
255
255
255
255
255
255
255
255
255
255
255
255
255
255
255
255
255
255
255
255
255
255
255
255
255
255
255
255
255
255
255
255
255
255
255
255
255
255
255
255
255
255
255
255
255
255
255
255
255
255
255
255
255
255
255
255
255
255
255
255
255
255
255
255
255
255
255
255
255
255
255
255
255
255
255
255
255
255
255
255
255
255
255
255
255
255
255
255
255
255
255
255
255
255
255
255
255
255
255
255
255
255
255
255
255
255
255
255
255
255
255
255
255
255
255
255
255
255
255
255
255
255
255
255
255
255
255
255
255
255
255
255
255
255
255
255
255
255
255
255
255
255
255
255
255
255
255
255
255
255
255
255
255
255
255
255
255
255
255
255
255
255
255
255
255
255
255
255
255
255
255
255
255
255
255
255
255
255
255
255
255
255
255
255
255
255
255
255
255
255
255
255
255
255
255
255
255
255
255
255
255
255
255
255
255
255
255
255
255
255
255
255
255
255
255
255
255
255
255
255
255
255
255
255
255
255
255
255
255
255
255
255
255
255
255
255
255
255
255
255
255
255
255
255
255
255
255
255
255
255
255
255
255
255
255
255
255
255
255
255
255
255
255
255
255
255
255
255
255
255
255
255
255
255
255
255
255
255
255
255
255
255
255
255
255
255
255
255
255
255
255
255
255
255
255
255
255
255
255
255
255
255
255
255
255
255
255
255
255
255
255
255
255
255
255
255
255
255
255
255
255
255
255
255
255
255
255
255
255
255
255
255
255
255
255
255
255
255
255
255
255
255
255
255
255
255
255
255
255
255
255
255
255
255
255
255
255
255
255
255
255
255
255
255
255
255
255
255
255
255
255
255
255
255
255
255
255
255
255
255
255
255
255
255
255
255
255
255
255
255
255
255
255
255
255
255
255
255
255
255
255
255
255
255
255
255
255
255
255
255
255
255
255
255
255
255
255
255
255
255
255
255
255
255
255
255
255
255
255
255
255
255
255
255
255
255
255
255
255
255
255
255
255
255
255
255
255
255
255
255
255
255
255
255
255
255
255
255
255
255
255
255
255
255
255
255
255
255
255
255
255
255
255
255
255
255
255
255
255
255
255
255
255
255
255
255
255
255
255
255
255
255
255
255
255
255
255
255
255
255
255
255
255
255
255
255
255
255
255
255
255
255
255
255
255
255
255
255
255
255
255
255
255
255
255
255
255
255
255
255
255
255
255
255
255
255
255
255
255
255
255
255
255
255
255
255
255
255
255
255
255
255
255
255
255
255
255
255
255
255
255
255
255
255
255
255
255
255
255
255
255
255
255
255
255
255
255
255
255
255
255
255
255
255
255
255
255
255
255
255
255
255
255
255
255
255
255
255
255
255
255
255
255
255
255
255
255
255
255
255
255
255
255
255
255
255
255
255
255
255
255
255
255
255
255
255
255
255
255
255
255
255
255
255
255
255
255
255
255
255
255
255
255
255
255
255
255
255
255
255
255
255
255
255
255
255
255
255
255
255
255
255
255
255
255
255
255
255
255
255
255
255
255
255
255
255
255
255
255
255
255
255
255
255
255
255
255
255
255
255
255
255
255
255
255
255
255
255
255
255
255
255
255
255
255
255
255
255
255
255
255
255
255
255
255
255
255
255
255
255
255
255
255
255
255
255
255
255
255
255
255
255
255
255
255
255
255
255
255
255
255
255
255
255
255
255
255
255
255
255
255
255
255
255
255
255
255
255
255
255
255
255
255
255
255
255
255
255
255
255
255
255
255
255
255
255
255
255
255
255
255
255
255
255
255
255
255
255
255
255
255
255
255
255
255
255
255
255
255
255
255
255
255
255
255
255
255
255
255
255
255
255
255
255
255
255
255
255
255
255
255
255
255
255
255
255
255
255
255
255
255
255
255
255
255
255
255
255
255
255
255
255
255
255
255
255
255
255
255
255
255
255
255
255
255
255
255
255
255
255
255
255
255
255
255
255
255
255
255
255
255
255
255
255
255
255
255
255
255
255
255
255
255
255
255
255
255
255
255
255
255
255
255
255
255
255
255
255
255
255
255
255
255
255
255
255
255
255
255
255
255
255
255
255
255
255
255
255
255
255
255
255
255
255
255
255
255
255
255
255
255
255
255
255
255
255
255
255
255
255
255
255
255
255
255
255
255
255
255
255
255
255
255
255
255
255
255
255
255
255
255
255
255
255
255
255
255
255
255
255
255
255
255
255
255
255
255
255
255
255
255
255
255
255
255
255
255
255
255
255
255
255
255
255
255
255
255
255
255
255
255
255
255
255
255
255
255
255
255
255
255
255
255
255
255
255
255
255
255
255
255
255
255
255
255
255
255
255
255
255
255
255
255
255
255
255
255
255
255
255
255
255
255
255
255
255
255
255
255
255
255
255
255
255
255
255
255
255
255
255
255
255
255
255
255
255
255
255
255
255
255
255
255
255
255
255
255
255
255
255
255
255
255
255
255
255
255
255
255
255
255
255
255
255
255
255
255
255
255
255
255
255
255
255
255
255
255
255
255
255
255
255
255
255
255
255
255
255
255
255
255
255
255
255
255
255
255
255
255
255
255
255
255
255
255
255
255
255
255
255
255
255
255
255
255
255
255
255
255
255
255
255
255
255
255
255
255
255
255
255
255
255
255
255
255
255
255
255
255
255
255
255
255
255
255
255
255
255
255
255
255
255
255
255
255
255
255
255
255
255
255
255
255
255
255
255
255
255
255
255
255
255
255
255
255
255
255
255
255
255
255
255
255
255
255
255
255
255
255
255
255
255
255
255
255
255
255
255
255
255
255
255
255
255
255
255
255
255
255
255
255
255
255
255
255
255
255
255
255
255
255
255
255
255
255
255
255
255
255
255
255
255
255
255
255
255
255
255
255
255
255
255
255
255
255
255
255
255
255
255
255
255
255
255
255
255
255
255
255
255
255
255
255
255
255
255
255
255
255
255
255
255
255
255
255
255
255
255
255
255
255
255
255
255
255
255
255
255
255
255
255
255
255
255
255
255
255
255
255
255
255
255
255
255
255
255
255
255
255
255
255
255
255
255
255
255
255
255
255
255
255
255
255
255
255
255
255
255
255
255
255
255
255
255
255
255
255
255
255
255
255
255
255
255
255
255
255
255
255
255
255
255
255
255
255
255
255
255
255
255
255
255
255
255
255
255
255
255
255
255
255
255
255
255
255
255
255
255
255
255
255
255
255
255
255
255
255
255
255
255
255
255
255
255
255
255
255
255
255
255
255
255
255
255
255
255
255
255
255
255
255
255
255
255
255
255
255
255
255
255
255
255
255
255
255
255
255
255
255
255
255
255
255
255
255
255
255
255
255
255
255
255
255
255
255
255
255
255
255
255
255
255
255
255
255
255
255
255
255
255
255
255
255
255
255
255
255
255
255
255
255
255
255
255
255
255
255
255
255
255
255
255
255
255
255
255
255
255
255
255
255
255
255
255
255
255
255
255
255
255
255
255
255
255
255
255
255
255
255
255
255
255
255
255
255
255
255
255
255
255
255
255
255
255
255
255
255
255
255
255
255
255
255
255
255
255
255
255
255
255
255
255
255
255
255
255
255
255
255
255
255
255
255
255
255
255
255
255
255
255
255
255
255
255
255
255
255
255
255
255
255
255
255
255
255
255
255
255
255
255
255
255
255
255
255
255
255
255
255
255
255
255
255
255
255
255
255
255
255
255
255
255
255
255
255
255
255
255
255
255
255
255
255
255
255
255
255
255
255
255
255
255
255
255
255
255
255
255
255
255
255
255
255
255
255
255
255
255
255
255
255
255
255
255
255
255
255
255
255
255
255
255
255
255
255
255
255
255
255
255
255
255
255
255
255
255
255
255
255
255
255
255
255
255
255
255
255
255
255
255
255
255
255
255
255
255
255
255
255
255
255
255
255
255
255
255
255
255
255
255
255
255
255
255
255
255
255
255
255
255
255
255
255
255
255
255
255
255
255
255
255
255
255
255
255
255
255
255
255
255
255
255
255
255
255
255
255
255
255
255
255
255
255
255
255
255
255
255
255
255
255
255
255
255
255
255
255
255
255
255
255
255
255
255
255
255
255
255
255
255
255
255
255
255
255
255
255
255
255
255
255
255
255
255
255
255
255
255
255
255
255
255
255
255
255
255
255
255
255
255
255
255
255
255
255
255
255
255
255
255
255
255
255
255
255
255
255
255
255
255
255
255
255
255
255
255
255
255
255
255
255
255
255
255
255
255
255
255
255
255
255
255
255
255
255
255
255
255
255
255
255
255
255
255
255
255
255
255
255
255
255
255
255
255
255
255
255
255
255
255
255
255
255
255
255
255
255
255
255
255
255
255
255
255
255
255
255
255
255
255
255
255
255
255
255
255
255
255
255
255
255
255
255
255
255
255
255
255
255
255
255
255
255
255
255
255
255
255
255
255
255
255
255
255
255
255
255
255
255
255
255
255
255
255
255
255
255
255
255
255
255
255
255
255
255
255
255
255
255
255
255
255
255
255
255
255
255
255
255
255
255
255
255
255
255
255
255
255
255
255
255
255
255
255
255
255
255
255
255
255
255
255
255
255
255
255
255
255
255
255
255
255
255
255
255
255
255
255
255
255
255
255
255
255
255
255
255
255
255
255
255
255
255
255
255
255
255
255
255
255
255
255
255
255
255
255
255
255
255
255
255
255
255
255
255
255
255
255
255
255
255
255
255
255
255
255
255
255
255
255
255
255
255
255
255
255
255
255
255
255
255
255
255
255
255
255
255
255
255
255
255
255
255
255
255
255
255
255
255
255
255
255
255
255
255
255
255
255
255
255
255
255
255
255
255
255
255
255
255
255
255
255
255
255
255
255
255
255
255
255
255
255
255
255
255
255
255
255
255
255
255
255
255
255
255
255
255
255
255
255
255
255
255
255
255
255
255
255
255
255
255
255
255
255
255
255
255
255
255
255
255
255
255
255
255
255
255
255
255
255
255
255
255
255
255
255
255
255
255
255
255
255
255
255
255
255
255
255
255
255
255
255
255
255
255
255
255
255
255
255
255
255
255
255
255
255
255
255
255
255
255
255
255
255
255
255
255
255
255
255
255
255
255
255
255
255
255
255
255
255
255
255
255
255
255
255
255
255
255
255
255
255
255
255
255
255
255
255
255
255
255
255
255
255
255
255
255
255
255
255
255
255
255
255
255
255
255
255
255
255
255
255
255
255
255
255
255
255
255
255
255
255
255
255
255
255
255
255
255
255
255
255
255
255
255
255
255
255
255
255
255
255
255
255
255
255
255
255
255
255
255
255
255
255
255
255
255
255
255
255
255
255
255
255
255
255
255
255
255
255
255
255
255
255
255
255
255
255
255
255
255
255
255
255
255
255
255
255
255
255
255
255
255
255
255
255
255
255
255
255
255
255
255
255
255
255
255
255
255
255
255
255
255
255
255
255
255
255
255
255
255
255
255
255
255
255
255
255
255
255
255
255
255
255
255
255
255
255
255
255
255
255
255
255
255
255
255
255
255
255
255
255
255
255
255
255
255
255
255
255
255
255
255
255
255
255
255
255
255
255
255
255
255
255
255
255
255
255
255
255
255
255
255
255
255
255
255
255
255
255
255
255
255
255
255
255
255
255
255
255
255
255
255
255
255
255
255
255
255
255
255
255
255
255
255
255
255
255
255
255
255
255
255
255
255
255
255
255
255
255
255
255
255
255
255
255
255
255
255
255
255
255
255
255
255
255
255
255
255
255
255
255
255
255
255
255
255
255
255
255
255
255
255
255
255
255
255
255
255
255
255
255
255
255
255
255
255
255
255
255
255
255
255
255
255
255
255
255
255
255
255
255
255
255
255
255
255
255
255
255
255
255
255
255
255
255
255
255
255
255
255
255
255
255
255
255
255
255
255
255
255
255
255
255
255
255
255
255
255
255
255
255
255
255
255
255
255
255
255
255
255
255
255
255
255
255
255
255
255
255
255
255
255
255
255
255
255
255
255
255
255
255
255
255
255
255
255
255
255
255
255
255
255
255
255
255
255
255
255
255
255
255
255
255
255
255
255
255
255
255
255
255
255
255
255
255
255
255
255
255
255
255
255
255
255
255
255
255
255
255
255
255
255
255
255
255
255
255
255
255
255
255
255
255
255
255
255
255
255
255
255
255
255
255
255
255
255
255
255
255
255
255
255
255
255
255
255
255
255
255
255
255
255
255
255
255
255
255
255
255
255
255
255
255
255
255
255
255
255
255
255
255
255
255
255
255
255
255
255
255
255
255
255
255
255
255
255
255
255
255
255
255
255
255
255
255
255
255
255
255
255
255
255
255
255
255
255
255
255
255
255
255
255
255
255
255
255
255
255
255
255
255
255
255
255
255
255
255
255
255
255
255
255
255
255
255
255
255
255
255
255
255
255
255
255
255
255
255
255
255
255
255
255
255
255
255
255
255
255
255
255
255
255
255
255
255
255
255
255
255
255
255
255
255
255
255
255
255
255
255
255
255
255
255
255
255
255
255
255
255
255
255
255
255
255
255
255
255
255
255
255
255
255
255
255
255
255
255
255
255
255
255
255
255
255
255
255
255
255
255
255
255
255
255
255
255
255
255
255
255
255
255
255
255
255
255
255
255
255
255
255
255
255
255
255
255
255
255
255
255
255
255
255
255
255
255
255
255
255
255
255
255
255
255
255
255
255
255
255
255
255
255
255
255
255
255
255
255
255
255
255
255
255
255
255
255
255
255
255
255
255
255
255
255
255
255
255
255
255
255
255
255
255
255
255
255
255
255
255
255
255
255
255
255
255
255
255
255
255
255
255
255
255
255
255
255
255
255
255
255
255
255
255
255
255
255
255
255
255
255
255
255
255
255
255
255
255
255
255
255
255
255
255
255
255
255
255
255
255
255
255
255
255
255
255
255
255
255
255
255
255
255
255
255
255
255
255
255
255
255
255
255
255
255
255
255
255
255
255
255
255
255
255
255
255
255
255
255
255
255
255
255
255
255
255
255
255
255
255
255
255
255
255
255
255
255
255
255
255
255
255
255
255
255
255
255
255
255
255
255
255
255
255
255
255
255
255
255
255
255
255
255
255
255
255
255
255
255
255
255
255
255
255
255
255
255
255
255
255
255
255
255
255
255
255
255
255
255
255
255
255
255
255
255
255
255
255
255
255
255
255
255
255
255
255
255
255
255
255
255
255
255
255
255
255
255
255
255
255
255
255
255
255
255
255
255
255
255
255
255
255
255
255
255
255
255
255
255
255
255
255
255
255
255
255
255
255
255
255
255
255
255
255
255
255
255
255
255
255
255
255
255
255
255
255
255
255
255
255
255
255
255
255
255
255
255
255
255
255
255
255
255
255
255
255
255
255
255
255
255
255
255
255
255
255
255
255
255
255
255
255
255
255
255
255
255
255
255
255
255
255
255
255
255
255
255
255
255
255
255
255
255
255
255
255
255
255
255
255
255
255
255
255
255
255
255
255
255
255
255
255
255
255
255
255
255
255
255
255
255
255
255
255
255
255
255
255
255
255
255
255
255
255
255
255
255
255
255
255
255
255
255
255
255
255
255
255
255
255
255
255
255
255
255
255
255
255
255
255
255
255
255
255
255
255
255
255
255
255
255
255
255
255
255
255
255
255
255
255
255
255
255
255
255
255
255
255
255
255
255
255
255
255
255
255
255
255
255
255
255
255
255
255
255
255
255
255
255
255
255
255
255
255
255
255
255
255
255
255
255
255
255
255
255
255
255
255
255
255
255
255
255
255
255
255
255
255
255
255
255
255
255
255
255
255
255
255
255
255
255
255
255
255
255
255
255
255
255
255
255
255
255
255
255
255
255
255
255
255
255
255
255
255
255
255
255
255
255
255
255
255
255
255
255
255
255
255
255
255
255
255
255
255
255
255
255
255
255
255
255
255
255
255
255
255
255
255
255
255
255
255
255
255
255
255
255
255
255
255
255
255
255
255
255
255
255
255
255
255
255
255
255
255
255
255
255
255
255
255
255
255
255
255
255
255
255
255
255
255
255
255
255
255
255
255
255
255
255
255
255
255
255
255
255
255
255
255
255
255
255
255
255
255
255
255
255
255
255
255
255
255
255
255
255
255
255
255
255
255
255
255
255
255
255
255
255
255
255
255
255
255
255
255
255
255
255
255
255
255
255
255
255
255
255
255
255
255
255
255
255
255
255
255
255
255
255
255
255
255
255
255
255
255
255
255
255
255
255
255
255
255
255
255
255
255
255
255
255
255
255
255
255
255
255
255
255
255
255
255
255
255
255
255
255
255
255
255
255
255
255
255
255
255
255
255
255
255
255
255
255
255
255
255
255
255
255
255
255
255
255
255
255
255
255
255
255
255
255
255
255
255
255
255
255
255
255
255
255
255
255
255
255
255
255
255
255
255
255
255
255
255
255
255
255
255
255
255
255
255
255
255
255
255
255
255
255
255
255
255
255
255
255
255
255
255
255
255
255
255
255
255
255
255
255
255
255
255
255
255
255
255
255
255
255
255
255
255
255
255
255
255
255
255
255
255
255
255
255
255
255
255
255
255
255
255
255
255
255
255
255
255
255
255
255
255
255
255
255
255
255
255
255
255
255
255
255
255
255
255
255
255
255
255
255
255
255
255
255
255
255
255
255
255
255
255
255
255
255
255
255
255
255
255
255
255
255
255
255
255
255
255
255
255
255
255
255
255
255
255
255
255
255
255
255
255
255
255
255
255
255
255
255
255
255
255
255
255
255
255
255
255
255
255
255
255
255
255
255
255
255
255
255
255
255
255
255
255
255
255
255
255
255
255
255
255
255
255
255
255
255
255
255
255
255
255
255
255
255
255
255
255
255
255
255
255
255
255
255
255
255
255
255
255
255
255
255
255
255
255
255
255
255
255
255
255
255
255
255
255
255
255
255
255
255
255
255
255
255
255
255
255
255
255
255
255
255
255
255
255
255
255
255
255
255
255
255
255
255
255
255
255
255
255
255
255
255
255
255
255
255
255
255
255
255
255
255
255
255
255
255
255
255
255
255
255
255
255
255
255
255
255
255
255
255
255
255
255
255
255
255
255
255
255
255
255
255
255
255
255
255
255
255
255
255
255
255
255
255
255
255
255
255
255
255
255
255
255
255
255
255
255
255
255
255
255
255
255
255
255
255
255
255
255
255
255
255
255
255
255
255
255
255
255
255
255
255
255
255
255
255
255
255
255
255
255
255
255
255
255
255
255
255
255
255
255
255
255
255
255
255
255
255
255
255
255
255
255
255
255
255
255
255
255
255
255
255
255
255
255
255
255
255
255
255
255
255
255
255
255
255
255
255
255
255
255
255
255
255
255
255
255
255
255
255
255
255
255
255
255
255
255
255
255
255
255
255
255
255
255
255
255
255
255
255
255
255
255
255
255
255
255
255
255
255
255
255
255
255
255
255
255
255
255
255
255
255
255
255
255
255
255
255
255
255
255
255
255
255
255
255
255
255
255
255
255
255
255
255
255
255
255
255
255
255
255
255
255
255
255
255
255
255
255
255
255
255
255
255
255
255
255
255
255
255
255
255
255
255
255
255
255
255
255
255
255
255
255
255
255
255
255
255
255
255
255
255
255
255
255
255
255
255
255
255
255
255
255
255
255
255
255
255
255
255
255
255
255
255
255
255
255
255
255
255
255
255
255
255
255
255
255
255
255
255
255
255
255
255
255
255
255
255
255
255
255
255
255
255
255
255
255
255
255
255
255
255
255
255
255
255
255
255
255
255
255
255
255
255
255
255
255
255
255
255
255
255
255
255
255
255
255
255
255
255
255
255
255
255
255
255
255
255
255
255
255
255
255
255
255
255
255
255
255
255
255
255
255
255
255
255
255
255
255
255
255
255
255
255
255
255
255
255
255
255
255
255
255
255
255
255
255
255
255
255
255
255
255
255
255
255
255
255
255
255
255
255
255
255
255
255
255
255
255
255
255
255
255
255
255
255
255
255
255
255
255
255
255
255
255
255
255
255
255
255
255
255
255
255
255
255
255
255
255
255
255
255
255
255
255
255
255
255
255
255
255
255
255
255
255
255
255
255
255
255
255
255
255
255
255
255
255
255
255
255
255
255
255
255
255
255
255
255
255
255
255
255
255
255
255
255
255
255
255
255
255
255
255
255
255
255
255
255
255
255
255
255
255
255
255
255
255
255
255
255
255
255
255
255
255
255
255
255
255
255
255
255
255
255
255
255
255
255
255
255
255
255
255
255
255
255
255
255
255
255
255
255
255
255
255
255
255
255
255
255
255
255
255
255
255
255
255
255
255
255
255
255
255
255
255
255
255
255
255
255
255
255
255
255
255
255
255
255
255
255
255
255
255
255
255
255
255
255
255
255
255
255
255
255
255
255
255
255
255
255
255
255
255
255
255
255
255
255
255
255
255
255
255
255
255
255
255
255
255
255
255
255
255
255
255
255
255
255
255
255
255
255
255
255
255
255
255
255
255
255
255
255
255
255
255
255
255
255
255
255
255
255
255
255
255
255
255
255
255
255
255
255
255
255
255
255
255
255
255
255
255
255
255
255
255
255
255
255
255
255
255
255
255
255
255
255
255
255
255
255
255
255
255
255
255
255
255
255
255
255
255
255
255
255
255
255
255
255
255
255
255
255
255
255
255
255
255
255
255
255
255
255
255
255
255
255
255
255
255
255
255
255
255
255
255
255
255
255
255
255
255
255
255
255
255
255
255
255
255
255
255
255
255
255
255
255
255
255
255
255
255
255
255
255
255
255
255
255
255
255
255
255
255
255
255
255
255
255
255
255
255
255
255
255
255
255
255
255
255
255
255
255
255
255
255
255
255
255
255
255
255
255
255
255
255
255
255
255
255
255
255
255
255
255
255
255
255
255
255
255
255
255
255
255
255
255
255
255
255
255
255
255
255
255
255
255
255
255
255
255
255
255
255
255
255
255
255
255
255
255
255
255
255
255
255
255
255
255
255
255
255
255
255
255
255
255
255
255
255
255
255
255
255
255
255
255
255
255
255
255
255
255
255
255
255
255
255
255
255
255
255
255
255
255
255
255
255
255
255
255
255
255
255
255
255
255
255
255
255
255
255
255
255
255
255
255
255
255
255
255
255
255
255
255
255
255
255
255
255
255
255
255
255
255
255
255
255
255
255
255
255
255
255
255
255
255
255
255
255
255
255
255
255
255
255
255
255
255
255
255
255
255
255
255
255
255
255
255
255
255
255
255
255
255
255
255
255
255
255
255
255
255
255
255
255
255
255
255
255
255
255
255
255
255
255
255
255
255
255
255
255
255
255
255
255
255
255
255
255
255
255
255
255
255
255
255
255
255
255
255
255
255
255
255
255
255
255
255
255
255
255
255
255
255
255
255
255
255
255
255
255
255
255
255
255
255
255
255
255
255
255
255
255
255
255
255
255
255
255
255
255
255
255
255
255
255
255
255
255
255
255
255
255
255
255
255
255
255
255
255
255
255
255
255
255
255
255
255
255
255
255
255
255
255
255
255
255
255
255
255
255
255
255
255
255
255
255
255
255
255
255
255
255
255
255
255
255
255
255
255
255
255
255
255
255
255
255
255
255
255
255
255
255
255
255
255
255
255
255
255
255
255
255
255
255
255
255
255
255
255
255
255
255
255
255
255
255
255
255
255
255
255
255
255
255
255
255
255
255
255
255
255
255
255
255
255
255
255
255
255
255
255
255
255
255
255
255
255
255
255
255
255
255
255
255
255
255
255
255
255
255
255
255
255
255
255
255
255
255
255
255
255
255
255
255
255
255
255
255
255
255
255
255
255
255
255
255
255
255
255
255
255
255
255
255
255
255
255
255
255
255
255
255
255
255
255
255
255
255
255
255
255
255
255
255
255
255
255
255
255
255
255
255
255
255
255
255
255
255
255
255
255
255
255
255
255
255
255
255
255
255
255
255
255
255
255
255
255
255
255
255
255
255
255
255
255
255
255
255
255
255
255
255
255
255
255
255
255
255
255
255
255
255
255
255
255
255
255
255
255
255
255
255
255
255
255
255
255
255
255
255
255
255
255
255
255
255
255
255
255
255
255
255
255
255
255
255
255
255
255
255
255
255
255
255
255
255
255
255
255
255
255
255
255
255
255
255
255
255
255
255
255
255
255
255
255
255
255
255
255
255
255
255
255
255
255
255
255
255
255
255
255
255
255
255
255
255
255
255
255
255
255
255
255
255
255
255
255
255
255
255
255
255
255
255
255
255
255
255
255
255
255
255
255
255
255
255
255
255
255
255
255
255
255
255
255
255
255
255
255
255
255
255
255
255
255
255
255
255
255
255
255
255
255
255
255
255
255
255
255
255
255
255
255
255
255
255
255
255
255
255
255
255
255
255
255
255
255
255
255
255
255
255
255
255
255
255
255
255
255
255
255
255
255
255
255
255
255
255
255
255
255
255
255
255
255
255
255
255
255
255
255
255
255
255
255
255
255
255
255
255
255
255
255
255
255
255
255
255
255
255
255
255
255
255
255
255
255
255
255
255
255
255
255
255
255
255
255
255
255
255
255
255
255
255
255
255
255
255
255
255
255
255
255
255
255
255
255
255
255
255
255
255
255
255
255
255
255
255
255
255
255
255
255
255
255
255
255
255
255
255
255
255
255
255
255
255
255
255
255
255
255
255
255
255
255
255
255
255
255
255
255
255
255
255
255
255
255
255
255
255
255
255
255
255
255
255
255
255
255
255
255
255
255
255
255
255
255
255
255
255
255
255
255
255
255
255
255
255
255
255
255
255
255
255
255
255
255
255
255
255
255
255
255
255
255
255
255
255
255
255
255
255
255
255
255
255
255
255
255
255
255
255
255
255
255
255
255
255
255
255
255
255
255
255
255
255
255
255
255
255
255
255
255
255
255
255
255
255
255
255
255
255
255
255
255
255
255
255
255
255
255
255
255
255
255
255
255
255
255
255
255
255
255
255
255
255
255
255
255
255
255
255
255
255
255
255
255
255
255
255
255
255
255
255
255
255
255
255
255
255
255
255
255
255
255
255
255
255
255
255
255
255
255
255
255
255
255
255
255
255
255
255
255
255
255
255
255
255
255
255
255
255
255
255
255
255
255
255
255
255
255
255
255
255
255
255
255
255
255
255
255
255
255
255
255
255
255
255
255
255
255
255
255
255
255
255
255
255
255
255
255
255
255
255
255
255
255
255
255
255
255
255
255
255
255
255
255
255
255
255
255
255
255
255
255
255
255
255
255
255
255
255
255
255
255
255
255
255
255
255
255
255
255
255
255
255
255
255
255
255
255
255
255
255
255
255
255
255
255
255
255
255
255
255
255
255
255
255
255
255
255
255
255
255
255
255
255
255
255
255
255
255
255
255
255
255
255
255
255
255
255
255
255
255
255
255
255
255
255
255
255
255
255
255
255
255
255
255
255
255
255
255
255
255
255
255
255
255
255
255
255
255
255
255
255
255
255
255
255
255
255
255
255
255
255
255
255
255
255
255
255
255
255
255
255
255
255
255
255
255
255
255
255
255
255
255
255
255
255
255
255
255
255
255
255
255
255
255
255
255
255
255
255
255
255
255
255
255
255
255
255
255
255
255
255
255
255
255
255
255
255
255
255
255
255
255
255
255
255
255
255
255
255
255
255
255
255
255
255
255
255
255
255
255
255
255
255
255
255
255
255
255
255
255
255
255
255
255
255
255
255
255
255
255
255
255
255
255
255
255
255
255
255
255
255
255
255
255
255
255
255
255
255
255
255
255
255
255
255
255
255
255
255
255
255
255
255
255
255
255
255
255
255
255
255
255
255
255
255
255
255
255
255
255
255
255
255
255
255
255
255
255
255
255
255
255
255
255
255
255
255
255
255
255
255
255
255
255
255
255
255
255
255
255
255
255
255
255
255
255
255
255
255
255
255
255
255
254
255
255
254
255
255
252
255
255
254
255
255
255
255
255
255
255
255
255
255
255
255
255
255
255
255
255
255
255
255
255
255
255
255
255
255
255
255
255
255
255
255
255
255
255
255
255
255
255
255
255
255
255
255
255
255
255
255
255
255
255
255
255
255
255
255
255
255
255
255
255
255
255
255
255
255
255
255
255
255
255
255
255
255
255
255
255
255
255
255
255
255
255
255
255
255
255
255
255
255
255
255
255
255
255
255
255
255
255
255
255
255
255
255
255
255
255
255
255
255
255
255
255
255
255
255
255
255
255
255
255
255
255
255
255
255
255
255
255
255
255
255
255
255
255
255
255
255
255
255
255
255
255
255
255
255
255
255
255
255
255
255
255
255
255
255
255
255
255
255
255
255
255
255
255
255
255
255
255
255
255
255
255
255
255
255
255
255
255
255
255
255
255
255
255
255
255
255
255
255
255
255
255
255
255
255
255
255
255
255
255
255
255
255
255
255
255
255
255
255
255
255
255
255
255
255
255
255
255
255
255
255
255
255
255
255
255
255
255
255
255
255
255
255
255
255
255
255
255
255
255
255
255
255
255
255
255
255
255
255
255
255
255
255
255
255
255
255
255
255
255
255
255
255
255
255
255
255
255
255
255
255
255
255
255
255
255
255
255
255
255
255
255
255
255
255
255
255
255
255
255
255
255
255
255
255
255
255
255
255
255
255
255
255
255
255
255
255
255
255
255
255
255
255
255
255
255
255
255
255
255
255
255
255
255
255
255
255
255
255
255
255
255
255
255
255
255
255
255
255
255
255
255
255
255
255
255
255
255
255
255
255
255
255
255
255
255
255
255
255
255
255
255
255
255
255
255
255
255
255
255
255
255
255
255
255
255
255
255
255
255
255
255
255
255
255
255
255
255
255
255
255
255
255
255
255
255
255
255
255
255
255
255
255
255
255
255
255
255
255
255
255
255
255
255
255
255
255
255
255
255
255
255
255
255
255
255
255
255
255
255
255
255
255
255
255
255
255
255
255
255
255
255
255
255
255
255
255
255
255
255
255
255
255
255
255
255
255
255
255
255
255
255
255
255
255
255
255
255
255
255
255
255
255
255
255
255
255
255
255
255
255
255
255
255
255
255
255
255
255
255
255
255
255
255
255
255
255
255
255
255
255
255
255
255
255
255
255
255
255
255
255
255
255
255
255
255
255
255
255
255
255
255
255
255
255
255
255
255
255
255
255
255
255
255
255
255
255
255
255
255
255
255
255
255
255
255
255
255
255
255
255
255
255
255
255
255
255
255
255
255
255
255
255
255
255
255
255
255
255
255
255
255
255
255
255
255
255
255
255
255
255
255
255
255
255
255
250
255
255
246
255
255
245
255
255
247
255
255
250
255
255
253
255
255
255
255
255
255
255
255
255
255
255
255
255
255
255
255
255
255
255
255
255
255
255
255
255
255
255
255
255
255
255
255
255
255
255
255
255
255
255
255
255
255
255
255
255
255
255
255
255
255
255
255
255
255
255
255
255
255
255
255
255
255
255
255
255
255
255
255
255
255
255
255
255
255
255
255
255
255
255
255
255
255
255
255
255
255
255
255
255
255
255
255
255
255
255
255
255
255
255
255
255
255
255
255
255
255
255
255
255
255
255
255
255
255
255
255
255
255
255
255
255
255
255
255
255
255
255
255
255
255
255
255
255
255
255
255
255
255
255
255
255
255
255
255
255
255
255
255
255
255
255
255
255
255
255
255
255
255
255
255
255
255
255
255
255
255
255
255
255
255
255
255
255
255
255
255
255
255
255
255
255
255
255
255
255
255
255
255
255
255
255
255
255
255
255
255
255
255
255
255
255
255
255
255
255
255
255
255
255
255
255
255
255
255
255
255
255
255
255
255
255
255
255
255
255
255
255
255
255
255
255
255
255
255
255
255
255
255
255
255
255
255
255
255
255
255
255
255
255
255
255
255
255
255
255
255
255
255
255
255
255
255
255
255
255
255
255
255
255
255
255
255
255
255
255
255
255
255
255
255
255
255
255
255
255
255
255
255
255
255
255
255
255
255
255
255
255
255
255
255
255
255
255
255
255
255
255
255
255
255
255
255
255
255
255
255
255
255
255
255
255
255
255
255
255
255
255
255
255
255
255
255
255
255
255
255
255
255
255
255
255
255
255
255
255
255
255
255
255
255
255
255
255
255
255
255
255
255
255
255
255
255
255
255
255
255
255
255
255
255
255
255
255
255
255
255
255
255
255
255
255
255
255
255
255
255
255
255
255
255
255
255
255
255
255
255
255
255
255
255
255
255
255
255
255
255
255
255
255
255
255
255
255
255
255
255
255
255
255
255
255
255
255
255
255
255
255
255
255
255
255
255
255
255
255
255
255
255
255
255
255
255
255
255
255
255
255
255
255
255
255
255
255
255
255
255
255
255
255
255
255
255
255
255
255
255
255
255
255
255
255
255
255
255
255
255
255
255
255
255
255
255
255
255
255
255
255
255
255
255
255
255
255
255
255
255
255
255
255
255
255
255
255
255
255
255
255
255
255
255
255
255
255
255
255
255
255
255
255
255
255
255
255
255
255
255
255
255
255
255
255
255
255
255
255
255
255
255
255
255
255
255
255
255
255
255
255
255
255
255
255
255
255
255
255
255
255
255
255
255
255
255
255
255
255
255
255
255
255
255
255
255
255
255
255
255
255
255
255
255
255
254
255
255
249
255
255
243
255
255
239
255
255
240
255
255
242
255
255
245
255
255
255
255
255
255
255
255
255
255
255
255
255
255
255
255
255
255
255
255
255
255
255
255
255
255
255
255
255
255
255
255
255
255
255
255
255
255
255
255
255
255
255
255
255
255
255
255
255
255
255
255
255
255
255
255
255
255
255
255
255
255
255
255
255
255
255
255
255
255
255
255
255
255
255
255
255
255
255
255
255
255
255
255
255
255
255
255
255
255
255
255
255
255
255
255
255
255
255
255
255
255
255
255
255
255
255
255
255
255
255
255
255
255
255
255
255
255
255
255
255
255
255
255
255
255
255
255
255
255
255
255
255
255
255
255
255
255
255
255
255
255
255
255
255
255
255
255
255
255
255
255
255
255
255
255
255
255
255
255
255
255
255
255
255
255
255
255
255
255
255
255
255
255
255
255
255
255
255
255
255
255
255
255
255
255
255
255
255
255
255
255
255
255
255
255
255
255
255
255
255
255
255
255
255
255
255
255
255
255
255
255
255
255
255
255
255
255
255
255
255
255
255
255
255
255
255
255
255
255
255
255
255
255
255
255
255
255
255
255
255
255
255
255
255
255
255
255
255
255
255
255
255
255
255
255
255
255
255
255
255
255
255
255
255
255
255
255
255
255
255
255
255
255
255
255
255
255
255
255
255
255
255
255
255
255
255
255
255
255
255
255
255
255
255
255
255
255
255
255
255
255
255
255
255
255
255
255
255
255
255
255
255
255
255
255
255
255
255
255
255
255
255
255
255
255
255
255
255
255
255
255
255
255
255
255
255
255
255
255
255
255
255
255
255
255
255
255
255
255
255
255
255
255
255
255
255
255
255
255
255
255
255
255
255
255
255
255
255
255
255
255
255
255
255
255
255
255
255
255
255
255
255
255
255
255
255
255
255
255
255
255
255
255
255
255
255
255
255
255
255
255
255
255
255
255
255
255
255
255
255
255
255
255
255
255
255
255
255
255
255
255
255
255
255
255
255
255
255
255
255
255
255
255
255
255
255
255
255
255
255
255
255
255
255
255
255
255
255
255
255
255
255
255
255
255
255
255
255
255
255
255
255
255
255
255
255
255
255
255
255
255
255
255
255
255
255
255
255
255
255
255
255
255
255
255
255
255
255
255
255
255
255
255
255
255
255
255
255
255
255
255
255
255
255
255
255
255
255
255
255
255
255
255
255
255
255
255
255
255
255
255
255
255
255
255
255
255
255
255
255
255
255
255
255
255
255
255
255
255
255
255
255
255
255
255
255
255
255
255
255
255
255
255
255
255
255
255
255
255
255
255
255
255
255
255
255
255
255
255
255
255
255
255
255
255
255
255
255
255
255
253
255
255
247
255
255
239
255
255
235
255
255
234
255
255
236
255
255
238
255
255
255
255
255
255
255
255
255
255
255
255
255
255
255
255
255
255
255
255
255
255
255
255
255
255
255
255
255
255
255
255
255
255
255
255
255
255
255
255
255
255
255
255
255
255
255
255
255
255
255
255
255
255
255
255
255
255
255
255
255
255
255
255
255
255
255
255
255
255
255
255
255
255
255
255
255
255
255
255
255
255
255
255
255
255
255
255
255
255
255
255
255
255
255
255
255
255
255
255
255
255
255
255
255
255
255
255
255
255
255
255
255
255
255
255
255
255
255
255
255
255
255
255
255
255
255
255
255
255
255
255
255
255
255
255
255
255
255
255
255
255
255
255
255
255
255
255
255
255
255
255
255
255
255
255
255
255
255
255
255
255
255
255
255
255
255
255
255
255
255
255
255
255
255
255
255
255
255
255
255
255
255
255
255
255
255
255
255
255
255
255
255
255
255
255
255
255
255
255
255
255
255
255
255
255
255
255
255
255
255
255
255
255
255
255
255
255
255
255
255
255
255
255
255
255
255
255
255
255
255
255
255
255
255
255
255
255
255
255
255
255
255
255
255
255
255
255
255
255
255
255
255
255
255
255
255
255
255
255
255
255
255
255
255
255
255
255
255
255
255
255
255
255
255
255
255
255
255
255
255
255
255
255
255
255
255
255
255
255
255
255
255
255
255
255
255
255
255
255
255
255
255
255
255
255
255
255
255
255
255
255
255
255
255
255
255
255
255
255
255
255
255
255
255
255
255
255
255
255
255
255
255
255
255
255
255
255
255
255
255
255
255
255
255
255
255
255
255
255
255
255
255
255
255
255
255
255
255
255
255
255
255
255
255
255
255
255
255
255
255
255
255
255
255
255
255
255
255
255
255
255
255
255
255
255
255
255
255
255
255
255
255
255
255
255
255
255
255
255
255
255
255
255
255
255
255
255
255
255
255
255
255
255
255
255
255
255
255
255
255
255
255
255
255
255
255
255
255
255
255
255
255
255
255
255
255
255
255
255
255
255
255
255
255
255
255
255
255
255
255
255
255
255
255
255
255
255
254
255
255
253
255
255
251
255
255
251
255
255
255
255
255
255
255
255
255
255
255
254
255
255
255
255
255
255
255
255
255
255
255
255
255
255
255
255
255
255
255
255
255
255
255
255
255
255
255
255
255
255
255
255
254
255
255
255
255
255
255
255
255
255
255
255
255
255
255
255
255
255
255
255
255
255
255
255
255
255
255
255
255
255
255
255
255
255
255
255
255
255
255
255
255
255
255
255
255
255
255
255
255
255
255
255
255
255
255
255
255
255
255
255
254
255
255
254
255
255
252
255
255
247
255
255
242
255
255
235
255
255
229
255
255
229
255
255
232
255
255
235
255
255
255
255
255
255
255
255
255
255
255
255
255
255
255
255
255
255
255
255
255
255
255
255
255
255
255
255
255
255
255
255
255
255
255
255
255
255
255
255
255
255
255
255
255
255
255
255
255
255
255
255
255
255
255
255
255
255
255
255
255
255
255
255
255
255
255
255
255
255
255
255
255
255
255
255
255
255
255
255
255
255
255
255
255
255
255
255
255
255
255
255
255
255
255
255
255
255
255
255
255
255
255
255
255
255
255
255
255
255
255
255
255
255
255
255
255
255
255
255
255
255
255
255
255
255
255
255
255
255
255
255
255
255
255
255
255
255
255
255
255
255
255
255
255
255
255
255
255
255
255
255
255
255
255
255
255
255
255
255
255
255
255
255
255
255
255
255
255
255
255
255
255
255
255
255
255
255
255
254
255
255
253
255
255
254
255
255
255
255
255
255
255
255
255
255
255
255
255
255
255
255
255
255
255
255
255
255
255
255
255
255
255
255
255
255
255
255
255
255
255
255
255
255
255
255
255
255
255
255
255
255
255
255
255
255
255
255
255
255
255
255
255
255
255
255
255
255
255
255
255
255
255
255
255
255
255
255
255
255
255
255
255
255
255
255
255
255
255
255
255
255
255
255
255
255
255
255
255
255
255
255
255
255
255
255
255
255
255
255
255
255
255
255
255
255
254
255
254
250
253
250
236
255
255
251
255
255
255
255
255
255
255
255
255
255
255
255
255
255
255
255
255
255
255
255
255
255
255
255
255
255
255
255
255
255
255
255
255
255
255
255
255
255
255
255
255
255
255
255
255
255
255
255
255
255
255
255
255
255
255
255
255
255
255
255
255
255
255
255
255
255
255
255
255
255
255
255
255
255
255
255
255
255
255
255
255
255
255
255
255
255
255
255
255
255
255
255
255
255
255
255
255
255
255
255
255
255
255
255
255
255
255
255
255
255
255
255
255
255
255
255
255
255
255
255
255
255
255
255
255
255
255
255
255
255
255
255
255
255
255
255
255
255
255
255
255
255
255
255
255
255
255
255
255
254
255
255
249
255
255
248
255
255
246
255
255
250
255
255
253
255
255
254
255
255
253
255
255
253
255
255
254
255
255
255
255
255
255
255
255
255
255
255
255
255
255
254
255
255
253
255
255
253
255
255
253
255
255
251
255
255
250
255
255
251
255
255
251
255
255
251
255
255
251
255
255
250
255
255
253
255
255
250
255
255
250
255
255
251
255
255
252
255
255
252
255
255
254
255
255
255
255
255
254
255
255
254
255
255
255
255
255
255
255
255
254
255
255
253
255
255
251
255
255
244
255
255
244
255
255
243
255
255
242
255
255
236
255
255
229
255
255
230
255
255
232
255
255
232
255
255
255
255
255
255
255
255
255
255
255
255
255
255
255
255
255
255
255
255
255
255
255
255
255
255
255
255
255
255
255
255
255
255
255
255
255
255
255
255
255
255
255
255
255
255
255
255
255
255
255
255
255
255
255
255
255
255
255
255
255
255
255
255
255
255
255
255
255
255
255
255
255
255
255
255
255
255
255
255
255
255
255
255
255
255
255
255
255
255
255
255
255
255
255
255
255
255
255
255
255
255
255
255
255
255
255
255
255
255
255
255
255
255
255
255
255
255
255
255
255
255
255
255
255
255
255
255
255
255
255
255
255
255
255
255
255
255
255
255
255
255
255
255
255
255
255
255
255
255
255
255
255
255
255
255
255
255
255
255
255
255
255
255
255
255
255
255
255
255
255
255
255
254
255
255
253
255
255
250
255
255
249
255
255
249
255
255
253
255
255
255
255
255
255
255
255
255
255
255
255
255
255
255
255
255
255
255
255
255
255
255
255
255
255
255
255
255
255
255
255
255
255
255
255
255
255
255
255
255
255
255
255
255
255
255
255
255
255
255
255
255
255
255
255
255
255
255
255
255
255
255
255
255
255
255
255
255
255
255
255
255
255
255
255
255
255
255
255
255
255
255
255
255
255
255
255
255
255
255
255
255
255
255
255
255
255
255
255
255
255
255
255
250
255
255
250
253
243
218
238
211
182
239
225
203
255
255
252
255
255
255
255
255
255
255
255
255
255
255
255
255
255
255
255
255
255
255
255
255
255
255
255
255
255
255
255
255
255
255
255
255
255
255
255
255
255
255
255
255
255
255
255
255
255
255
255
255
255
255
255
255
255
255
255
255
255
255
255
255
255
255
255
255
255
255
255
255
255
255
255
255
255
255
255
255
255
255
255
255
255
255
255
255
255
255
255
255
255
255
255
255
255
255
255
255
255
255
255
255
255
255
255
255
255
255
255
255
255
255
255
255
255
255
255
255
255
255
255
255
255
255
255
255
255
255
255
255
255
255
255
255
255
255
255
255
255
255
255
255
255
255
254
255
255
251
255
255
246
255
255
243
255
255
243
255
255
247
255
255
250
255
255
250
255
255
248
255
255
247
255
255
248
255
255
253
255
255
255
255
255
255
255
255
250
255
255
247
255
255
245
255
255
246
255
255
250
255
255
247
255
255
246
255
255
246
255
255
246
255
255
246
255
255
247
255
255
247
255
255
248
255
255
245
255
255
243
255
255
242
255
255
242
255
255
243
255
255
245
255
255
249
255
255
248
255
255
248
255
255
251
255
255
255
255
255
255
255
255
253
255
255
249
255
255
244
255
255
242
255
255
239
255
255
238
255
255
235
255
255
227
255
255
226
255
255
228
255
255
228
255
255
255
255
255
255
255
255
255
255
255
255
255
255
255
255
255
255
255
255
255
255
255
255
255
255
255
255
255
255
255
255
255
255
255
255
255
255
255
255
255
255
255
255
255
255
255
255
255
255
255
255
255
255
255
255
255
255
255
255
255
255
255
255
255
255
255
255
255
255
255
255
255
255
255
255
255
255
255
255
255
255
255
255
255
255
255
255
255
255
255
255
255
255
255
255
255
255
255
255
255
255
255
255
255
255
255
255
255
255
255
255
255
255
255
255
255
255
255
255
255
255
255
255
255
255
255
255
255
255
255
255
255
255
255
255
255
255
255
255
255
255
255
255
255
255
255
255
255
255
255
255
255
255
255
255
255
255
255
255
255
255
255
255
255
255
255
255
255
255
252
255
255
250
255
255
248
255
255
244
255
255
242
255
255
243
255
255
248
255
255
253
255
255
255
255
255
255
255
255
255
255
255
255
255
255
255
255
255
255
255
255
255
255
255
255
255
255
255
255
255
255
255
255
255
255
255
255
255
255
255
255
255
255
255
255
255
255
255
255
255
255
255
255
255
255
255
255
255
255
255
255
255
255
255
255
255
255
255
255
254
255
255
255
255
255
255
255
255
255
255
255
255
255
255
255
255
255
255
255
255
255
255
255
255
255
255
255
255
255
255
255
255
255
255
252
244
237
220
199
186
161
139
185
160
142
247
236
220
255
255
255
255
255
255
255
255
255
255
255
255
255
255
255
255
255
255
255
255
255
255
255
255
255
255
255
255
255
255
255
255
255
255
255
255
255
255
255
255
255
255
255
255
255
255
255
255
255
255
255
255
255
255
255
255
255
255
255
255
255
255
255
255
255
255
255
255
255
255
255
255
255
255
255
255
255
255
255
255
255
255
255
255
255
255
255
255
255
255
255
255
255
255
255
255
255
255
255
255
255
255
255
255
255
255
255
255
255
255
255
255
255
255
255
255
255
255
255
255
255
255
255
255
255
255
255
255
255
255
255
255
255
255
255
255
255
255
255
255
255
255
255
252
255
255
248
255
255
244
255
255
241
255
255
241
255
255
244
255
255
246
255
255
244
255
255
242
255
255
241
255
255
246
255
255
249
255
255
251
255
255
250
255
255
245
255
255
242
255
255
240
255
255
241
255
255
246
255
255
244
255
255
241
255
255
239
255
255
240
255
255
241
255
255
242
255
255
242
255
255
242
255
255
240
255
255
237
255
255
236
255
255
236
255
255
235
255
255
237
255
255
240
255
255
242
255
255
243
255
255
246
255
255
253
255
255
254
255
255
251
255
255
246
255
255
243
255
255
238
255
255
236
255
255
235
255
255
229
255
255
223
255
255
221
255
255
223
255
255
223
255
255
255
255
255
255
255
255
255
255
255
255
255
255
255
255
255
255
255
255
255
255
255
255
255
255
255
255
255
255
255
255
255
255
255
255
255
255
255
255
255
255
255
255
255
255
255
255
255
255
255
255
255
255
255
255
255
255
255
255
255
255
255
255
255
255
255
255
255
255
255
255
255
255
255
255
255
255
255
255
255
255
255
255
255
255
255
255
255
255
255
255
255
255
255
255
255
255
255
255
255
255
255
255
255
255
255
255
255
255
255
255
255
255
255
255
255
255
255
255
255
255
255
255
255
255
255
255
255
255
255
255
255
255
255
255
255
255
255
255
255
255
255
255
255
255
255
255
255
255
255
255
255
255
255
255
255
255
255
255
255
255
255
255
254
255
255
253
255
255
248
255
255
247
255
255
245
255
255
242
255
255
240
255
255
240
255
255
244
255
255
250
255
255
255
255
255
255
255
255
255
255
255
255
255
255
255
255
255
255
255
255
255
255
255
255
255
255
255
255
255
255
255
255
255
255
255
255
255
255
255
255
255
255
255
255
255
255
255
255
255
255
255
255
255
255
255
255
255
255
255
255
255
255
255
255
255
255
255
255
252
255
255
255
255
255
255
255
255
254
255
255
252
255
255
244
255
255
243
255
255
246
255
255
255
255
255
255
255
255
255
254
254
254
217
212
207
172
161
151
151
134
122
153
137
125
205
184
163
253
250
246
255
255
255
255
255
255
255
255
255
255
255
255
255
255
255
255
255
255
255
255
255
255
255
255
255
255
255
255
255
255
249
244
238
249
245
236
255
255
255
255
255
255
255
255
255
255
255
255
255
255
255
255
255
255
255
255
255
255
255
255
255
255
255
255
255
253
255
255
252
255
255
253
255
255
255
255
255
255
255
255
255
255
255
255
255
255
255
255
255
255
255
255
255
255
255
255
255
255
255
255
255
255
255
255
255
255
255
255
255
255
255
255
255
255
255
255
255
255
255
255
255
255
255
255
255
255
255
255
255
255
255
255
255
255
255
255
255
255
255
255
252
255
255
245
255
255
242
255
255
241
255
255
241
255
255
240
255
255
239
255
255
236
255
255
235
255
255
235
255
255
244
255
255
246
255
255
246
255
255
243
255
255
243
255
255
239
255
255
237
255
255
238
255
255
243
255
255
241
255
255
238
255
255
235
255
255
236
255
255
239
255
255
241
255
255
240
255
255
236
255
255
236
255
255
234
255
255
232
255
255
234
255
255
232
255
255
235
255
255
237
255
255
238
255
255
240
255
255
242
255
255
247
255
255
248
255
255
245
255
255
242
255
255
241
255
255
238
255
255
234
255
255
229
255
255
221
255
255
219
255
255
220
255
255
224
255
255
223
255
255
255
255
255
255
255
255
255
255
255
255
255
255
255
255
255
255
255
255
255
255
255
255
255
255
255
255
255
255
255
255
255
255
255
255
255
255
255
255
255
255
255
255
255
255
255
255
255
255
255
255
255
255
255
255
255
255
255
255
255
255
255
255
255
255
255
255
255
255
255
255
255
255
255
255
255
255
255
255
255
255
255
255
255
255
255
255
255
255
255
255
255
255
255
255
255
255
255
255
255
255
255
255
255
255
255
255
255
255
255
255
255
255
255
255
255
255
255
255
255
255
255
255
255
255
255
255
255
255
255
255
255
255
255
255
255
255
255
255
255
255
255
255
255
255
255
255
255
255
255
255
255
255
255
255
255
255
255
255
255
255
255
255
254
255
255
252
255
255
247
255
255
244
255
255
240
255
255
238
255
255
238
255
255
238
255
255
243
255
255
248
255
255
255
255
255
255
255
255
255
255
255
255
255
255
255
255
255
255
255
255
255
255
255
255
255
255
255
255
255
255
255
255
255
255
255
255
255
255
255
255
255
255
255
255
255
255
255
255
255
255
255
255
255
255
255
255
255
255
255
255
255
255
255
255
255
255
255
255
255
255
255
255
255
255
255
255
255
248
255
255
229
255
255
237
255
255
239
255
255
250
255
255
255
255
255
255
251
247
243
179
171
160
60
55
52
171
173
175
141
145
150
73
67
61
109
95
83
232
214
197
255
255
251
255
255
255
255
255
255
255
255
255
255
255
255
255
255
255
255
255
255
255
255
255
255
255
255
255
255
255
255
255
255
255
255
255
255
255
255
255
255
255
255
255
255
255
255
255
255
255
255
255
255
254
255
255
253
255
255
253
255
255
253
255
255
252
255
255
251
255
255
252
255
255
254
255
255
255
255
255
255
255
255
255
255
255
255
255
255
255
255
255
255
255
255
255
255
255
255
255
255
255
255
255
255
255
255
255
255
255
255
255
255
255
255
255
255
255
255
255
255
255
255
255
255
255
255
255
255
255
255
255
255
255
255
255
255
255
255
255
253
255
255
247
255
255
244
255
255
244
255
255
241
255
255
237
255
255
237
255
255
233
255
255
232
255
255
233
255
255
238
255
255
241
255
255
242
255
255
242
255
255
240
255
255
237
255
255
235
255
255
236
255
255
239
255
255
238
255
255
236
255
255
233
255
255
236
255
255
237
255
255
239
255
255
238
255
255
235
255
255
233
255
255
230
255
255
230
255
255
228
255
255
229
255
255
231
255
255
236
255
255
235
255
255
239
255
255
241
255
255
242
255
255
242
255
255
241
255
255
238
255
255
237
255
255
235
255
255
230
255
255
225
255
255
220
255
255
217
255
255
219
255
255
221
255
255
222
255
255
255
255
255
255
255
255
255
255
255
254
255
255
253
255
255
254
255
255
253
255
255
253
255
255
254
255
255
255
255
255
255
255
255
255
255
255
255
255
255
255
255
255
255
255
255
255
255
255
255
255
255
255
255
255
255
255
255
255
255
255
255
255
255
255
255
255
255
255
255
255
255
255
255
255
255
255
255
255
255
255
255
255
255
255
255
255
255
255
255
255
255
255
255
255
255
255
255
255
255
255
255
255
255
255
255
255
255
255
255
255
255
255
255
255
255
255
255
255
255
255
255
255
255
255
255
255
255
255
255
255
255
255
255
255
255
255
255
255
255
255
255
255
255
255
255
255
255
255
255
255
255
255
255
255
255
255
255
255
255
255
255
255
255
255
255
252
255
255
247
255
255
243
255
255
237
255
255
236
255
255
236
255
255
238
255
255
243
255
255
248
255
255
255
255
255
255
255
255
255
255
255
255
255
255
255
255
255
255
255
255
255
255
255
255
255
255
255
255
255
255
255
255
255
255
255
255
255
255
255
255
255
255
255
255
255
255
255
255
255
255
255
255
255
252
255
254
240
255
253
239
255
255
255
255
255
255
255
255
255
255
255
255
255
255
253
255
255
248
255
255
252
255
255
244
255
252
232
255
255
252
255
255
255
247
242
230
174
156
137
56
56
55
93
93
93
105
110
115
142
145
150
54
54
55
108
95
85
236
220
197
255
255
249
255
255
255
255
255
255
255
255
255
255
255
255
255
255
255
255
255
255
255
255
255
255
255
255
255
255
255
255
255
255
255
255
255
255
255
255
255
255
255
255
255
255
255
255
255
255
255
255
255
255
255
255
255
252
255
255
252
255
255
251
255
255
250
255
255
250
255
255
250
255
255
254
255
255
255
255
255
255
255
255
255
255
255
255
255
255
255
255
255
255
255
255
255
255
255
255
255
255
255
255
255
255
255
255
255
255
255
255
255
255
255
255
255
255
255
255
255
255
255
255
255
255
255
255
255
255
255
255
255
255
255
255
255
255
255
255
255
253
255
255
248
255
255
242
255
255
241
255
255
239
255
255
236
255
255
234
255
255
230
255
255
229
255
255
230
255
255
234
255
255
237
255
255
238
255
255
239
255
255
238
255
255
236
255
255
234
255
255
234
255
255
238
255
255
236
255
255
232
255
255
232
255
255
235
255
255
234
255
255
234
255
255
236
255
255
232
255
255
230
255
255
229
255
255
226
255
255
225
255
255
224
255
255
227
255
255
231
255
255
235
255
255
239
255
255
241
255
255
243
255
255
243
255
255
241
255
255
236
255
255
234
255
255
232
255
255
228
255
255
224
255
255
220
255
255
217
255
255
219
255
255
220
255
255
222
255
255
255
255
255
254
255
255
252
255
255
250
255
255
249
255
255
251
255
255
249
255
255
249
255
255
253
255
255
255
255
255
255
255
255
255
255
255
255
255
255
255
255
255
255
255
255
255
255
255
255
255
255
255
255
255
255
255
255
255
255
255
255
255
255
255
255
255
255
255
255
255
255
255
255
255
255
255
255
255
255
255
255
255
255
255
255
255
255
255
255
255
255
255
255
255
255
255
255
255
255
255
255
255
255
255
255
255
255
255
255
255
255
255
255
255
255
255
255
255
255
255
255
255
255
255
255
255
255
255
255
255
255
255
254
255
255
253
255
255
254
255
255
255
255
255
255
255
255
255
255
255
255
255
255
255
255
255
255
255
255
255
255
255
255
255
255
255
255
255
250
255
255
245
255
255
238
255
255
235
255
255
236
255
255
238
255
255
244
255
255
249
255
255
253
255
255
255
255
255
255
255
255
255
255
255
255
255
255
255
255
255
255
255
255
255
255
255
255
255
255
255
255
255
255
255
255
255
255
255
255
255
255
255
255
255
255
255
255
249
255
254
223
255
240
194
252
213
171
246
220
195
255
255
253
255
255
255
255
255
249
255
255
254
255
255
254
255
255
250
255
255
237
255
252
218
255
252
225
255
254
245
249
243
220
170
151
133
123
121
120
117
122
127
81
83
85
82
77
72
122
115
108
155
142
129
212
190
169
248
237
222
255
255
255
255
255
255
255
255
255
255
255
255
255
255
255
255
255
255
255
255
255
255
255
255
255
255
255
255
255
255
255
255
255
255
255
255
255
255
255
255
255
255
255
255
255
255
255
255
255
255
255
255
255
255
255
255
253
255
255
251
255
255
250
255
255
252
255
255
252
255
255
252
255
255
255
255
255
255
255
255
255
255
255
255
255
255
255
255
255
255
255
255
255
255
255
255
255
255
255
255
255
255
255
255
255
255
255
255
255
255
255
255
255
255
255
255
255
255
255
255
255
255
255
255
255
255
255
255
255
255
255
255
255
255
255
255
255
255
255
255
253
255
255
248
255
255
242
255
255
242
255
255
240
255
255
237
255
255
235
255
255
232
255
255
230
255
255
230
255
255
233
255
255
236
255
255
236
255
255
237
255
255
238
255
255
239
255
255
238
255
255
236
255
255
240
255
255
238
255
255
233
255
255
232
255
255
234
255
255
235
255
255
234
255
255
233
255
255
231
255
255
230
255
255
230
255
255
229
255
255
229
255
255
227
255
255
228
255
255
229
255
255
234
255
255
238
255
255
240
255
255
241
255
255
241
255
255
238
255
255
234
255
255
231
255
255
227
255
255
225
255
255
223
255
255
219
255
255
217
255
255
218
255
255
220
255
255
222
255
255
255
255
255
255
255
255
252
255
255
247
255
255
247
255
255
249
255
255
247
255
255
249
255
255
253
255
255
255
255
255
255
255
255
255
255
255
255
255
255
255
255
255
255
255
255
255
255
255
255
255
255
255
255
255
255
255
255
255
255
255
255
255
255
255
255
255
255
255
255
255
255
255
255
255
255
255
255
255
255
255
255
255
255
255
255
255
255
255
255
255
255
255
255
255
255
255
255
255
255
255
255
255
255
255
255
255
255
255
255
255
255
255
255
255
255
255
255
255
255
255
255
255
255
255
255
255
255
255
255
253
255
255
249
255
255
247
255
255
248
255
255
251
255
255
254
255
255
255
255
255
255
255
255
255
255
255
255
255
255
255
255
255
255
255
255
255
255
255
254
255
255
248
255
255
243
255
255
237
255
255
239
255
255
239
255
255
243
255
255
249
255
255
253
255
255
255
255
255
255
255
255
255
255
255
255
255
255
255
255
255
255
255
255
255
255
255
255
255
255
255
255
255
255
255
255
255
255
255
255
255
255
255
255
255
247
255
249
202
255
243
194
255
246
205
245
207
168
222
189
161
255
254
252
255
255
251
255
255
250
255
255
253
255
255
242
255
255
228
255
248
214
255
238
201
255
251
221
251
240
211
201
175
152
103
89
78
127
118
111
173
162
153
198
185
173
219
208
193
243
237
224
255
251
238
255
251
231
255
254
242
255
255
255
255
255
255
255
255
255
255
255
255
255
255
255
255
255
255
255
255
255
255
255
255
255
255
255
255
255
255
244
241
238
221
217
213
219
220
219
236
236
235
250
249
250
246
247
246
240
241
242
254
254
254
255
255
252
255
255
249
255
255
249
255
255
252
255
255
253
255
255
254
255
255
254
255
255
254
255
255
255
255
255
255
255
255
255
255
255
255
255
255
255
255
255
255
255
255
255
255
255
255
255
255
255
255
255
255
255
255
255
255
255
255
255
255
255
255
255
255
255
255
255
255
255
255
255
255
255
255
255
255
255
255
255
255
255
255
255
255
252
255
255
248
255
255
246
255
255
245
255
255
241
255
255
238
255
255
237
255
255
234
255
255
233
255
255
233
255
255
232
255
255
235
255
255
235
255
255
237
255
255
240
255
255
242
255
255
242
255
255
241
255
255
243
255
255
242
255
255
237
255
255
235
255
255
236
255
255
236
255
255
236
255
255
235
255
255
230
255
255
230
255
255
232
255
255
235
255
255
232
255
255
231
255
255
230
255
255
231
255
255
232
255
255
236
255
255
238
255
255
235
255
255
236
255
255
233
255
255
229
255
255
224
255
255
221
255
255
219
255
255
219
255
255
217
255
255
215
255
255
216
255
255
218
255
255
218
255
255
255
255
255
255
255
255
253
255
255
248
255
255
244
255
255
247
255
255
247
255
255
247
255
255
250
255
255
254
255
255
255
255
255
255
255
255
255
255
255
255
255
255
255
255
255
255
255
255
255
255
255
255
255
255
255
255
255
255
255
255
255
255
255
255
255
255
255
255
255
255
255
255
255
255
255
255
255
255
255
255
255
255
255
255
255
255
255
255
255
255
255
255
255
255
255
255
255
255
255
255
255
255
255
255
255
255
255
255
255
255
255
255
255
255
255
255
255
255
255
255
255
255
255
255
255
255
252
255
255
246
255
255
242
255
255
239
255
255
243
255
255
245
255
255
250
255
255
255
255
255
255
255
255
255
255
255
255
255
255
255
255
255
255
255
255
255
255
255
255
255
255
254
255
255
250
255
255
244
255
255
240
255
255
244
255
255
246
255
255
250
255
255
255
255
255
255
255
255
255
255
255
255
255
255
255
255
255
255
255
255
255
255
255
255
255
255
255
255
255
255
255
255
255
255
255
255
255
255
255
255
255
255
255
253
230
253
221
171
243
197
152
237
199
162
233
197
160
212
183
154
255
254
239
255
249
218
255
255
250
255
255
237
255
253
228
255
251
218
252
236
195
249
225
186
237
206
170
203
170
137
194
166
140
213
199
173
234
225
202
249
239
220
254
248
238
255
254
252
255
255
255
255
255
255
255
255
252
255
255
255
255
255
255
255
255
255
255
255
255
255
255
255
255
255
255
255
255
255
255
255
255
255
255
255
255
255
252
250
247
242
172
166
161
129
127
125
113
112
110
105
105
103
102
101
100
117
117
115
119
118
117
169
169
161
252
253
250
255
255
250
255
255
249
255
255
253
255
255
252
255
255
254
255
255
254
255
255
254
255
255
253
255
255
255
255
255
255
255
255
255
255
255
255
255
255
255
255
255
255
255
255
255
255
255
254
255
255
254
255
255
255
255
255
255
255
255
255
255
255
255
255
255
255
255
255
255
255
255
255
255
255
255
255
255
255
255
255
255
255
255
254
255
255
253
255
255
246
255
255
245
255
255
245
255
255
240
255
255
239
255
255
238
255
255
238
255
255
239
255
255
235
255
255
234
255
255
234
255
255
236
255
255
240
255
255
242
255
255
244
255
255
247
255
255
245
255
255
245
255
255
243
255
255
239
255
255
239
255
255
241
255
255
241
255
255
239
255
255
237
255
255
237
255
255
239
255
255
241
255
255
241
255
255
237
255
255
235
255
255
236
255
255
238
255
255
238
255
255
239
255
255
236
255
255
235
255
255
234
255
255
231
255
255
226
255
255
221
255
255
218
255
255
216
255
255
214
255
255
212
255
255
213
255
255
217
255
255
221
255
255
255
255
255
254
255
255
250
255
255
245
255
255
242
255
255
245
255
255
245
255
255
245
255
255
248
255
255
252
255
255
255
255
255
255
255
255
255
255
255
255
255
255
255
255
255
255
255
255
255
255
255
255
255
255
255
255
255
255
255
255
255
255
255
255
255
255
255
255
255
255
255
255
254
255
255
255
255
255
255
255
255
255
255
255
255
255
255
255
255
255
255
255
255
255
255
255
255
255
255
255
255
255
255
255
255
255
255
255
255
255
255
255
255
255
255
255
255
255
255
255
255
255
255
252
255
255
247
255
255
241
255
255
238
255
255
237
255
255
242
255
255
245
255
255
250
255
255
255
255
255
255
255
255
255
255
255
255
255
255
255
255
255
255
255
255
255
255
255
255
255
255
255
255
255
254
255
255
250
255
255
246
255
255
248
255
255
252
255
255
254
255
255
255
255
255
255
255
255
255
255
255
255
255
255
255
255
255
255
255
255
255
255
255
255
255
255
255
255
255
255
255
255
255
255
255
255
255
255
255
255
255
244
255
239
194
251
204
156
235
193
153
233
197
165
226
194
162
214
188
159
255
253
234
255
255
250
255
255
252
255
254
230
250
227
190
231
200
162
211
178
141
203
172
134
208
177
142
221
192
157
242
217
184
255
249
223
255
255
252
255
255
252
255
255
247
255
254
248
255
255
255
255
255
255
255
255
255
255
255
253
255
255
238
255
255
250
255
255
253
255
255
254
255
255
255
255
255
255
255
255
255
255
252
243
241
227
205
183
176
162
89
89
86
73
72
68
44
43
39
26
26
22
32
33
29
56
56
52
47
48
42
45
44
37
226
226
220
255
255
254
255
255
248
255
255
250
255
255
251
255
255
253
255
255
254
255
255
254
255
255
254
255
255
255
255
255
255
255
255
254
255
255
254
255
255
252
255
255
252
255
255
252
255
255
249
255
255
248
255
255
252
255
255
254
255
255
255
255
255
255
255
255
255
255
255
255
255
255
255
255
255
255
255
255
255
255
255
255
255
255
254
255
255
252
255
255
245
255
255
245
255
255
246
255
255
245
255
255
243
255
255
242
255
255
243
255
255
244
255
255
238
255
255
235
255
255
235
255
255
237
255
255
241
255
255
243
255
255
246
255
255
248
255
255
247
255
255
247
255
255
246
255
255
244
255
255
244
255
255
245
255
255
245
255
255
242
255
255
240
255
255
240
255
255
241
255
255
244
255
255
244
255
255
242
255
255
242
255
255
243
255
255
245
255
255
246
255
255
245
255
255
241
255
255
238
255
255
233
255
255
230
255
255
225
255
255
219
255
255
217
255
255
214
255
255
211
255
255
209
255
255
209
255
255
213
255
255
219
255
255
255
255
255
252
255
255
248
255
255
241
255
255
239
255
255
242
255
255
242
255
255
242
255
255
246
255
255
250
255
255
255
255
255
255
255
255
255
255
255
255
255
255
255
255
255
255
255
255
255
255
255
255
255
255
255
255
255
255
255
255
255
255
255
255
255
255
255
255
255
255
255
255
252
255
255
255
255
255
255
255
255
255
255
255
255
255
255
255
255
255
255
255
255
255
255
255
255
255
255
255
255
255
255
255
255
255
255
255
255
255
255
255
255
255
255
255
255
255
255
255
254
255
255
249
255
255
244
255
255
239
255
255
236
255
255
237
255
255
242
255
255
248
255
255
252
255
255
255
255
255
255
255
255
255
255
255
255
255
255
255
255
255
255
255
255
255
255
255
255
255
255
255
255
255
255
255
255
254
255
255
251
255
255
252
255
255
255
255
255
255
255
255
255
255
255
255
255
255
255
255
255
255
255
255
255
255
255
255
255
255
255
255
255
255
255
255
255
255
255
255
255
255
254
255
255
248
255
255
245
255
251
210
249
206
157
231
184
139
211
175
139
186
155
128
184
156
130
232
219
201
255
255
254
255
255
251
254
247
230
241
215
176
214
184
145
207
177
141
219
191
157
240
217
185
243
226
195
241
226
196
246
232
200
254
244
220
255
248
226
249
237
216
252
242
221
255
253
245
255
255
255
255
255
255
255
255
255
255
255
246
255
254
226
255
255
241
255
255
237
255
255
248
255
255
255
255
255
255
255
255
239
251
236
202
181
164
145
84
81
73
55
53
48
40
39
34
27
27
22
15
16
11
22
23
17
38
39
33
46
47
45
64
63
59
245
244
241
255
255
255
255
255
254
255
255
250
255
255
249
255
255
252
255
255
254
255
255
254
255
255
254
255
255
254
255
255
255
255
255
254
255
255
253
255
255
250
255
255
250
255
255
247
255
255
246
255
255
242
255
255
248
255
255
250
255
255
254
255
255
255
255
255
255
255
255
255
255
255
255
255
255
255
255
255
255
255
255
255
255
255
254
255
255
251
255
255
245
255
255
245
255
255
246
255
255
247
255
255
246
255
255
245
255
255
246
255
255
246
255
255
238
255
255
237
255
255
237
255
255
237
255
255
242
255
255
244
255
255
246
255
255
248
255
255
248
255
255
247
255
255
247
255
255
248
255
255
248
255
255
247
255
255
247
255
255
246
255
255
242
255
255
242
255
255
243
255
255
245
255
255
247
255
255
248
255
255
248
255
255
248
255
255
248
255
255
249
255
255
248
255
255
244
255
255
240
255
255
234
255
255
229
255
255
225
255
255
219
255
255
217
255
255
214
255
255
212
255
255
211
255
255
210
255
255
212
255
255
216
255
255
255
255
255
250
255
255
245
255
255
239
255
255
240
255
255
241
255
255
241
255
255
241
255
255
245
255
255
251
255
255
255
255
255
255
255
255
255
255
255
255
255
255
255
255
255
255
255
255
255
255
255
255
255
255
255
255
255
255
255
255
255
255
255
255
255
255
255
255
255
255
255
255
255
255
255
255
255
255
255
255
255
255
255
255
255
255
255
255
255
255
255
255
255
255
255
255
255
255
255
255
255
255
255
255
255
255
255
255
255
255
255
255
255
255
255
255
255
255
255
255
254
255
255
245
255
255
240
255
255
237
255
255
238
255
255
238
255
255
243
255
255
248
255
255
254
255
255
255
255
255
255
255
255
255
255
255
255
255
255
255
255
255
255
255
255
255
255
255
255
255
255
255
255
255
255
255
255
255
255
255
253
255
255
253
255
255
255
255
255
255
255
255
255
255
255
255
255
255
255
255
255
255
255
255
255
255
255
255
255
255
255
255
255
255
255
255
255
255
255
255
255
254
237
255
250
209
255
255
224
255
243
197
238
192
148
209
166
128
184
151
121
160
130
110
179
155
132
252
248
234
255
249
223
250
228
193
242
213
174
230
199
161
235
207
172
249
231
198
253
249
220
254
250
230
255
254
233
255
255
234
255
254
235
255
255
235
255
255
246
254
251
236
253
251
244
255
255
253
255
255
255
255
255
255
255
255
253
255
251
223
255
246
211
255
254
222
255
255
243
255
255
254
255
255
252
255
254
240
255
255
236
255
248
225
250
248
239
174
172
163
72
71
69
38
38
38
26
27
26
29
29
27
33
34
28
30
31
24
51
52
47
182
183
178
249
249
248
255
255
255
255
255
255
255
255
252
255
255
252
255
255
251
255
255
251
255
255
253
255
255
253
255
255
252
255
255
254
255
255
252
255
255
252
255
255
250
255
255
248
255
255
247
255
255
244
255
255
241
255
255
243
255
255
247
255
255
252
255
255
254
255
255
255
255
255
255
255
255
255
255
255
255
255
255
255
255
255
255
255
255
255
255
255
252
255
255
250
255
255
249
255
255
248
255
255
245
255
255
245
255
255
245
255
255
247
255
255
245
255
255
241
255
255
240
255
255
240
255
255
239
255
255
242
255
255
243
255
255
246
255
255
249
255
255
249
255
255
249
255
255
249
255
255
249
255
255
248
255
255
247
255
255
247
255
255
245
255
255
244
255
255
242
255
255
242
255
255
246
255
255
250
255
255
249
255
255
248
255
255
248
255
255
246
255
255
247
255
255
247
255
255
244
255
255
239
255
255
234
255
255
229
255
255
224
255
255
218
255
255
217
255
255
216
255
255
218
255
255
214
255
255
213
255
255
213
255
255
214
255
255
255
255
255
251
255
255
246
255
255
241
255
255
241
255
255
241
255
255
241
255
255
240
255
255
242
255
255
246
255
255
252
255
255
255
255
255
255
255
255
255
255
255
255
255
255
255
255
255
255
255
255
255
255
255
255
255
255
255
255
255
255
255
255
255
255
255
255
255
255
255
255
255
255
255
255
255
255
255
255
255
255
255
255
255
255
255
255
255
255
255
255
255
255
255
255
255
255
255
255
255
255
255
255
255
255
255
255
255
255
255
255
255
255
255
255
255
255
255
255
255
253
255
255
243
255
255
239
255
255
237
255
255
237
255
255
238
255
255
243
255
255
248
255
255
255
255
255
255
255
255
255
255
255
255
255
255
255
255
255
255
255
255
255
255
255
255
255
255
255
255
255
255
255
255
255
255
255
255
255
255
253
255
255
254
255
255
255
255
255
255
255
255
255
255
255
255
255
255
255
255
255
255
255
255
255
255
255
255
255
255
255
255
255
255
255
255
255
255
255
247
255
247
205
255
238
195
255
250
209
250
223
178
215
169
129
184
146
115
135
104
79
137
110
91
222
207
184
255
253
221
253
235
196
253
229
192
251
226
189
245
220
183
250
233
199
255
252
228
255
254
240
255
255
254
255
255
255
255
255
247
255
255
242
255
255
248
255
255
253
255
255
255
255
255
255
255
255
255
255
255
255
255
255
255
255
251
237
255
244
210
255
250
217
255
254
227
255
255
250
255
255
250
255
253
241
255
251
232
255
252
228
255
249
222
254
250
234
237
235
226
155
151
148
66
66
65
54
54
54
48
49
46
30
31
26
29
30
23
31
32
24
95
96
89
253
253
252
255
255
255
255
255
255
255
255
255
255
255
255
255
255
254
255
255
251
255
255
252
255
255
252
255
255
248
255
255
251
255
255
252
255
255
252
255
255
252
255
255
246
255
255
246
255
255
243
255
255
243
255
255
244
255
255
244
255
255
247
255
255
251
255
255
253
255
255
254
255
255
255
255
255
255
255
255
255
255
255
255
255
255
255
255
255
255
255
255
252
255
255
252
255
255
249
255
255
245
255
255
245
255
255
245
255
255
247
255
255
247
255
255
240
255
255
240
255
255
238
255
255
238
255
255
242
255
255
241
255
255
242
255
255
244
255
255
251
255
255
252
255
255
252
255
255
252
255
255
244
255
255
245
255
255
247
255
255
247
255
255
244
255
255
241
255
255
241
255
255
245
255
255
249
255
255
249
255
255
248
255
255
249
255
255
250
255
255
252
255
255
250
255
255
243
255
255
238
255
255
233
255
255
229
255
255
223
255
255
216
255
255
214
255
255
215
255
255
218
255
255
216
255
255
216
255
255
217
255
255
216
255
255
255
255
255
255
255
255
251
255
255
245
255
255
242
255
255
242
255
255
241
255
255
239
255
255
242
255
255
245
255
255
250
255
255
255
255
255
255
255
255
255
255
255
255
255
255
255
255
255
255
255
255
255
255
255
255
255
255
255
255
255
255
255
255
255
255
255
255
255
255
255
255
255
255
255
255
255
255
255
255
255
255
255
255
255
255
255
255
255
255
255
255
255
255
255
255
255
255
255
255
255
255
255
255
255
255
255
255
255
255
255
255
255
255
255
255
255
255
255
255
255
251
255
255
245
255
255
240
255
255
236
255
255
238
255
255
241
255
255
245
255
255
249
255
255
255
255
255
255
255
255
255
255
255
255
255
255
255
255
255
255
255
255
255
255
255
255
255
255
255
255
255
255
255
255
255
255
255
255
255
255
255
255
255
255
255
255
255
255
255
255
255
255
255
255
255
255
255
255
255
255
255
255
255
255
255
255
255
255
255
255
255
255
255
255
255
255
253
255
252
222
253
235
192
252
223
187
255
240
198
246
212
165
184
141
106
134
100
76
125
96
76
173
150
130
250
248
227
255
252
218
255
249
212
254
238
200
251
228
190
254
240
205
255
252
222
255
255
243
255
255
252
255
255
254
255
255
255
255
255
253
255
255
252
255
255
255
255
255
255
255
255
255
255
255
255
255
255
255
255
255
255
255
251
240
255
244
217
255
251
230
255
253
247
255
254
243
255
248
236
252
236
212
255
246
221
250
233
205
242
219
190
251
237
211
250
243
224
217
206
188
161
154
147
98
96
90
75
75
70
44
45
39
33
34
28
30
31
25
43
45
38
142
140
135
254
254
254
255
255
255
255
255
255
255
255
255
255
255
254
255
255
255
255
255
254
255
255
250
255
255
250
255
255
248
255
255
247
255
255
250
255
255
252
255
255
252
255
255
246
255
255
244
255
255
243
255
255
244
255
255
244
255
255
242
255
255
243
255
255
247
255
255
248
255
255
251
255
255
254
255
255
255
255
255
255
255
255
255
255
255
255
255
255
255
255
255
255
255
255
255
255
255
253
255
255
248
255
255
246
255
255
243
255
255
244
255
255
244
255
255
241
255
255
241
255
255
240
255
255
239
255
255
240
255
255
241
255
255
241
255
255
242
255
255
252
255
255
254
255
255
254
255
255
250
255
255
246
255
255
247
255
255
248
255
255
248
255
255
244
255
255
241
255
255
241
255
255
245
255
255
246
255
255
245
255
255
246
255
255
250
255
255
252
255
255
253
255
255
252
255
255
244
255
255
237
255
255
231
255
255
228
255
255
224
255
255
217
255
255
213
255
255
212
255
255
217
255
255
217
255
255
217
255
255
218
255
255
216
255
255
255
255
255
255
255
255
252
255
255
247
255
255
242
255
255
242
255
255
241
255
255
239
255
255
241
255
255
243
255
255
247
255
255
252
255
255
255
255
255
255
255
255
255
255
255
255
255
255
255
255
255
255
255
255
255
255
255
255
255
255
255
255
255
255
255
255
255
255
255
255
255
255
255
255
255
255
255
255
255
255
255
255
255
255
255
255
255
255
255
255
255
255
255
255
255
255
255
255
255
255
255
255
255
255
255
255
255
255
255
255
255
255
255
255
255
255
255
255
255
255
253
255
255
248
255
255
243
255
255
239
255
255
240
255
255
245
255
255
247
255
255
249
255
255
255
255
255
255
255
255
255
255
255
255
255
255
255
255
255
255
255
255
255
255
255
255
255
255
255
255
255
255
255
255
255
255
255
255
255
255
255
255
255
255
255
255
255
255
255
255
255
255
255
255
255
255
255
255
255
255
255
255
255
255
255
255
255
255
255
255
255
255
255
255
255
255
245
255
245
203
240
210
172
248
221
186
255
245
209
218
178
135
162
123
91
137
106
85
142
118
99
209
193
171
255
254
231
254
245
207
250
229
192
250
226
188
255
240
202
255
249
217
255
255
244
255
255
248
255
255
245
255
255
240
255
255
244
255
255
254
255
255
255
255
255
255
255
255
255
255
255
255
255
255
255
255
255
248
255
254
232
251
241
210
249
231
204
255
253
237
255
253
225
252
243
218
254
231
198
254
238
209
243
227
200
234
211
184
222
200
175
225
206
182
224
206
183
211
197
180
151
143
132
99
95
87
75
72
67
76
77
71
90
91
86
45
46
41
87
86
81
195
192
187
254
253
252
255
255
255
255
255
255
255
255
255
255
255
254
255
255
254
255
255
255
255
255
253
255
255
248
255
255
248
255
255
246
255
255
247
255
255
249
255
255
251
255
255
243
255
255
242
255
255
241
255
255
241
255
255
240
255
255
239
255
255
241
255
255
244
255
255
244
255
255
245
255
255
250
255
255
254
255
255
255
255
255
255
255
255
255
255
255
255
255
255
255
255
255
255
255
255
255
255
255
252
255
255
247
255
255
242
255
255
242
255
255
242
255
255
240
255
255
239
255
255
239
255
255
239
255
255
239
255
255
240
255
255
240
255
255
241
255
255
250
255
255
253
255
255
251
255
255
246
255
255
245
255
255
247
255
255
247
255
255
246
255
255
244
255
255
239
255
255
239
255
255
243
255
255
245
255
255
243
255
255
246
255
255
250
255
255
252
255
255
252
255
255
250
255
255
242
255
255
234
255
255
228
255
255
228
255
255
224
255
255
220
255
255
216
255
255
213
255
255
215
255
255
217
255
255
217
255
255
219
255
255
219
255
255
255
255
255
255
255
255
252
255
255
248
255
255
242
255
255
241
255
255
240
255
255
238
255
255
237
255
255
239
255
255
243
255
255
248
255
255
251
255
255
254
255
255
255
255
255
255
255
255
255
255
255
255
255
255
255
255
255
255
255
255
255
255
255
255
255
255
255
255
255
255
255
255
255
255
255
255
255
255
255
255
255
255
255
255
255
255
255
255
255
255
255
255
255
255
255
255
255
255
255
255
255
255
255
255
255
255
255
255
255
255
255
255
255
255
255
255
255
255
255
255
253
255
255
252
255
255
247
255
255
243
255
255
244
255
255
247
255
255
248
255
255
250
255
255
254
255
255
255
255
255
255
255
255
255
255
255
255
255
255
255
255
255
255
255
255
255
255
255
255
255
255
255
255
255
255
255
255
255
255
255
255
255
255
255
255
255
255
255
255
255
255
255
255
255
255
255
255
255
255
255
255
255
255
255
255
255
255
255
255
255
255
255
255
255
255
251
225
249
222
182
214
178
145
252
242
213
251
235
201
199
154
117
157
119
90
147
121
99
153
133
114
229
216
192
255
249
217
251
232
193
242
217
180
250
232
195
255
249
214
255
254
226
255
255
235
255
255
236
255
255
250
255
255
255
255
255
251
255
255
255
255
255
255
255
255
255
255
255
255
255
255
254
255
255
235
255
254
220
255
244
205
252
239
202
254
249
223
255
247
224
255
248
221
251
238
208
244
229
205
239
223
199
222
206
184
215
198
176
202
185
163
199
183
163
195
180
159
170
155
138
132
121
108
108
101
92
80
75
67
67
66
60
95
96
90
101
102
97
114
111
107
190
184
173
252
249
242
255
255
255
255
255
255
255
255
253
255
255
253
255
255
255
255
255
255
255
255
255
255
255
252
255
255
248
255
255
247
255
255
243
255
255
244
255
255
246
255
255
240
255
255
239
255
255
236
255
255
235
255
255
236
255
255
235
255
255
239
255
255
242
255
255
238
255
255
240
255
255
246
255
255
251
255
255
255
255
255
255
255
255
255
255
255
255
255
255
255
255
255
255
255
255
255
255
255
253
255
255
249
255
255
244
255
255
242
255
255
243
255
255
237
255
255
235
255
255
235
255
255
237
255
255
239
255
255
237
255
255
237
255
255
239
255
255
243
255
255
248
255
255
247
255
255
244
255
255
243
255
255
244
255
255
245
255
255
243
255
255
242
255
255
236
255
255
234
255
255
237
255
255
245
255
255
246
255
255
247
255
255
251
255
255
249
255
255
247
255
255
243
255
255
236
255
255
231
255
255
227
255
255
226
255
255
224
255
255
222
255
255
218
255
255
215
255
255
217
255
255
218
255
255
219
255
255
221
255
255
223
255
255
255
255
255
254
255
255
250
255
255
244
255
255
242
255
255
239
255
255
235
255
255
234
255
255
233
255
255
236
255
255
240
255
255
244
255
255
248
255
255
251
255
255
252
255
255
252
255
255
254
255
255
254
255
255
254
255
255
255
255
255
255
255
255
254
255
255
251
255
255
248
255
255
252
255
255
252
255
255
253
255
255
255
255
255
255
255
255
255
255
255
255
255
255
255
255
255
255
255
255
255
255
255
255
255
255
255
255
255
255
255
255
255
255
255
255
255
255
255
255
255
252
255
255
251
255
255
246
255
255
241
255
255
244
255
255
246
255
255
249
255
255
251
255
255
255
255
255
255
255
255
255
255
255
255
255
255
255
255
255
255
255
255
255
255
255
255
255
255
255
255
255
255
255
255
254
255
255
254
255
255
255
255
255
255
255
255
255
255
255
255
255
255
255
255
255
255
255
255
255
255
255
255
255
255
255
255
255
255
255
255
255
255
255
242
253
233
196
234
197
161
217
186
153
255
250
231
235
199
159
187
144
108
133
97
73
144
121
99
152
132
111
222
204
176
252
233
200
242
219
183
244
220
184
255
236
201
255
245
211
255
253
224
255
255
243
255
255
239
255
255
238
255
255
247
255
255
255
255
255
255
255
255
255
255
255
255
255
255
252
255
255
238
255
254
216
255
253
217
254
239
201
255
248
215
255
255
240
255
253
233
255
254
235
255
255
250
253
247
238
251
244
224
236
223
206
223
206
185
230
218
197
189
171
150
191
175
156
163
148
133
125
113
101
114
108
95
104
100
90
86
83
74
95
91
83
124
121
114
106
105
95
182
176
161
251
249
245
255
255
255
255
255
255
255
255
255
255
255
246
255
255
251
255
255
255
255
255
255
255
255
255
255
255
253
255
255
247
255
255
246
255
255
245
255
255
242
255
255
235
255
255
234
255
255
233
255
255
233
255
255
233
255
255
235
255
255
236
255
255
235
255
255
233
255
255
239
255
255
246
255
255
249
255
255
253
255
255
255
255
255
255
255
255
255
255
255
255
255
255
255
255
255
254
255
255
250
255
255
246
255
255
245
255
255
243
255
255
243
255
255
238
255
255
235
255
255
235
255
255
237
255
255
239
255
255
234
255
255
235
255
255
237
255
255
239
255
255
243
255
255
244
255
255
241
255
255
239
255
255
237
255
255
238
255
255
239
255
255
236
255
255
233
255
255
231
255
255
235
255
255
241
255
255
246
255
255
244
255
255
245
255
255
244
255
255
244
255
255
240
255
255
233
255
255
230
255
255
229
255
255
227
255
255
225
255
255
221
255
255
218
255
255
213
255
255
213
255
255
216
255
255
218
255
255
221
255
255
225
255
255
250
255
255
247
255
255
243
255
255
239
255
255
238
255
255
235
255
255
234
255
255
233
255
255
233
255
255
235
255
255
237
255
255
238
255
255
242
255
255
245
255
255
245
255
255
246
255
255
249
255
255
250
255
255
250
255
255
252
255
255
252
255
255
252
255
255
249
255
255
245
255
255
250
255
255
247
255
255
248
255
255
253
255
255
254
255
255
255
255
255
255
255
255
255
255
255
255
255
255
255
255
255
255
255
255
255
255
255
255
255
255
255
255
255
254
255
255
254
255
255
252
255
255
250
255
255
247
255
255
241
255
255
243
255
255
246
255
255
247
255
255
247
255
255
254
255
255
255
255
255
255
255
255
255
255
255
255
255
255
255
255
255
255
255
255
255
255
255
254
255
255
252
255
255
250
255
255
250
255
255
251
255
255
255
255
255
255
255
255
255
255
255
255
255
255
255
255
255
255
255
255
255
255
255
255
255
255
255
255
255
250
253
244
208
240
204
168
214
179
144
232
211
186
255
245
218
225
181
140
190
148
114
135
102
80
124
103
83
173
152
132
218
199
171
249
229
195
230
206
170
238
215
180
255
243
207
255
251
215
255
252
219
255
252
220
255
252
217
255
255
244
255
255
255
255
255
255
255
255
255
255
255
249
255
255
235
255
253
223
255
250
210
254
242
200
252
236
197
248
228
191
249
232
194
242
231
194
253
246
223
254
249
225
244
233
209
238
226
201
216
201
177
204
188
167
218
207
187
189
174
154
176
160
140
181
167
147
151
138
123
126
116
105
102
94
85
111
103
94
106
101
90
97
94
83
77
74
64
127
124
111
170
163
146
244
240
227
255
255
255
255
255
255
255
255
255
255
255
255
255
255
249
255
255
248
255
255
255
255
255
255
255
255
255
255
255
251
255
255
250
255
255
247
255
255
241
255
255
232
255
255
230
255
255
230
255
255
233
255
255
233
255
255
231
255
255
231
255
255
231
255
255
229
255
255
236
255
255
245
255
255
250
255
255
253
255
255
255
255
255
255
255
255
255
255
255
255
255
255
255
255
255
254
255
255
249
255
255
249
255
255
249
255
255
248
255
255
246
255
255
243
255
255
239
255
255
237
255
255
237
255
255
239
255
255
233
255
255
234
255
255
237
255
255
237
255
255
240
255
255
241
255
255
238
255
255
235
255
255
231
255
255
232
255
255
235
255
255
233
255
255
230
255
255
227
255
255
230
255
255
236
255
255
241
255
255
241
255
255
240
255
255
242
255
255
243
255
255
240
255
255
233
255
255
231
255
255
232
255
255
228
255
255
225
255
255
223
255
255
220
255
255
216
255
255
215
255
255
217
255
255
217
255
255
218
255
255
224
255
255
243
255
255
240
255
255
237
255
255
234
255
255
233
255
255
233
255
255
232
255
255
231
255
255
230
255
255
231
255
255
233
255
255
233
255
255
236
255
255
238
255
255
238
255
255
239
255
255
241
255
255
243
255
255
244
255
255
248
255
255
249
255
255
249
255
255
246
255
255
243
255
255
246
255
255
243
255
255
243
255
255
248
255
255
251
255
255
251
255
255
253
255
255
253
255
255
255
255
255
255
255
255
255
255
255
255
255
255
254
255
255
251
255
255
249
255
255
250
255
255
249
255
255
248
255
255
247
255
255
243
255
255
243
255
255
243
255
255
244
255
255
246
255
255
254
255
255
255
255
255
255
255
255
255
255
255
255
255
255
255
255
255
254
255
255
253
255
255
249
255
255
246
255
255
245
255
255
245
255
255
249
255
255
254
255
255
255
255
255
255
255
255
255
255
255
255
255
255
255
255
255
255
255
255
255
255
255
255
255
254
236
244
217
174
224
189
154
206
172
140
242
231
207
251
232
193
216
170
129
195
155
123
143
111
90
131
113
93
194
174
152
222
204
175
245
226
192
236
212
176
238
215
179
251
235
198
253
235
196
255
247
207
255
241
198
255
245
206
255
255
239
255
255
253
255
255
252
255
255
249
255
255
232
254
247
208
254
241
200
246
230
188
237
220
180
233
213
176
239
224
189
239
224
191
245
236
205
248
234
205
253
247
220
253
245
216
234
220
192
229
216
190
213
199
176
219
204
184
195
181
162
170
156
138
157
145
127
151
142
126
116
108
93
130
122
107
136
124
107
93
84
73
31
27
21
24
21
13
50
46
38
123
114
95
207
199
174
255
255
253
255
255
255
255
255
255
255
255
255
255
255
255
255
255
250
255
255
251
255
255
255
255
255
255
255
255
253
255
255
250
255
255
247
255
255
239
255
255
230
255
255
228
255
255
229
255
255
233
255
255
233
255
255
231
255
255
230
255
255
229
255
255
227
255
255
234
255
255
244
255
255
252
255
255
254
255
255
255
255
255
255
255
255
255
255
255
255
255
255
255
255
255
254
255
255
250
255
255
249
255
255
251
255
255
252
255
255
248
255
255
247
255
255
243
255
255
240
255
255
237
255
255
239
255
255
234
255
255
233
255
255
236
255
255
234
255
255
236
255
255
236
255
255
234
255
255
229
255
255
226
255
255
227
255
255
230
255
255
229
255
255
226
255
255
224
255
255
225
255
255
231
255
255
235
255
255
236
255
255
237
255
255
238
255
255
241
255
255
239
255
255
234
255
255
231
255
255
232
255
255
229
255
255
226
255
255
224
255
255
222
255
255
218
255
255
218
255
255
218
255
255
216
255
255
215
255
255
220
255
255
241
255
255
237
255
255
235
255
255
232
255
255
231
255
255
231
255
255
228
255
255
226
255
255
222
255
255
223
255
255
224
255
255
224
255
255
226
255
255
226
255
255
228
255
255
229
255
255
231
255
255
235
255
255
237
255
255
241
255
255
247
255
255
247
255
255
245
255
255
243
255
255
240
255
255
236
255
255
236
255
255
240
255
255
242
255
255
243
255
255
246
255
255
249
255
255
253
255
255
254
255
255
255
255
255
255
255
255
250
255
255
245
255
255
245
255
255
245
255
255
246
255
255
245
255
255
245
255
255
244
255
255
242
255
255
241
255
255
245
255
255
251
255
255
255
255
255
255
255
255
255
255
255
255
255
255
255
255
255
254
255
255
252
255
255
250
255
255
245
255
255
243
255
255
239
255
255
242
255
255
248
255
255
254
255
255
255
255
255
255
255
255
255
255
255
255
255
255
255
255
255
255
255
255
255
255
255
255
255
251
223
244
211
172
216
181
148
213
179
149
254
247
218
251
214
171
229
185
145
177
140
109
141
112
90
160
142
118
190
173
148
230
214
183
252
235
200
237
215
178
244
222
185
252
236
198
253
236
196
248
225
184
248
225
185
254
241
201
255
254
223
255
252
220
255
253
220
255
253
220
254
244
206
245
228
187
230
212
171
207
190
152
189
173
136
205
187
154
204
189
156
209
194
163
231
217
187
235
225
199
228
215
187
240
227
198
220
206
177
216
202
175
198
184
157
200
185
161
190
175
155
162
146
129
146
138
117
138
132
113
101
95
81
105
96
82
145
129
109
172
157
123
168
162
139
65
57
47
60
53
43
120
107
90
215
205
174
255
255
251
255
255
255
255
255
255
255
255
255
255
255
255
255
255
252
255
255
250
255
255
254
255
255
255
255
255
251
255
255
249
255
255
246
255
255
235
255
255
233
255
255
230
255
255
230
255
255
232
255
255
231
255
255
230
255
255
230
255
255
230
255
255
230
255
255
237
255
255
244
255
255
252
255
255
254
255
255
253
255
255
255
255
255
255
255
255
255
255
255
255
255
255
255
255
255
253
255
255
252
255
255
253
255
255
252
255
255
248
255
255
248
255
255
246
255
255
245
255
255
243
255
255
241
255
255
237
255
255
235
255
255
236
255
255
238
255
255
238
255
255
236
255
255
233
255
255
228
255
255
227
255
255
225
255
255
227
255
255
227
255
255
225
255
255
222
255
255
223
255
255
228
255
255
229
255
255
233
255
255
236
255
255
238
255
255
242
255
255
245
255
255
242
255
255
241
255
255
237
255
255
233
255
255
230
255
255
225
255
255
223
255
255
221
255
255
220
255
255
218
255
255
215
255
255
213
255
255
214
255
255
240
255
255
237
255
255
233
255
255
227
255
255
225
255
255
221
255
255
219
255
255
217
255
255
215
255
255
209
255
255
206
255
255
208
255
255
210
255
255
212
255
255
215
255
255
216
255
255
220
255
255
226
255
255
228
255
255
231
255
255
238
255
255
240
255
255
238
255
255
236
255
255
231
255
255
227
255
255
227
255
255
229
255
255
231
255
255
234
255
255
241
255
255
250
255
255
249
255
255
249
255
255
251
255
255
253
255
255
248
255
255
241
255
255
239
255
255
239
255
255
242
255
255
241
255
255
241
255
255
239
255
255
239
255
255
237
255
255
241
255
255
248
255
255
251
255
255
254
255
255
253
255
255
254
255
255
253
255
255
253
255
255
251
255
255
250
255
255
246
255
255
242
255
255
239
255
255
240
255
255
247
255
255
250
255
255
252
255
255
254
255
255
255
255
255
255
255
255
255
255
255
255
255
255
255
255
255
255
255
248
217
238
204
167
204
169
137
235
210
177
255
248
219
252
214
170
210
171
133
166
135
105
139
114
91
150
130
107
193
175
150
236
220
190
241
224
189
237
215
178
239
217
180
251
231
193
248
227
187
247
224
183
244
219
179
250
231
190
255
243
201
255
251
209
255
254
213
250
243
202
235
220
183
214
199
163
164
150
118
118
104
84
137
126
105
161
150
128
156
144
120
196
184
161
212
199
175
200
188
162
220
206
178
220
206
177
218
204
176
194
180
153
198
184
157
186
172
147
179
165
142
157
142
122
142
131
109
89
77
63
39
37
27
41
38
30
128
115
96
219
202
169
255
255
251
229
221
200
207
187
152
220
197
156
249
237
196
252
230
189
255
255
251
255
255
255
255
255
254
255
255
253
255
255
254
255
255
251
255
255
254
255
255
255
255
255
254
255
255
251
255
255
247
255
255
237
255
255
233
255
255
230
255
255
231
255
255
232
255
255
231
255
255
231
255
255
232
255
255
231
255
255
230
255
255
232
255
255
235
255
255
239
255
255
244
255
255
248
255
255
254
255
255
255
255
255
255
255
255
255
255
255
255
255
255
255
255
255
255
255
255
255
255
255
255
255
255
252
255
255
251
255
255
249
255
255
249
255
255
249
255
255
247
255
255
244
255
255
241
255
255
243
255
255
239
255
255
238
255
255
235
255
255
231
255
255
226
255
255
224
255
255
223
255
255
225
255
255
226
255
255
224
255
255
222
255
255
220
255
255
225
255
255
226
255
255
228
255
255
232
255
255
242
255
255
246
255
255
247
255
255
246
255
255
244
255
255
241
255
255
236
255
255
234
255
255
234
255
255
229
255
255
226
255
255
221
255
255
217
255
255
215
255
255
213
255
255
211
255
255
241
255
255
238
255
255
230
255
255
222
255
255
219
255
255
213
255
255
210
255
255
206
255
255
201
254
255
195
253
255
191
254
255
192
254
255
193
255
255
197
255
255
200
255
255
200
255
255
206
255
255
212
255
255
216
255
255
220
255
255
229
255
255
231
255
255
230
255
255
229
255
255
222
255
255
218
255
255
218
255
255
223
255
255
227
255
255
229
255
255
237
255
255
244
255
255
243
255
255
243
255
255
246
255
255
249
255
255
244
255
255
236
255
255
235
255
255
236
255
255
238
255
255
237
255
255
235
255
255
232
255
255
233
255
255
234
255
255
239
255
255
245
255
255
250
255
255
252
255
255
249
255
255
251
255
255
254
255
255
253
255
255
248
255
255
246
255
255
244
255
255
242
255
255
240
255
255
246
255
255
248
255
255
244
255
255
246
255
255
249
255
255
251
255
255
253
255
255
255
255
255
255
255
255
255
255
255
251
255
242
201
230
194
157
213
178
146
246
229
205
255
243
207
250
213
171
194
156
121
177
149
119
137
114
91
141
124
100
184
167
142
211
193
164
221
202
168
226
205
170
223
202
166
238
217
179
237
215
175
232
210
168
225
202
161
236
214
172
253
236
194
255
247
204
255
250
210
233
220
183
216
202
165
163
152
122
58
54
40
32
29
24
93
91
84
39
37
28
84
79
69
148
139
124
162
150
132
174
160
139
196
182
156
198
184
157
194
180
153
174
161
135
182
171
146
147
135
111
141
128
108
92
79
65
74
61
53
61
42
36
68
56
49
83
81
76
173
158
132
248
238
214
255
255
255
255
254
250
229
194
159
210
174
138
206
166
132
240
196
152
255
254
237
255
255
255
255
255
250
255
255
251
255
255
255
255
255
255
255
255
255
255
255
255
255
255
255
255
255
253
255
255
249
255
255
243
255
255
233
255
255
232
255
255
230
255
255
230
255
255
235
255
255
235
255
255
233
255
255
229
255
255
226
255
255
230
255
255
234
255
255
240
255
255
244
255
255
251
255
255
255
255
255
255
255
255
255
255
255
255
255
255
255
255
255
255
255
255
255
255
255
255
255
255
255
255
255
255
255
255
255
255
255
252
255
255
251
255
255
252
255
255
248
255
255
246
255
255
245
255
255
244
255
255
240
255
255
238
255
255
236
255
255
230
255
255
228
255
255
225
255
255
221
255
255
221
255
255
227
255
255
227
255
255
223
255
255
221
255
255
222
255
255
224
255
255
227
255
255
233
255
255
240
255
255
241
255
255
238
255
255
238
255
255
236
255
255
238
255
255
240
255
255
239
255
255
238
255
255
231
255
255
227
255
255
223
255
255
216
255
255
213
255
255
212
255
255
211
255
255
238
255
255
233
255
255
224
255
255
218
255
255
214
255
255
211
255
255
206
255
255
198
254
255
194
249
255
187
246
255
183
246
255
181
246
255
181
249
255
185
251
255
188
252
255
189
254
255
194
255
255
198
255
255
202
255
255
208
255
255
217
255
255
222
255
255
223
255
255
225
255
255
219
255
255
216
255
255
212
255
255
219
255
255
224
255
255
229
255
255
230
255
255
236
255
255
236
255
255
239
255
255
243
255
255
242
255
255
238
255
255
231
255
255
231
255
255
233
255
255
233
255
255
232
255
255
229
255
255
228
255
255
230
255
255
234
255
255
240
255
255
246
255
255
249
255
255
249
255
255
250
255
255
255
255
255
251
255
255
243
255
255
237
255
255
234
255
255
232
255
255
233
255
255
236
255
255
247
255
255
249
255
255
241
255
255
242
255
255
246
255
255
244
255
255
247
255
255
253
255
255
255
255
255
255
255
255
242
253
233
190
230
195
158
224
190
157
248
224
191
255
242
200
235
200
159
191
155
119
184
155
126
134
111
89
133
117
93
174
158
132
194
176
146
212
192
159
226
206
173
223
203
166
237
216
178
234
214
173
233
213
171
230
208
167
246
227
185
255
244
202
255
254
215
250
241
203
223
211
174
194
181
146
97
90
72
20
19
14
50
50
46
51
50
46
17
16
13
81
78
73
87
80
74
73
59
53
107
91
83
106
88
77
140
123
109
120
103
88
102
87
73
113
100
89
64
54
45
55
47
39
47
39
31
70
60
55
64
47
42
102
84
78
138
123
115
223
211
181
254
253
240
255
255
255
246
234
221
183
141
110
177
138
105
187
147
113
225
183
136
255
252
225
255
255
254
255
255
249
255
255
254
255
255
255
255
255
255
255
255
255
255
255
255
255
255
255
255
255
255
255
255
255
255
255
252
255
255
239
255
255
237
255
255
237
255
255
236
255
255
238
255
255
234
255
255
232
255
255
232
255
255
235
255
255
242
255
255
247
255
255
249
255
255
251
255
255
254
255
255
255
255
255
255
255
255
255
255
255
255
255
255
255
255
255
255
255
255
255
255
255
255
255
255
255
255
255
255
255
255
255
255
255
255
255
255
254
255
255
253
255
255
243
255
255
239
255
255
237
255
255
237
255
255
236
255
255
232
255
255
230
255
255
232
255
255
233
255
255
232
255
255
229
255
255
230
255
255
232
255
255
231
255
255
224
255
255
219
255
255
225
255
255
227
255
255
229
255
255
233
255
255
234
255
255
237
255
255
235
255
255
235
255
255
235
255
255
236
255
255
242
255
255
244
255
255
242
255
255
235
255
255
228
255
255
221
255
255
215
255
255
216
255
255
214
255
255
214
255
255
231
255
255
227
255
255
219
255
255
212
255
255
209
255
255
206
255
255
205
255
255
203
254
255
192
247
255
186
241
255
177
240
255
175
240
255
175
242
255
178
241
255
178
244
255
181
243
255
185
248
255
186
252
255
188
255
255
197
255
255
205
255
255
214
255
255
218
255
255
219
255
255
220
255
255
215
255
255
215
255
255
216
255
255
223
255
255
226
255
255
229
255
255
232
255
255
232
255
255
237
255
255
239
255
255
235
255
255
231
255
255
227
255
255
226
255
255
227
255
255
227
255
255
226
255
255
225
255
255
227
255
255
229
255
255
235
255
255
241
255
255
246
255
255
248
255
255
248
255
255
249
255
255
249
255
255
239
255
255
235
255
255
232
255
255
229
255
255
227
255
255
228
255
255
231
255
255
242
255
255
248
255
255
244
255
255
242
255
255
244
255
255
241
255
255
244
255
255
246
255
255
253
255
255
255
255
253
230
252
222
182
229
196
161
211
176
143
236
210
177
255
239
197
231
191
150
199
163
127
190
161
132
139
116
94
123
108
84
176
160
134
195
177
147
223
203
170
230
210
176
227
207
171
238
219
181
243
225
183
241
224
180
241
222
180
252
238
196
255
245
203
255
251
214
251
241
205
231
218
184
174
164
134
39
37
28
27
26
23
49
48
45
37
36
33
50
48
48
90
86
85
50
43
40
68
54
52
82
64
61
103
81
78
108
86
80
116
95
89
117
97
91
105
87
84
79
65
61
78
66
61
77
65
61
79
69
66
95
82
77
110
90
85
164
139
135
251
239
223
255
255
251
255
255
255
227
204
183
176
133
104
172
132
102
177
140
107
203
167
126
254
254
240
255
255
255
255
255
252
255
255
255
255
255
255
255
255
255
255
255
255
255
255
255
255
255
255
255
255
255
255
255
255
255
255
255
255
255
250
255
255
246
255
255
246
255
255
244
255
255
242
255
255
234
255
255
234
255
255
239
255
255
246
255
255
251
255
255
254
255
255
255
255
255
255
255
255
255
255
255
255
255
255
255
255
255
255
255
255
255
255
255
255
255
255
255
255
255
255
255
255
255
255
255
255
255
255
255
255
255
255
255
255
255
255
255
255
255
255
253
255
255
242
255
255
238
255
255
237
255
255
238
255
255
239
255
255
230
255
255
222
255
255
224
255
255
232
255
255
235
255
255
236
255
255
240
255
255
242
255
255
238
255
255
233
255
255
232
255
255
227
255
255
228
255
255
227
255
255
230
255
255
230
255
255
233
255
255
233
255
255
232
255
255
237
255
255
236
255
255
240
255
255
249
255
255
245
255
255
241
255
255
232
255
255
221
255
255
216
255
255
218
255
255
216
255
255
212
255
255
229
255
255
224
255
255
220
255
255
212
255
255
210
255
255
203
255
255
205
255
255
209
255
255
202
249
255
190
240
255
180
238
255
179
238
255
179
238
255
177
238
255
177
240
255
182
242
255
184
246
255
185
249
255
186
254
255
195
255
255
208
255
255
215
255
255
218
255
255
220
255
255
225
255
255
221
255
255
220
255
255
219
255
255
224
255
255
228
255
255
232
255
255
236
255
255
233
255
255
238
255
255
238
255
255
232
255
255
226
255
255
227
255
255
225
255
255
223
255
255
222
255
255
223
255
255
226
255
255
232
255
255
240
255
255
242
255
255
243
255
255
243
255
255
249
255
255
251
255
255
249
255
255
243
255
255
236
255
255
232
255
255
228
255
255
224
255
255
222
255
255
226
255
255
229
255
255
236
255
255
247
255
255
252
255
255
246
255
255
245
255
255
245
255
255
243
255
255
246
255
255
248
255
255
254
255
245
213
247
216
178
221
188
151
213
181
148
249
231
196
255
234
191
230
191
150
195
161
125
191
165
134
143
122
100
141
125
103
184
167
140
206
189
160
228
211
178
230
210
177
231
212
176
245
226
189
241
222
183
237
218
176
239
222
179
244
229
186
247
233
189
254
245
202
250
239
199
235
224
188
173
162
135
47
43
33
36
33
31
51
48
45
35
31
29
79
74
71
106
95
91
108
95
91
73
60
57
79
66
63
97
77
74
108
82
81
123
101
97
151
127
123
141
118
117
125
106
105
110
95
92
114
101
98
107
93
92
114
100
99
138
122
121
159
133
133
240
231
229
255
255
255
255
255
249
225
199
171
204
166
133
186
150
119
190
150
116
194
164
125
254
249
232
255
255
253
255
255
254
255
255
255
255
255
255
255
255
255
255
255
255
255
255
255
255
255
255
255
255
255
255
255
255
255
255
254
255
255
251
255
255
249
255
255
248
255
255
248
255
255
246
255
255
242
255
255
246
255
255
251
255
255
254
255
255
255
255
255
255
255
255
255
255
255
255
255
255
255
255
255
255
255
255
255
255
255
255
255
255
255
255
255
255
255
255
255
255
255
255
255
255
255
255
255
255
255
255
255
255
255
255
255
255
255
255
255
255
255
255
255
255
255
253
255
255
248
255
255
242
255
255
242
255
255
239
255
255
234
255
255
230
255
255
230
255
255
233
255
255
235
255
255
238
255
255
239
255
255
246
255
255
244
255
255
237
255
255
234
255
255
230
255
255
224
255
255
221
255
255
224
255
255
229
255
255
232
255
255
232
255
255
231
255
255
234
255
255
235
255
255
239
255
255
249
255
255
246
255
255
238
255
255
229
255
255
224
255
255
223
255
255
217
255
255
214
255
255
208
255
255
223
255
255
221
255
255
219
255
255
213
255
255
211
255
255
209
255
255
210
255
255
210
255
255
209
254
255
198
248
255
191
246
255
187
245
255
186
244
255
185
244
255
186
247
255
191
247
255
192
252
255
195
253
255
194
255
255
200
255
255
208
255
255
216
255
255
220
255
255
223
255
255
225
255
255
226
255
255
228
255
255
227
255
255
230
255
255
231
255
255
234
255
255
241
255
255
242
255
255
239
255
255
234
255
255
232
255
255
224
255
255
224
255
255
225
255
255
223
255
255
225
255
255
228
255
255
230
255
255
237
255
255
241
255
255
246
255
255
248
255
255
250
255
255
250
255
255
252
255
255
246
255
255
242
255
255
236
255
255
233
255
255
230
255
255
227
255
255
228
255
255
226
255
255
228
255
255
233
255
255
241
255
255
245
255
255
248
255
255
254
255
255
251
255
255
249
255
255
248
255
255
248
255
255
247
252
231
188
225
191
155
221
189
154
217
185
152
232
204
169
254
230
187
225
186
145
200
165
129
192
165
133
154
131
107
141
123
99
182
165
138
208
191
162
228
211
179
231
214
180
235
218
181
239
221
183
234
215
176
235
215
174
227
207
166
232
215
172
240
223
180
241
226
184
242
228
189
230
217
180
175
161
130
86
76
60
46
43
37
48
44
41
51
48
46
58
55
52
109
100
97
130
119
117
112
102
98
170
162
154
153
143
135
97
74
72
114
90
89
175
150
147
175
148
148
168
144
146
148
127
129
146
127
129
160
144
146
148
132
134
158
143
143
200
181
181
247
234
236
255
255
255
255
255
249
221
191
154
193
149
113
231
187
144
250
228
192
253
251
238
255
249
227
255
255
254
255
255
255
255
255
255
255
255
255
255
255
255
255
255
255
255
255
255
255
255
255
255
255
255
255
255
255
255
255
255
255
255
255
255
255
253
255
255
254
255
255
254
255
255
252
255
255
247
255
255
252
255
255
255
255
255
255
255
255
255
255
255
255
255
255
255
255
255
255
255
255
255
255
255
255
255
255
255
255
255
255
255
255
255
255
255
255
255
255
255
255
255
255
255
255
255
255
255
255
255
255
255
255
255
255
255
255
255
255
255
255
255
255
255
255
255
255
255
255
253
255
255
250
255
255
249
255
255
249
255
255
245
255
255
239
255
255
241
255
255
243
255
255
244
255
255
244
255
255
246
255
255
248
255
255
243
255
255
239
255
255
239
255
255
232
255
255
225
255
255
220
255
255
219
255
255
229
255
255
236
255
255
234
255
255
236
255
255
237
255
255
237
255
255
236
255
255
244
255
255
244
255
255
240
255
255
236
255
255
231
255
255
222
255
255
212
255
255
209
255
255
207
255
255
223
255
255
220
255
255
218
255
255
215
255
255
214
255
255
215
255
255
216
255
255
217
255
255
216
255
255
210
255
255
208
255
255
205
254
255
202
254
255
200
253
255
200
255
255
206
255
255
205
255
255
205
255
255
204
255
255
209
255
255
213
255
255
217
255
255
219
255
255
220
255
255
220
255
255
223
255
255
229
255
255
236
255
255
237
255
255
238
255
255
238
255
255
232
255
255
235
255
255
237
255
255
237
255
255
232
255
255
227
255
255
226
255
255
229
255
255
231
255
255
232
255
255
233
255
255
237
255
255
238
255
255
241
255
255
250
255
255
252
255
255
250
255
255
251
255
255
249
255
255
243
255
255
242
255
255
238
255
255
235
255
255
239
255
255
239
255
255
240
255
255
238
255
255
239
255
255
241
255
255
242
255
255
247
255
255
250
255
255
251
255
255
254
255
255
251
255
255
251
255
255
251
255
255
235
239
211
165
225
190
157
217
183
151
194
162
129
232
210
174
253
228
186
224
186
145
199
164
129
187
158
126
158
133
107
131
110
85
164
147
121
208
191
161
221
205
172
225
210
175
228
214
176
238
220
182
234
215
176
231
211
170
219
197
156
218
198
156
211
193
151
219
200
159
228
212
172
225
212
172
197
180
145
161
147
123
84
79
66
56
52
46
62
61
59
50
49
46
67
61
59
108
100
99
154
145
141
209
201
190
194
187
175
108
93
89
120
98
99
160
133
131
196
167
167
190
163
167
184
159
164
172
151
155
186
167
170
193
174
178
186
165
172
217
195
203
248
239
242
255
255
255
255
254
248
253
231
188
243
209
168
254
245
212
255
255
250
255
255
255
255
255
245
255
255
255
255
255
255
255
255
255
255
255
255
255
255
255
255
255
255
255
255
255
255
255
255
255
255
255
255
255
255
255
255
255
255
255
255
255
255
255
255
255
255
255
255
255
255
255
255
255
255
255
255
255
255
255
255
255
255
255
255
255
255
255
255
255
255
255
255
255
255
255
255
255
255
255
255
255
255
255
255
255
255
255
255
255
255
255
255
255
255
255
255
255
255
255
255
255
255
255
255
255
255
255
255
255
255
255
255
255
255
255
255
255
255
255
255
255
255
255
255
255
255
255
255
255
255
255
255
255
255
255
255
255
255
252
255
255
245
255
255
246
255
255
247
255
255
248
255
255
247
255
255
251
255
255
250
255
255
247
255
255
243
255
255
242
255
255
233
255
255
223
255
255
220
255
255
222
255
255
229
255
255
237
255
255
237
255
255
241
255
255
242
255
255
241
255
255
238
255
255
241
255
255
242
255
255
242
255
255
243
255
255
238
255
255
224
255
255
211
255
255
208
255
255
211
255
255
222
255
255
221
255
255
220
255
255
217
255
255
220
255
255
224
255
255
226
255
255
229
255
255
223
255
255
222
255
255
224
255
255
221
255
255
217
255
255
213
255
255
213
255
255
216
255
255
214
255
255
211
255
255
211
255
255
217
255
255
216
255
255
222
255
255
227
255
255
226
255
255
226
255
255
227
255
255
233
255
255
239
255
255
239
255
255
239
255
255
242
255
255
240
255
255
238
255
255
239
255
255
238
255
255
235
255
255
231
255
255
232
255
255
236
255
255
238
255
255
236
255
255
235
255
255
241
255
255
246
255
255
250
255
255
254
255
255
255
255
255
255
255
255
255
255
255
251
255
255
247
255
255
246
255
255
243
255
255
241
255
255
244
255
255
248
255
255
250
255
255
253
255
255
253
255
255
251
255
255
253
255
255
254
255
255
255
255
255
255
255
255
255
255
255
255
255
255
255
255
255
255
255
253
226
241
209
161
217
181
147
207
172
141
204
172
140
251
225
186
249
216
173
225
188
149
189
154
120
182
151
121
154
128
102
123
101
78
161
144
119
185
169
139
203
188
154
216
200
166
228
212
177
231
214
176
236
216
178
218
196
156
214
192
151
196
174
133
198
176
136
217
196
155
215
197
155
229
214
173
222
207
171
206
190
158
166
152
125
108
99
83
67
64
60
65
65
63
47
48
46
37
35
34
83
74
71
147
139
132
161
155
144
143
135
130
206
194
193
124
103
101
192
166
166
199
171
178
193
165
175
195
169
180
199
176
185
215
192
200
234
214
221
222
199
208
238
213
222
255
253
254
255
255
254
255
255
250
255
255
253
255
255
254
255
255
255
255
255
255
255
255
250
255
255
255
255
255
255
255
255
255
255
255
255
255
255
255
255
255
255
255
255
255
255
255
255
255
255
255
255
255
255
255
255
255
255
255
255
255
255
255
255
255
255
255
255
255
255
255
255
255
255
255
255
255
255
255
255
255
255
255
255
255
255
255
255
255
255
255
255
255
255
255
255
255
255
255
255
255
255
255
255
255
255
255
255
255
255
255
255
255
255
255
255
255
255
255
255
255
255
255
255
255
255
255
255
255
255
255
255
255
255
255
255
255
255
255
255
255
255
255
255
255
255
255
255
255
255
255
255
255
255
255
255
255
255
255
255
255
250
255
255
249
255
255
249
255
255
247
255
255
246
255
255
250
255
255
254
255
255
255
255
255
252
255
255
248
255
255
236
255
255
228
255
255
225
255
255
225
255
255
228
255
255
232
255
255
236
255
255
237
255
255
242
255
255
242
255
255
242
255
255
240
255
255
242
255
255
240
255
255
242
255
255
236
255
255
227
255
255
218
255
255
215
255
255
216
255
255
220
255
255
218
255
255
219
255
255
222
255
255
226
255
255
236
255
255
240
255
255
238
255
255
241
255
255
236
255
255
234
255
255
233
255
255
227
255
255
223
255
255
224
255
255
225
255
255
222
255
255
221
255
255
219
255
255
223
255
255
226
255
255
231
255
255
234
255
255
234
255
255
237
255
255
238
255
255
241
255
255
246
255
255
244
255
255
241
255
255
246
255
255
247
255
255
244
255
255
244
255
255
245
255
255
244
255
255
240
255
255
241
255
255
245
255
255
246
255
255
244
255
255
244
255
255
246
255
255
251
255
255
255
255
255
255
255
255
255
255
255
255
255
255
255
255
255
255
255
255
254
255
255
249
255
255
245
255
255
242
255
255
244
255
255
249
255
255
253
255
255
255
255
255
255
255
255
255
255
255
255
255
255
255
255
255
255
255
255
255
255
255
255
255
255
255
255
255
255
255
255
255
255
255
223
246
223
172
218
181
145
204
169
135
209
177
144
232
201
166
243
207
169
226
189
150
194
159
124
184
153
123
157
131
104
130
108
84
151
134
105
165
148
119
179
162
132
196
180
147
213
197
161
215
198
160
217
198
159
209
187
147
203
181
140
197
175
134
209
187
146
203
182
141
208
190
147
222
204
164
231
213
176
231
213
176
201
184
149
171
156
129
120
108
91
76
70
63
56
54
51
53
54
50
51
47
44
34
31
27
50
45
42
98
94
91
121
117
114
94
84
83
161
141
142
212
181
186
211
176
186
215
179
191
238
225
230
237
204
214
244
212
224
255
245
251
253
240
245
255
245
252
255
255
255
255
254
255
255
255
255
255
255
255
255
255
255
255
255
255
255
255
254
255
255
255
255
255
255
255
255
255
255
255
255
255
255
255
255
255
255
255
255
255
255
255
255
255
255
255
255
255
255
255
255
255
255
255
255
255
255
255
255
255
255
255
255
255
255
255
255
255
255
255
255
255
255
255
255
255
255
255
255
255
255
255
255
255
255
255
255
255
255
255
255
255
255
255
255
255
255
255
255
255
255
255
255
255
255
255
255
255
255
255
255
255
255
255
255
255
255
255
255
255
255
255
255
255
255
255
255
255
255
255
255
255
255
255
255
255
255
255
255
255
255
255
255
255
255
255
255
255
255
255
255
255
255
255
255
255
248
255
255
245
255
255
243
255
255
240
255
255
242
255
255
245
255
255
252
255
255
254
255
255
251
255
255
251
255
255
239
255
255
232
255
255
226
255
255
226
255
255
228
255
255
230
255
255
233
255
255
235
255
255
239
255
255
242
255
255
242
255
255
241
255
255
240
255
255
238
255
255
240
255
255
236
255
255
227
255
255
225
255
255
225
255
255
225
255
255
219
255
255
219
255
255
222
255
255
229
255
255
235
255
255
246
255
255
251
255
255
252
255
255
253
255
255
250
255
255
248
255
255
244
255
255
239
255
255
237
255
255
240
255
255
239
255
255
233
255
255
228
255
255
226
255
255
232
255
255
235
255
255
239
255
255
244
255
255
247
255
255
249
255
255
250
255
255
252
255
255
254
255
255
249
255
255
250
255
255
252
255
255
253
255
255
253
255
255
246
255
255
246
255
255
246
255
255
251
255
255
254
255
255
255
255
255
255
255
255
253
255
255
253
255
255
254
255
255
255
255
255
255
255
255
255
255
255
255
255
255
255
255
255
255
255
255
255
255
255
254
255
255
249
255
255
245
255
255
240
255
255
241
255
255
247
255
255
253
255
255
255
255
255
255
255
255
255
255
255
255
255
255
255
255
255
255
255
255
255
255
255
255
255
255
255
255
255
255
255
255
255
255
255
235
254
240
187
232
196
155
204
170
136
190
160
129
210
178
145
239
204
166
229
193
154
188
154
120
181
151
120
170
144
115
132
107
81
127
106
76
137
118
89
152
134
106
169
153
120
191
175
140
203
187
150
214
197
160
216
197
160
210
190
149
202
180
139
200
178
136
194
172
131
205
185
143
215
194
154
230
209
170
234
213
173
223
207
175
211
193
160
191
173
140
157
141
118
109
98
85
61
57
50
60
56
53
55
52
50
47
45
44
43
42
40
44
42
38
52
50
47
82
72
71
167
141
141
194
161
162
173
135
139
251
247
246
239
206
209
246
203
221
255
231
245
255
254
255
255
255
255
255
255
255
255
254
255
255
255
255
255
255
255
255
255
255
255
255
255
255
255
255
255
255
255
255
255
255
255
255
255
255
255
255
255
255
255
255
255
255
255
255
255
255
255
255
255
255
255
255
255
255
255
255
255
255
255
255
255
255
255
255
255
255
255
255
255
255
255
255
255
255
255
255
255
255
255
255
255
255
255
255
255
255
255
255
255
255
255
255
255
255
255
255
255
255
255
255
255
255
255
255
255
255
255
255
255
255
255
255
255
255
255
255
255
255
255
255
255
255
255
255
255
255
255
255
255
255
255
255
255
255
255
255
255
255
255
255
255
255
255
255
255
255
255
255
255
255
255
255
255
255
255
255
255
255
254
255
255
246
255
255
242
255
255
233
255
255
232
255
255
238
255
255
243
255
255
250
255
255
252
255
255
248
255
255
246
255
255
243
255
255
237
255
255
232
255
255
229
255
255
233
255
255
230
255
255
231
255
255
231
255
255
233
255
255
237
255
255
242
255
255
245
255
255
245
255
255
241
255
255
239
255
255
234
255
255
228
255
255
231
255
255
234
255
255
234
255
255
221
255
255
222
255
255
225
255
255
234
255
255
246
255
255
254
255
255
255
255
255
255
255
255
255
255
255
255
255
255
255
255
255
255
255
255
253
255
255
253
255
255
254
255
255
253
255
255
246
255
255
239
255
255
231
255
255
236
255
255
242
255
255
247
255
255
253
255
255
254
255
255
255
255
255
255
255
255
255
255
255
255
255
255
254
255
255
255
255
255
255
255
255
255
255
255
251
255
255
246
255
255
250
255
255
251
255
255
255
255
255
255
255
255
255
255
255
255
255
255
255
255
255
255
255
255
255
255
255
255
255
255
255
255
255
255
255
255
255
255
255
255
255
255
255
255
255
255
255
255
254
255
255
253
255
255
247
255
255
242
255
255
243
255
255
249
255
255
254
255
255
255
255
255
255
255
255
255
255
255
255
255
255
255
255
255
255
255
255
255
255
255
255
255
255
255
255
255
255
255
255
255
255
255
247
255
252
200
245
220
172
209
173
138
175
144
112
200
169
138
231
199
160
230
195
157
190
155
122
179
149
119
169
142
112
149
123
96
136
113
82
139
119
90
163
145
117
172
155
125
181
165
132
198
182
147
211
195
160
221
205
170
226
207
169
219
198
158
216
194
153
202
180
139
209
187
146
208
186
145
222
200
159
235
213
172
234
217
180
227
209
172
210
191
155
192
175
142
173
159
131
157
142
119
115
101
85
68
62
54
52
49
44
50
48
45
51
51
47
60
59
55
60
59
56
56
53
51
60
52
51
78
65
63
223
203
195
201
161
158
243
197
208
254
229
239
255
246
252
255
255
255
255
255
255
255
255
255
255
255
255
255
255
255
255
255
255
255
255
255
255
255
255
255
255
255
255
255
255
255
255
255
255
255
255
255
255
255
255
255
255
255
255
255
255
255
255
255
255
255
255
255
255
255
255
255
255
255
255
255
255
255
255
255
255
255
255
255
255
255
255
255
255
255
255
255
255
255
255
255
255
255
255
255
255
255
255
255
255
255
255
255
255
255
255
255
255
255
255
255
255
255
255
255
255
255
253
255
255
248
255
255
249
255
255
252
255
255
254
255
255
255
255
255
255
255
255
255
255
255
255
255
255
255
255
255
255
255
255
255
255
255
255
255
255
255
255
255
255
255
255
255
255
255
255
255
255
255
255
255
246
255
255
236
255
255
226
255
255
225
255
255
235
255
255
241
255
255
249
255
255
249
255
255
246
255
255
244
255
255
243
255
255
242
255
255
238
255
255
235
255
255
229
255
255
228
255
255
228
255
255
229
255
255
234
255
255
238
255
255
242
255
255
248
255
255
250
255
255
245
255
255
241
255
255
236
255
255
232
255
255
236
255
255
242
255
255
242
255
255
224
255
255
227
255
255
229
255
255
241
255
255
254
255
255
255
255
255
255
255
255
255
255
255
255
255
255
255
255
255
255
255
255
255
255
255
255
255
255
255
255
255
255
255
255
255
255
255
252
255
255
244
255
255
240
255
255
239
255
255
243
255
255
249
255
255
254
255
255
255
255
255
255
255
255
255
255
255
255
255
255
255
255
255
255
255
255
255
255
255
254
255
255
253
255
255
246
255
255
244
255
255
252
255
255
255
255
255
255
255
255
255
255
255
255
255
255
255
255
255
255
255
255
255
255
255
255
255
255
255
255
255
254
255
255
255
255
255
255
255
255
255
255
255
255
255
255
253
255
255
250
255
255
251
255
255
246
255
255
247
255
255
250
255
255
251
255
255
255
255
255
255
255
255
255
255
255
255
255
255
255
255
255
255
255
255
255
255
255
255
255
255
255
255
255
255
255
255
255
255
255
255
255
255
251
255
255
231
254
237
185
229
196
147
185
151
117
175
144
114
221
191
153
229
193
155
187
152
120
177
148
118
173
146
116
172
147
120
165
142
112
154
133
104
158
139
112
148
131
104
163
146
116
187
171
138
203
187
154
215
199
166
221
204
169
224
206
168
218
198
157
213
191
150
201
179
138
201
179
138
224
202
161
232
210
169
232
212
170
226
208
169
224
208
172
216
199
166
206
189
155
192
171
138
177
156
127
160
141
118
139
123
106
116
105
92
74
68
59
47
46
42
56
55
51
51
49
48
71
67
66
85
79
76
127
114
114
113
98
98
144
114
119
203
165
172
236
199
209
249
227
235
254
239
243
252
244
244
242
240
233
255
255
255
255
255
255
255
255
255
255
255
255
255
255
255
255
255
255
255
255
255
255
255
255
255
255
255
255
255
255
255
255
255
255
255
255
255
255
255
255
255
255
255
255
255
255
255
255
255
255
255
255
255
255
255
255
255
255
255
255
255
255
255
255
255
255
255
255
255
255
255
255
255
255
255
255
255
255
255
255
255
255
255
255
255
255
255
255
255
255
255
255
255
255
255
254
255
255
248
255
255
244
255
255
248
255
255
251
255
255
254
255
255
255
255
255
255
255
255
255
255
255
255
255
255
255
255
255
255
255
255
255
255
255
255
255
255
255
255
255
255
255
255
255
255
255
254
255
255
245
255
255
234
255
255
221
255
255
221
255
255
230
255
255
237
255
255
243
255
255
243
255
255
239
255
255
238
255
255
237
255
255
235
255
255
236
255
255
237
255
255
234
255
255
233
255
255
232
255
255
232
255
255
237
255
255
240
255
255
242
255
255
245
255
255
246
255
255
243
255
255
241
255
255
241
255
255
238
255
255
239
255
255
246
255
255
247
255
255
233
255
255
234
255
255
236
255
255
246
255
255
255
255
255
255
255
255
255
255
255
255
255
255
255
255
255
255
255
255
255
255
255
255
255
255
255
255
255
255
255
255
255
255
255
255
255
255
251
255
255
253
255
255
253
255
255
252
255
255
251
255
255
254
255
255
255
255
255
255
255
255
255
255
255
255
255
255
255
255
255
255
255
255
255
255
255
255
255
255
255
255
255
250
255
255
244
255
255
245
255
255
246
255
255
251
255
255
255
255
255
255
255
255
255
255
255
255
255
255
255
255
255
255
255
255
253
255
255
249
255
255
248
255
255
250
255
255
253
255
255
255
255
255
254
255
255
254
255
255
252
255
255
248
255
255
242
255
255
246
255
255
250
255
255
253
255
255
255
255
255
255
255
255
255
255
255
255
255
255
255
255
255
255
255
255
255
255
255
255
255
255
255
255
255
255
255
255
255
255
255
255
255
255
254
255
255
245
255
255
213
250
230
182
231
193
142
198
159
118
212
180
142
229
195
156
195
161
128
174
145
117
161
133
109
150
125
96
152
129
97
144
124
93
145
126
97
145
125
98
165
145
117
186
167
136
202
184
152
215
199
166
222
206
172
224
209
172
227
210
171
223
203
163
213
191
149
212
189
148
218
195
154
217
194
153
218
199
156
229
210
169
233
214
176
220
202
166
222
203
170
207
187
153
191
170
137
180
159
128
178
158
127
172
155
129
140
133
117
63
60
51
51
49
45
65
64
60
60
59
55
50
49
45
67
65
65
75
73
73
54
52
51
61
55
52
101
90
89
119
104
104
142
130
127
164
160
154
226
225
215
255
255
255
255
255
255
255
255
255
255
255
255
255
255
255
255
255
255
255
255
255
255
255
255
255
255
255
255
255
255
255
255
255
255
255
255
255
255
255
255
255
255
255
255
255
255
255
255
255
255
255
255
255
255
255
255
254
255
255
253
255
255
254
255
255
255
255
255
255
255
255
255
255
255
255
255
255
255
255
255
255
255
255
255
255
255
255
255
255
255
255
255
255
255
255
250
255
255
245
255
255
241
255
255
242
255
255
250
255
255
251
255
255
255
255
255
255
255
255
255
255
255
255
255
255
255
255
255
255
255
255
255
255
255
255
255
255
255
255
255
255
255
255
254
255
255
252
255
255
242
255
255
230
255
255
225
255
255
229
255
255
234
255
255
236
255
255
240
255
255
239
255
255
232
255
255
231
255
255
231
255
255
231
255
255
232
255
255
233
255
255
235
255
255
233
255
255
234
255
255
237
255
255
237
255
255
239
255
255
242
255
255
244
255
255
241
255
255
242
255
255
243
255
255
241
255
255
239
255
255
238
255
255
243
255
255
248
255
255
239
255
255
238
255
255
240
255
255
247
255
255
255
255
255
255
255
255
255
255
255
255
255
255
255
255
255
255
255
255
255
255
255
255
255
255
255
255
255
255
255
255
255
255
255
255
255
255
255
255
255
255
255
255
255
255
255
255
255
255
255
255
255
255
255
255
255
255
255
255
255
255
255
255
255
255
255
255
255
255
255
255
255
255
255
255
255
254
255
255
252
255
255
249
255
255
244
255
255
245
255
255
248
255
255
252
255
255
254
255
255
255
255
255
255
255
255
255
255
255
255
255
255
255
255
255
251
255
255
244
255
255
246
255
255
249
255
255
251
255
255
253
255
255
251
255
255
254
255
255
255
255
255
254
255
255
252
255
255
254
255
255
255
255
255
255
255
255
255
255
255
255
255
255
255
255
255
255
255
255
255
255
255
255
255
255
255
255
255
255
255
255
255
255
255
255
255
255
255
255
255
255
255
255
255
255
255
252
255
255
245
255
248
206
255
247
184
249
225
170
239
205
156
232
197
157
191
157
127
165
134
106
152
124
99
151
125
96
161
139
107
157
136
105
162
144
113
163
144
113
166
147
116
172
153
121
195
178
145
213
198
165
221
205
172
225
209
175
227
211
174
227
209
171
222
201
161
208
185
144
196
173
132
199
176
135
205
183
141
220
198
156
227
206
163
222
203
162
227
206
168
216
196
158
202
182
146
207
187
154
198
178
145
191
171
141
165
153
132
81
76
67
62
59
55
64
62
57
55
52
48
62
59
54
64
61
56
64
61
56
77
74
68
72
70
61
70
70
61
75
76
66
107
105
94
211
208
199
255
255
255
255
255
255
255
255
255
255
255
255
255
255
255
255
255
255
255
255
255
255
255
255
255
255
255
255
255
255
255
255
255
255
255
255
255
255
255
255
255
255
255
255
255
255
255
255
255
255
255
255
255
255
255
255
255
255
255
253
255
255
249
255
255
250
255
255
255
255
255
255
255
255
255
255
255
255
255
255
255
255
255
255
255
255
255
255
255
255
255
255
255
255
255
255
255
255
248
255
255
242
255
255
237
255
255
236
255
255
244
255
255
251
255
255
255
255
255
254
255
255
249
255
255
251
255
255
253
255
255
254
255
255
255
255
255
255
255
255
255
255
255
253
255
255
250
255
255
245
255
255
237
255
255
229
255
255
229
255
255
232
255
255
234
255
255
233
255
255
235
255
255
237
255
255
229
255
255
224
255
255
225
255
255
226
255
255
230
255
255
233
255
255
236
255
255
236
255
255
236
255
255
237
255
255
235
255
255
240
255
255
243
255
255
244
255
255
242
255
255
239
255
255
237
255
255
236
255
255
240
255
255
242
255
255
239
255
255
239
255
255
241
255
255
241
255
255
241
255
255
246
255
255
255
255
255
255
255
255
255
255
255
255
255
255
255
255
255
255
255
255
255
255
255
255
255
255
255
255
255
255
255
255
255
255
255
255
255
255
255
255
255
255
255
255
255
255
255
255
255
255
255
255
255
255
255
255
255
255
255
255
255
255
255
255
255
255
255
255
255
255
255
255
255
255
255
255
255
252
255
255
252
255
255
251
255
255
246
255
255
251
255
255
254
255
255
255
255
255
255
255
255
255
255
255
255
255
255
255
255
255
255
255
255
255
255
255
251
255
255
242
255
255
242
255
255
246
255
255
244
255
255
247
255
255
252
255
255
255
255
255
255
255
255
255
255
255
255
255
255
255
255
255
255
255
255
255
255
255
255
255
255
255
255
255
255
255
255
255
255
255
255
255
255
255
255
255
255
255
255
255
255
255
255
255
255
255
255
255
255
255
255
255
255
255
255
255
255
255
255
255
255
255
255
234
255
255
212
255
253
218
255
247
193
242
211
161
198
165
128
162
130
99
149
121
96
157
132
103
173
151
117
184
163
131
185
165
134
174
154
121
166
147
114
168
148
116
184
167
135
202
187
155
214
198
168
223
208
175
225
210
175
224
208
172
218
200
163
212
191
152
207
185
145
201
178
137
190
167
126
192
170
126
199
177
132
213
191
148
222
199
158
213
192
151
203
183
144
206
186
148
210
189
154
209
187
153
202
184
157
138
124
107
121
109
98
122
114
102
117
112
100
113
109
96
117
112
101
104
100
89
105
100
89
105
99
87
114
110
96
142
135
123
182
177
160
247
245
239
255
255
255
255
255
255
255
255
255
255
255
255
255
255
255
255
255
255
255
255
255
255
255
255
255
255
255
255
255
255
255
255
255
255
255
255
255
255
255
255
255
255
255
255
255
255
255
255
255
255
255
255
255
255
255
255
255
255
255
255
255
255
254
255
255
252
255
255
255
255
255
255
255
255
255
255
255
255
255
255
255
255
255
255
255
255
255
255
255
255
255
255
255
255
255
254
255
255
249
255
255
244
255
255
242
255
255
244
255
255
249
255
255
253
255
255
255
255
255
250
255
255
242
255
255
243
255
255
242
255
255
246
255
255
253
255
255
254
255
255
249
255
255
246
255
255
246
255
255
243
255
255
232
255
255
229
255
255
231
255
255
233
255
255
231
255
255
233
255
255
230
255
255
230
255
255
220
255
255
213
255
255
216
255
255
222
255
255
229
255
255
237
255
255
239
255
255
239
255
255
237
255
255
237
255
255
237
255
255
242
255
255
243
255
255
243
255
255
242
255
255
238
255
255
238
255
255
238
255
255
241
255
255
247
255
255
244
255
255
237
255
255
248
255
255
243
255
255
243
255
255
244
255
255
253
255
255
255
255
255
255
255
255
255
255
255
255
255
255
255
255
255
255
255
255
255
255
255
255
255
255
255
255
255
255
255
255
254
255
255
255
255
255
255
255
255
254
255
255
255
255
255
255
255
255
255
255
255
255
255
255
255
255
255
255
255
255
255
255
255
255
255
255
255
255
255
251
255
255
251
255
255
252
255
255
250
255
255
249
255
255
252
255
255
255
255
255
255
255
255
255
255
255
255
255
255
255
255
255
255
255
255
255
255
255
255
255
255
254
255
255
246
255
255
245
255
255
244
255
255
242
255
255
244
255
255
254
255
255
255
255
255
255
255
255
255
255
255
255
255
255
255
255
255
255
255
255
255
255
255
255
255
255
255
255
255
255
255
255
255
255
255
255
255
255
255
255
255
255
255
255
254
255
255
255
255
255
255
255
255
255
255
255
255
255
255
255
255
255
255
255
255
255
255
255
248
255
255
243
255
255
247
255
255
210
253
240
194
211
178
137
158
127
97
144
116
89
193
169
138
199
179
140
189
169
132
185
165
130
190
170
134
190
170
135
182
162
128
189
171
139
206
190
160
219
204
174
227
212
180
231
216
182
229
213
179
230
214
180
228
211
175
221
202
164
211
190
150
207
187
145
200
179
137
197
176
134
198
175
134
209
183
144
209
185
143
203
179
136
202
178
136
210
186
146
207
183
145
210
187
152
197
179
147
185
168
143
162
148
128
152
142
122
169
161
140
167
159
138
161
153
132
167
159
139
181
173
153
186
177
152
209
197
169
249
244
229
255
255
254
255
255
255
255
255
255
255
255
255
255
255
255
255
255
255
255
255
255
255
255
255
255
255
255
255
255
255
255
255
255
255
255
255
255
255
255
255
255
255
255
255
255
255
255
255
255
255
255
255
255
255
255
255
255
255
255
255
255
255
255
255
255
255
255
255
255
255
255
255
255
255
255
255
255
255
255
255
255
255
255
255
255
255
255
255
255
255
255
255
255
255
255
255
255
255
255
255
255
254
255
255
252
255
255
251
255
255
253
255
255
254
255
255
255
255
255
252
255
255
243
255
255
235
255
255
232
255
255
231
255
255
235
255
255
244
255
255
248
255
255
243
255
255
242
255
255
241
255
255
239
255
255
233
255
255
231
255
255
231
255
255
233
255
255
227
255
255
232
255
255
231
255
255
224
255
255
210
255
255
204
255
255
210
255
255
221
255
255
227
255
255
236
255
255
237
255
255
235
255
255
228
255
255
227
255
255
233
255
255
234
255
255
238
255
255
244
255
255
244
255
255
239
255
255
239
255
255
241
255
255
241
255
255
240
255
255
242
255
255
235
255
255
248
255
255
244
255
255
241
255
255
240
255
255
250
255
255
255
255
255
255
255
255
255
255
255
255
255
255
255
255
255
255
255
255
255
255
255
255
255
255
255
255
255
254
255
255
255
255
255
255
255
255
255
255
255
255
255
255
255
255
255
255
255
255
255
255
255
255
255
255
254
255
255
253
255
255
255
255
255
255
255
255
254
255
255
253
255
255
250
255
255
248
255
255
247
255
255
248
255
255
249
255
255
253
255
255
255
255
255
255
255
255
255
255
255
255
255
255
255
255
255
255
255
255
255
255
255
255
255
255
252
255
255
250
255
255
246
255
255
244
255
255
249
255
255
255
255
255
255
255
255
255
255
255
255
255
255
255
255
255
255
255
255
255
255
255
255
255
255
255
255
255
255
255
255
255
255
255
255
255
255
255
255
255
255
255
255
254
255
255
250
255
255
255
255
255
255
255
255
255
255
255
255
255
255
255
255
255
255
255
255
255
255
255
254
255
255
254
255
255
253
255
255
251
255
254
249
216
187
147
147
115
85
153
127
98
233
212
174
216
193
152
196
173
134
184
162
125
184
164
126
187
168
130
181
162
127
188
171
138
206
191
160
224
209
179
232
217
185
232
217
183
233
217
183
231
215
181
229
214
179
232
215
179
232
213
175
230
211
171
224
205
165
214
195
155
204
183
142
205
182
141
207
182
138
209
184
139
200
175
130
204
179
134
207
181
139
208
182
141
211
187
146
208
186
147
192
171
138
184
164
133
193
176
144
178
161
128
192
175
143
192
176
143
210
195
160
219
201
162
242
226
179
255
253
237
255
255
255
255
255
255
255
255
255
255
255
255
255
255
255
255
255
255
255
255
255
255
255
255
255
255
255
255
255
255
255
255
255
255
255
255
255
255
255
255
255
255
255
255
255
255
255
255
255
255
255
255
255
255
255
255
255
255
255
255
255
255
255
255
255
255
255
255
255
255
255
255
255
255
255
255
255
255
255
255
255
255
255
255
255
255
255
255
255
255
255
255
255
255
255
255
255
255
255
255
255
255
255
255
255
255
255
255
255
255
255
255
255
255
255
255
254
255
255
249
255
255
246
255
255
234
255
255
228
255
255
225
255
255
227
255
255
234
255
255
242
255
255
241
255
255
236
255
255
238
255
255
238
255
255
236
255
255
236
255
255
236
255
255
234
255
255
224
255
255
226
255
255
227
255
255
216
255
255
206
255
255
201
255
255
204
255
255
214
255
255
221
255
255
230
255
255
230
255
255
227
255
255
221
255
255
219
255
255
225
255
255
227
255
255
232
255
255
240
255
255
240
255
255
234
255
255
234
255
255
237
255
255
233
255
255
228
255
255
232
255
255
224
255
255
240
255
255
236
255
255
233
255
255
235
255
255
245
255
255
254
255
255
255
255
255
255
255
255
255
255
255
255
255
255
255
255
255
255
255
255
251
255
255
247
255
255
246
255
255
249
255
255
255
255
255
255
255
255
255
255
255
255
255
255
255
255
255
255
255
255
254
255
255
249
255
255
250
255
255
254
255
255
255
255
255
255
255
255
255
255
255
254
255
255
251
255
255
245
255
255
242
255
255
247
255
255
251
255
255
251
255
255
248
255
255
250
255
255
253
255
255
254
255
255
255
255
255
255
255
255
255
255
255
254
255
255
250
255
255
248
255
255
251
255
255
253
255
255
255
255
255
255
255
255
255
255
255
255
255
255
255
255
255
255
255
255
255
255
255
255
255
255
255
255
255
255
255
255
255
255
255
255
255
255
255
255
255
254
255
255
250
255
255
248
255
255
249
255
255
248
255
255
248
255
255
250
255
255
253
255
255
255
255
255
255
255
255
255
255
255
255
255
255
255
255
255
255
255
255
255
228
212
187
155
122
88
207
190
159
251
234
195
231
208
165
213
190
148
196
173
135
190
169
131
193
174
136
194
175
141
191
174
141
209
194
163
230
215
185
240
225
193
241
226
192
237
222
188
241
226
192
249
236
201
249
236
201
248
233
197
250
234
198
245
228
191
240
223
184
224
205
165
218
196
155
210
186
143
205
180
136
211
184
140
212
185
138
222
195
149
227
199
154
231
203
159
230
204
159
224
197
155
227
203
160
218
196
152
218
193
151
220
195
152
230
207
161
242
223
176
251
239
198
255
252
235
255
255
255
255
255
255
255
255
255
255
255
255
255
255
255
255
255
255
255
255
255
255
255
255
255
255
255
255
255
255
255
255
255
255
255
255
255
255
255
255
255
255
255
255
255
255
255
255
255
255
255
255
255
255
255
255
255
255
255
255
255
255
255
255
255
255
255
255
255
255
255
255
255
255
255
255
255
255
255
255
255
255
255
255
255
255
255
255
255
255
255
255
255
255
255
255
255
255
255
255
255
255
255
255
255
255
255
255
255
255
255
255
255
255
255
255
255
255
255
254
255
255
251
255
255
246
255
255
235
255
255
223
255
255
216
255
255
218
255
255
228
255
255
235
255
255
239
255
255
240
255
255
239
255
255
237
255
255
236
255
255
237
255
255
237
255
255
232
255
255
222
255
255
219
255
255
217
255
255
210
255
255
203
255
255
201
255
255
203
255
255
209
255
255
216
255
255
222
255
255
223
255
255
215
255
255
208
255
255
208
255
255
217
255
255
224
255
255
228
255
255
235
255
255
230
255
255
228
255
255
229
255
255
231
255
255
229
255
255
225
255
255
221
255
255
215
255
255
233
255
255
229
255
255
226
255
255
228
255
255
232
255
255
245
255
255
254
255
255
254
255
255
254
255
255
255
255
255
254
255
255
250
255
255
242
255
255
242
255
255
244
255
255
248
255
255
254
255
255
255
255
255
255
255
255
255
255
255
255
255
255
252
255
255
249
255
255
246
255
255
249
255
255
254
255
255
255
255
255
254
255
255
255
255
255
255
255
255
251
255
255
246
255
255
244
255
255
244
255
255
244
255
255
243
255
255
239
255
255
245
255
255
248
255
255
251
255
255
255
255
255
255
255
255
255
255
255
255
255
255
250
255
255
249
255
255
253
255
255
255
255
255
255
255
255
255
255
255
255
255
255
255
255
255
255
255
255
255
255
255
255
255
255
255
255
255
255
255
255
255
255
255
255
255
255
255
255
255
255
255
255
252
255
255
246
255
255
241
255
255
244
255
255
242
255
255
240
255
255
240
255
255
244
255
255
249
255
255
255
255
255
255
255
255
255
255
255
255
255
255
255
255
255
255
240
224
207
198
167
129
251
246
227
255
253
227
250
233
192
232
209
169
216
193
154
203
181
143
195
176
140
204
185
151
202
184
152
205
190
159
228
213
183
240
225
193
242
227
193
241
226
193
250
236
203
253
239
205
255
245
210
255
246
211
255
249
215
254
241
204
248
233
194
242
225
184
233
213
171
225
204
160
219
197
152
217
192
148
213
188
145
231
207
163
228
203
160
241
216
173
251
229
186
255
249
209
255
254
230
255
254
239
255
254
237
255
254
238
255
254
246
255
255
254
255
255
255
255
255
255
255
255
255
255
255
255
255
255
255
255
255
255
255
255
255
255
255
255
255
255
255
255
255
255
255
255
255
255
255
255
255
255
255
255
255
255
255
255
255
255
255
255
255
255
255
255
255
255
255
255
255
255
255
255
255
255
255
255
255
255
255
255
255
255
255
255
255
255
255
255
255
255
255
255
255
255
255
255
255
255
255
255
255
255
255
255
255
255
255
255
255
255
255
255
255
255
255
255
255
255
255
255
255
255
255
255
255
255
255
255
255
255
255
255
255
255
255
255
255
255
255
255
253
255
255
248
255
255
236
255
255
226
255
255
216
255
255
215
255
255
222
255
255
230
255
255
234
255
255
236
255
255
238
255
255
236
255
255
233
255
255
231
255
255
228
255
255
220
255
255
215
255
255
211
255
255
207
255
255
203
255
255
202
255
255
202
255
255
203
255
255
208
255
255
213
255
255
213
255
255
209
255
255
202
255
255
194
255
255
192
255
255
207
255
255
219
255
255
226
255
255
229
255
255
224
255
255
219
255
255
218
255
255
217
255
255
218
255
255
219
255
255
212
255
255
204
255
255
234
255
255
227
255
255
224
255
255
229
255
255
231
255
255
238
255
255
245
255
255
243
255
255
247
255
255
252
255
255
251
255
255
244
255
255
243
255
255
244
255
255
247
255
255
245
255
255
247
255
255
252
255
255
254
255
255
252
255
255
250
255
255
244
255
255
243
255
255
244
255
255
251
255
255
255
255
255
255
255
255
255
255
255
255
255
255
255
255
255
253
255
255
250
255
255
252
255
255
246
255
255
239
255
255
234
255
255
232
255
255
242
255
255
245
255
255
247
255
255
253
255
255
255
255
255
255
255
255
254
255
255
250
255
255
248
255
255
251
255
255
254
255
255
255
255
255
255
255
255
255
255
255
255
255
255
255
255
255
255
255
255
255
255
255
255
255
255
255
255
255
255
255
255
255
255
255
254
255
255
255
255
255
253
255
255
248
255
255
242
255
255
241
255
255
239
255
255
236
255
255
236
255
255
241
255
255
247
255
255
254
255
255
254
255
255
255
255
255
255
255
255
255
255
255
255
254
245
226
245
225
189
255
255
248
255
255
245
255
250
218
249
232
192
229
209
168
224
202
164
227
208
172
219
200
166
214
196
163
216
200
169
225
210
181
234
219
187
236
222
188
233
218
185
233
218
186
240
226
191
253
242
207
255
246
211
255
246
212
255
246
209
252
239
200
245
231
190
241
224
181
238
219
174
233
213
167
213
190
146
217
193
154
231
207
168
219
196
156
246
224
185
251
238
198
255
254
227
255
255
249
255
255
255
255
255
255
255
255
255
255
255
255
255
255
255
255
255
255
255
255
255
255
255
255
255
255
255
255
255
255
255
255
255
255
255
255
255
255
255
255
255
255
255
255
255
255
255
255
255
255
255
255
255
255
255
255
255
255
255
255
255
255
255
255
255
255
255
255
255
255
255
255
255
255
255
255
255
255
255
255
255
255
255
255
255
255
255
255
255
255
255
255
255
255
255
255
255
255
254
255
255
252
255
255
251
255
255
253
255
255
255
255
255
255
255
255
255
255
255
255
255
255
255
255
255
255
255
255
255
255
255
255
255
255
255
255
255
255
255
255
255
255
255
255
255
255
253
255
255
243
255
255
234
255
255
227
255
255
224
255
255
228
255
255
229
255
255
233
255
255
235
255
255
233
255
255
232
255
255
227
255
255
219
255
255
212
255
255
206
255
255
205
255
255
207
255
255
204
255
255
200
255
255
198
255
255
198
255
255
199
255
255
205
255
255
208
255
255
201
255
255
197
255
255
192
255
255
189
255
255
189
255
255
200
255
255
212
255
255
217
255
255
214
255
255
208
255
255
207
255
255
206
255
255
205
255
255
204
255
255
209
255
255
205
255
255
200
255
255
239
255
255
234
255
255
233
255
255
235
255
255
237
255
255
237
255
255
238
255
255
238
255
255
237
255
255
240
255
255
240
255
255
240
255
255
240
255
255
246
255
255
245
255
255
240
255
255
238
255
255
243
255
255
247
255
255
248
255
255
244
255
255
237
255
255
235
255
255
240
255
255
247
255
255
254
255
255
255
255
255
255
255
255
255
255
255
255
255
255
253
255
255
247
255
255
251
255
255
246
255
255
237
255
255
228
255
255
224
255
255
232
255
255
239
255
255
245
255
255
249
255
255
252
255
255
252
255
255
249
255
255
245
255
255
240
255
255
241
255
255
249
255
255
255
255
255
255
255
255
255
255
255
255
255
255
255
255
255
255
255
255
255
255
255
255
255
255
254
255
255
254
255
255
254
255
255
252
255
255
254
255
255
255
255
255
255
255
255
251
255
255
245
255
255
243
255
255
240
255
255
236
255
255
240
255
255
250
255
255
255
255
255
255
255
255
255
255
255
255
255
255
255
255
255
255
255
254
250
255
253
239
255
255
255
255
255
253
255
255
234
255
248
211
245
225
189
237
214
180
239
220
185
241
224
189
225
209
176
220
203
172
225
208
180
226
209
181
230
214
185
229
213
183
227
210
181
241
225
192
247
234
200
254
240
205
253
242
203
252
240
201
248
234
194
245
230
189
243
228
185
235
217
174
231
212
169
209
190
147
229
207
169
228
206
170
213
191
156
245
226
190
253
244
209
255
252
229
255
255
246
255
255
255
255
255
255
255
255
255
255
255
255
255
255
255
255
255
255
255
255
255
255
255
255
255
255
255
255
255
255
255
255
255
255
255
255
255
255
255
255
255
255
255
255
255
255
255
255
255
255
255
255
255
255
255
255
255
255
255
255
255
255
255
255
255
255
255
255
255
255
255
255
255
255
255
255
255
255
255
255
255
255
255
255
255
255
255
255
255
255
255
255
255
255
255
254
255
255
242
255
255
230
255
255
227
255
255
230
255
255
241
255
255
250
255
255
254
255
255
255
255
255
255
255
255
255
255
255
255
255
255
254
255
255
254
255
255
255
255
255
255
255
255
254
255
255
252
255
255
247
255
255
238
255
255
233
255
255
231
255
255
227
255
255
229
255
255
230
255
255
228
255
255
224
255
255
225
255
255
220
255
255
211
255
255
202
255
255
192
255
255
196
255
255
201
255
255
203
255
255
198
255
255
198
255
255
197
255
255
195
255
255
197
255
255
199
255
255
195
255
255
190
255
255
184
255
255
186
255
255
189
255
255
200
255
255
205
255
255
207
255
255
203
255
255
198
255
255
198
255
255
196
255
255
196
255
255
195
255
255
200
255
255
203
255
255
199
255
255
243
255
255
239
255
255
238
255
255
242
255
255
242
255
255
240
255
255
239
255
255
235
255
255
235
255
255
236
255
255
237
255
255
238
255
255
238
255
255
241
255
255
237
255
255
235
255
255
235
255
255
241
255
255
246
255
255
245
255
255
237
255
255
234
255
255
233
255
255
234
255
255
245
255
255
252
255
255
255
255
255
255
255
255
255
255
255
255
255
255
249
255
255
244
255
255
244
255
255
238
255
255
230
255
255
225
255
255
226
255
255
228
255
255
234
255
255
240
255
255
244
255
255
247
255
255
246
255
255
242
255
255
239
255
255
236
255
255
238
255
255
248
255
255
255
255
255
255
255
255
255
255
255
255
255
255
255
255
255
255
255
255
255
255
255
252
255
255
248
255
255
247
255
255
247
255
255
248
255
255
250
255
255
253
255
255
255
255
255
255
255
255
249
255
255
245
255
255
241
255
255
237
255
255
238
255
255
247
255
255
255
255
255
255
255
255
255
255
255
255
255
255
255
255
255
255
255
255
255
255
255
254
255
255
255
255
255
255
255
255
238
255
253
220
252
235
200
243
223
190
249
232
198
248
232
198
236
220
188
226
209
180
219
202
175
220
203
175
222
205
177
223
206
180
224
207
180
226
210
179
232
216
183
222
206
174
221
205
169
219
203
167
237
222
186
244
228
192
240
225
186
224
207
168
211
191
153
193
174
136
231
209
171
237
215
179
237
215
181
252
233
199
254
250
221
255
255
247
255
255
245
255
255
255
255
255
255
255
255
255
255
255
255
255
255
255
255
255
255
255
255
255
255
255
255
255
255
255
255
255
255
255
255
255
255
255
255
255
255
255
255
255
255
255
255
255
255
255
255
255
255
255
255
255
255
255
255
255
255
255
255
255
255
255
255
255
255
255
255
255
255
255
255
255
255
255
255
255
255
255
255
255
255
255
255
255
255
255
255
255
255
255
255
255
255
255
247
255
255
232
255
255
213
255
255
208
255
255
210
255
255
222
255
255
233
255
255
243
255
255
250
255
255
253
255
255
255
255
255
254
255
255
246
255
255
246
255
255
249
255
255
250
255
255
248
255
255
248
255
255
245
255
255
239
255
255
234
255
255
229
255
255
227
255
255
222
255
255
220
255
255
215
255
255
206
255
255
208
255
255
204
255
255
203
255
255
196
255
255
185
255
255
189
255
255
196
255
255
200
255
255
198
255
255
199
255
255
201
255
255
200
255
255
198
255
255
199
255
255
195
255
255
190
255
255
186
255
255
188
255
255
194
255
255
202
255
255
203
255
255
202
255
255
198
255
255
192
255
255
188
255
255
185
255
255
186
255
255
188
255
255
198
255
255
205
255
255
205
255
255
245
255
255
243
255
255
243
255
255
248
255
255
249
255
255
249
255
255
247
255
255
240
255
255
239
255
255
238
255
255
240
255
255
237
255
255
234
255
255
236
255
255
232
255
255
229
255
255
234
255
255
240
255
255
242
255
255
239
255
255
230
255
255
230
255
255
229
255
255
227
255
255
234
255
255
242
255
255
246
255
255
250
255
255
254
255
255
254
255
255
246
255
255
243
255
255
241
255
255
237
255
255
230
255
255
227
255
255
229
255
255
227
255
255
228
255
255
233
255
255
239
255
255
241
255
255
240
255
255
238
255
255
234
255
255
228
255
255
233
255
255
245
255
255
255
255
255
255
255
255
255
255
255
255
255
255
255
255
255
255
255
255
251
255
255
240
255
255
238
255
255
237
255
255
240
255
255
243
255
255
244
255
255
250
255
255
255
255
255
253
255
255
247
255
255
244
255
255
243
255
255
244
255
255
248
255
255
254
255
255
255
255
255
255
255
255
255
255
255
255
255
255
255
255
255
255
255
255
255
255
255
255
255
255
255
255
255
254
255
255
239
255
252
220
253
238
205
243
225
192
236
221
188
236
219
188
229
212
182
222
205
179
221
204
176
222
205
178
231
213
187
236
219
193
232
215
189
229
212
184
217
200
171
202
186
156
198
182
149
201
185
152
221
204
172
236
220
187
231
215
181
237
218
184
207
187
153
194
174
140
223
201
164
249
228
192
252
237
203
255
245
213
255
251
223
255
255
245
255
255
255
255
255
255
255
255
255
255
255
255
255
255
255
255
255
255
255
255
255
255
255
255
255
255
255
255
255
255
255
255
255
255
255
255
255
255
255
255
255
255
255
255
255
255
255
255
255
255
255
255
255
255
255
255
255
255
255
255
255
255
255
255
255
255
255
255
255
255
255
255
255
255
255
255
255
255
255
255
255
255
255
255
255
255
255
255
255
255
255
255
255
255
255
253
255
255
240
255
255
219
255
255
204
255
255
197
255
255
198
255
255
212
255
255
219
255
255
226
255
255
235
255
255
243
255
255
244
255
255
244
255
255
238
255
255
236
255
255
237
255
255
239
255
255
244
255
255
251
255
255
249
255
255
242
255
255
235
255
255
225
255
255
218
255
255
214
255
255
213
255
255
206
255
255
201
255
255
201
255
255
191
255
254
182
255
254
187
255
252
183
255
250
183
255
255
189
255
255
198
255
255
202
255
255
207
255
255
209
255
255
207
255
255
203
255
255
197
255
255
195
255
255
193
255
255
192
255
255
194
255
255
198
255
255
205
255
255
208
255
255
205
255
255
197
255
255
183
255
255
176
255
254
176
255
255
183
255
255
187
255
255
195
255
255
205
255
255
211
255
255
241
255
255
245
255
255
249
255
255
254
255
255
254
255
255
253
255
255
251
255
255
246
255
255
239
255
255
238
255
255
241
255
255
237
255
255
230
255
255
227
255
255
228
255
255
230
255
255
236
255
255
240
255
255
241
255
255
238
255
255
232
255
255
229
255
255
226
255
255
222
255
255
225
255
255
231
255
255
236
255
255
238
255
255
243
255
255
244
255
255
239
255
255
239
255
255
237
255
255
236
255
255
231
255
255
229
255
255
231
255
255
234
255
255
235
255
255
238
255
255
238
255
255
239
255
255
234
255
255
230
255
255
228
255
255
225
255
255
231
255
255
243
255
255
254
255
255
254
255
255
254
255
255
253
255
255
249
255
255
241
255
255
231
255
255
227
255
255
230
255
255
230
255
255
233
255
255
241
255
255
247
255
255
252
255
255
254
255
255
251
255
255
250
255
255
249
255
255
247
255
255
250
255
255
254
255
255
255
255
255
255
255
255
255
255
255
255
255
255
255
255
255
255
255
255
255
255
255
255
255
255
255
255
255
255
255
255
255
255
255
241
255
251
220
255
243
211
252
239
206
252
238
205
251
240
207
251
236
207
240
224
197
223
205
180
221
203
181
227
209
189
237
221
198
231
215
190
223
207
179
224
207
179
211
194
166
211
194
165
221
204
176
223
205
176
229
210
178
227
208
176
242
222
189
230
210
177
213
193
160
228
208
172
234
214
177
250
237
202
255
254
227
255
254
230
255
255
237
255
255
253
255
255
255
255
255
255
255
255
255
255
255
255
255
255
255
255
255
255
255
255
255
255
255
255
255
255
255
255
255
255
255
255
255
255
255
255
255
255
255
255
255
255
255
255
255
255
255
255
255
255
255
255
255
255
255
255
255
255
255
255
255
255
255
255
255
255
255
255
255
255
255
255
255
255
255
255
255
253
255
255
254
255
255
255
255
255
255
255
255
255
255
255
251
255
255
235
255
255
219
255
255
204
255
255
196
255
255
196
255
255
203
255
255
208
255
255
216
255
255
226
255
255
234
255
255
227
255
255
226
255
255
225
255
255
227
255
255
233
255
255
238
255
255
241
255
255
247
255
255
248
255
255
241
255
255
239
255
255
230
255
255
218
255
255
211
255
255
206
255
255
196
255
255
194
255
255
192
255
255
186
255
251
179
255
245
175
255
244
177
255
244
177
255
253
183
255
255
196
255
255
207
255
255
213
255
255
213
255
255
211
255
255
206
255
255
197
255
255
191
255
255
192
255
255
197
255
255
203
255
255
208
255
255
213
255
255
219
255
255
214
255
255
200
255
255
190
255
254
181
255
250
177
255
250
178
255
254
185
255
255
191
255
255
202
255
255
209
255
255
242
255
255
247
255
255
254
255
255
255
255
255
255
255
255
255
255
255
254
255
255
249
255
255
243
255
255
241
255
255
242
255
255
241
255
255
231
255
255
224
255
255
225
255
255
228
255
255
234
255
255
239
255
255
242
255
255
238
255
255
229
255
255
224
255
255
219
255
255
216
255
255
219
255
255
228
255
255
234
255
255
238
255
255
240
255
255
239
255
255
240
255
255
243
255
255
239
255
255
235
255
255
228
255
255
227
255
255
230
255
255
236
255
255
237
255
255
240
255
255
239
255
255
235
255
255
227
255
255
221
255
255
218
255
255
222
255
255
229
255
255
235
255
255
243
255
255
244
255
255
243
255
255
237
255
255
225
255
255
216
255
255
218
255
255
222
255
255
226
255
255
227
255
255
232
255
255
242
255
255
250
255
255
250
255
255
246
255
255
247
255
255
252
255
255
252
255
255
253
255
255
254
255
255
255
255
255
255
255
255
255
255
255
255
255
255
255
255
255
255
255
255
255
255
255
255
255
255
255
255
255
255
255
255
255
255
255
255
255
255
248
255
255
230
255
253
224
255
250
219
255
251
218
254
246
213
250
235
205
243
227
200
239
223
198
240
224
201
251
234
213
248
232
207
243
228
201
237
221
193
239
222
194
231
214
186
221
204
178
222
205
179
233
215
187
237
218
186
221
202
170
225
206
173
234
214
181
219
200
167
226
206
173
246
226
192
251
236
202
255
251
223
255
255
249
255
255
248
255
255
251
255
255
255
255
255
255
255
255
255
255
255
255
255
255
255
255
255
255
255
255
255
255
255
255
255
255
255
255
255
255
255
255
255
255
255
255
255
255
255
255
255
255
255
255
255
255
255
255
255
255
255
255
255
255
255
255
255
255
255
255
255
255
255
255
255
255
255
255
255
255
255
252
255
255
247
255
255
245
255
255
248
255
255
253
255
255
255
255
255
254
255
255
247
255
255
236
255
255
223
255
255
207
255
255
202
255
255
204
255
255
210
255
255
216
255
255
217
255
255
222
255
255
226
255
255
225
255
255
226
255
255
222
255
255
222
255
255
229
255
255
233
255
255
234
255
255
239
255
255
238
255
255
236
255
255
237
255
255
230
255
255
220
255
255
210
255
255
203
255
255
196
255
255
197
255
255
196
255
255
193
255
255
190
255
251
184
255
245
178
255
245
179
255
253
189
255
255
201
255
255
214
255
255
220
255
255
220
255
255
218
255
255
214
255
255
202
255
255
196
255
255
197
255
255
202
255
255
208
255
255
212
255
255
221
255
255
226
255
255
226
255
255
220
255
255
209
255
255
197
255
254
189
255
251
180
255
252
183
255
255
188
255
255
195
255
255
200
255
255
241
255
255
245
255
255
253
255
255
255
255
255
255
255
255
255
255
255
255
255
255
254
255
255
246
255
255
244
255
255
241
255
255
237
255
255
231
255
255
224
255
255
225
255
255
233
255
255
235
255
255
240
255
255
242
255
255
236
255
255
221
255
255
215
255
255
211
255
255
207
255
255
214
255
255
223
255
255
232
255
255
237
255
255
242
255
255
243
255
255
244
255
255
243
255
255
244
255
255
241
255
255
233
255
255
229
255
255
228
255
255
229
255
255
231
255
255
231
255
255
230
255
255
224
255
255
219
255
255
214
255
255
212
255
255
219
255
255
225
255
255
227
255
255
227
255
255
227
255
255
225
255
255
219
255
255
213
255
255
212
255
255
217
255
255
222
255
255
226
255
255
232
255
255
239
255
255
248
255
255
254
255
255
253
255
255
252
255
255
253
255
255
254
255
255
255
255
255
255
255
255
254
255
255
255
255
255
255
255
255
255
255
255
255
255
255
255
255
255
255
255
255
255
255
255
255
255
255
255
255
255
255
255
255
255
255
255
255
255
255
251
255
255
236
255
252
228
255
246
215
254
239
208
250
234
203
250
234
205
250
234
208
245
231
204
238
223
197
237
222
196
248
232
205
252
236
208
241
224
197
239
221
195
239
220
194
230
212
187
226
207
182
233
214
187
245
226
194
225
205
177
224
203
176
231
211
181
235
214
183
245
225
191
250
232
200
255
242
211
255
250
222
255
254
242
255
254
238
255
255
251
255
255
255
255
255
255
255
255
255
255
255
255
255
255
255
255
255
255
255
255
255
255
255
255
255
255
255
255
255
255
255
255
255
255
255
255
255
255
255
255
255
255
255
255
255
255
255
255
255
255
255
255
255
255
255
255
255
255
255
255
255
255
255
255
255
255
255
255
254
255
255
245
255
255
236
255
255
236
255
255
243
255
255
251
255
255
255
255
255
253
255
255
249
255
255
239
255
255
227
255
255
213
255
255
215
255
255
216
255
255
218
255
255
220
255
255
225
255
255
230
255
255
232
255
255
236
255
255
236
255
255
229
255
255
226
255
255
227
255
255
226
255
255
227
255
255
230
255
255
229
255
255
228
255
255
227
255
255
226
255
255
219
255
255
215
255
255
209
255
255
203
255
255
205
255
255
207
255
255
208
255
255
204
255
255
196
255
254
189
255
255
193
255
255
202
255
255
210
255
255
220
255
255
227
255
255
225
255
255
223
255
255
217
255
255
212
255
255
206
255
255
205
255
255
201
255
255
204
255
255
217
255
255
227
255
255
233
255
255
242
255
255
245
255
255
232
255
255
215
255
255
198
255
251
182
255
251
182
255
255
186
255
255
191
255
255
197
255
255
232
255
255
235
255
255
243
255
255
251
255
255
254
255
255
255
255
255
255
255
255
253
255
255
244
255
255
241
255
255
237
255
255
232
255
255
231
255
255
225
255
255
228
255
255
236
255
255
238
255
255
243
255
255
244
255
255
240
255
255
225
255
255
212
255
255
206
255
255
206
255
255
214
255
255
220
255
255
229
255
255
235
255
255
243
255
255
245
255
255
246
255
255
243
255
255
246
255
255
247
255
255
241
255
255
235
255
255
227
255
255
225
255
255
227
255
255
219
255
255
215
255
255
212
255
255
207
255
255
209
255
255
207
255
255
213
255
255
220
255
255
220
255
255
216
255
255
214
255
255
215
255
255
217
255
255
218
255
255
219
255
255
221
255
255
226
255
255
228
255
255
238
255
255
244
255
255
251
255
255
254
255
255
255
255
255
255
255
255
255
255
255
255
255
255
255
255
255
255
255
255
255
255
255
255
255
255
255
255
255
255
255
255
255
255
255
255
255
255
255
255
255
255
255
255
255
255
255
255
255
255
255
255
255
255
255
255
255
255
255
253
255
255
241
255
251
225
255
246
216
253
240
210
254
247
217
254
243
215
248
236
211
251
237
212
249
235
210
253
238
213
252
237
212
247
231
206
231
214
189
236
218
193
238
221
196
232
215
190
232
215
191
242
224
198
236
218
190
227
208
181
222
202
176
232
211
183
242
222
192
252
237
206
255
253
226
255
253
233
255
252
227
254
245
221
255
252
232
255
255
242
255
255
255
255
255
255
255
255
254
255
255
253
255
255
255
255
255
255
255
255
255
255
255
255
255
255
255
255
255
255
255
255
255
255
255
255
255
255
255
255
255
255
255
255
255
255
255
253
255
255
254
255
255
255
255
255
255
255
255
255
255
255
255
255
255
255
255
255
255
255
255
247
255
255
239
255
255
233
255
255
238
255
255
247
255
255
254
255
255
254
255
255
249
255
255
238
255
255
230
255
255
227
255
255
231
255
255
230
255
255
229
255
255
229
255
255
236
255
255
239
255
255
241
255
255
240
255
255
237
255
255
234
255
255
231
255
255
230
255
255
227
255
255
223
255
255
224
255
255
221
255
255
217
255
255
216
255
255
214
255
255
216
255
255
221
255
255
218
255
255
214
255
255
216
255
255
220
255
255
223
255
255
219
255
255
213
255
255
202
255
255
199
255
255
206
255
255
214
255
255
221
255
255
227
255
255
230
255
255
222
255
255
216
255
255
211
255
255
203
255
255
202
255
255
199
255
255
199
255
255
213
255
255
227
255
255
239
255
255
253
255
255
255
255
255
251
255
255
235
255
255
210
255
254
190
255
254
178
255
255
180
255
255
185
255
255
193
255
255
212
255
255
215
255
255
223
255
255
237
255
255
248
255
255
254
255
255
254
255
255
247
255
255
241
255
255
238
255
255
233
255
255
228
255
255
232
255
255
234
255
255
235
255
255
243
255
255
241
255
255
248
255
255
245
255
255
241
255
255
232
255
255
217
255
255
206
255
255
205
255
255
215
255
255
223
255
255
234
255
255
240
255
255
248
255
255
254
255
255
255
255
255
253
255
255
246
255
255
248
255
255
239
255
255
231
255
255
227
255
255
228
255
255
228
255
255
219
255
255
209
255
255
203
255
255
200
255
255
201
255
255
207
255
255
214
255
255
220
255
255
216
255
255
216
255
255
217
255
255
224
255
255
229
255
255
225
255
255
225
255
255
226
255
255
226
255
255
228
255
255
234
255
255
240
255
255
247
255
255
253
255
255
255
255
255
255
255
255
255
255
255
255
255
255
255
255
255
255
255
255
255
255
255
255
255
255
255
255
255
255
255
255
255
255
255
255
255
255
255
255
255
255
255
255
255
255
255
255
255
255
255
255
255
255
255
255
255
255
255
253
255
255
238
255
253
228
255
246
216
255
248
218
255
252
222
255
254
228
255
252
228
254
239
214
254
247
223
255
250
226
253
243
220
243
229
205
247
233
210
242
226
203
237
221
198
238
223
199
240
225
202
232
216
193
235
218
194
234
218
191
231
214
187
238
220
192
246
229
198
254
248
222
255
255
240
255
255
249
255
253
240
249
235
213
253
247
232
255
251
236
255
254
252
255
255
255
255
255
255
255
255
255
255
255
255
255
255
255
255
255
255
255
255
255
255
255
255
255
255
255
255
255
255
255
255
255
255
255
255
255
255
255
255
255
255
255
255
254
255
255
255
255
255
255
255
255
255
255
255
255
255
255
255
255
255
255
255
255
255
255
255
248
255
255
244
255
255
238
255
255
239
255
255
244
255
255
252
255
255
253
255
255
246
255
255
237
255
255
233
255
255
236
255
255
238
255
255
239
255
255
235
255
255
234
255
255
237
255
255
238
255
255
237
255
255
236
255
255
239
255
255
236
255
255
230
255
255
228
255
255
224
255
255
217
255
255
213
255
255
207
255
255
209
255
255
210
255
255
208
255
255
220
255
255
229
255
255
230
255
255
231
255
255
228
255
255
232
255
255
235
255
255
230
255
255
224
255
255
212
255
255
205
255
255
209
255
255
214
255
255
220
255
255
226
255
255
225
255
255
220
255
255
210
255
255
201
255
255
193
255
255
196
255
255
195
255
255
193
255
255
203
255
255
225
255
255
244
255
255
255
255
255
255
255
255
255
255
255
248
255
255
224
255
255
191
255
253
176
255
255
176
255
255
180
255
255
187
255
255
182
255
255
190
255
255
200
255
255
213
255
255
227
255
255
236
255
255
239
255
255
233
255
255
228
255
255
228
255
255
229
255
255
224
255
255
228
255
255
234
255
255
235
255
255
242
255
255
244
255
255
244
255
255
245
255
255
241
255
255
233
255
255
225
255
255
217
255
255
216
255
255
222
255
255
232
255
255
244
255
255
247
255
255
250
255
255
254
255
255
255
255
255
255
255
255
251
255
255
244
255
255
236
255
255
234
255
255
231
255
255
226
255
255
227
255
255
228
255
255
215
255
255
206
255
255
200
255
255
203
255
255
209
255
255
216
255
255
222
255
255
220
255
255
225
255
255
228
255
255
230
255
255
232
255
255
231
255
255
234
255
255
231
255
255
231
255
255
230
255
255
230
255
255
239
255
255
242
255
255
249
255
255
254
255
255
255
255
255
255
255
255
255
255
255
255
255
255
255
255
255
255
255
255
255
255
255
255
255
255
255
255
255
255
255
255
255
255
255
255
255
255
255
255
255
255
255
255
255
255
255
255
255
255
255
255
255
255
255
255
254
255
255
251
255
253
232
255
248
217
255
251
219
255
254
222
255
250
221
255
246
219
255
251
225
254
252
229
251
240
215
247
236
213
255
247
223
249
239
216
251
240
217
247
234
211
248
233
212
250
236
215
234
218
197
240
222
200
242
225
200
232
215
187
247
231
201
249
234
204
255
254
230
255
255
247
255
255
246
255
254
247
250
242
227
237
217
195
249
240
216
255
253
237
255
255
253
255
255
255
255
255
255
255
255
254
255
255
255
255
255
255
255
255
255
255
255
255
255
255
255
255
255
255
255
255
255
255
255
255
255
255
255
255
255
255
255
255
255
255
255
255
255
255
255
255
255
255
255
255
255
255
255
255
255
255
255
255
255
255
255
255
253
255
255
250
255
255
242
255
255
244
255
255
249
255
255
250
255
255
249
255
255
245
255
255
239
255
255
236
255
255
237
255
255
238
255
255
235
255
255
232
255
255
232
255
255
236
255
255
235
255
255
232
255
255
235
255
255
237
255
255
231
255
255
228
255
255
223
255
255
220
255
255
212
255
255
202
255
255
197
255
255
199
255
255
206
255
255
211
255
255
222
255
255
231
255
255
237
255
255
241
255
255
237
255
255
242
255
255
242
255
255
240
255
255
237
255
255
226
255
255
218
255
255
224
255
255
228
255
255
226
255
255
223
255
255
217
255
255
210
255
255
206
255
255
199
255
255
190
255
255
185
255
255
185
255
255
183
255
255
185
255
255
206
255
255
235
255
255
254
255
255
255
255
255
255
255
255
254
255
255
225
255
255
196
255
255
177
255
255
170
255
255
174
255
255
182
255
234
152
255
235
159
255
245
173
255
253
189
255
255
203
255
255
214
255
255
218
255
255
216
255
255
213
255
255
211
255
255
214
255
255
215
255
255
220
255
255
226
255
255
230
255
255
238
255
255
240
255
255
238
255
255
239
255
255
234
255
255
227
255
255
223
255
255
222
255
255
222
255
255
227
255
255
236
255
255
241
255
255
247
255
255
250
255
255
250
255
255
252
255
255
255
255
255
252
255
255
243
255
255
235
255
255
233
255
255
232
255
255
226
255
255
231
255
255
234
255
255
227
255
255
219
255
255
215
255
255
214
255
255
221
255
255
225
255
255
225
255
255
229
255
255
233
255
255
232
255
255
232
255
255
234
255
255
237
255
255
238
255
255
233
255
255
232
255
255
223
255
255
225
255
255
238
255
255
245
255
255
246
255
255
247
255
255
250
255
255
253
255
255
253
255
255
254
255
255
255
255
255
255
255
255
255
255
255
255
255
255
255
255
255
255
255
255
255
255
255
255
255
255
255
255
255
255
255
255
255
255
255
255
255
255
255
255
255
255
255
255
253
255
255
247
255
254
228
255
249
218
255
246
215
255
247
215
254
246
216
255
247
221
254
243
217
247
231
207
250
243
226
253
248
229
254
245
220
253
245
223
253
241
219
252
243
221
251
237
214
241
226
203
240
225
201
241
223
201
239
222
197
232
215
189
252
240
214
255
249
226
255
254
233
255
255
246
255
254
238
255
252
239
244
232
210
244
221
198
245
231
209
255
255
251
255
255
255
255
255
255
255
255
255
255
255
250
255
255
255
255
255
255
255
255
255
255
255
255
255
255
255
255
255
255
255
255
255
255
255
255
255
255
255
255
255
255
255
255
255
255
255
254
255
255
255
255
255
255
255
255
255
255
255
255
255
255
255
255
255
255
255
255
255
255
255
254
255
255
248
255
255
250
255
255
255
255
255
255
255
255
252
255
255
248
255
255
240
255
255
235
255
255
231
255
255
231
255
255
233
255
255
232
255
255
232
255
255
236
255
255
233
255
255
231
255
255
235
255
255
233
255
255
229
255
255
227
255
255
223
255
255
216
255
255
204
255
255
196
255
255
193
255
255
193
255
255
201
255
255
214
255
255
232
255
255
243
255
255
250
255
255
253
255
255
252
255
255
255
255
255
252
255
255
248
255
255
246
255
255
237
255
255
234
255
255
240
255
255
239
255
255
233
255
255
225
255
255
208
255
255
199
255
255
195
255
255
188
255
255
183
255
255
178
255
255
175
255
255
174
255
255
173
255
255
190
255
255
217
255
255
248
255
255
255
255
255
255
255
255
253
255
255
222
255
255
194
255
253
175
255
254
172
255
255
180
255
255
183
255
197
134
255
191
132
255
203
144
255
227
161
255
250
177
255
255
189
255
255
193
255
255
194
255
255
189
255
255
186
255
255
189
255
255
197
255
255
210
255
255
218
255
255
225
255
255
234
255
255
236
255
255
235
255
255
231
255
255
229
255
255
227
255
255
225
255
255
225
255
255
221
255
255
224
255
255
231
255
255
232
255
255
233
255
255
237
255
255
236
255
255
237
255
255
246
255
255
246
255
255
238
255
255
234
255
255
232
255
255
233
255
255
228
255
255
233
255
255
238
255
255
231
255
255
226
255
255
227
255
255
228
255
255
229
255
255
233
255
255
233
255
255
239
255
255
243
255
255
238
255
255
235
255
255
236
255
255
240
255
255
241
255
255
236
255
255
230
255
255
225
255
255
229
255
255
236
255
255
241
255
255
239
255
255
238
255
255
241
255
255
245
255
255
250
255
255
251
255
255
254
255
255
255
255
255
255
255
255
255
255
255
255
255
255
255
255
255
255
255
255
255
255
255
255
255
255
254
255
255
255
255
255
255
255
255
255
255
255
249
255
255
243
255
255
236
255
253
223
255
248
217
253
235
204
254
240
208
247
234
205
254
247
221
251
237
212
254
249
234
254
251
238
255
244
219
251
243
221
250
244
225
246
234
211
254
248
229
244
231
205
239
225
199
235
220
195
235
216
195
247
232
209
237
221
195
254
244
219
255
251
235
255
255
245
255
255
242
250
243
220
250
239
215
231
213
189
248
239
215
255
244
220
250
230
209
255
249
240
255
255
249
255
255
255
255
255
255
255
255
255
255
255
255
255
255
255
255
255
255
255
255
255
255
255
255
255
255
255
255
255
255
255
255
255
255
255
255
255
255
255
255
255
255
255
255
255
255
255
254
255
255
255
255
255
255
255
255
255
255
255
255
255
255
255
255
255
253
255
255
245
255
255
247
255
255
252
255
255
254
255
255
253
255
255
252
255
255
247
255
255
243
255
255
238
255
255
239
255
255
243
255
255
244
255
255
241
255
255
236
255
255
233
255
255
230
255
255
231
255
255
223
255
255
218
255
255
221
255
255
220
255
255
213
255
255
202
255
255
200
255
255
194
255
255
193
255
255
199
255
255
214
255
255
234
255
255
244
255
255
251
255
255
254
255
255
252
255
255
253
255
255
252
255
255
248
255
255
244
255
255
237
255
255
240
255
255
246
255
255
236
255
255
228
255
255
218
255
255
199
255
255
189
255
255
183
255
255
178
255
255
173
255
255
169
255
254
170
255
255
173
255
255
168
255
255
178
255
255
201
255
255
237
255
255
254
255
255
254
255
255
247
255
255
217
255
255
193
255
254
178
255
251
174
255
254
179
255
255
184
255
174
123
255
172
120
255
180
127
255
203
144
255
234
162
255
251
174
255
255
176
255
254
172
255
253
171
255
253
172
255
255
176
255
255
180
255
255
196
255
255
204
255
255
217
255
255
224
255
255
229
255
255
230
255
255
221
255
255
227
255
255
223
255
255
221
255
255
228
255
255
224
255
255
221
255
255
223
255
255
219
255
255
220
255
255
226
255
255
224
255
255
226
255
255
234
255
255
231
255
255
227
255
255
226
255
255
226
255
255
227
255
255
223
255
255
231
255
255
234
255
255
236
255
255
234
255
255
237
255
255
236
255
255
234
255
255
238
255
255
239
255
255
239
255
255
244
255
255
242
255
255
238
255
255
239
255
255
240
255
255
239
255
255
231
255
255
226
255
255
227
255
255
234
255
255
241
255
255
242
255
255
239
255
255
234
255
255
227
255
255
230
255
255
237
255
255
249
255
255
254
255
255
255
255
255
255
255
255
255
255
255
255
255
255
255
255
255
255
255
255
255
255
255
254
255
255
250
255
255
251
255
255
253
255
255
250
255
255
245
255
255
242
255
255
231
255
253
222
255
248
220
255
244
214
255
245
216
255
252
227
254
243
218
255
253
233
250
244
226
248
234
208
255
250
229
246
239
217
243
231
206
254
248
224
252
238
212
242
226
200
243
227
203
242
225
204
234
216
197
248
237
216
242
227
202
253
244
220
255
246
232
255
255
246
255
254
239
233
217
192
218
200
176
229
212
188
254
249
231
255
253
234
254
246
224
250
224
202
255
250
237
255
255
255
255
255
255
255
255
255
255
255
255
255
255
255
255
255
255
255
255
255
255
255
255
255
255
255
255
255
255
255
255
255
255
255
255
255
255
255
255
255
255
255
255
255
255
255
255
255
255
255
255
255
255
255
255
255
255
255
254
255
255
253
255
255
244
255
255
231
255
255
232
255
255
238
255
255
243
255
255
244
255
255
246
255
255
250
255
255
253
255
255
252
255
255
254
255
255
255
255
255
255
255
255
253
255
255
245
255
255
236
255
255
230
255
255
232
255
255
220
255
255
211
255
255
217
255
255
220
255
255
215
255
255
205
255
255
204
255
255
203
255
255
200
255
255
206
255
255
213
255
255
230
255
255
242
255
255
250
255
255
248
255
255
246
255
255
249
255
255
248
255
255
246
255
255
242
255
255
238
255
255
242
255
255
242
255
255
242
255
255
230
255
255
213
255
255
190
255
255
181
255
255
176
255
255
171
255
255
167
255
247
162
255
242
160
255
249
166
255
255
172
255
255
178
255
255
192
255
255
223
255
255
243
255
255
245
255
255
240
255
255
217
255
255
198
255
251
183
255
241
172
255
246
180
255
254
193
255
168
121
255
171
122
255
183
132
255
203
148
255
226
165
255
244
175
255
249
174
255
244
166
255
240
166
255
246
170
255
255
179
255
255
176
255
255
187
255
255
195
255
255
212
255
255
222
255
255
224
255
255
225
255
255
217
255
255
218
255
255
216
255
255
214
255
255
222
255
255
221
255
255
213
255
255
214
255
255
207
255
255
206
255
255
211
255
255
213
255
255
218
255
255
225
255
255
222
255
255
216
255
255
217
255
255
217
255
255
220
255
255
218
255
255
226
255
255
233
255
255
238
255
255
239
255
255
237
255
255
235
255
255
235
255
255
233
255
255
236
255
255
241
255
255
242
255
255
239
255
255
239
255
255
236
255
255
232
255
255
233
255
255
227
255
255
226
255
255
234
255
255
245
255
255
252
255
255
251
255
255
249
255
255
243
255
255
229
255
255
229
255
255
227
255
255
241
255
255
254
255
255
255
255
255
255
255
255
255
255
255
255
255
255
255
255
255
255
255
255
255
255
255
253
255
255
248
255
255
250
255
255
247
255
255
235
255
255
231
255
254
233
255
255
238
255
255
238
255
252
226
255
253
223
255
249
220
245
235
208
249
239
214
255
252
230
248
233
207
255
253
237
255
250
240
244
230
210
255
251
235
253
242
219
255
250
229
240
224
200
252
246
225
229
213
195
238
227
207
239
225
202
249
240
221
249
241
223
255
253
242
255
255
252
255
250
230
226
210
185
207
189
166
239
224
200
254
248
226
255
255
242
255
255
241
255
240
223
255
254
242
255
255
255
255
255
255
255
255
255
255
255
255
255
255
255
255
255
255
255
255
255
255
255
255
255
255
255
255
255
255
255
255
255
255
255
255
255
255
255
255
255
255
255
255
255
255
255
255
255
255
254
255
255
252
255
255
248
255
255
238
255
255
231
255
255
220
255
255
215
255
255
214
255
255
220
255
255
228
255
255
235
255
255
239
255
255
248
255
255
254
255
255
255
255
255
255
255
255
255
255
255
255
255
255
255
255
255
252
255
255
247
255
255
239
255
255
238
255
255
232
255
255
226
255
255
223
255
255
222
255
255
216
255
255
208
255
255
211
255
255
208
255
255
206
255
255
211
255
255
211
255
255
224
255
255
233
255
255
239
255
255
239
255
255
237
255
255
239
255
255
236
255
255
232
255
255
231
255
255
231
255
255
236
255
255
238
255
255
236
255
255
223
255
255
206
255
255
185
255
255
177
255
255
175
255
255
168
255
253
166
255
241
161
255
236
161
255
244
167
255
251
172
255
251
176
255
252
181
255
255
205
255
255
224
255
255
234
255
255
233
255
255
213
255
255
198
255
251
184
255
246
177
255
245
181
255
252
194
255
176
130
255
178
131
255
190
138
255
214
157
255
232
172
255
244
181
255
249
182
255
246
175
255
242
173
255
246
176
255
254
182
255
255
181
255
255
185
255
255
194
255
255
207
255
255
220
255
255
221
255
255
222
255
255
216
255
255
210
255
255
210
255
255
210
255
255
214
255
255
216
255
255
206
255
255
199
255
255
192
255
255
193
255
255
197
255
255
200
255
255
206
255
255
211
255
255
212
255
255
212
255
255
212
255
255
208
255
255
210
255
255
210
255
255
225
255
255
246
255
255
246
255
255
240
255
255
234
255
255
227
255
255
224
255
255
225
255
255
231
255
255
237
255
255
236
255
255
232
255
255
232
255
255
230
255
255
225
255
255
222
255
255
222
255
255
223
255
255
235
255
255
242
255
255
252
255
255
253
255
255
248
255
255
242
255
255
233
255
255
233
255
255
247
255
255
255
255
255
255
255
255
255
255
255
255
255
255
255
255
255
255
255
255
255
255
255
255
255
255
255
255
255
255
255
255
250
255
255
249
255
255
243
255
255
235
255
255
227
255
255
230
255
255
236
255
253
223
255
252
224
255
255
233
255
246
219
250
233
208
255
250
228
255
254
237
255
249
226
255
255
250
255
250
238
255
251
241
255
255
250
252
242
224
254
251
239
235
221
201
237
225
208
222
203
187
250
238
219
239
221
201
252
241
230
251
244
230
255
255
251
255
255
255
253
247
235
234
217
194
202
184
160
249
230
207
240
218
196
253
245
226
255
253
242
255
250
242
255
255
254
255
255
255
255
255
255
255
255
255
255
255
255
255
255
255
255
255
255
255
255
255
255
255
255
255
255
255
255
255
255
255
255
255
255
255
255
255
255
255
255
255
255
255
255
255
255
255
251
255
255
236
255
255
230
255
255
225
255
255
213
255
255
201
255
255
191
255
255
187
255
255
190
255
255
201
255
255
216
255
255
226
255
255
234
255
255
246
255
255
255
255
255
255
255
255
255
255
255
255
255
255
255
255
255
255
255
255
255
255
255
254
255
255
248
255
255
246
255
255
241
255
255
238
255
255
230
255
255
225
255
255
216
255
255
212
255
255
211
255
255
211
255
255
206
255
255
208
255
255
204
255
255
207
255
255
220
255
255
224
255
255
221
255
255
219
255
255
225
255
255
222
255
255
218
255
255
215
255
255
216
255
255
224
255
255
226
255
255
218
255
255
212
255
255
200
255
255
187
255
255
181
255
255
179
255
255
172
255
252
168
255
248
167
255
246
170
255
249
174
255
246
171
255
244
172
255
240
171
255
247
185
255
255
205
255
255
225
255
255
225
255
255
211
255
255
201
255
255
192
255
255
184
255
254
185
255
255
191
255
196
146
253
194
143
254
204
149
255
228
167
255
242
178
255
253
189
255
253
187
255
250
180
255
250
180
255
252
184
255
255
190
255
255
191
255
255
191
255
255
192
255
255
201
255
255
213
255
255
216
255
255
218
255
255
216
255
255
204
255
255
201
255
255
203
255
255
204
255
255
206
255
255
197
255
255
188
255
255
185
255
255
188
255
255
194
255
255
195
255
255
200
255
255
204
255
255
203
255
255
205
255
255
208
255
255
208
255
255
210
255
255
217
255
255
241
255
255
255
255
255
254
255
255
245
255
255
226
255
255
212
255
255
211
255
255
212
255
255
218
255
255
227
255
255
231
255
255
227
255
255
225
255
255
221
255
255
221
255
255
218
255
255
216
255
255
213
255
255
222
255
255
228
255
255
240
255
255
244
255
255
237
255
255
232
255
255
229
255
255
231
255
255
248
255
255
255
255
255
255
255
255
255
255
255
255
255
255
255
255
255
255
255
255
255
255
255
255
255
255
255
255
255
255
255
255
254
255
255
255
255
255
251
255
255
244
255
255
239
255
255
233
255
254
227
255
253
224
255
254
226
255
252
225
255
246
218
255
246
220
255
255
245
255
253
241
255
249
224
255
254
243
255
253
242
255
253
244
255
255
253
255
252
238
250
245
234
248
237
215
221
204
185
224
205
189
243
225
208
239
223
206
255
249
238
255
251
232
255
255
252
255
255
253
251
244
233
235
224
202
210
191
167
250
231
208
244
223
202
250
232
211
255
252
240
255
251
235
255
255
254
255
255
255
255
255
255
255
255
255
255
255
255
255
255
255
255
255
255
255
255
255
255
255
255
255
255
255
255
255
255
255
255
255
255
255
255
255
255
255
255
255
255
255
255
253
255
255
238
255
255
225
255
255
213
255
255
204
255
255
191
255
255
182
255
254
176
255
252
176
255
253
181
255
255
192
255
255
204
255
255
217
255
255
231
255
255
246
255
255
254
255
255
255
255
255
255
255
255
255
255
255
255
255
255
254
255
255
249
255
255
246
255
255
246
255
255
244
255
255
240
255
255
237
255
255
234
255
255
222
255
255
214
255
255
211
255
255
208
255
255
209
255
255
204
255
255
200
255
255
193
255
255
198
255
255
209
255
255
211
255
255
212
255
255
211
255
255
210
255
255
208
255
255
209
255
255
208
255
255
208
255
255
214
255
255
216
255
255
211
255
255
208
255
255
202
255
255
190
255
255
186
255
255
187
255
255
180
255
255
177
255
255
177
255
255
180
255
255
184
255
253
182
255
241
175
255
233
171
255
239
177
255
251
191
255
255
204
255
255
205
255
255
203
255
255
203
255
255
196
255
255
191
255
255
190
255
255
191
253
222
167
246
220
163
245
223
164
253
237
175
255
251
185
255
255
197
255
255
199
255
255
191
255
254
188
255
255
193
255
255
203
255
255
203
254
255
201
251
255
196
253
255
200
255
255
208
255
255
209
255
255
209
255
255
209
255
255
198
255
255
186
255
255
189
255
255
193
255
255
201
255
255
192
255
255
186
255
255
186
255
255
190
255
255
195
255
255
193
255
255
193
255
255
201
255
255
202
255
255
200
255
255
204
255
255
211
255
255
217
255
255
234
255
255
253
255
255
255
255
255
255
255
255
249
255
255
221
255
255
202
255
255
206
255
255
211
255
255
217
255
255
225
255
255
225
255
255
221
255
255
218
255
255
216
255
255
211
255
255
210
255
255
202
255
255
198
255
255
212
255
255
220
255
255
228
255
255
231
255
255
228
255
255
226
255
255
227
255
255
236
255
255
252
255
255
255
255
255
255
255
255
255
255
255
255
255
255
255
255
255
255
255
255
255
255
255
255
255
255
255
255
255
255
255
255
255
255
255
255
255
255
253
255
255
248
255
255
243
255
255
238
255
255
233
255
254
223
255
253
222
255
248
219
254
242
214
255
252
228
255
254
237
255
251
229
255
248
223
255
248
223
255
253
238
255
252
237
255
255
252
255
255
241
255
254
241
254
250
229
236
219
197
226
208
189
245
229
212
237
221
204
255
254
248
255
252
243
255
255
254
255
255
255
249
240
227
239
223
201
219
200
176
245
224
201
248
232
211
250
235
214
255
250
236
255
253
235
255
255
251
255
255
255
255
255
255
255
255
255
255
255
255
255
255
255
255
255
255
255
255
255
255
255
255
255
255
255
255
255
255
255
255
255
255
255
255
255
255
255
255
255
255
255
255
252
255
255
234
255
255
219
255
255
206
255
255
194
255
255
187
255
255
185
255
254
180
255
254
181
255
254
185
255
255
193
255
255
202
255
255
208
255
255
220
255
255
236
255
255
246
255
255
249
255
255
249
255
255
246
255
255
242
255
255
235
255
255
226
255
255
228
255
255
233
255
255
233
255
255
232
255
255
233
255
255
230
255
255
220
255
255
209
255
255
203
255
255
197
255
255
201
255
255
204
255
255
200
255
255
192
255
255
201
255
255
211
255
255
208
255
255
211
255
255
216
255
255
207
255
255
203
255
255
207
255
255
209
255
255
209
255
255
214
255
255
210
255
255
210
255
255
206
255
255
201
255
255
194
255
255
197
255
255
198
255
255
191
255
255
188
255
255
188
255
255
191
255
255
188
255
255
186
255
247
180
255
233
173
255
237
175
255
246
181
255
254
193
255
255
191
255
255
195
255
255
199
255
255
198
255
255
195
255
255
189
255
255
186
252
243
182
242
238
177
238
238
174
247
247
182
255
255
195
255
255
199
255
255
204
255
255
197
254
255
190
254
255
192
255
255
205
255
255
209
251
255
205
244
255
198
245
255
195
252
255
198
250
255
197
246
255
197
249
255
202
251
255
197
253
255
187
255
255
184
254
255
187
252
255
191
249
249
179
255
246
180
255
251
185
255
255
186
255
255
190
255
255
189
255
255
187
255
255
194
255
255
199
255
255
200
255
255
208
255
255
218
255
255
228
255
255
244
255
255
255
255
255
255
255
255
255
255
255
247
255
255
216
255
255
203
255
255
206
255
255
214
255
255
222
255
255
221
255
255
217
255
255
215
255
255
211
255
255
209
255
255
208
255
255
210
255
255
196
255
255
194
255
255
204
255
255
210
255
255
212
255
255
211
255
255
209
255
255
214
255
255
221
255
255
229
255
255
252
255
255
255
255
255
255
255
255
255
255
255
255
255
255
255
255
255
255
255
255
255
255
255
255
255
255
255
255
255
255
255
255
255
255
255
255
255
255
250
255
255
247
255
255
243
255
255
240
255
255
236
255
254
226
255
250
219
254
240
209
255
248
221
255
250
225
255
249
226
255
252
228
255
246
221
255
250
225
255
255
240
255
254
233
255
254
234
255
254
233
255
253
230
254
253
233
252
240
216
252
245
227
252
242
222
250
238
220
255
255
248
255
255
254
255
255
252
255
255
255
249
243
232
233
212
188
230
209
183
242
221
198
249
231
212
254
244
227
255
252
231
255
254
240
255
255
255
255
255
255
255
255
255
255
255
255
255
255
255
255
255
255
255
255
255
255
255
255
255
255
255
255
255
255
255
255
255
255
255
255
255
255
255
255
255
255
255
255
255
255
255
241
255
255
218
255
255
213
255
255
198
255
255
198
255
255
200
255
255
195
255
255
191
255
255
198
255
255
198
255
255
201
255
255
201
255
255
202
255
255
205
255
255
214
255
255
224
255
255
231
255
255
234
255
255
230
255
255
224
255
255
218
255
255
214
255
255
217
255
255
219
255
255
225
255
255
224
255
255
221
255
255
220
255
255
215
255
255
207
255
255
203
255
255
199
255
255
201
255
255
203
255
255
205
255
255
203
255
255
210
255
255
216
255
255
215
255
255
215
255
255
211
255
255
209
255
255
207
255
255
211
255
255
218
255
255
219
255
255
214
255
255
210
255
255
205
255
255
205
255
255
200
255
255
197
255
255
203
255
255
202
255
255
199
255
255
197
255
255
204
255
255
213
255
255
205
255
255
191
255
253
181
255
240
175
255
242
177
255
250
185
255
254
193
255
255
194
255
255
195
255
255
197
255
255
200
255
255
197
255
255
185
255
255
183
248
253
192
236
243
180
233
242
174
240
249
181
248
255
191
252
255
197
253
255
202
253
255
195
254
255
185
254
254
184
255
255
196
255
255
204
254
255
202
246
255
193
242
254
187
244
255
188
246
255
190
241
254
189
244
255
197
247
255
198
248
255
193
252
255
190
253
255
190
247
253
186
244
241
176
254
237
176
255
242
181
255
249
184
255
250
182
255
254
186
255
255
186
255
255
193
255
255
203
255
255
205
255
255
213
255
255
221
255
255
228
255
255
243
255
255
254
255
255
255
255
255
251
255
255
229
255
255
206
255
255
200
255
255
203
255
255
212
255
255
220
255
255
216
255
255
212
255
255
205
255
255
201
255
255
201
255
255
206
255
255
209
255
255
203
255
255
198
255
255
202
255
255
208
255
255
207
255
255
201
255
255
198
255
255
208
255
255
222
255
255
225
255
255
244
255
255
255
255
255
255
255
255
255
255
255
255
255
255
255
255
255
255
255
255
255
255
255
255
255
255
255
255
255
255
255
255
255
255
255
255
255
255
254
255
255
254
255
255
250
255
255
252
255
255
251
255
255
241
255
254
234
255
249
222
255
250
221
255
242
214
255
241
216
255
247
220
255
247
221
252
239
213
255
247
223
255
254
236
255
249
225
255
247
223
255
252
227
255
254
232
255
252
232
255
250
232
255
255
245
254
248
233
255
255
250
255
255
253
255
255
254
255
255
255
255
254
248
244
226
203
234
213
188
251
229
206
253
246
228
255
252
231
255
255
242
255
255
247
255
255
254
255
255
255
255
255
255
255
255
255
255
255
255
255
255
255
255
255
255
255
255
255
255
255
255
255
255
255
255
255
255
255
255
255
255
255
255
255
255
255
255
255
255
255
255
241
255
255
213
255
255
210
255
255
198
255
255
203
255
255
208
255
255
205
255
255
200
255
255
205
255
255
205
255
255
207
255
255
198
255
255
191
255
255
191
255
255
199
255
255
205
255
255
215
255
255
221
255
255
223
255
255
221
255
255
214
255
255
215
255
255
211
255
255
210
255
255
211
255
255
210
255
255
204
255
255
200
255
255
203
255
255
207
255
255
205
255
255
200
255
255
203
255
255
208
255
255
213
255
255
216
255
255
220
255
255
223
255
255
227
255
255
224
255
255
217
255
255
216
255
255
215
255
255
216
255
255
221
255
255
223
255
255
214
255
255
207
255
255
209
255
255
206
255
255
202
255
255
202
255
255
206
255
255
206
255
255
210
255
255
211
255
255
217
255
255
223
255
255
214
255
255
201
255
255
191
255
254
186
255
253
185
255
255
193
255
255
195
255
254
192
255
255
192
255
255
196
255
255
193
255
255
187
255
255
180
255
255
182
240
247
190
232
239
176
231
238
170
234
243
174
239
248
182
245
254
193
247
255
198
246
255
188
252
254
178
255
252
178
255
253
185
255
255
193
255
255
197
252
254
191
241
250
183
240
253
182
241
251
184
240
251
187
244
254
194
247
255
198
248
255
197
246
255
191
247
253
188
243
246
181
237
230
172
244
224
166
252
227
171
255
237
175
255
245
175
255
247
176
255
252
179
255
255
190
255
255
207
255
255
214
255
255
216
255
255
217
255
255
219
255
255
229
255
255
237
255
255
239
255
255
227
255
255
205
255
255
197
255
255
198
255
255
202
255
255
216
255
255
221
255
255
214
255
255
206
255
255
200
255
255
198
255
255
205
255
255
211
255
255
213
255
255
214
255
255
209
255
255
209
255
255
215
255
255
217
255
255
206
255
255
200
255
255
207
255
255
225
255
255
241
255
255
252
255
255
255
255
255
255
255
255
255
255
255
255
255
255
255
255
255
255
255
255
255
255
255
255
255
255
255
255
255
255
255
255
255
255
255
255
255
255
255
255
255
255
255
255
255
255
255
255
255
255
255
255
255
254
255
254
239
255
253
226
255
250
223
255
243
215
255
250
225
255
248
224
255
245
218
250
230
203
244
223
197
254
238
212
255
248
221
255
249
221
255
248
221
255
251
223
255
254
235
255
255
245
255
255
248
255
255
248
255
255
253
255
255
255
255
255
255
255
255
255
255
255
254
251
239
218
254
248
226
255
247
227
255
253
240
255
250
230
255
255
240
255
252
237
255
255
249
255
255
255
255
255
255
255
255
255
255
255
255
255
255
255
255
255
255
255
255
255
255
255
255
255
255
255
255
255
255
255
255
255
255
255
255
255
255
255
255
255
255
255
255
252
255
255
226
255
255
219
255
255
208
255
255
210
255
255
213
255
255
214
255
255
217
255
255
216
255
255
209
255
255
201
255
255
187
255
255
176
255
254
175
255
254
182
255
255
192
255
255
207
255
255
215
255
255
219
255
255
216
255
255
209
255
255
204
255
255
201
255
255
202
255
255
202
255
255
200
255
255
193
255
255
194
255
255
203
255
255
201
255
255
204
255
255
211
255
255
214
255
255
220
255
255
224
255
255
227
255
255
228
255
255
228
255
255
235
255
255
237
255
255
234
255
255
230
255
255
230
255
255
227
255
255
226
255
255
225
255
255
216
255
255
209
255
255
215
255
255
212
255
255
207
255
255
207
255
255
206
255
255
203
255
255
211
255
255
215
255
255
217
255
255
216
255
255
212
255
255
210
255
255
204
255
255
197
255
255
193
255
255
195
255
255
194
255
253
191
255
255
200
255
255
208
255
255
204
255
255
192
255
255
185
255
251
193
236
239
178
237
235
168
240
235
164
241
237
168
238
239
173
238
246
181
240
254
192
244
255
191
246
254
180
251
248
170
255
251
178
255
253
184
255
252
187
254
250
186
242
247
181
239
250
183
239
248
181
245
253
190
247
255
197
245
253
196
245
254
194
241
252
188
241
248
183
240
239
177
233
226
169
233
219
163
242
222
165
253
237
177
254
244
180
255
246
178
255
252
178
255
255
193
255
255
214
255
255
221
255
255
219
255
255
210
255
255
208
255
255
209
255
255
212
255
255
209
255
255
207
255
255
199
255
255
196
255
255
198
255
255
205
255
255
222
255
255
225
255
255
220
255
255
201
255
255
194
255
255
196
255
255
211
255
255
218
255
255
218
255
255
223
255
255
217
255
255
218
255
255
221
255
255
215
255
255
207
255
255
207
255
255
212
255
255
225
255
255
245
255
255
254
255
255
255
255
255
255
255
255
255
255
255
255
255
255
255
255
255
255
255
255
255
255
255
255
255
255
255
255
255
255
255
255
255
255
255
255
255
255
255
255
255
255
255
255
255
255
255
255
255
255
255
255
255
251
255
255
243
255
255
237
255
252
226
255
251
224
255
254
235
255
248
220
255
240
212
251
233
206
243
223
196
245
224
197
249
230
201
253
240
211
255
248
220
253
239
211
255
254
234
255
253
234
255
254
249
255
255
255
255
255
255
255
255
255
255
255
255
255
255
255
255
255
255
254
251
242
255
255
252
255
253
242
255
253
235
255
249
224
255
252
228
255
249
226
255
255
237
255
255
243
255
255
251
255
255
255
255
255
255
255
255
255
255
255
255
255
255
255
255
255
255
255
255
255
255
255
255
255
255
255
255
255
255
255
255
255
255
255
255
255
255
252
255
255
242
255
255
238
255
255
226
255
255
216
255
255
215
255
255
216
255
255
221
255
255
224
255
255
218
255
255
204
255
255
182
255
248
167
255
242
166
255
248
170
255
255
182
255
255
198
255
255
206
255
255
215
255
255
212
255
255
207
255
255
200
255
255
199
255
255
205
255
255
204
255
255
203
255
255
200
255
255
203
255
255
207
255
255
211
255
255
217
255
255
215
255
255
224
255
255
225
255
255
226
255
255
228
255
255
228
255
255
227
255
255
231
255
255
238
255
255
248
255
255
247
255
255
249
255
255
240
255
255
233
255
255
222
255
255
216
255
255
216
255
255
221
255
255
220
255
255
214
255
255
205
255
255
199
255
255
199
255
255
204
255
255
205
255
255
212
255
255
212
255
255
208
255
255
208
255
255
206
255
255
205
255
255
202
255
255
200
255
255
197
255
255
199
255
255
207
255
255
215
255
255
219
255
255
210
255
255
206
255
254
209
248
241
173
254
242
171
255
242
167
255
243
168
255
245
172
253
251
181
246
252
188
244
254
190
243
254
189
239
245
168
252
245
171
255
248
179
255
245
180
253
244
180
238
241
176
238
247
181
242
247
183
252
254
200
254
255
208
246
254
198
241
251
191
234
245
180
235
244
178
234
239
175
232
230
171
232
226
170
236
229
174
243
242
181
250
252
188
251
253
186
253
255
188
255
255
208
255
255
218
255
255
223
255
255
223
255
255
216
255
255
208
255
255
209
255
255
208
255
255
199
255
255
199
255
255
201
255
255
201
255
255
206
255
255
214
255
255
231
255
255
232
255
255
224
255
255
205
255
255
196
255
255
202
255
255
219
255
255
227
255
255
229
255
255
231
255
255
225
255
255
219
255
255
222
255
255
217
255
255
215
255
255
210
255
255
211
255
255
230
255
255
250
255
255
255
255
255
255
255
255
255
255
255
255
255
255
255
255
255
255
255
255
255
255
255
255
255
255
255
255
255
255
255
255
255
255
255
255
255
255
255
255
255
255
255
255
255
255
255
255
255
255
255
255
255
255
255
255
254
255
255
252
255
255
246
255
255
236
255
255
232
255
255
239
255
246
221
255
244
219
255
240
215
252
233
206
245
224
197
245
224
198
245
224
197
253
240
213
255
243
215
255
251
230
255
254
251
255
254
246
255
255
253
255
255
255
255
255
254
255
255
252
255
255
255
255
255
255
255
250
239
255
255
252
255
255
244
255
255
238
255
252
226
254
241
212
255
251
226
255
253
226
255
254
233
255
255
254
255
255
255
255
255
255
255
255
255
255
255
255
255
255
255
255
255
255
255
255
255
255
255
255
255
255
255
255
255
255
255
255
255
255
255
255
255
255
254
255
255
254
255
255
248
255
255
233
255
255
218
255
255
213
255
255
208
255
255
209
255
255
214
255
255
213
255
255
204
255
255
189
255
253
176
255
246
175
255
252
180
255
255
190
255
255
199
255
255
202
255
255
206
255
255
204
255
255
205
255
255
199
255
255
202
255
255
212
255
255
217
255
255
213
255
255
203
255
255
202
255
255
205
255
255
212
255
255
221
255
255
218
255
255
223
255
255
228
255
255
227
255
255
227
255
255
228
255
255
227
255
255
228
255
255
236
255
255
252
255
255
255
255
255
254
255
255
244
255
255
239
255
255
225
255
255
217
255
255
221
255
255
224
255
255
225
255
255
216
255
255
203
255
255
198
255
255
202
255
255
201
255
255
196
255
255
198
255
255
201
255
255
203
255
255
206
255
255
213
255
255
210
255
255
208
255
255
207
255
255
203
255
255
204
255
255
214
255
255
225
255
255
235
255
255
228
255
255
227
255
255
230
255
251
176
255
252
176
255
253
175
255
249
170
255
253
178
255
255
185
255
255
188
253
255
189
249
255
186
245
251
178
247
250
177
253
249
180
252
241
178
246
241
178
236
240
176
240
248
184
247
251
190
255
255
207
255
255
212
250
255
201
240
252
191
227
239
174
231
243
177
233
245
180
233
239
179
228
232
174
230
234
177
238
247
187
253
255
202
255
255
204
254
255
204
255
255
218
255
255
229
255
255
234
255
255
234
255
255
226
255
255
221
255
255
223
255
255
221
255
255
215
255
255
213
255
255
215
255
255
214
255
255
217
255
255
226
255
255
239
255
255
239
255
255
229
255
255
208
255
255
201
255
255
212
255
255
222
255
255
229
255
255
235
255
255
239
255
255
227
255
255
213
255
255
217
255
255
224
255
255
231
255
255
226
255
255
208
255
255
224
255
255
252
255
255
255
255
255
255
255
255
255
255
255
255
255
255
255
255
255
255
255
255
255
255
255
255
255
255
255
255
255
255
255
255
255
255
255
255
255
255
255
255
255
255
255
255
255
255
255
255
255
255
255
255
255
255
255
255
255
255
255
255
255
255
253
255
255
245
255
255
245
255
255
243
255
253
231
255
252
229
252
234
209
241
221
194
250
229
202
251
232
207
252
234
209
250
232
207
254
237
212
255
246
223
255
255
247
255
255
253
255
255
255
255
255
253
255
255
254
255
255
254
255
255
255
255
255
255
255
255
248
255
255
252
255
255
242
255
252
235
252
239
213
253
241
216
255
250
225
255
244
216
255
253
238
255
255
255
255
255
255
255
255
255
255
255
255
255
255
255
255
255
255
255
255
255
255
255
255
255
255
255
255
255
255
255
255
255
255
255
255
255
255
255
255
255
255
255
255
255
255
255
250
255
255
239
255
255
221
255
255
212
255
255
201
255
255
202
255
255
206
255
255
210
255
255
208
255
255
196
255
255
190
255
255
189
255
255
191
255
255
196
255
255
202
255
255
202
255
255
199
255
255
198
255
255
197
255
255
198
255
255
207
255
255
210
255
255
214
255
255
210
255
255
199
255
255
198
255
255
201
255
255
211
255
255
220
255
255
222
255
255
229
255
255
234
255
255
229
255
255
225
255
255
225
255
255
224
255
255
224
255
255
232
255
255
249
255
255
255
255
255
255
255
255
245
255
255
236
255
255
227
255
255
222
255
255
225
255
255
229
255
255
227
255
255
218
255
255
204
255
255
204
255
255
201
255
255
200
255
255
191
255
255
188
255
255
196
255
255
206
255
255
214
255
255
220
255
255
218
255
255
211
255
255
216
255
255
211
255
255
212
255
255
214
255
255
227
255
255
239
255
255
236
255
255
229
255
255
230
255
255
190
255
255
190
255
255
185
255
255
183
255
255
187
255
255
197
255
255
195
255
255
190
254
255
184
251
255
185
249
255
187
250
254
186
245
246
181
234
238
176
236
242
178
245
251
187
253
255
196
255
255
212
255
255
217
252
255
208
241
254
194
229
248
177
234
251
184
240
254
194
238
249
189
235
244
184
239
247
187
245
253
195
255
255
211
255
255
218
255
255
218
255
255
223
255
255
237
255
255
240
255
255
241
255
255
239
255
255
238
255
255
239
255
255
234
255
255
231
255
255
236
255
255
240
255
255
232
255
255
230
255
255
239
255
255
244
255
255
246
255
255
234
255
255
209
255
255
207
255
255
219
255
255
228
255
255
228
255
255
235
255
255
240
255
255
228
255
255
212
255
255
206
255
255
221
255
255
238
255
255
243
255
255
239
255
255
240
255
255
252
255
255
255
255
255
255
255
255
255
255
255
255
255
255
255
255
255
255
255
255
255
255
255
255
255
255
255
255
255
255
255
255
255
255
255
255
255
255
255
255
255
255
255
255
255
255
255
254
255
255
255
255
255
254
255
255
255
255
255
255
255
255
254
255
255
253
255
255
243
255
255
244
255
255
241
255
251
229
254
238
212
251
236
209
244
224
197
253
237
211
252
234
209
254
244
219
254
237
214
255
247
224
255
254
237
255
255
251
255
255
254
255
255
254
255
255
253
255
255
254
255
255
255
255
255
255
255
255
248
255
255
254
255
254
242
255
251
228
255
240
216
255
251
228
255
249
225
255
243
218
255
255
250
255
255
255
255
255
255
255
255
255
255
255
255
255
255
255
255
255
255
255
255
255
255
255
255
255
255
255
255
255
255
255
255
255
255
255
255
255
255
255
255
255
255
255
255
251
255
255
243
255
255
232
255
255
214
255
255
201
255
255
188
255
255
182
255
255
189
255
255
204
255
255
210
255
255
204
255
255
200
255
255
202
255
255
206
255
255
207
255
255
201
255
255
197
255
255
195
255
255
197
255
255
197
255
255
198
255
255
205
255
255
200
255
255
196
255
255
188
255
255
178
255
255
187
255
255
196
255
255
209
255
255
224
255
255
228
255
255
239
255
255
242
255
255
243
255
255
238
255
255
239
255
255
237
255
255
232
255
255
229
255
255
241
255
255
252
255
255
254
255
255
241
255
255
230
255
255
222
255
255
224
255
255
230
255
255
234
255
255
230
255
255
220
255
255
211
255
255
213
255
255
213
255
255
207
255
255
197
255
255
189
255
255
197
255
255
211
255
255
217
255
255
220
255
255
222
255
255
217
255
255
221
255
255
220
255
255
213
255
255
205
255
255
208
255
255
218
255
255
230
255
255
229
255
255
230
255
255
201
255
255
199
255
255
195
255
255
195
255
255
201
255
255
206
255
255
200
255
255
188
255
255
184
254
255
193
254
255
202
248
255
195
242
254
192
240
250
190
241
250
187
253
255
193
255
255
201
255
255
214
255
255
220
255
255
211
250
255
192
248
255
188
250
255
197
254
255
213
252
255
206
251
255
201
251
255
199
255
255
210
255
255
225
255
255
231
255
255
228
255
255
228
255
255
233
255
255
238
255
255
244
255
255
251
255
255
254
255
255
254
255
255
251
255
255
246
255
255
250
255
255
253
255
255
242
255
255
238
255
255
240
255
255
240
255
255
242
255
255
232
255
255
221
255
255
226
255
255
237
255
255
234
255
255
231
255
255
232
255
255
236
255
255
223
255
255
212
255
255
204
255
255
214
255
255
239
255
255
247
255
255
249
255
255
253
255
255
255
255
255
255
255
255
255
255
255
255
255
255
255
255
255
255
255
255
255
255
255
255
255
255
255
255
255
255
255
255
255
255
255
255
255
255
255
255
255
255
255
255
255
255
255
255
255
255
255
255
255
247
255
255
250
255
255
253
255
255
252
255
255
253
255
255
248
255
255
245
255
255
243
255
255
237
255
255
235
255
254
232
255
253
231
255
249
224
254
245
219
251
232
207
254
241
216
255
245
222
254
243
219
255
254
236
255
255
249
255
255
250
255
255
253
255
255
253
255
255
251
255
255
255
255
255
255
255
255
254
255
255
255
255
253
244
255
251
232
255
251
230
255
253
234
255
247
225
255
252
233
255
255
253
255
255
255
255
255
255
255
255
255
255
255
255
255
255
255
255
255
255
255
255
255
255
255
255
255
255
255
255
255
255
255
255
255
255
255
255
255
255
255
255
255
254
255
255
250
255
255
238
255
255
226
255
255
213
255
255
204
255
255
191
255
255
179
255
255
186
255
255
201
255
255
217
255
255
222
255
255
227
255
255
228
255
255
231
255
255
223
255
255
210
255
255
200
255
255
204
255
255
211
255
255
205
255
255
208
255
255
210
255
255
201
255
255
187
255
254
176
255
250
168
255
254
177
255
255
197
255
255
216
255
255
232
255
255
245
255
255
250
255
255
250
255
255
254
255
255
254
255
255
254
255
255
250
255
255
238
255
255
228
255
255
232
255
255
241
255
255
240
255
255
229
255
255
220
255
255
220
255
255
230
255
255
239
255
255
239
255
255
227
255
255
220
255
255
221
255
255
215
255
255
223
255
255
215
255
255
204
255
255
204
255
255
204
255
255
213
255
255
221
255
255
226
255
255
227
255
255
225
255
255
226
255
255
226
255
255
215
255
255
198
255
254
198
255
253
204
255
255
220
255
255
227
255
255
227
255
255
209
255
255
206
255
255
207
255
255
207
255
255
213
255
255
214
255
255
205
255
255
196
255
255
190
255
255
204
255
255
220
254
255
215
252
255
209
254
255
207
255
255
207
255
255
200
255
255
204
255
255
211
255
255
223
255
255
217
255
255
206
255
255
202
255
255
207
255
255
223
255
255
227
255
255
220
255
255
215
255
255
227
255
255
232
255
255
233
255
255
229
255
255
225
255
255
232
255
255
241
255
255
250
255
255
255
255
255
255
255
255
255
255
255
255
255
255
253
255
255
255
255
255
254
255
255
248
255
255
235
255
255
230
255
255
233
255
255
236
255
255
234
255
255
240
255
255
249
255
255
250
255
255
248
255
255
242
255
255
242
255
255
238
255
255
225
255
255
214
255
255
213
255
255
216
255
255
235
255
255
254
255
255
252
255
255
254
255
255
255
255
255
255
255
255
255
255
255
255
255
255
255
255
255
255
255
255
255
255
255
255
255
255
255
255
255
255
255
255
255
255
255
255
255
255
255
255
255
255
255
255
255
255
255
255
255
255
253
255
255
254
255
255
255
255
255
250
255
255
242
255
255
242
255
255
244
255
255
239
255
255
238
255
255
231
255
251
226
249
237
205
244
231
199
250
241
213
254
249
219
254
242
216
250
231
206
255
247
224
253
240
216
255
248
230
255
255
255
255
255
247
255
254
248
255
255
252
255
255
252
255
255
255
255
255
255
255
255
255
255
255
251
253
244
227
255
254
245
254
250
230
255
251
232
255
245
221
255
253
247
255
255
255
255
255
255
255
255
255
255
255
255
255
255
255
255
255
255
255
255
255
255
255
255
255
255
255
255
255
255
255
255
255
255
255
255
255
255
255
255
255
255
255
255
254
255
255
246
255
255
231
255
255
230
255
255
224
255
255
216
255
255
194
255
255
190
255
255
202
255
255
218
255
255
230
255
255
240
255
255
248
255
255
252
255
255
250
255
255
243
255
255
221
255
255
207
255
255
210
255
255
216
255
255
218
255
255
224
255
255
219
255
255
208
255
255
193
255
253
179
255
253
174
255
255
183
255
255
208
255
255
234
255
255
247
255
255
254
255
255
255
255
255
255
255
255
255
255
255
252
255
255
254
255
255
254
255
255
245
255
255
231
255
255
236
255
255
238
255
255
233
255
255
220
255
255
219
255
255
226
255
255
233
255
255
237
255
255
235
255
255
225
255
255
217
255
255
216
255
255
212
255
255
216
255
255
216
255
255
214
255
255
211
255
255
213
255
255
216
255
255
222
255
255
228
255
255
227
255
255
226
255
255
234
255
255
231
255
255
221
255
255
199
255
254
192
255
253
196
255
255
210
255
255
220
255
255
225
255
255
201
255
255
203
255
255
210
255
255
218
255
255
220
255
255
225
255
255
217
255
255
204
255
255
201
255
255
213
255
255
230
255
255
231
255
255
223
255
255
213
255
255
211
255
255
203
255
255
197
255
255
204
255
255
223
255
255
225
255
255
225
255
255
228
255
255
226
255
255
232
255
255
232
255
255
235
255
255
236
255
255
236
255
255
237
255
255
234
255
255
232
255
255
228
255
255
231
255
255
238
255
255
246
255
255
247
255
255
255
255
255
255
255
255
255
255
255
255
255
255
254
255
255
251
255
255
251
255
255
237
255
255
232
255
255
232
255
255
234
255
255
241
255
255
251
255
255
255
255
255
255
255
255
255
255
255
253
255
255
250
255
255
246
255
255
236
255
255
234
255
255
227
255
255
230
255
255
241
255
255
253
255
255
255
255
255
255
255
255
255
255
255
255
255
255
255
255
255
255
255
255
255
255
255
255
255
255
255
255
255
255
255
255
255
255
255
255
255
255
255
255
255
255
255
255
255
255
255
255
255
255
255
255
255
255
255
255
255
255
255
253
255
255
247
255
255
243
255
255
235
255
255
233
255
255
239
255
255
234
255
255
236
255
253
229
253
239
208
241
221
190
228
209
179
223
204
174
242
225
195
248
230
203
247
228
203
255
244
221
255
247
224
255
249
228
255
254
238
254
250
235
255
253
239
255
253
241
255
255
254
255
255
254
255
255
255
255
255
255
255
255
247
255
255
246
255
254
240
254
251
235
255
254
244
255
254
238
255
255
250
255
255
255
255
255
255
255
255
255
255
255
255
255
255
255
255
255
255
255
255
255
255
255
255
255
255
255
255
255
255
255
255
255
255
255
255
255
255
255
255
255
255
255
255
255
255
255
255
255
255
245
255
255
233
255
255
231
255
255
225
255
255
207
255
255
209
255
255
216
255
255
224
255
255
227
255
255
236
255
255
246
255
255
252
255
255
255
255
255
250
255
255
239
255
255
222
255
255
212
255
255
216
255
255
226
255
255
234
255
255
235
255
255
229
255
255
210
255
255
201
255
255
200
255
255
206
255
255
220
255
255
241
255
255
253
255
255
254
255
255
255
255
255
253
255
255
250
255
255
240
255
255
241
255
255
245
255
255
243
255
255
238
255
255
235
255
255
235
255
255
232
255
255
222
255
255
220
255
255
223
255
255
226
255
255
224
255
255
225
255
255
217
255
255
209
255
255
207
255
255
206
255
255
209
255
255
216
255
255
220
255
255
214
255
255
217
255
255
225
255
255
227
255
255
227
255
255
217
255
255
216
255
255
232
255
255
233
255
255
223
255
255
204
255
255
198
255
255
202
255
255
213
255
255
221
255
255
227
255
255
197
255
255
191
255
255
198
255
255
211
255
255
216
255
255
220
255
255
220
255
255
201
255
255
206
255
255
220
255
255
233
255
255
232
255
255
221
255
255
210
255
255
209
255
255
199
255
255
187
255
255
194
255
255
212
255
255
221
255
255
227
255
255
236
255
255
233
255
255
232
255
255
230
255
255
240
255
255
247
255
255
245
255
255
245
255
255
239
255
255
234
255
255
233
255
255
235
255
255
236
255
255
241
255
255
237
255
255
252
255
255
255
255
255
255
255
255
255
255
255
254
255
255
245
255
255
244
255
255
239
255
255
233
255
255
238
255
255
238
255
255
243
255
255
248
255
255
252
255
255
253
255
255
251
255
255
251
255
255
253
255
255
254
255
255
249
255
255
254
255
255
248
255
255
247
255
255
247
255
255
255
255
255
255
255
255
255
255
255
255
255
255
255
255
255
255
255
255
255
255
255
255
255
255
255
255
255
255
255
255
255
255
255
255
255
255
255
255
255
255
255
255
255
255
255
255
255
255
255
255
255
255
255
255
255
255
255
252
255
255
252
255
255
248
255
255
242
255
255
245
255
255
250
255
255
241
255
255
237
255
253
232
255
251
224
254
242
212
249
230
201
241
221
194
234
213
186
227
207
179
234
213
187
241
226
202
253
241
218
254
242
218
253
245
222
255
251
238
253
240
216
255
251
234
255
246
223
255
254
249
255
255
252
255
255
247
255
255
255
255
255
251
255
254
241
254
251
241
255
255
254
255
255
253
255
255
245
255
255
248
255
255
255
255
255
255
255
255
255
255
255
255
255
255
255
255
255
255
255
255
255
255
255
255
255
255
255
255
255
255
255
255
255
255
255
255
255
255
255
255
255
255
255
255
255
255
255
255
255
255
250
255
255
233
255
255
225
255
255
223
255
255
213
255
255
214
255
255
213
255
255
211
255
255
198
255
255
201
255
255
210
255
255
226
255
255
236
255
255
241
255
255
236
255
255
224
255
255
222
255
255
214
255
255
223
255
255
234
255
255
241
255
255
240
255
255
224
255
255
221
255
255
222
255
255
229
255
255
234
255
255
243
255
255
246
255
255
244
255
255
245
255
255
244
255
255
237
255
255
220
255
255
219
255
255
227
255
255
237
255
255
249
255
255
244
255
255
241
255
255
239
255
255
232
255
255
220
255
255
217
255
255
216
255
255
219
255
255
223
255
255
219
255
255
212
255
255
206
255
255
202
255
255
208
255
255
213
255
255
219
255
255
215
255
255
218
255
255
228
255
255
234
255
255
229
255
255
211
255
255
208
255
255
227
255
255
241
255
255
234
255
255
220
255
255
210
255
255
210
255
255
215
255
255
221
255
255
228
255
255
207
255
255
191
254
255
184
254
255
199
255
255
212
255
255
220
255
255
217
255
255
203
255
255
200
255
255
211
255
255
227
255
255
228
255
255
215
255
255
206
255
255
196
255
255
185
255
255
172
255
255
177
255
255
191
255
255
205
255
255
219
255
255
226
255
255
222
255
255
225
255
255
229
255
255
242
255
255
252
255
255
253
255
255
250
255
255
245
255
255
239
255
255
241
255
255
238
255
255
240
255
255
238
255
255
233
255
255
253
255
255
255
255
255
255
255
255
255
255
255
252
255
255
240
255
255
233
255
255
225
255
255
229
255
255
233
255
255
231
255
255
234
255
255
241
255
255
242
255
255
242
255
255
237
255
255
247
255
255
249
255
255
251
255
255
248
255
255
254
255
255
252
255
255
249
255
255
244
255
255
254
255
255
255
255
255
255
255
255
255
255
255
255
255
255
255
255
255
255
255
255
255
255
255
255
255
255
255
255
255
255
255
255
255
255
255
255
255
255
255
255
255
255
255
255
255
255
255
255
255
255
255
255
255
255
255
255
250
255
255
250
255
255
245
255
255
250
255
255
251
255
255
245
255
255
234
255
253
231
255
255
230
255
252
224
255
251
227
254
248
223
250
234
207
240
219
193
236
214
189
238
215
191
220
195
171
222
200
177
250
234
211
243
224
201
251
236
216
253
243
221
248
234
209
255
241
217
255
252
243
254
251
239
255
249
231
255
251
242
255
254
244
255
249
232
255
247
227
249
233
214
253
245
227
251
240
219
255
252
236
255
255
248
255
255
255
255
255
255
255
255
255
255
255
255
255
255
255
255
255
255
255
255
255
255
255
255
255
255
255
255
255
255
255
255
255
255
255
255
255
255
255
255
255
255
255
255
255
255
255
248
255
255
227
255
255
215
255
255
217
255
255
208
255
255
209
255
255
205
255
255
199
255
252
176
255
251
168
255
255
180
255
255
191
255
255
196
255
255
210
255
255
221
255
255
225
255
255
228
255
255
223
255
255
223
255
255
227
255
255
233
255
255
240
255
255
235
255
255
230
255
255
231
255
255
237
255
255
246
255
255
250
255
255
242
255
255
236
255
255
235
255
255
237
255
255
233
255
255
222
255
255
220
255
255
228
255
255
245
255
255
255
255
255
255
255
255
254
255
255
254
255
255
251
255
255
238
255
255
231
255
255
224
255
255
225
255
255
231
255
255
232
255
255
227
255
255
220
255
255
211
255
255
214
255
255
216
255
255
215
255
255
210
255
255
209
255
255
226
255
255
240
255
255
232
255
255
202
255
255
195
255
255
215
255
255
239
255
255
235
255
255
226
255
255
216
255
255
215
255
255
217
255
255
222
255
255
235
255
255
221
255
255
209
249
255
192
244
255
187
254
255
201
255
255
215
255
255
223
255
255
211
255
255
193
255
255
198
255
255
213
255
255
220
255
255
211
255
255
194
255
255
189
255
255
184
255
255
173
255
255
162
255
255
173
255
255
184
255
255
200
255
255
207
255
255
206
255
255
210
255
255
222
255
255
242
255
255
249
255
255
254
255
255
255
255
255
254
255
255
245
255
255
243
255
255
240
255
255
241
255
255
244
255
255
243
255
255
255
255
255
255
255
255
255
255
255
255
255
255
239
255
255
217
255
255
211
255
255
207
255
255
217
255
255
216
255
255
228
255
255
232
255
255
242
255
255
242
255
255
236
255
255
236
255
255
244
255
255
240
255
255
234
255
255
232
255
255
238
255
255
240
255
255
241
255
255
244
255
255
249
255
255
253
255
255
255
255
255
255
255
255
255
255
255
255
255
255
255
255
255
255
255
255
255
255
255
255
255
255
255
255
255
255
255
255
255
255
255
255
255
255
255
255
255
255
255
255
255
255
255
255
255
255
253
255
255
246
255
255
254
255
255
253
255
255
255
255
255
255
255
255
252
255
255
248
255
255
237
255
255
240
255
255
247
255
255
250
255
254
235
255
249
222
252
238
210
247
232
206
237
217
193
229
206
182
232
210
187
244
228
205
250
236
213
252
233
212
251
236
214
247
231
206
253
238
214
255
253
247
255
253
246
254
249
237
251
240
219
250
236
214
246
235
213
240
221
196
231
208
182
251
235
210
246
221
194
254
243
219
255
254
237
255
255
255
255
255
255
255
255
255
255
255
255
255
255
255
255
255
255
255
255
255
255
255
255
255
255
255
255
255
255
255
255
255
255
255
255
255
255
255
255
255
255
255
255
255
255
255
236
255
255
210
255
255
199
255
255
208
255
255
203
255
255
205
255
255
209
255
255
201
255
255
193
255
255
198
255
255
189
255
255
187
255
255
182
255
255
191
255
255
221
255
255
232
255
255
248
255
255
244
255
255
229
255
255
221
255
255
228
255
255
234
255
255
229
255
255
226
255
255
224
255
255
236
255
255
252
255
255
255
255
255
253
255
255
244
255
255
232
255
255
242
255
255
241
255
255
234
255
255
236
255
255
246
255
255
254
255
255
255
255
255
255
255
255
255
255
255
255
255
255
255
255
255
253
255
255
251
255
255
248
255
255
243
255
255
252
255
255
252
255
255
242
255
255
223
255
255
220
255
255
223
255
255
220
255
255
211
255
255
198
255
255
203
255
255
226
255
255
239
255
255
227
255
255
194
255
255
185
255
255
207
255
255
229
255
255
233
255
255
226
255
255
219
255
255
223
255
255
221
255
255
222
255
255
230
255
255
220
255
255
218
252
255
203
244
255
184
254
255
190
255
255
209
255
255
221
255
255
213
255
255
194
255
255
201
255
255
215
255
255
220
255
255
209
255
255
197
255
255
201
255
255
198
255
255
194
255
255
177
255
255
170
255
255
179
255
255
200
255
255
205
255
255
207
255
255
203
255
255
224
255
255
241
255
255
243
255
255
249
255
255
253
255
255
254
255
255
247
255
255
236
255
255
233
255
255
233
255
255
248
255
255
251
255
255
254
255
255
255
255
255
254
255
255
247
255
255
220
255
255
192
255
255
191
255
255
190
255
255
204
255
255
204
255
255
219
255
255
233
255
255
250
255
255
253
255
255
246
255
255
246
255
255
248
255
255
243
255
255
221
255
255
212
255
255
213
255
255
219
255
255
230
255
255
241
255
255
240
255
255
247
255
255
255
255
255
255
255
255
255
255
255
255
255
255
255
255
255
255
255
255
255
255
255
255
255
255
255
255
255
255
255
255
255
255
255
255
255
255
255
255
255
255
255
255
255
255
255
255
255
255
252
255
255
247
255
255
255
255
255
255
255
255
254
255
255
249
255
255
239
255
254
233
255
254
239
255
254
244
255
255
251
255
255
245
255
255
243
255
254
230
255
250
222
253
244
216
248
230
203
231
211
186
239
219
195
235
215
191
253
239
216
251
233
210
253
244
220
246
230
206
247
226
204
255
251
238
255
255
251
255
255
254
255
249
231
238
217
193
224
201
177
229
207
182
251
238
211
253
240
212
250
236
208
255
251
232
255
255
243
255
255
254
255
255
255
255
255
255
255
255
255
255
255
255
255
255
255
255
255
255
255
255
255
255
255
255
255
255
255
255
255
255
255
255
255
255
255
255
255
255
253
255
255
241
255
255
211
255
253
193
255
255
197
255
255
211
255
255
206
255
255
199
255
255
213
255
255
212
255
255
205
255
255
219
255
255
205
255
255
202
255
255
197
255
255
196
255
255
221
255
255
244
255
255
255
255
255
254
255
255
246
255
255
225
255
255
225
255
255
229
255
255
218
255
255
206
255
255
215
255
255
228
255
255
249
255
255
255
255
255
255
255
255
254
255
255
241
255
255
241
255
255
245
255
255
243
255
255
250
255
255
255
255
255
255
255
255
255
255
255
255
255
255
255
255
255
255
255
255
255
255
255
255
255
255
255
255
255
255
255
255
255
255
255
255
255
255
255
255
255
250
255
255
232
255
255
231
255
255
228
255
255
221
255
255
205
255
255
199
255
255
212
255
255
234
255
255
234
255
255
218
255
255
194
255
255
194
255
255
208
255
255
219
255
255
220
255
255
215
255
255
208
255
255
213
255
255
217
255
255
219
255
255
216
255
255
210
255
255
214
254
255
208
247
255
187
255
255
186
255
255
203
255
255
219
255
255
216
255
255
203
255
255
203
255
255
216
255
255
226
255
255
213
255
255
190
254
255
194
255
255
210
255
255
217
255
255
209
255
255
195
255
255
191
255
255
211
255
255
218
255
255
216
255
255
212
255
255
226
255
255
234
255
255
239
255
255
242
255
255
251
255
255
247
255
255
244
255
255
232
255
255
220
255
255
217
255
255
240
255
255
254
255
255
255
255
255
255
255
255
250
255
255
230
255
255
207
255
255
186
255
255
187
255
255
195
255
255
202
255
255
206
255
255
218
255
255
237
255
255
254
255
255
255
255
255
255
255
255
255
255
255
254
255
255
248
255
255
221
253
255
203
254
255
199
255
255
194
255
255
206
255
255
218
255
255
220
255
255
242
255
255
255
255
255
255
255
255
255
255
255
255
255
255
255
255
255
250
255
255
254
255
255
255
255
255
255
255
255
255
255
255
255
255
255
255
255
255
255
255
255
255
255
255
255
255
255
254
255
255
247
255
255
247
255
255
247
255
255
255
255
255
252
255
255
241
255
254
230
255
252
231
255
251
233
255
255
252
255
255
248
255
255
253
255
255
239
255
247
220
254
241
213
243
227
198
233
214
188
230
208
184
231
211
187
233
211
188
241
220
197
250
234
210
240
222
198
251
238
215
242
221
199
253
244
229
253
249
237
255
255
252
253
247
227
238
216
192
218
197
173
249
231
205
253
237
208
251
236
204
254
243
213
254
248
227
255
252
233
254
251
227
255
255
245
255
255
255
255
255
255
255
255
255
255
255
255
255
255
255
255
255
255
255
255
255
255
255
255
255
255
255
255
255
255
255
255
255
255
255
250
255
255
217
255
251
191
255
250
189
255
255
212
255
255
226
255
255
224
255
255
219
255
255
215
255
255
226
255
255
217
255
255
216
255
255
209
255
255
205
255
255
200
255
255
209
255
255
230
255
255
254
255
255
255
255
255
255
255
255
252
255
255
235
255
255
245
255
255
244
255
255
217
255
255
188
255
255
197
255
255
216
255
255
243
255
255
255
255
255
255
255
255
255
255
255
246
255
255
235
255
255
234
255
255
237
255
255
250
255
255
254
255
255
253
255
255
246
255
255
246
255
255
249
255
255
251
255
255
252
255
255
254
255
255
255
255
255
255
255
255
252
255
255
252
255
255
254
255
255
248
255
255
244
255
255
251
255
255
247
255
255
231
255
255
213
255
255
215
255
255
232
255
255
245
255
255
240
255
255
214
254
255
193
255
255
205
255
255
221
255
255
221
255
255
213
255
255
198
254
253
193
255
253
196
255
255
205
255
255
208
255
255
205
255
255
205
255
255
210
255
255
207
253
255
196
255
255
185
255
255
192
255
255
209
255
255
211
255
255
209
253
255
205
253
255
210
255
255
225
255
255
214
254
255
188
251
255
187
255
255
221
255
255
239
255
255
234
255
255
219
255
255
207
255
255
215
255
255
227
255
255
226
255
255
225
255
255
229
255
255
231
255
255
236
255
255
244
255
255
253
255
255
247
255
255
242
255
255
229
255
255
208
255
255
204
255
255
232
255
255
253
255
255
255
255
255
255
255
255
244
255
255
223
255
255
202
255
255
190
255
255
196
255
255
201
255
255
212
255
255
214
255
255
223
255
255
233
255
255
244
255
255
253
255
255
255
255
255
255
255
255
255
255
255
251
255
255
228
254
255
207
253
255
200
255
255
192
255
255
196
254
253
199
255
255
219
255
255
238
255
255
255
255
255
255
255
255
255
255
255
254
255
255
254
255
255
248
255
255
251
255
255
255
255
255
255
255
255
255
255
255
255
255
255
255
255
255
255
255
255
255
255
255
255
255
255
255
255
255
253
255
255
244
255
255
246
255
255
247
255
255
245
255
255
242
255
255
236
255
255
241
255
255
251
255
255
247
255
253
231
255
255
239
255
255
236
255
254
230
246
230
202
223
205
176
214
193
166
220
196
173
236
213
190
241
215
194
228
201
180
244
225
203
247
228
204
247
228
204
250
229
205
254
249
229
253
250
236
252
245
228
240
224
199
226
209
183
219
202
176
239
223
194
245
227
195
245
226
193
252
237
205
254
247
215
255
246
214
245
219
189
255
248
224
255
255
252
255
255
255
255
255
255
255
255
255
255
255
255
255
255
255
255
255
255
255
255
255
255
255
255
255
255
255
255
255
255
255
255
254
255
255
247
255
255
214
255
255
225
255
255
243
255
255
252
255
255
250
255
255
244
255
255
231
255
255
229
255
255
223
255
255
212
255
255
210
255
255
206
255
255
204
255
255
211
255
255
233
255
255
254
255
255
255
255
255
253
255
255
236
255
255
236
255
255
254
255
255
248
255
255
223
255
255
193
255
255
191
255
255
197
255
255
223
255
255
247
255
255
255
255
255
252
255
255
231
255
255
224
255
255
225
255
255
223
255
255
241
255
255
248
255
255
243
255
255
225
255
255
217
255
255
222
255
255
232
255
255
241
255
255
240
255
255
251
255
255
252
255
255
240
255
255
245
255
255
243
255
255
237
255
255
244
255
255
255
255
255
250
255
255
233
255
255
224
255
255
228
255
255
246
255
255
253
255
255
245
255
255
219
255
255
208
255
255
225
255
255
240
255
255
231
255
255
215
255
255
197
250
250
186
254
254
195
255
255
207
255
255
205
255
255
204
255
255
202
255
255
205
255
255
206
254
255
202
251
255
193
254
255
186
253
255
186
251
255
192
255
255
210
250
255
202
250
255
206
255
255
226
255
255
221
255
255
204
255
255
200
255
255
221
255
255
239
255
255
239
255
255
230
255
255
215
255
255
215
255
255
227
255
255
229
255
255
230
255
255
231
255
255
230
255
255
224
255
255
246
255
255
255
255
255
253
255
255
241
255
255
226
255
255
210
255
255
209
255
255
230
255
255
246
255
255
255
255
255
255
255
255
247
255
255
224
255
255
203
255
255
199
255
255
203
255
255
205
255
255
215
255
255
217
255
255
219
255
255
229
255
255
240
255
255
251
255
255
255
255
255
255
255
255
255
255
255
253
255
255
236
255
255
231
255
255
233
255
255
221
255
255
213
254
252
201
255
255
232
255
255
250
255
255
255
255
255
255
255
255
255
255
255
244
255
255
236
255
255
241
255
255
247
255
255
255
255
255
255
255
255
255
255
255
255
255
255
255
255
255
255
255
255
255
255
255
254
255
255
255
255
255
255
255
255
252
255
255
247
255
255
252
255
255
255
255
255
255
255
255
252
255
255
252
255
255
244
255
253
235
255
252
227
255
252
228
255
250
225
255
252
230
243
232
207
198
180
154
203
183
159
225
205
180
222
202
178
249
231
207
228
206
183
221
197
175
245
225
201
246
228
203
250
238
210
255
255
249
255
254
244
253
245
221
247
229
205
222
204
180
209
192
163
214
198
165
231
215
181
240
223
190
246
228
195
253
242
210
255
248
218
253
237
210
255
252
239
255
255
251
255
255
254
255
255
255
255
255
255
255
255
255
255
255
255
255
255
255
255
255
255
255
255
255
255
255
255
255
255
255
255
255
255
255
255
252
255
255
238
255
255
243
255
255
255
255
255
255
255
255
255
255
255
254
255
255
254
255
255
252
255
255
249
255
255
237
255
255
226
255
255
219
255
255
214
255
255
219
255
255
237
255
255
250
255
255
246
255
255
227
255
255
213
255
255
232
255
255
255
255
255
254
255
255
232
255
255
205
255
255
196
255
255
186
255
255
199
255
255
221
255
255
240
255
255
233
255
255
217
254
255
212
255
255
217
255
255
213
254
255
214
255
255
223
255
255
223
255
255
214
255
255
206
255
255
208
255
255
222
255
255
227
255
255
227
255
255
240
255
255
246
255
255
249
255
255
252
255
255
247
255
255
232
255
255
242
255
255
252
255
255
236
255
255
212
255
255
220
255
255
226
255
255
228
255
255
246
255
255
242
255
255
230
255
255
227
255
255
241
255
255
253
255
255
248
255
255
230
255
255
208
254
254
193
255
255
205
255
255
217
255
255
212
255
255
208
255
255
201
255
255
210
255
255
215
253
255
206
245
255
195
248
255
194
243
255
181
245
255
187
254
255
209
255
255
208
249
255
204
255
255
234
255
255
238
255
255
223
255
255
212
255
255
233
255
255
242
255
255
240
255
255
229
255
255
217
255
255
219
255
255
226
255
255
237
255
255
241
255
255
232
255
255
225
255
255
220
255
255
242
255
255
255
255
255
244
255
255
223
255
255
206
255
255
201
255
255
214
255
255
225
255
255
233
255
255
245
255
255
254
255
255
250
255
255
239
255
255
210
255
255
205
255
255
214
255
255
222
255
255
219
255
255
209
255
255
209
255
255
231
255
255
249
255
255
255
255
255
255
255
255
255
255
255
255
255
255
255
255
255
253
255
255
254
255
255
254
255
255
250
255
255
238
252
249
205
255
255
237
255
255
255
255
255
255
255
255
255
255
255
251
255
255
230
255
255
230
255
255
245
255
255
246
255
255
255
255
255
255
255
255
255
255
255
255
255
255
255
255
255
255
255
255
254
255
255
252
255
255
255
255
255
255
255
255
255
255
255
254
255
255
252
255
255
255
255
255
255
255
254
252
254
251
234
255
255
241
255
248
222
255
252
231
254
245
220
255
247
221
254
249
225
247
230
205
236
217
192
224
204
179
218
198
173
215
193
170
227
206
183
212
189
166
219
196
173
236
215
191
243
225
200
253
245
219
255
255
254
248
243
229
232
211
189
221
197
175
210
192
168
195
178
148
206
189
158
219
202
172
233
216
186
250
233
202
253
240
210
255
240
211
253
229
202
255
241
216
255
253
230
255
255
243
255
255
254
255
255
255
255
255
255
255
255
255
255
255
255
255
255
255
255
255
255
255
255
255
255
255
255
255
255
255
255
255
255
255
255
255
255
255
255
255
255
255
255
255
255
255
255
255
255
255
255
255
255
255
255
255
255
255
255
255
255
255
255
255
255
255
255
255
250
255
255
235
255
255
231
255
255
240
255
255
237
255
255
217
255
255
200
255
255
204
255
255
229
255
255
253
255
255
253
255
255
234
255
255
231
255
255
214
255
255
193
255
255
188
255
255
212
255
255
232
255
255
230
255
255
221
255
255
225
255
255
236
255
255
229
254
255
212
255
255
216
255
255
226
255
255
226
255
255
219
255
255
221
255
255
232
255
255
228
255
255
225
255
255
241
255
255
253
255
255
255
255
255
255
255
255
251
255
255
233
255
255
232
255
255
231
254
251
204
255
253
196
255
255
223
255
255
229
255
255
212
255
255
219
255
255
233
255
255
234
255
255
237
255
255
249
255
255
254
255
255
253
255
255
238
255
255
217
255
255
203
255
255
216
255
255
220
255
255
213
255
255
219
251
255
190
254
255
204
255
255
211
251
255
206
243
255
197
249
255
195
253
255
186
255
255
186
254
255
206
253
255
206
245
255
197
255
255
225
255
255
236
255
255
225
255
255
224
255
255
251
255
255
254
255
255
248
255
255
233
255
255
221
255
255
222
255
255
234
255
255
250
255
255
251
255
255
238
255
255
225
255
255
221
255
255
236
255
255
241
255
255
218
255
255
196
255
255
182
255
255
192
255
255
218
255
255
226
255
255
235
255
255
233
255
255
245
255
255
255
255
255
254
255
255
230
255
255
219
255
255
220
255
255
225
255
255
220
255
255
219
255
255
224
255
255
244
255
255
255
255
255
255
255
255
255
255
255
255
255
255
255
255
255
255
255
255
255
255
255
255
255
255
255
255
255
255
255
255
252
255
255
230
250
248
224
255
255
255
255
255
255
255
255
255
255
255
242
255
254
220
255
252
223
255
255
242
255
255
248
255
255
254
255
255
255
255
255
255
255
255
255
255
255
255
255
255
255
255
255
251
255
255
247
255
255
245
255
255
242
254
250
231
254
253
239
255
255
242
255
255
244
255
255
243
253
247
223
254
252
241
255
252
238
245
229
203
244
228
202
246
229
203
251
239
213
252
240
214
246
230
204
226
208
182
197
177
152
208
187
163
198
174
152
201
177
154
207
182
160
216
191
169
228
207
183
243
225
200
243
232
207
255
255
248
245
229
206
242
227
202
233
217
193
224
207
183
193
176
147
200
184
155
211
194
166
233
216
188
245
230
201
252
237
209
255
247
220
255
246
220
255
236
210
255
250
223
255
255
232
255
255
250
255
255
255
255
255
255
255
255
255
255
255
255
255
255
255
255
255
255
255
255
255
255
255
255
255
255
255
255
255
255
255
255
255
255
255
255
255
255
255
255
255
255
255
255
255
255
255
255
255
255
255
255
255
255
255
255
255
255
255
255
255
255
255
255
255
255
255
255
255
255
255
249
255
255
239
255
255
231
255
255
218
255
255
204
255
255
193
255
255
223
255
255
252
255
255
255
255
255
252
255
255
251
255
255
236
255
255
219
255
255
227
255
255
246
255
255
255
255
255
255
255
255
255
255
255
255
255
255
255
255
255
255
255
255
255
255
255
255
255
255
255
255
255
255
255
255
252
255
255
249
255
255
245
255
255
244
255
255
239
255
255
250
255
255
255
255
255
255
255
255
255
255
255
254
255
255
237
255
255
228
255
255
223
250
250
207
254
253
220
255
255
243
255
255
233
255
255
205
255
255
206
255
255
229
255
255
244
255
255
239
255
255
243
255
255
254
255
255
254
255
255
236
255
255
222
255
255
213
255
255
219
255
255
231
255
255
243
255
255
252
240
255
186
244
255
189
252
255
202
251
255
196
246
255
190
254
255
193
255
255
188
255
253
184
255
255
192
253
255
191
242
255
185
252
255
207
255
255
221
255
255
209
255
255
220
255
255
253
255
255
255
255
255
255
255
255
244
255
255
233
255
255
236
255
255
251
255
255
255
255
255
253
255
255
236
255
255
223
255
255
224
255
255
233
255
255
221
255
255
200
255
255
193
255
252
181
255
255
186
255
255
196
255
255
218
255
255
242
255
255
239
255
255
226
255
255
244
255
255
247
255
255
238
255
255
227
255
255
224
254
255
208
254
255
207
255
255
230
255
255
247
255
255
253
255
255
255
255
255
255
255
255
248
255
255
252
255
255
255
255
255
253
255
255
254
255
255
250
255
255
249
255
255
252
255
255
250
255
255
245
251
251
225
255
255
255
255
255
255
255
255
254
255
255
241
255
254
220
255
253
228
255
255
236
255
255
247
255
255
254
255
255
255
255
255
255
255
255
255
255
255
255
255
255
249
255
254
227
255
253
222
255
246
216
242
227
194
246
229
195
254
248
218
254
245
215
255
247
218
255
254
231
255
255
241
255
255
246
251
241
218
239
223
197
222
200
176
221
199
175
231
210
185
240
222
197
244
228
202
214
199
173
194
177
151
191
170
146
190
168
144
194
172
148
207
184
160
236
213
189
229
209
184
237
216
187
238
222
193
255
254
233
254
253
234
245
233
207
218
200
175
203
185
161
170
153
129
193
176
151
210
193
168
229
212
187
247
233
205
253
244
217
255
245
219
255
250
228
255
255
235
255
255
245
255
251
222
255
255
246
255
255
255
255
255
255
255
255
255
255
255
255
255
255
255
255
255
255
255
255
255
255
255
255
255
255
255
255
255
255
255
255
255
255
255
255
255
255
255
255
255
255
255
255
255
255
255
255
255
255
255
255
255
255
255
255
255
255
255
255
255
255
255
255
255
255
255
255
255
255
255
255
255
255
254
255
255
243
255
255
223
255
255
210
255
255
185
255
255
202
255
255
241
255
255
253
255
255
255
255
255
255
255
255
254
255
255
252
255
255
255
255
255
255
255
255
255
255
255
255
255
255
255
255
255
255
255
255
255
255
255
255
255
255
255
255
255
255
255
255
255
255
255
255
255
255
255
255
255
255
255
255
255
255
255
255
255
255
255
255
255
255
255
255
255
255
255
255
255
255
253
255
255
245
255
255
225
255
255
225
255
255
234
255
255
240
255
255
252
255
255
255
255
255
241
255
255
210
255
255
223
255
255
241
255
255
252
255
255
239
255
255
228
255
255
248
255
255
251
255
255
236
255
255
220
255
255
210
255
255
224
255
255
247
255
255
255
255
255
255
245
255
189
245
255
188
250
255
196
252
255
191
251
255
197
255
255
206
255
248
188
255
229
171
255
232
171
255
249
185
254
255
197
254
255
189
255
255
193
255
255
193
255
255
201
255
255
251
255
255
255
255
255
253
255
255
246
255
255
244
255
255
247
255
255
255
255
255
255
255
255
248
255
255
217
255
255
209
255
255
218
255
255
222
255
255
207
255
255
194
255
255
201
255
254
198
255
255
189
255
255
188
255
255
204
255
255
229
255
255
229
255
255
209
255
255
209
255
255
224
255
255
223
255
255
219
255
255
219
250
255
197
252
255
206
255
255
242
255
255
251
255
255
248
255
255
251
255
255
252
255
255
235
255
255
241
255
255
254
255
255
238
255
255
234
255
255
236
255
255
252
255
255
255
255
255
255
254
255
229
253
254
232
255
255
255
255
255
255
255
255
253
255
254
231
255
249
212
255
253
226
255
255
236
255
255
239
255
255
250
255
255
254
255
255
255
255
255
255
255
255
255
255
255
248
255
254
228
255
248
214
251
235
201
250
236
205
255
253
235
255
255
248
255
255
252
255
255
246
255
255
238
255
251
227
255
250
229
250
237
211
250
233
208
231
209
185
214
192
168
213
192
168
220
203
177
231
215
189
219
204
178
193
176
150
179
158
134
182
160
137
196
174
150
205
183
159
237
217
193
242
226
200
235
216
187
250
237
208
255
253
237
248
241
226
239
224
198
219
201
176
208
190
166
195
177
153
192
174
151
205
187
165
225
207
184
236
221
196
251
234
209
254
239
215
255
251
228
255
255
244
254
253
235
255
249
219
255
254
232
255
255
254
255
255
255
255
255
255
255
255
255
255
255
255
255
255
255
255
255
255
255
255
255
255
255
255
255
255
255
255
255
255
255
255
255
255
255
255
255
255
255
255
255
255
255
255
255
255
255
255
255
255
255
255
255
255
255
255
255
255
255
255
255
255
255
255
255
255
255
255
255
255
255
255
255
255
255
255
255
243
255
255
223
255
255
200
255
255
203
255
255
232
255
255
240
255
255
251
255
255
255
255
255
255
255
255
255
255
255
255
255
255
255
255
255
255
255
255
255
255
255
255
255
255
255
255
255
255
255
255
255
255
255
255
255
255
255
255
255
255
255
255
255
255
255
255
255
255
255
255
255
255
255
255
255
255
255
255
255
255
255
255
255
251
255
255
238
255
255
240
255
255
226
255
255
226
255
255
229
255
255
241
255
255
255
255
255
255
255
255
255
255
255
246
255
255
241
255
255
241
255
255
250
255
255
250
255
255
235
255
255
212
255
255
217
255
255
233
255
255
241
255
255
237
255
255
217
255
255
222
255
255
249
255
255
255
255
255
255
255
255
205
255
255
206
254
255
200
254
255
201
255
255
228
255
255
232
255
251
195
255
211
154
255
185
137
255
226
175
255
254
202
255
255
193
255
255
180
255
255
175
255
255
201
255
255
250
255
255
255
255
255
247
255
255
232
255
255
249
255
255
249
255
255
254
255
255
255
255
255
238
255
255
209
255
255
208
255
255
217
255
255
213
255
255
193
255
255
184
255
255
199
255
255
209
255
255
207
255
255
204
255
255
203
255
255
211
255
255
209
255
255
199
255
255
209
255
255
212
255
255
211
255
255
212
255
255
207
253
255
197
254
255
209
255
255
234
255
255
234
255
255
226
255
255
247
255
255
251
255
255
240
255
255
240
255
255
244
255
255
230
255
255
227
255
255
244
255
255
255
255
255
255
255
255
255
254
255
234
255
255
251
255
255
255
255
255
255
255
255
250
255
254
226
255
249
213
255
254
230
255
255
231
255
255
233
255
255
237
255
255
250
255
255
255
255
255
255
255
255
255
255
255
254
255
255
251
255
255
238
255
254
228
255
254
239
255
255
254
255
255
255
255
255
249
255
252
230
252
244
218
249
241
219
248
236
210
242
225
200
254
245
221
253
240
216
228
209
185
211
192
168
208
191
165
198
182
156
195
179
154
188
170
146
188
169
144
205
184
159
197
176
152
205
185
160
220
202
176
232
215
189
217
200
170
236
222
194
254
250
233
251
239
215
248
235
210
205
187
162
188
170
146
194
176
153
160
143
121
179
163
142
207
191
170
231
214
190
249
231
207
254
249
225
255
251
227
249
236
212
252
237
210
248
228
197
255
251
226
255
255
254
255
255
255
255
255
255
255
255
255
255
255
255
255
255
255
255
255
255
255
255
255
255
255
255
255
255
255
255
255
255
255
255
255
255
255
255
255
255
255
255
255
255
255
255
255
255
255
255
255
255
255
255
255
255
255
255
255
255
255
255
255
255
255
255
255
255
255
255
255
255
255
255
255
255
255
255
255
255
255
255
246
255
255
227
255
255
217
255
255
228
255
255
219
255
255
221
255
255
242
255
255
255
255
255
255
255
255
255
255
255
255
255
255
255
255
255
255
255
255
255
255
255
252
255
255
254
255
255
250
255
255
250
255
255
238
255
255
245
255
255
247
255
255
247
255
255
254
255
255
255
255
255
253
255
255
250
255
255
250
254
255
227
254
255
216
255
255
235
255
255
229
255
255
241
255
255
229
255
255
250
255
255
255
255
255
255
255
255
255
255
255
255
255
255
255
255
255
248
255
255
242
255
255
246
255
255
239
255
255
212
254
255
189
255
255
203
255
255
231
255
255
241
255
255
229
255
255
212
255
255
234
255
255
252
255
255
248
255
255
209
255
255
215
254
255
203
255
255
213
255
255
237
255
255
231
255
247
191
255
205
152
255
198
154
255
211
163
255
238
174
255
252
189
255
255
195
255
255
188
255
255
206
255
255
240
255
255
249
255
255
244
255
255
230
255
255
245
255
255
252
255
255
247
255
255
244
255
255
222
255
255
221
255
255
222
255
255
222
255
255
222
255
255
198
242
253
179
240
252
181
255
255
208
255
255
213
255
255
211
255
255
207
255
255
208
255
255
211
255
255
211
255
255
216
254
255
210
252
255
201
252
255
207
255
255
218
255
255
211
255
255
214
255
255
223
254
255
214
254
255
215
255
255
251
255
255
255
255
255
251
255
255
249
255
255
251
255
255
235
255
255
234
255
255
237
255
255
241
255
255
255
255
255
254
251
254
221
255
255
255
255
255
255
255
255
255
255
255
248
255
255
227
255
253
223
255
255
234
255
255
234
255
255
232
255
255
236
255
255
242
255
255
255
255
255
255
255
255
255
255
255
252
255
255
245
255
255
234
255
255
237
255
255
247
255
255
248
255
255
248
255
254
234
254
248
219
248
234
205
238
217
193
218
197
172
226
209
185
254
252
231
255
252
230
251
240
217
231
215
191
207
191
166
181
165
140
169
152
129
185
167
144
197
179
154
189
170
145
196
177
152
226
208
182
244
227
201
226
209
183
224
207
178
240
223
194
232
214
189
227
207
183
224
203
180
200
180
157
187
172
147
197
181
159
176
161
140
184
170
149
212
197
176
219
204
180
233
217
193
250
237
214
253
234
212
239
214
191
246
222
196
243
221
192
255
253
231
255
255
247
255
255
255
255
255
255
255
255
255
255
255
255
255
255
255
255
255
255
255
255
255
255
255
255
255
255
255
255
255
255
255
255
255
255
255
255
255
255
255
255
255
255
255
255
255
255
255
255
255
255
255
255
255
255
255
255
255
255
255
255
255
255
255
255
255
255
255
255
255
255
255
255
255
255
255
255
255
255
255
255
255
255
255
240
255
255
236
255
255
248
255
255
229
255
255
217
255
255
230
255
255
253
255
255
255
255
255
255
255
255
255
255
255
255
255
255
254
255
255
245
255
255
219
255
255
222
255
255
218
255
255
215
255
255
215
255
255
229
255
255
239
255
255
230
255
255
244
255
255
255
255
255
239
255
255
243
255
255
243
240
244
196
255
255
228
255
255
252
255
255
253
255
255
249
255
255
244
255
255
254
255
255
255
255
255
254
255
255
253
255
255
252
255
255
254
255
255
248
255
255
244
255
255
254
255
255
254
255
255
226
253
255
199
255
255
196
255
255
210
255
255
231
255
255
223
255
255
203
255
255
215
255
255
231
255
255
226
255
255
208
255
255
212
251
255
205
253
255
216
255
255
242
255
255
235
255
250
202
255
214
167
255
242
194
255
249
201
255
239
175
255
246
178
255
255
204
255
255
217
255
255
217
255
255
218
255
255
221
255
255
232
255
255
215
255
255
232
255
255
246
255
255
237
255
255
225
255
255
215
255
255
233
255
255
231
255
255
231
255
255
240
255
255
223
239
253
187
232
253
181
255
255
209
255
255
206
255
255
206
255
255
207
253
255
196
254
255
200
255
255
206
253
255
208
245
255
201
241
255
192
239
255
196
254
255
224
255
255
231
255
255
219
255
255
221
255
255
223
255
255
222
255
255
245
255
255
255
255
255
255
255
255
255
255
255
252
255
255
242
255
255
242
255
255
235
255
255
218
255
255
242
255
255
251
253
254
243
255
255
255
255
255
255
255
255
255
255
255
249
255
255
230
255
251
217
255
253
222
255
255
232
255
255
230
255
253
226
255
254
245
255
255
255
255
255
255
255
255
255
255
255
255
255
255
251
255
255
237
255
254
229
255
251
224
255
253
224
255
254
225
255
251
220
254
250
220
252
236
208
239
216
191
224
202
179
245
230
209
247
233
213
255
252
235
255
254
240
243
229
206
220
206
183
189
175
151
175
158
135
179
161
137
198
181
155
195
179
153
211
194
169
236
220
194
245
228
202
219
202
176
217
200
173
228
211
185
224
206
183
212
194
170
219
201
177
224
207
183
210
196
173
208
193
173
168
153
133
182
167
146
203
189
168
221
207
186
252
241
220
254
245
224
253
244
225
252
240
217
243
219
196
254
239
213
255
255
240
255
255
252
255
255
255
255
255
255
255
255
255
255
255
255
255
255
255
255
255
255
255
255
255
255
255
255
255
255
255
255
255
255
255
255
255
255
255
255
255
255
255
255
255
255
255
255
255
255
255
255
255
255
255
255
255
255
255
255
255
255
255
255
255
255
255
255
255
255
255
255
255
255
255
255
255
255
255
255
255
255
255
255
255
255
255
248
255
255
244
255
255
255
255
255
246
255
255
228
255
255
223
255
255
241
255
255
249
255
255
253
255
255
243
255
255
237
255
255
229
255
255
223
255
255
204
255
255
210
255
255
228
255
255
237
255
255
233
255
255
233
255
255
251
255
255
233
255
255
231
255
255
242
255
255
222
255
255
229
251
255
221
246
250
204
255
255
232
255
255
250
255
255
248
255
255
235
255
255
245
255
255
246
255
255
245
255
255
237
255
255
232
255
255
214
255
255
228
255
255
246
255
255
251
255
255
255
255
255
253
255
255
231
255
255
231
255
255
218
255
255
217
255
255
220
254
255
206
255
255
205
255
255
216
255
255
217
255
255
218
255
255
220
251
255
205
243
255
197
248
248
202
255
255
242
255
255
247
255
255
243
255
251
221
255
255
226
255
255
238
255
255
212
255
255
204
255
255
211
255
255
211
255
255
216
255
255
215
255
255
218
247
249
205
254
254
214
255
255
229
255
255
246
255
255
234
255
255
234
255
255
220
255
255
238
255
255
249
255
255
247
255
255
255
255
255
243
252
255
213
249
255
201
253
255
201
247
255
198
255
255
214
254
255
201
253
255
188
255
255
195
255
255
194
252
255
198
243
255
192
240
255
189
244
255
194
252
255
217
255
255
250
255
255
252
255
255
245
255
255
239
255
255
244
255
255
242
255
255
250
255
255
249
255
255
247
255
255
246
255
255
240
255
255
245
255
255
246
255
255
226
255
255
231
253
255
231
253
255
245
255
255
255
255
255
255
255
255
255
255
255
249
255
253
223
255
245
209
254
243
207
255
246
212
255
253
227
255
255
236
255
255
253
255
255
255
255
255
255
255
255
255
255
255
251
255
254
234
254
243
208
246
226
189
250
232
197
253
237
202
255
253
225
255
253
227
255
253
234
255
249
232
253
243
220
245
231
208
250
236
213
250
238
215
255
252
232
255
255
241
245
234
213
235
223
199
198
183
160
172
154
130
176
157
133
185
166
142
194
178
152
215
199
173
231
214
189
230
211
187
221
203
179
213
194
170
222
203
179
234
215
191
224
205
181
221
205
180
230
215
190
234
220
197
217
202
182
156
141
122
176
161
142
215
200
181
246
233
214
248
236
217
254
248
229
254
244
222
233
216
192
247
227
202
255
244
217
255
254
240
255
255
255
255
255
255
255
255
255
255
255
255
255
255
255
255
255
255
255
255
255
255
255
255
255
255
255
255
255
255
255
255
255
255
255
255
255
255
255
255
255
255
255
255
255
255
255
255
255
255
255
255
255
255
255
255
255
255
255
255
255
255
255
255
255
255
255
255
255
255
255
255
255
255
255
255
255
255
255
255
255
255
255
255
255
255
239
255
255
241
255
255
253
255
255
248
255
255
235
255
255
215
255
255
215
255
255
236
255
255
250
255
255
228
255
255
222
255
255
211
255
255
203
255
255
211
255
255
226
255
255
236
255
255
247
255
255
244
255
255
240
255
255
242
255
255
223
255
255
218
255
255
231
255
255
234
249
255
220
238
252
200
255
255
219
255
255
216
255
255
216
255
251
204
255
253
201
255
255
220
255
255
225
255
255
228
255
255
212
255
254
202
255
240
175
255
242
194
255
255
239
255
255
242
255
255
255
255
255
255
255
255
249
255
255
237
255
255
220
255
255
219
254
255
217
252
255
201
255
255
221
255
255
220
255
255
221
255
255
219
255
255
224
250
255
205
244
255
195
240
237
185
255
255
233
255
255
240
255
255
246
253
255
229
250
255
211
243
254
203
250
255
200
255
255
215
255
255
231
252
255
212
247
254
190
254
255
212
255
255
227
255
255
209
255
255
215
255
255
228
255
255
241
255
255
236
255
255
242
255
255
222
255
255
230
255
255
244
255
255
246
255
255
255
255
255
253
255
255
244
255
255
226
250
255
194
247
255
198
255
255
221
255
255
205
255
255
214
255
255
219
255
255
216
255
255
211
254
255
218
253
255
204
254
255
201
255
255
236
255
255
233
255
255
250
255
255
255
255
255
254
255
255
255
255
255
254
255
255
255
255
255
254
255
255
241
255
255
222
255
255
228
255
255
249
255
255
255
255
255
244
255
255
234
254
255
217
254
255
249
255
255
255
255
255
255
255
255
255
255
255
244
255
254
226
255
247
211
255
243
208
255
248
216
255
255
234
255
255
247
255
255
255
255
255
255
255
255
255
255
255
255
255
255
247
255
255
237
255
252
221
255
248
212
250
231
195
255
244
208
255
252
222
255
255
235
255
255
248
255
255
250
255
252
236
253
247
227
252
243
222
249
240
216
254
246
223
255
253
233
252
244
223
234
222
198
209
194
171
170
153
130
179
163
138
194
177
152
205
189
163
220
204
178
232
215
190
228
212
187
238
221
197
231
214
190
225
208
183
234
217
192
231
214
189
233
218
193
214
202
177
235
223
200
235
223
202
163
149
131
188
173
154
220
205
186
232
219
200
251
240
221
254
244
225
239
225
206
240
225
204
254
238
215
255
255
237
255
255
250
255
255
255
255
255
255
255
255
255
255
255
255
255
255
255
255
255
255
255
255
255
255
255
255
255
255
255
255
255
255
255
255
255
255
255
255
255
255
255
255
255
255
255
255
255
255
255
255
255
255
255
255
255
255
255
255
255
255
255
255
255
255
255
255
255
255
255
255
255
255
255
255
255
255
255
255
255
255
255
255
255
255
255
255
255
255
252
255
255
234
255
255
225
255
255
229
255
255
247
255
255
235
253
255
211
255
255
234
255
255
245
255
255
232
255
255
241
255
255
222
255
255
208
255
255
221
255
255
218
255
255
218
255
255
226
255
255
219
255
255
237
255
255
246
255
255
232
255
255
219
255
255
229
255
255
239
230
246
197
247
252
199
255
255
216
255
255
237
255
253
221
239
217
156
249
216
152
253
230
165
255
246
181
255
250
188
255
252
193
255
250
190
252
226
154
251
209
153
255
241
192
255
253
214
255
255
255
255
255
255
255
254
238
255
254
212
254
255
210
253
255
209
255
255
214
255
255
211
255
255
227
255
255
227
255
255
234
255
255
233
252
255
211
250
255
203
251
255
205
255
254
214
255
255
229
246
255
202
255
255
233
249
255
215
239
255
200
239
254
200
243
254
193
255
255
210
255
255
231
255
255
227
250
255
215
249
255
204
255
255
224
255
255
213
254
255
208
255
255
217
255
255
222
255
255
226
255
255
231
255
255
222
255
255
209
255
255
203
255
255
204
255
255
233
255
255
237
255
255
234
255
255
235
255
255
230
255
255
230
255
255
222
255
255
214
255
255
229
255
255
232
255
255
243
255
255
251
255
255
251
255
255
245
255
255
220
255
255
250
255
255
255
255
255
240
255
255
255
255
255
255
255
255
255
255
255
255
255
255
255
255
255
255
255
255
246
255
255
204
255
255
207
255
255
232
255
255
244
255
255
232
255
255
239
251
255
221
255
255
254
255
255
255
255
255
255
255
255
255
255
255
243
255
255
229
255
245
209
255
244
209
255
253
223
255
255
240
255
255
250
255
255
255
255
255
255
255
255
255
255
255
255
255
255
252
255
255
244
255
255
231
255
255
229
255
253
222
255
253
222
255
255
234
255
255
244
255
255
253
255
255
255
255
255
247
255
255
246
255
253
235
255
247
223
241
227
204
255
250
229
252
248
226
218
205
182
213
197
174
177
162
137
199
185
159
206
191
165
210
195
169
223
208
182
227
212
186
231
216
190
242
228
202
244
230
204
244
230
204
236
222
196
237
222
197
242
230
204
230
219
193
218
207
183
235
224
204
190
177
158
177
163
144
204
190
171
231
218
199
250
240
221
235
223
205
219
204
186
254
245
226
255
251
229
255
255
246
255
255
255
255
255
255
255
255
255
255
255
255
255
255
255
255
255
255
255
255
255
255
255
255
255
255
255
255
255
255
255
255
255
255
255
255
255
255
255
255
255
255
255
255
255
255
255
255
255
255
255
255
255
255
255
255
255
255
255
255
255
255
255
255
255
255
255
255
255
255
255
255
255
255
255
255
255
255
255
255
255
255
255
255
255
255
255
255
255
255
255
255
233
255
255
216
255
255
231
255
255
249
255
255
243
253
255
212
255
255
230
255
255
242
255
255
222
255
253
225
255
252
210
255
252
198
255
255
217
255
255
201
255
255
195
255
255
197
255
255
187
255
255
211
255
255
238
255
255
246
255
255
222
253
252
212
233
237
194
207
226
171
249
254
201
255
255
223
255
255
253
255
255
231
250
248
186
241
230
171
225
199
142
250
214
159
238
189
135
247
203
144
253
224
161
255
237
160
254
214
142
255
220
155
254
245
180
255
255
237
254
251
228
231
210
163
233
229
180
254
255
216
248
255
213
255
255
222
255
255
223
255
255
228
255
255
235
255
255
244
255
255
231
219
239
164
248
255
206
243
255
198
255
255
221
249
255
215
216
242
173
247
255
213
252
255
224
230
255
193
250
255
221
251
255
219
254
255
213
254
255
208
250
255
193
255
255
228
255
255
227
255
255
219
255
255
221
249
255
207
254
255
215
239
254
192
247
255
204
246
251
199
253
253
190
255
255
195
255
255
185
255
255
176
255
255
184
255
255
191
255
255
181
255
255
189
255
255
206
255
255
228
255
255
228
255
255
206
255
255
219
255
255
223
255
255
228
255
255
228
255
255
204
255
255
183
255
255
187
255
254
217
255
255
252
255
255
236
255
255
254
255
255
246
255
255
253
255
255
252
255
255
250
255
255
255
255
255
245
255
255
207
255
255
199
255
255
209
255
255
218
255
255
217
255
255
231
255
255
234
255
255
255
255
255
255
255
255
255
255
255
255
255
255
250
255
254
223
255
247
210
255
244
210
255
251
221
255
255
240
255
255
253
255
255
255
255
255
255
255
255
255
255
255
253
255
255
248
255
255
242
255
255
242
255
255
241
255
255
243
255
255
242
255
255
244
255
255
251
255
255
255
255
255
255
255
255
254
255
255
255
255
255
246
254
247
224
246
232
206
251
245
220
251
247
225
206
193
170
193
177
154
180
164
141
208
194
169
209
195
168
210
196
170
218
204
178
219
205
179
229
215
189
239
225
199
243
229
203
241
227
201
244
230
204
237
225
199
239
227
201
235
223
198
217
205
184
212
203
183
180
169
150
171
158
139
191
178
159
232
219
200
248
240
221
205
191
173
227
211
194
255
251
232
255
255
242
255
255
253
255
255
255
255
255
255
255
255
255
255
255
255
255
255
255
255
255
255
255
255
255
255
255
255
255
255
255
255
255
255
255
255
255
255
255
255
255
255
255
255
255
255
255
255
255
255
255
255
255
255
255
255
255
255
255
255
255
255
255
255
255
255
255
255
255
255
255
255
255
255
255
255
255
255
255
255
255
255
255
255
255
255
255
255
255
255
255
255
255
255
255
255
255
255
255
252
255
255
254
255
255
240
255
255
223
255
255
219
255
255
226
255
254
208
255
252
192
255
242
187
255
233
175
255
248
185
255
255
206
255
255
199
255
255
201
255
255
201
255
255
181
255
255
192
255
255
184
255
255
207
249
251
213
216
225
177
217
233
178
214
237
173
230
249
183
255
255
215
255
255
247
255
255
227
255
255
201
255
255
203
254
250
187
250
244
188
222
204
155
231
195
146
226
177
131
228
187
134
255
245
170
255
246
166
247
250
178
251
255
219
245
238
184
222
210
154
213
218
158
248
255
220
243
255
215
247
255
205
255
255
216
255
255
208
255
255
233
255
255
249
255
255
218
174
215
119
234
252
199
252
255
224
250
254
217
232
250
189
209
239
165
235
251
194
242
255
207
230
255
192
247
255
194
254
255
241
254
255
225
255
255
210
252
255
191
242
255
190
253
255
216
255
255
220
254
255
216
237
251
186
249
255
205
233
251
183
233
253
185
225
247
181
236
241
169
255
255
212
255
255
192
255
254
170
255
254
184
255
255
209
255
255
180
255
255
184
255
255
196
255
255
202
255
255
218
255
255
199
255
255
222
255
255
235
255
255
243
255
255
212
255
255
186
255
255
201
255
255
196
255
252
182
255
255
223
255
255
217
255
255
244
255
255
220
255
249
188
255
255
209
255
255
210
255
253
216
255
253
221
255
255
224
255
255
216
255
255
198
255
255
198
255
255
197
255
255
205
255
255
237
255
255
255
255
255
255
255
255
255
255
255
255
255
255
248
255
255
231
255
253
224
255
249
217
255
251
222
255
254
234
255
255
249
255
255
255
255
255
255
255
255
254
255
255
245
255
255
240
255
255
242
255
255
234
255
254
226
255
255
233
255
255
246
255
255
249
255
255
254
255
255
255
255
255
255
255
255
255
255
255
255
255
255
254
255
249
227
253
243
218
250
239
213
254
250
227
209
199
175
159
144
121
178
163
140
210
196
171
205
191
164
210
196
170
216
202
176
209
195
170
219
205
179
227
213
187
236
222
196
233
219
193
238
224
198
233
221
195
231
219
193
224
212
187
211
199
178
199
190
170
166
155
136
151
138
119
187
175
156
241
228
209
223
211
192
205
191
173
245
230
213
255
254
240
255
255
253
255
255
255
255
255
255
255
255
255
255
255
255
255
255
255
255
255
255
255
255
255
255
255
255
255
255
255
255
255
255
255
255
255
255
255
255
255
255
255
255
255
255
255
255
255
255
255
255
255
255
255
255
255
255
255
255
255
255
255
255
255
255
255
255
255
255
255
255
255
255
255
255
255
255
255
255
255
255
255
255
255
255
255
255
255
255
255
255
255
255
255
255
255
255
255
255
255
255
252
255
255
253
255
255
248
255
255
229
255
255
233
255
255
232
255
255
210
254
253
183
255
255
205
255
245
189
255
242
184
255
255
196
255
255
193
255
255
201
255
255
187
255
255
196
255
255
189
255
255
185
255
254
190
250
243
188
241
248
196
224
248
187
237
254
195
251
254
196
255
246
207
255
244
217
255
250
232
255
252
210
252
236
176
252
250
182
225
245
177
224
241
186
253
253
215
232
226
175
211
200
150
250
248
180
254
255
184
244
255
194
251
255
222
249
253
200
251
253
201
228
243
177
242
253
203
222
246
187
221
248
177
242
254
194
246
245
192
252
251
227
255
255
235
255
255
243
160
210
98
208
243
158
246
255
231
253
255
229
234
251
193
214
245
168
236
255
193
229
254
190
229
253
192
247
255
203
241
252
207
247
255
212
254
255
209
254
255
212
240
255
194
253
255
205
244
254
201
230
248
185
231
251
179
229
254
179
237
253
177
237
252
175
243
255
195
252
254
192
255
255
197
255
255
202
255
254
183
255
243
159
255
254
202
255
255
212
255
255
184
255
249
175
254
248
181
255
255
222
255
255
214
255
255
221
255
255
230
255
255
215
255
252
177
255
248
169
255
246
170
255
255
208
254
255
194
254
255
200
255
255
195
255
255
220
255
255
235
255
255
197
255
254
180
255
243
173
255
241
183
255
245
193
255
255
204
255
255
207
255
255
230
255
255
242
255
255
246
255
255
217
255
255
252
255
255
255
255
255
255
255
255
255
255
255
255
255
255
251
255
255
238
255
255
228
255
251
220
255
249
218
255
255
229
255
255
239
255
255
255
255
255
253
255
255
238
255
255
225
255
255
227
255
255
230
255
255
231
255
255
230
255
255
247
255
255
248
255
255
252
255
255
255
255
255
255
255
255
255
255
255
255
255
255
255
255
255
255
255
254
235
253
243
217
253
242
216
253
245
220
237
228
206
157
144
122
173
160
139
206
193
170
202
189
164
213
199
173
209
196
170
212
200
174
204
191
165
210
197
171
216
203
176
222
208
182
234
221
194
238
226
200
226
216
190
221
211
188
182
171
151
178
170
151
150
140
122
125
114
96
197
185
166
236
223
205
203
190
172
223
210
192
251
241
223
255
255
247
255
255
254
255
255
255
255
255
255
255
255
255
255
255
255
255
255
255
255
255
255
255
255
255
255
255
255
255
255
255
255
255
255
255
255
255
255
255
255
255
255
255
255
255
255
255
255
255
255
255
255
255
255
255
255
255
255
255
255
255
255
255
255
255
255
255
255
255
255
255
255
255
255
255
255
255
255
255
255
255
255
255
255
255
255
255
255
255
255
255
255
255
255
255
255
255
255
255
255
253
255
234
254
254
206
255
252
204
255
237
175
255
251
211
255
255
243
255
255
231
254
255
198
255
253
210
251
211
166
255
238
179
255
255
191
255
255
178
255
255
170
255
246
160
255
254
200
255
255
223
255
252
195
255
251
193
255
255
241
250
252
208
234
248
181
252
255
205
252
235
187
233
190
155
217
171
137
223
196
149
230
223
166
246
246
200
251
255
207
226
249
183
248
254
230
253
255
238
239
249
189
244
250
199
235
245
182
251
255
199
254
255
208
255
255
222
255
255
228
255
255
218
247
254
209
227
250
190
206
234
164
221
247
178
236
254
188
235
239
182
248
253
211
255
255
215
255
255
235
185
207
105
187
233
138
228
254
193
232
250
191
241
254
188
212
245
172
235
255
189
234
255
189
251
255
225
252
255
222
230
251
192
254
255
224
255
249
203
255
252
209
253
255
211
255
255
213
236
248
175
213
230
161
230
251
185
224
253
183
221
249
177
239
249
179
254
255
193
255
239
173
255
244
176
255
255
192
255
250
168
255
242
156
255
238
154
255
255
216
252
255
206
246
246
181
246
249
189
255
255
216
254
250
204
255
255
213
255
255
209
255
254
188
255
251
165
255
251
172
255
255
203
255
255
246
251
254
207
250
253
184
255
255
204
253
255
171
255
255
232
255
255
211
255
244
185
253
201
139
241
208
130
251
199
133
254
225
160
255
249
198
255
253
225
255
241
198
255
238
180
255
254
212
255
255
255
255
255
255
255
255
255
255
255
255
255
255
255
255
255
250
255
255
239
255
255
234
255
255
235
255
251
221
255
253
224
255
255
238
255
255
255
255
255
254
255
255
241
255
255
241
255
255
237
255
255
236
255
255
229
255
255
233
255
255
247
255
255
243
255
255
250
255
255
255
255
255
255
255
255
255
255
255
255
255
255
255
255
255
255
255
254
241
253
245
221
253
242
217
248
239
214
227
218
196
180
168
146
178
165
145
199
186
165
204
192
168
212
199
174
211
201
174
210
201
173
202
190
164
203
191
165
208
195
169
212
198
172
219
205
180
235
223
198
235
225
202
212
203
182
167
157
137
160
152
134
125
115
98
123
112
95
200
189
168
237
225
207
203
191
173
231
219
201
254
248
233
255
255
254
255
255
255
255
255
255
255
255
255
255
255
255
255
255
255
255
255
255
255
255
255
255
255
255
255
255
255
255
255
255
255
255
255
255
255
255
255
255
255
255
255
255
255
255
255
255
255
255
255
255
255
255
255
255
255
255
255
255
255
255
255
255
255
255
255
255
255
255
255
255
255
255
255
255
255
255
255
255
255
255
255
255
255
255
255
255
255
255
255
255
255
255
255
255
255
255
255
255
255
255
255
247
252
254
203
252
239
181
241
177
124
255
230
179
255
255
238
255
255
222
255
247
206
251
211
166
251
238
189
247
252
183
255
254
172
255
254
165
255
238
151
254
216
143
253
237
172
254
243
193
255
254
208
255
255
204
255
254
217
255
253
188
255
254
195
253
248
200
215
184
144
230
201
159
220
202
148
232
232
176
228
236
178
239
247
194
247
252
205
238
247
188
255
255
239
253
255
229
250
255
208
238
250
205
228
244
184
250
255
210
255
255
224
255
255
223
255
255
229
251
252
196
251
252
201
244
252
202
209
231
175
211
233
168
251
248
195
244
245
191
238
252
198
255
255
206
255
255
219
238
246
175
184
225
126
221
245
176
214
237
185
195
235
139
205
245
169
226
249
178
252
255
209
254
255
232
254
255
222
222
250
177
247
255
207
252
243
189
251
221
163
242
238
182
252
255
204
244
246
174
229
230
161
250
253
194
251
255
207
226
243
184
250
254
206
255
255
205
255
252
196
255
255
225
255
255
216
251
243
158
255
214
130
254
238
159
254
255
195
245
255
193
254
255
213
255
255
213
255
254
192
242
241
198
252
253
219
255
255
224
250
253
174
255
255
191
255
255
193
255
255
203
255
255
254
255
255
223
251
254
184
255
255
200
248
255
177
248
255
196
255
254
203
255
236
176
254
198
146
243
216
146
235
199
132
254
234
172
255
252
187
255
224
161
255
211
152
255
223
168
255
255
226
255
255
255
255
255
255
255
255
255
255
255
255
255
255
254
255
255
246
255
255
234
255
255
231
255
254
228
255
252
222
255
250
219
255
254
240
255
255
255
255
255
252
255
255
241
255
255
234
255
255
228
255
254
222
255
250
213
255
250
216
255
255
238
255
255
239
255
255
249
255
255
255
255
255
255
255
255
255
255
255
255
255
255
255
255
255
255
255
255
249
255
254
243
254
247
226
243
234
211
209
200
178
174
163
141
174
161
141
186
174
152
196
184
160
205
194
172
202
195
166
213
206
175
203
191
165
203
191
165
208
194
170
208
193
169
217
202
179
219
207
185
235
224
204
201
193
173
152
142
122
136
128
110
102
93
77
127
117
100
210
199
178
226
217
198
216
208
189
244
235
216
255
253
244
255
255
251
255
255
255
255
255
255
255
255
255
255
255
255
255
255
255
255
255
255
255
255
255
255
255
255
255
255
255
255
255
255
255
255
255
255
255
255
255
255
255
255
255
255
255
255
255
255
255
255
255
255
255
255
255
255
255
255
255
255
255
255
255
255
255
255
255
255
255
255
255
255
255
255
255
255
255
255
255
255
255
255
255
255
255
255
255
255
255
255
255
255
255
255
255
255
255
255
255
255
255
255
255
249
241
247
193
226
214
151
253
226
153
253
245
180
255
255
224
255
240
191
255
222
169
249
239
185
228
237
180
216
231
165
241
240
174
255
255
203
253
239
183
249
224
171
235
236
172
254
247
181
255
255
205
255
254
194
255
251
194
255
247
163
255
255
194
236
239
172
232
211
154
254
247
199
254
252
224
255
255
241
253
255
221
220
236
160
214
230
153
237
247
185
255
255
232
255
255
234
255
255
222
222
239
189
230
241
190
254
255
239
255
255
242
253
255
217
252
255
216
240
247
175
244
241
179
255
255
241
233
244
192
241
243
192
255
251
206
240
250
196
249
255
213
254
255
213
255
255
226
254
255
222
210
238
152
213
244
170
218
240
192
199
230
160
195
236
160
213
245
172
247
255
209
252
255
215
245
254
203
207
238
153
233
254
183
248
255
204
244
254
211
214
227
159
233
251
187
238
251
185
235
224
167
254
240
184
250
254
198
240
250
195
244
246
180
255
249
202
255
255
196
237
251
190
228
252
178
231
253
184
248
246
181
253
255
179
244
254
190
253
252
197
252
252
197
255
255
205
254
254
188
244
241
195
251
252
243
242
253
217
247
253
207
255
255
202
255
255
204
255
255
206
255
255
227
252
255
214
239
248
167
246
255
182
249
255
187
224
254
156
253
249
183
255
225
155
251
226
167
254
242
184
254
249
180
255
253
196
255
237
163
255
236
174
255
212
159
255
229
181
255
255
227
255
255
255
255
255
255
255
255
255
255
255
255
255
255
255
255
255
245
255
255
231
255
254
222
255
252
221
255
255
230
255
255
229
255
255
244
255
255
254
255
255
242
255
255
220
255
251
212
255
249
213
255
252
215
255
249
212
255
254
228
255
255
239
255
255
249
255
255
254
255
255
255
255
255
255
255
255
255
255
255
255
255
255
255
255
255
255
255
255
255
255
255
251
255
255
242
245
238
216
179
171
149
161
153
130
171
161
140
173
162
142
176
165
145
195
186
166
198
191
164
206
199
169
196
188
160
202
190
165
201
188
163
204
190
165
207
193
168
205
194
171
224
215
194
198
190
171
142
133
116
104
95
78
88
79
63
131
123
106
208
200
180
222
210
194
236
225
208
250
241
224
255
255
242
255
255
245
255
255
255
255
255
255
255
255
255
255
255
255
255
255
255
255
255
255
255
255
255
255
255
255
255
255
255
255
255
255
255
255
255
255
255
255
255
255
255
255
255
255
255
255
255
255
255
255
255
255
255
255
255
255
255
255
255
255
255
255
255
255
255
255
255
255
255
255
255
255
255
255
255
255
255
255
255
255
255
255
255
255
255
255
255
255
255
255
255
255
255
255
255
255
255
255
255
255
255
255
255
233
252
254
219
211
224
174
250
251
190
254
255
201
255
239
185
255
241
197
255
255
242
254
254
197
232
238
169
227
234
180
236
232
208
255
255
248
244
243
193
253
254
199
250
255
204
255
255
204
255
255
186
255
252
187
255
244
192
255
224
151
255
255
216
253
250
171
255
244
184
255
247
194
255
254
236
255
255
233
234
246
196
215
231
165
246
253
216
238
253
195
255
255
232
255
255
212
252
252
212
213
231
171
236
240
205
255
255
255
255
255
240
251
255
210
233
246
190
238
246
167
237
242
170
254
254
215
255
255
215
251
253
221
253
254
206
223
240
177
252
253
227
247
254
199
251
254
196
249
255
234
215
244
176
218
245
170
209
234
174
204
232
166
201
238
153
203
234
162
239
253
206
254
255
207
251
254
214
211
236
158
223
251
167
250
255
202
224
244
185
181
197
130
236
250
194
245
255
207
232
245
204
248
254
203
251
255
205
243
252
188
225
249
153
255
247
179
255
254
181
251
255
199
252
255
178
238
252
168
237
254
178
251
255
199
254
254
201
255
254
198
255
254
208
247
246
203
255
255
240
250
245
225
243
245
218
233
254
206
254
255
221
253
255
218
255
255
237
255
255
224
230
217
181
245
240
190
221
228
146
249
255
177
250
255
205
203
248
135
239
255
177
254
250
184
255
254
214
255
255
218
255
248
168
255
252
176
255
253
202
255
244
184
255
216
150
255
219
145
255
255
201
255
255
254
255
255
255
255
255
255
255
255
255
255
255
253
255
255
245
255
255
231
255
255
223
255
255
225
255
255
230
255
255
237
255
255
248
255
255
250
255
255
228
255
253
215
255
250
213
255
253
214
255
252
216
255
248
211
255
252
224
255
255
246
255
255
245
255
255
248
255
255
255
255
255
255
255
255
255
255
255
255
255
255
255
255
255
255
255
255
255
255
255
255
255
255
254
247
243
227
175
167
146
152
144
123
165
155
135
164
153
133
172
161
141
175
167
146
188
180
156
188
180
154
188
180
152
189
178
153
192
181
157
195
184
160
199
187
163
197
188
167
207
200
181
185
179
161
136
127
110
96
87
70
78
69
53
136
128
110
202
194
174
233
224
207
248
239
222
251
242
225
255
252
235
255
255
249
255
255
255
255
255
255
255
255
255
255
255
255
255
255
255
255
255
255
255
255
255
255
255
255
255
255
255
255
255
255
255
255
255
255
255
255
255
255
255
255
255
255
255
255
255
255
255
255
255
255
255
255
255
255
255
255
255
255
255
255
255
255
255
255
255
255
255
255
255
255
255
255
255
255
255
255
255
255
255
255
255
255
255
255
255
255
255
255
255
255
255
255
255
255
255
255
255
255
255
255
255
250
255
255
246
248
252
230
253
254
201
255
254
201
255
253
224
255
252
212
255
253
243
251
253
224
234
243
165
253
254
204
254
254
236
255
255
255
255
255
250
254
255
229
255
255
218
255
255
207
255
255
177
255
255
187
248
235
183
252
183
133
255
226
167
255
250
168
255
234
184
255
215
158
255
232
184
242
248
213
213
234
167
253
252
218
255
255
239
243
254
191
255
255
219
255
255
219
236
243
194
209
228
158
238
245
206
255
255
255
255
255
247
254
255
237
208
217
166
221
232
170
218
228
156
249
251
187
233
248
189
225
244
180
237
253
197
231
232
169
254
239
184
249
254
193
251
255
212
249
255
234
215
247
175
253
255
243
233
250
206
211
240
167
211
243
162
215
241
174
240
253
208
253
255
215
253
255
240
223
233
187
198
220
146
231
242
170
197
220
148
172
195
132
212
238
164
245
251
214
233
251
207
243
252
200
242
248
187
245
247
183
224
251
156
252
220
154
255
248
191
252
255
219
233
245
168
253
253
192
233
253
163
252
255
196
254
254
182
255
255
213
249
250
196
231
235
178
249
249
208
246
246
215
235
244
202
229
251
193
250
255
212
246
255
193
255
255
238
238
221
156
211
180
127
244
253
200
242
249
196
250
255
188
254
255
233
197
244
132
228
251
173
234
249
187
253
254
211
255
255
231
255
251
187
252
251
197
255
251
211
255
230
167
255
223
135
255
244
162
255
255
191
255
255
250
255
255
255
255
255
255
255
254
244
254
251
238
255
255
240
255
255
233
255
255
226
255
254
223
255
255
230
255
255
234
255
255
237
255
255
245
255
255
233
255
252
213
255
245
205
255
238
199
255
237
200
255
246
212
255
254
227
255
255
230
255
255
233
255
255
245
255
255
254
255
255
255
255
255
255
255
255
255
255
255
255
255
255
255
255
255
255
255
255
255
255
255
255
252
251
242
186
178
159
143
135
116
148
139
119
153
143
123
160
149
130
153
145
124
168
160
140
177
169
147
186
180
152
178
167
143
178
167
146
191
181
159
196
185
164
198
191
172
192
187
168
174
169
152
132
123
106
98
88
71
79
69
53
142
133
116
209
201
182
244
237
219
253
247
229
251
245
227
255
253
236
255
255
253
255
255
255
255
255
255
255
255
255
255
255
255
255
255
255
255
255
255
255
255
255
255
255
255
255
255
255
255
255
255
255
255
255
255
255
255
255
255
255
255
255
255
255
255
255
255
255
255
255
255
255
255
255
255
255
255
255
255
255
255
255
255
255
255
255
255
255
255
255
255
255
255
255
255
255
255
255
255
255
255
255
255
255
255
255
255
255
255
255
255
255
255
255
255
255
255
255
255
255
255
255
254
255
255
250
255
255
252
255
255
217
252
253
179
255
255
229
255
248
192
249
244
210
250
252
243
226
236
158
252
255
202
255
255
203
255
255
228
255
255
242
255
255
248
252
255
206
255
254
200
255
255
200
255
254
182
240
230
174
232
183
133
255
219
157
250
249
177
255
255
235
255
242
212
255
223
171
229
235
176
242
244
200
248
249
205
253
255
212
236
245
180
252
252
202
255
255
247
246
251
229
198
221
154
245
254
215
254
255
247
245
251
219
223
235
181
227
230
174
234
240
181
211
217
150
226
239
169
220
239
185
239
251
204
231
250
185
211
213
151
228
207
140
255
247
196
254
250
209
238
255
197
205
237
153
240
250
216
245
255
224
243
255
212
247
255
213
251
254
227
253
255
241
252
255
230
245
254
223
222
231
190
199
210
149
198
207
148
165
177
129
228
243
201
205
235
166
222
240
178
207
236
173
240
253
213
227
248
183
240
249
205
224
250
171
228
225
155
237
243
187
239
255
206
211
234
158
233
241
184
233
253
176
237
255
169
239
250
177
240
247
194
226
239
187
237
251
204
231
246
179
248
250
185
226
237
169
225
243
160
247
233
182
242
227
179
240
233
204
230
225
162
228
238
171
229
252
192
241
252
208
245
255
198
251
255
218
189
231
136
231
248
192
228
238
184
232
243
182
254
255
232
255
255
229
235
248
200
253
254
201
252
219
151
252
235
148
255
252
171
255
252
201
255
255
253
255
255
255
254
252
246
255
255
254
255
254
244
252
248
225
255
255
239
255
254
228
255
250
219
255
253
221
255
255
234
255
255
245
255
255
252
255
255
239
255
253
214
255
243
202
255
245
206
255
252
216
255
255
228
255
254
221
255
250
215
255
253
221
255
255
248
255
255
255
255
255
255
255
255
255
255
255
255
255
255
255
255
255
255
255
255
255
255
255
255
255
255
255
254
252
247
194
186
167
133
125
106
131
123
104
137
129
111
153
145
126
146
138
119
155
147
128
162
155
135
171
168
141
168
162
138
172
163
145
173
165
146
193
185
166
187
180
162
189
182
164
157
150
132
126
118
101
105
94
78
90
78
62
153
143
127
219
212
194
249
243
226
255
251
234
255
252
235
255
253
238
255
255
255
255
255
255
255
255
255
255
255
255
255
255
255
255
255
255
255
255
255
255
255
255
255
255
255
255
255
255
255
255
255
255
255
255
255
255
255
255
255
255
255
255
255
255
255
255
255
255
255
255
255
255
255
255
255
255
255
255
255
255
255
255
255
255
255
255
255
255
255
255
255
255
255
255
255
255
255
255
255
255
255
255
255
255
255
255
255
255
255
255
255
255
255
255
255
255
255
255
255
255
255
255
254
255
255
255
255
255
253
255
255
231
255
250
194
254
244
188
255
255
213
255
255
203
255
255
241
250
250
187
245
254
189
250
254
180
255
255
181
255
255
205
252
253
221
252
254
196
247
241
170
255
255
205
255
255
229
247
232
173
234
212
143
246
233
163
253
240
180
250
252
180
255
245
216
255
252
229
254
253
222
246
246
209
253
254
221
254
255
227
242
238
198
255
254
229
255
255
230
249
252
229
207
221
170
242
249
197
241
247
195
215
236
165
234
246
193
246
247
206
252
255
193
252
254
193
245
251
204
232
243
197
193
209
150
229
243
185
225
226
162
237
234
164
249
230
176
255
228
194
231
251
189
212
244
159
229
246
201
247
255
222
241
254
210
246
253
211
253
254
222
250
255
223
248
253
241
250
255
237
216
227
187
208
212
168
167
172
130
145
157
113
201
219
182
240
250
218
209
228
170
201
230
161
226
248
199
217
240
180
203
225
171
224
251
184
200
232
163
204
236
166
226
254
193
192
221
149
221
241
175
221
249
174
234
254
163
249
254
195
250
255
226
218
232
180
220
241
180
228
253
174
232
246
187
191
209
143
212
222
138
206
156
107
190
121
87
243
222
187
254
255
241
219
246
188
192
219
158
223
249
179
223
251
185
244
255
176
182
220
122
231
246
195
218
236
181
228
241
188
249
252
223
253
255
245
223
241
192
248
253
212
246
244
201
248
247
194
255
255
204
255
255
224
255
255
255
255
255
255
255
255
252
255
255
251
255
255
247
247
245
225
249
245
220
255
254
228
255
248
216
255
246
213
255
254
230
255
255
250
255
255
243
255
253
222
255
248
208
255
245
204
255
251
212
255
254
224
255
255
231
255
254
224
255
254
226
255
255
243
255
255
252
255
255
255
255
255
255
255
255
255
255
255
255
255
255
255
255
255
255
255
255
255
255
255
255
255
255
255
255
255
252
213
206
189
119
111
93
129
121
102
122
114
95
146
138
120
131
123
104
142
134
115
149
139
121
144
137
113
173
170
143
164
156
136
162
154
135
171
163
145
184
177
159
166
159
142
147
140
122
118
110
92
107
96
80
106
94
78
168
159
142
228
220
203
254
248
231
255
253
235
255
252
234
255
254
242
255
255
255
255
255
255
255
255
255
255
255
255
255
255
255
255
255
255
255
255
255
255
255
255
255
255
255
255
255
255
255
255
255
255
255
255
255
255
255
255
255
255
255
255
255
255
255
255
255
255
255
255
255
255
255
255
255
255
255
255
255
255
255
255
255
255
255
255
255
255
255
255
255
255
255
255
255
255
255
255
255
255
255
255
255
255
255
255
255
255
255
255
255
255
255
255
255
255
255
255
255
255
255
255
255
255
255
255
255
255
241
255
255
200
255
251
204
255
244
195
255
252
209
255
255
206
255
255
245
253
255
217
252
255
217
254
255
221
252
253
206
254
254
205
238
234
182
241
239
172
251
253
181
254
254
231
255
255
237
255
255
220
255
253
192
250
247
198
255
248
206
245
252
183
255
255
215
254
252
226
255
255
252
255
255
250
255
255
255
255
255
250
255
255
243
255
255
247
255
255
232
255
255
245
241
250
201
252
254
243
254
254
238
241
246
204
247
250
222
255
255
253
251
254
218
250
254
200
255
254
240
253
253
230
247
248
211
246
248
196
238
237
179
225
225
160
203
181
132
238
171
141
234
248
197
189
219
143
201
227
171
237
252
214
229
252
197
251
255
231
247
255
211
241
255
211
214
240
193
244
252
230
231
239
200
200
202
148
153
163
123
203
212
165
183
208
157
238
246
214
209
215
165
229
246
180
236
245
191
247
251
198
209
227
157
216
252
177
202
230
161
197
224
153
214
241
180
182
213
144
206
225
166
216
240
173
205
231
145
239
253
178
239
250
201
226
236
182
196
217
145
215
238
164
210
230
163
194
216
164
211
233
164
219
195
132
172
118
76
211
177
131
233
239
196
238
246
205
221
233
174
216
244
173
202
236
165
222
247
164
171
207
107
220
240
176
212
236
173
235
239
189
246
251
206
222
243
185
214
239
174
234
248
192
254
254
246
254
255
246
255
255
212
251
255
226
254
255
247
255
255
255
255
255
250
255
255
245
246
247
228
250
249
221
252
244
213
250
241
209
251
236
203
253
238
204
247
236
205
255
255
239
255
255
240
255
251
215
253
236
197
252
233
194
255
247
207
255
250
216
255
254
223
255
255
230
255
255
247
255
255
253
255
255
254
255
255
251
255
255
255
255
255
255
255
255
255
255
255
255
255
255
255
255
255
255
255
255
255
255
255
255
255
255
254
230
224
207
116
108
90
128
118
100
122
113
94
128
118
100
119
109
91
129
119
101
129
118
101
128
120
98
162
160
132
151
145
123
148
141
122
146
139
121
164
157
139
145
138
120
126
118
101
119
109
91
114
103
85
128
118
100
182
174
156
230
222
204
249
242
224
253
248
229
255
254
238
255
255
250
255
255
255
255
255
255
255
255
255
255
255
255
255
255
255
255
255
255
255
255
255
255
255
255
255
255
255
255
255
255
255
255
255
255
255
255
255
255
255
255
255
255
255
255
255
255
255
255
255
255
255
255
255
255
255
255
255
255
255
255
255
255
255
255
255
255
255
255
255
255
255
255
255
255
255
255
255
255
255
255
255
255
255
255
255
255
255
255
255
255
255
255
255
255
255
255
255
255
255
255
255
255
255
255
255
255
255
255
255
255
221
255
255
187
255
235
164
255
231
166
255
252
205
255
255
224
255
255
240
255
255
232
255
255
253
253
255
217
247
248
197
253
253
212
240
239
195
237
233
165
239
238
194
255
255
242
255
251
177
255
255
178
255
240
150
255
248
198
255
255
206
250
252
202
244
249
203
255
255
249
255
255
245
250
251
239
255
255
247
255
255
254
254
255
250
252
255
207
255
255
241
254
255
219
230
250
170
247
246
208
244
236
203
254
246
200
255
254
247
255
255
227
255
255
214
255
255
210
255
251
199
255
255
232
242
239
191
239
245
171
223
235
176
225
241
166
232
216
158
240
190
158
249
255
231
218
228
192
186
208
140
247
252
236
236
252
215
235
254
193
241
255
203
233
254
185
234
253
201
216
241
183
254
255
210
249
249
219
228
227
190
243
242
189
237
237
186
241
237
173
228
233
169
245
246
188
255
255
191
255
255
193
252
253
202
227
253
173
231
247
195
203
221
161
204
228
168
192
219
154
219
229
184
226
237
182
225
240
181
221
243
173
224
242
183
238
250
203
197
213
146
208
227
160
219
231
191
165
193
140
223
239
181
208
226
144
209
207
137
193
187
126
205
214
156
177
200
144
226
247
177
191
220
155
165
194
131
173
204
131
165
200
113
220
243
167
198
227
166
238
251
201
255
255
222
232
245
202
166
202
115
195
226
135
236
245
194
255
255
237
248
251
203
232
254
208
248
254
232
255
255
252
255
255
236
255
255
230
252
252
225
202
200
165
221
222
184
227
214
181
230
219
185
235
219
185
248
235
203
255
253
235
255
255
245
255
254
227
255
251
214
255
246
208
254
239
200
253
237
201
255
251
219
255
255
234
255
255
241
255
255
246
255
255
252
255
255
252
255
255
254
255
255
255
255
255
255
255
255
255
255
255
255
255
255
255
255
255
255
255
255
255
255
255
252
230
224
206
143
133
115
117
106
88
124
113
95
121
110
92
116
105
87
109
98
80
115
105
87
113
104
85
138
137
110
135
131
106
133
125
107
132
124
108
146
139
121
143
136
119
98
90
73
120
108
91
132
121
99
154
145
124
186
178
159
225
217
198
240
232
213
254
251
233
255
255
238
255
254
247
255
255
255
255
255
255
255
255
255
255
255
255
255
255
255
255
255
255
255
255
255
255
255
255
255
255
255
255
255
255
255
255
255
255
255
255
255
255
255
255
255
255
255
255
255
255
255
255
255
255
255
255
255
255
255
255
255
255
255
255
255
255
255
255
255
255
255
255
255
255
255
255
255
255
255
255
255
255
255
255
255
255
255
255
255
255
255
255
255
255
255
255
255
255
255
255
255
255
255
255
255
255
255
255
255
255
255
255
255
255
235
255
255
227
253
242
177
254
252
218
255
255
237
255
255
244
255
253
225
255
255
255
255
255
255
255
255
241
244
249
203
253
252
220
255
255
232
250
250
186
243
246
203
255
255
248
255
255
231
255
255
170
255
243
158
255
246
168
255
255
190
248
251
211
232
249
184
254
255
239
255
255
240
255
255
241
244
252
211
251
254
233
250
254
230
233
245
179
250
250
232
251
254
234
247
255
190
255
255
236
255
255
231
255
255
225
253
253
230
248
247
189
253
254
205
243
253
198
249
247
217
248
254
226
227
214
153
232
238
173
222
234
168
229
250
171
249
243
191
225
161
130
225
248
189
238
239
204
214
236
163
234
253
186
244
254
220
216
247
168
231
252
187
215
238
168
218
243
188
236
249
211
249
248
189
254
253
220
255
255
241
255
255
224
254
249
188
255
249
186
248
246
196
243
243
194
255
255
183
255
255
183
255
255
189
248
255
189
212
233
177
212
228
175
246
252
199
243
249
193
230
231
190
236
235
182
222
234
176
169
191
133
157
171
118
211
227
161
222
241
163
191
214
153
241
245
226
210
223
165
219
242
171
215
237
165
181
188
116
179
164
103
189
199
139
185
219
154
215
243
155
188
210
152
207
237
169
179
212
134
180
206
134
243
250
191
243
253
212
237
252
209
236
247
195
237
245
210
148
164
96
180
205
130
198
222
142
225
231
194
195
223
162
198
225
167
231
242
204
255
255
246
255
255
226
255
255
218
255
255
219
250
249
213
171
173
133
198
199
163
213
201
170
236
220
186
231
215
183
250
243
217
255
254
234
255
254
229
255
251
215
254
238
200
254
234
195
255
250
215
255
253
224
255
253
224
255
255
230
255
255
242
255
255
245
255
255
247
255
255
255
255
255
255
255
255
255
255
255
255
255
255
255
255
255
255
255
255
255
255
255
255
255
255
252
214
208
190
150
140
122
113
102
84
121
110
92
118
107
89
113
102
84
99
88
70
100
92
73
96
85
69
116
115
85
136
134
104
128
117
99
117
106
91
123
116
98
134
127
109
111
103
87
122
110
92
154
145
117
155
146
124
188
180
161
221
213
194
245
236
218
255
252
235
255
252
234
255
253
234
255
255
255
255
255
255
255
255
255
255
255
255
255
255
255
255
255
255
255
255
255
255
255
255
255
255
255
255
255
255
255
255
255
255
255
255
255
255
255
255
255
255
255
255
255
255
255
255
255
255
255
255
255
255
255
255
255
255
255
255
255
255
255
255
255
255
255
255
255
255
255
255
255
255
255
255
255
255
255
255
255
255
255
255
255
255
255
255
255
255
255
255
255
255
255
255
255
255
255
255
255
255
255
255
255
255
255
253
255
255
240
255
255
251
253
252
241
250
252
231
255
255
245
255
255
238
255
251
216
255
255
253
246
252
220
255
255
237
255
255
226
255
254
223
255
255
243
254
255
213
253
255
236
251
255
225
255
255
239
252
255
190
252
240
160
255
240
172
252
254
193
253
255
224
244
254
190
250
254
212
254
255
239
255
255
229
241
252
216
244
253
224
238
253
196
253
255
232
253
254
228
250
255
227
251
255
230
255
255
221
254
255
246
253
255
227
254
255
237
253
253
238
254
255
237
243
250
214
251
254
226
251
254
219
247
246
219
235
239
188
232
231
158
249
251
197
239
243
212
225
224
169
231
253
202
229
239
175
223
245
175
222
249
159
238
254
191
214
238
180
221
249
174
213
229
166
219
228
167
241
244
199
242
246
222
245
241
156
255
253
193
255
253
200
251
236
164
255
250
177
244
246
184
230
224
179
255
253
212
254
253
162
255
252
175
255
254
203
228
234
177
230
240
207
238
245
210
243
251
178
245
248
204
240
236
186
230
239
187
219
234
203
184
198
155
223
234
178
228
250
189
239
250
207
243
248
228
243
248
203
241
255
185
246
253
221
226
245
195
196
194
142
174
189
130
189
218
151
222
243
166
215
230
171
227
242
193
187
212
144
190
218
152
247
250
211
250
254
221
255
255
218
247
251
197
217
228
177
156
156
110
207
221
154
212
240
159
174
201
145
196
216
162
188
211
148
225
236
189
255
255
242
255
255
223
255
254
216
255
253
217
255
255
223
250
249
215
172
173
138
175
179
148
219
211
176
243
227
195
251
241
214
255
255
238
255
255
236
255
251
218
255
251
217
255
249
212
255
255
227
255
249
213
255
242
206
255
255
225
255
255
234
255
255
235
255
255
248
255
255
254
255
255
254
255
255
255
255
255
255
255
255
255
255
255
255
255
255
255
255
255
255
255
255
248
212
206
185
143
135
117
118
108
91
111
99
83
106
94
78
108
96
80
101
89
72
96
85
66
102
90
75
100
91
68
139
137
106
113
102
83
120
107
88
117
107
86
140
128
109
136
122
102
121
111
95
163
156
125
165
153
135
190
179
161
215
205
187
238
227
205
247
235
213
254
245
223
255
251
232
255
255
252
255
255
255
255
255
255
255
255
255
255
255
255
255
255
255
255
255
255
255
255
255
255
255
255
255
255
255
255
255
255
255
255
255
255
255
255
255
255
255
255
255
255
255
255
255
255
255
255
255
255
255
255
255
255
255
255
255
255
255
255
255
255
255
255
255
255
255
255
255
255
255
255
255
255
255
255
255
255
255
255
255
255
255
255
255
255
255
255
255
255
255
255
255
255
255
255
255
255
255
255
255
251
255
255
250
255
255
245
255
255
255
255
255
236
255
255
220
255
255
242
255
255
239
255
255
236
250
253
221
252
253
219
255
255
229
254
254
219
253
253
213
254
255
214
255
255
250
250
253
212
255
255
244
252
255
234
254
255
233
249
255
210
255
251
175
253
254
211
251
255
204
247
253
204
247
253
202
252
255
228
248
255
222
244
253
228
242
251
220
247
254
219
251
254
241
246
255
209
248
254
217
236
247
208
255
255
253
254
255
229
254
255
244
250
255
204
254
255
250
255
255
254
251
255
227
239
246
203
248
251
211
252
252
228
226
228
161
255
254
211
254
252
210
248
241
183
231
243
181
224
242
186
215
231
163
240
253
200
232
249
179
222
250
173
214
236
180
217
242
159
235
249
176
225
235
161
229
226
171
238
241
177
230
227
183
247
239
196
255
250
189
224
223
134
246
244
174
242
243
200
243
240
158
248
250
229
251
248
178
254
246
164
254
251
193
243
246
194
203
221
171
231
241
222
207
222
164
224
229
162
247
245
195
240
244
193
233
244
191
234
251
191
225
244
205
248
255
223
255
255
227
254
255
216
254
255
234
214
235
151
230
227
177
255
255
253
250
243
231
224
224
183
232
247
198
225
234
174
249
251
209
242
247
187
198
216
149
198
224
160
249
254
195
249
254
197
240
247
187
243
249
188
176
198
143
149
157
113
203
222
160
207
235
177
226
243
208
238
246
213
214
216
173
244
242
206
255
255
230
255
255
233
255
255
228
255
255
227
255
255
228
255
250
215
245
232
197
152
158
124
148
158
123
234
223
194
240
225
198
254
251
225
255
255
233
255
255
224
255
255
224
255
254
227
255
255
239
255
255
232
255
255
229
255
255
241
255
255
228
255
255
242
255
255
249
255
255
251
255
255
253
255
255
253
255
255
255
255
255
255
255
255
255
255
255
255
255
255
255
254
253
240
221
213
192
145
137
119
119
108
92
104
92
76
104
92
76
104
93
72
98
87
68
95
83
66
100
87
71
99
89
70
139
140
108
102
93
71
120
110
92
116
107
87
183
178
151
153
140
117
162
156
127
154
147
123
172
161
143
179
168
150
201
190
172
215
203
181
241
229
207
251
240
219
254
251
237
255
255
250
255
255
255
255
255
255
255
255
255
255
255
255
255
255
255
255
255
255
255
255
255
255
255
255
255
255
255
255
255
255
255
255
255
255
255
255
255
255
255
255
255
255
255
255
255
255
255
255
255
255
255
255
255
255
255
255
255
255
255
255
255
255
255
255
255
255
255
255
255
255
255
255
255
255
255
255
255
255
255
255
255
255
255
255
255
255
255
255
255
255
255
255
255
255
255
255
255
255
255
255
255
252
255
255
254
255
255
230
255
255
255
255
255
248
254
255
230
255
255
254
255
255
254
255
255
246
246
252
205
255
255
232
255
255
227
253
253
193
247
254
187
249
254
202
255
255
240
255
255
245
255
255
244
255
255
251
247
255
205
254
255
236
255
250
228
251
250
215
253
255
212
255
255
207
240
249
193
233
249
191
236
252
188
244
240
191
244
249
226
244
247
219
249
251
237
254
255
249
250
254
207
228
242
168
245
252
214
254
255
242
255
255
234
254
255
246
252
255
238
255
255
254
247
255
213
234
244
214
248
253
190
253
249
213
243
237
180
249
249
199
254
254
240
232
228
179
241
251
215
215
240
167
230
245
176
226
241
175
233
248
176
219
246
169
222
243
190
238
249
199
217
242
154
200
221
155
194
190
147
237
238
194
249
251
242
255
250
230
253
237
195
220
233
154
242
238
177
242
242
196
229
217
149
248
251
221
255
253
223
250
250
180
254
255
225
233
240
186
213
228
187
196
211
171
246
252
223
222
238
160
246
244
194
252
255
206
240
254
183
236
248
203
245
254
204
254
255
247
255
255
231
250
251
204
252
252
227
202
218
148
238
236
201
255
255
243
255
255
255
255
255
232
240
244
192
238
241
194
255
255
223
254
255
205
214
232
163
202
226
168
253
254
211
203
218
146
216
228
165
240
249
187
224
239
194
237
245
213
221
246
198
231
248
214
235
247
221
244
250
238
247
253
236
245
244
224
222
224
178
244
244
215
255
255
232
255
254
225
255
255
232
255
251
219
246
234
197
230
218
184
135
137
108
180
182
154
239
229
200
255
253
232
255
255
238
255
254
230
255
252
218
255
255
228
255
255
232
255
255
245
255
255
242
255
255
227
255
255
236
255
255
242
255
255
242
255
255
248
255
255
254
255
255
246
255
255
255
255
255
255
255
255
255
255
255
255
255
255
255
254
253
247
222
214
194
161
152
135
118
107
91
100
88
72
101
90
74
129
121
92
104
94
73
98
87
71
85
73
58
87
77
61
119
120
92
110
107
81
105
97
81
120
110
91
218
217
200
193
181
156
175
172
133
136
129
109
172
162
143
177
166
148
185
174
156
204
192
171
230
218
196
236
225
204
255
255
247
255
255
255
255
255
255
255
255
255
255
255
255
255
255
255
255
255
255
255
255
255
255
255
255
255
255
255
255
255
255
255
255
255
255
255
255
255
255
255
255
255
255
255
255
255
255
255
255
255
255
255
255
255
255
255
255
255
255
255
255
255
255
255
255
255
255
255
255
255
255
255
255
255
255
255
255
255
255
255
255
255
255
255
255
255
255
255
255
255
255
255
255
255
255
255
255
255
255
255
255
255
255
255
255
255
255
255
255
255
255
255
255
255
255
255
255
255
255
255
255
255
255
255
255
255
253
255
255
237
255
255
227
255
253
225
255
255
243
255
255
230
255
255
218
255
255
221
255
255
228
255
255
230
255
254
240
249
251
212
253
255
243
247
251
208
251
253
237
254
255
243
255
255
253
255
255
253
242
245
205
246
252
201
244
239
204
230
223
159
238
237
195
243
248
192
225
233
187
252
254
243
253
255
250
254
255
233
229
240
185
252
255
228
255
255
250
249
253
229
254
255
235
245
248
227
236
246
206
242
251
210
238
245
175
244
246
194
206
219
157
248
251
226
234
244
217
226
234
200
251
248
217
214
234
155
226
239
176
243
248
198
240
250
190
220
246
168
234
245
190
209
224
156
245
254
187
209
233
151
226
234
182
219
230
175
254
255
249
252
251
212
209
195
138
204
221
152
237
232
185
231
239
184
208
212
161
245
249
209
252
252
227
254
255
228
254
251
220
244
242
193
246
254
219
241
252
213
248
251
210
221
242
170
248
253
218
252
255
209
244
254
188
255
255
249
253
255
212
237
247
196
254
254
238
255
255
218
255
255
220
226
241
172
229
236
179
254
254
248
255
255
255
250
252
219
249
247
206
251
249
217
254
254
201
255
255
185
218
233
164
206
235
169
224
240
167
193
220
142
233
243
183
240
252
192
232
252
213
225
247
202
213
231
173
197
224
154
190
218
150
205
231
164
224
243
182
215
218
180
249
249
230
236
238
215
244
248
218
239
244
204
253
252
222
254
244
211
230
216
181
235
220
185
206
200
168
150
158
127
194
193
161
250
243
218
255
253
237
255
255
231
254
251
212
255
251
210
255
255
227
255
255
231
255
255
231
255
254
228
255
255
239
255
255
235
255
255
232
255
255
241
255
255
253
255
255
234
255
255
245
255
255
255
255
255
255
255
255
255
255
255
255
255
252
237
212
202
175
140
131
115
115
105
89
92
83
66
88
79
62
156
158
119
101
91
69
88
79
63
77
68
53
75
67
52
83
80
58
132
134
100
90
79
61
136
129
103
242
242
234
167
162
131
179
173
143
185
174
155
141
130
113
164
153
135
168
157
139
199
186
169
205
193
170
229
217
195
253
248
236
255
255
255
255
255
255
255
255
255
255
255
255
255
255
255
255
255
255
255
255
255
255
255
255
255
255
255
255
255
255
255
255
255
255
255
255
255
255
255
255
255
255
255
255
255
255
255
255
255
255
255
255
255
255
255
255
255
255
255
255
255
255
255
255
255
255
255
255
255
255
255
255
255
255
255
255
255
255
255
255
255
255
255
255
255
255
255
255
255
255
255
255
255
255
255
255
255
255
255
255
255
255
255
255
255
255
255
255
255
255
255
255
255
255
255
255
255
255
255
255
255
255
255
255
255
254
253
247
212
252
249
204
255
252
226
250
250
214
251
254
230
255
255
202
255
255
242
255
254
232
250
250
208
245
240
199
254
254
250
255
255
247
255
255
252
255
255
225
255
255
222
255
255
253
255
255
234
255
242
211
255
186
158
251
239
215
234
240
193
250
249
223
253
255
211
234
242
200
240
246
208
253
255
243
252
253
235
251
252
245
245
255
211
250
255
235
252
254
222
245
246
211
213
213
179
245
247
209
226
247
176
242
248
184
237
248
199
243
252
206
246
255
225
225
233
202
239
238
228
232
231
205
215
233
151
239
251
190
239
255
198
248
252
209
251
255
225
253
255
240
237
239
202
255
255
226
218
238
159
242
249
193
214
236
196
227
249
212
226
249
178
200
212
149
216
243
153
240
252
165
229
248
175
235
239
211
224
226
173
252
251
235
242
249
218
241
237
183
254
252
224
246
255
202
252
255
205
221
234
176
211
231
166
224
249
184
253
255
229
251
255
211
250
255
185
253
255
205
241
251
190
254
255
212
255
255
248
251
251
222
253
255
212
236
248
212
254
255
226
255
255
238
255
255
245
251
251
192
249
254
207
249
247
184
252
247
180
211
232
163
221
241
177
242
248
181
239
255
191
246
255
221
240
252
210
209
240
169
199
226
152
181
201
137
212
236
173
207
224
164
190
210
156
196
211
158
204
211
165
246
245
217
255
255
237
245
249
216
190
203
161
215
216
174
240
227
192
215
205
161
212
205
167
206
193
160
195
187
154
168
174
140
225
221
187
255
255
233
255
254
223
255
255
213
255
255
212
255
255
224
255
255
235
255
255
228
255
255
231
255
255
237
255
255
226
255
254
223
255
254
226
255
255
243
255
255
236
255
255
235
255
255
255
255
255
255
255
255
255
255
255
255
252
246
225
219
213
178
131
127
103
109
100
84
95
86
69
88
80
62
179
186
142
102
95
72
79
69
55
71
65
48
88
83
63
93
87
67
157
157
121
187
187
154
217
223
179
247
248
242
188
193
158
183
177
151
223
216
201
196
186
168
167
156
137
177
167
144
195
181
162
214
205
190
218
204
181
253
250
239
255
255
255
255
255
255
255
255
255
255
255
255
255
255
255
255
255
254
255
255
245
255
255
254
255
255
255
255
255
255
255
255
255
255
255
255
255
255
255
255
255
255
255
255
255
255
255
255
255
255
255
255
255
255
255
255
255
255
255
255
255
255
255
255
255
255
255
255
255
255
255
255
255
255
255
255
255
255
255
255
255
255
255
255
255
255
255
255
255
255
255
255
255
255
255
255
255
255
253
255
255
255
255
255
255
255
255
255
255
255
255
255
255
255
255
255
255
255
255
255
255
255
255
255
255
255
255
255
251
255
255
254
255
255
253
255
255
234
248
251
217
250
254
212
255
255
253
253
255
234
254
254
231
241
240
183
246
243
227
255
255
253
255
255
248
255
255
221
255
254
195
255
242
170
255
254
200
255
196
157
255
186
156
255
239
218
245
245
239
241
242
226
242
244
225
252
253
236
230
238
185
251
255
223
254
254
224
255
255
252
255
255
243
255
255
246
254
255
235
252
252
232
201
197
147
242
241
207
240
248
222
255
255
244
237
250
182
246
253
205
228
246
205
253
254
250
236
239
215
227
232
197
218
236
164
246
253
206
229
248
196
236
245
176
252
253
209
253
254
238
255
255
242
245
249
194
214
233
152
234
243
159
166
201
152
205
231
181
215
247
175
199
220
149
222
243
167
247
254
164
245
251
189
235
245
190
255
255
243
255
255
229
241
248
187
252
253
209
254
255
230
245
255
201
251
255
197
238
248
184
239
249
197
225
248
189
234
246
182
253
254
214
245
255
219
250
255
224
250
255
225
251
254
199
255
255
244
252
252
223
248
255
220
243
251
218
255
255
212
255
255
241
254
255
251
245
247
219
255
255
250
252
255
227
255
255
245
248
252
225
248
252
215
254
255
196
253
255
214
249
255
221
244
251
219
200
224
154
196
224
143
192
218
152
211
236
170
190
210
144
203
214
170
159
176
113
171
190
126
213
217
170
247
245
211
250
248
216
241
243
222
189
202
151
170
177
138
216
221
173
224
219
179
221
203
173
230
215
181
243
244
222
231
233
184
252
248
200
255
255
224
252
255
209
255
255
208
255
255
232
255
255
243
255
255
223
255
255
228
255
255
243
255
255
230
255
254
224
255
255
223
255
255
242
255
255
230
255
255
234
255
255
252
255
255
255
255
255
255
255
255
255
250
248
231
208
203
170
161
157
122
132
122
101
114
106
83
92
86
65
178
192
144
98
93
68
67
59
47
73
67
49
137
139
100
111
101
81
163
173
126
211
233
176
185
194
147
246
246
238
210
218
196
139
131
109
152
141
124
168
154
141
158
149
130
201
197
168
208
197
177
218
208
190
230
218
192
254
253
248
255
255
255
255
255
255
255
255
252
255
255
252
255
255
255
255
255
247
255
255
236
255
255
247
255
255
252
255
255
255
255
255
255
255
255
255
255
255
255
255
255
255
255
255
255
255
255
255
255
255
255
255
255
255
255
255
255
255
255
255
255
255
255
255
255
255
255
255
255
255
255
255
255
255
255
255
255
255
255
255
255
255
255
255
255
255
255
255
255
255
255
255
255
254
248
238
253
238
206
255
255
243
255
255
255
255
255
255
255
255
255
255
255
255
255
255
249
255
255
241
255
255
241
255
255
234
254
244
220
255
249
231
255
249
234
255
255
243
255
255
235
252
255
211
252
252
242
248
248
227
255
254
246
246
244
197
244
232
188
254
253
235
253
251
234
253
250
195
255
250
211
255
208
142
255
250
226
254
225
194
255
232
180
252
235
198
253
247
233
255
255
245
252
253
248
243
244
215
238
245
200
247
253
191
254
254
217
254
254
234
252
254
238
251
253
231
253
254
240
247
248
215
210
197
141
249
244
216
225
236
190
255
255
239
243
251
176
209
222
153
211
230
190
254
255
253
235
238
212
246
249
219
224
233
168
243
251
198
225
239
188
230
236
179
252
252
215
233
243
191
252
255
232
250
253
213
237
248
183
211
235
144
201
218
163
231
241
183
231
249
193
195
214
150
231
240
175
248
252
172
249
251
178
252
253
232
255
255
242
255
255
221
240
242
186
254
253
224
250
254
190
254
255
222
253
254
205
248
249
190
253
254
211
239
255
205
221
237
166
248
250
196
237
253
193
254
255
203
247
253
207
247
255
193
252
255
225
254
255
217
248
255
223
255
255
254
254
255
221
255
255
255
252
255
245
242
245
198
239
245
184
254
255
237
253
255
218
249
255
184
255
255
218
254
255
222
246
253
227
234
243
198
218
235
169
229
242
192
218
234
175
229
243
188
193
210
148
167
182
123
217
222
163
201
214
142
176
195
125
165
176
116
207
210
154
226
226
195
249
248
222
232
236
188
171
189
143
211
224
169
243
243
202
249
235
206
245
230
195
255
254
237
248
250
218
243
237
185
255
255
223
240
254
195
238
247
192
237
248
198
254
255
228
255
254
216
255
246
207
255
252
218
255
255
225
255
254
219
255
255
219
255
255
232
254
246
197
255
255
236
255
255
242
255
255
254
255
255
255
255
255
255
250
250
232
181
180
147
190
191
153
184
177
142
173
164
130
125
124
97
176
194
143
144
145
110
61
55
43
89
88
64
195
209
151
150
158
107
218
236
182
178
183
143
182
172
141
239
240
217
231
242
221
135
133
107
134
126
110
146
133
121
169
162
140
212
213
186
187
179
147
169
157
137
217
206
181
255
254
249
255
255
252
255
255
252
254
253
234
254
253
236
255
252
237
255
255
240
255
255
237
255
255
245
255
255
252
255
255
246
255
255
254
255
255
253
255
255
255
255
255
255
255
255
255
255
255
255
255
255
255
255
255
255
255
255
255
255
255
255
255
255
255
255
255
255
255
255
255
255
255
255
255
255
255
255
255
255
255
255
255
255
255
255
255
255
254
255
255
247
255
255
253
240
223
200
246
220
184
255
255
224
255
255
251
255
255
248
255
254
237
255
249
213
255
241
197
255
245
200
255
246
196
253
230
179
226
200
154
238
209
161
255
246
205
255
255
219
255
255
213
253
254
196
254
255
232
252
253
203
252
254
197
255
255
244
251
247
213
253
252
234
255
255
234
248
239
190
255
249
225
253
236
199
251
186
156
255
229
195
249
227
174
230
217
170
237
225
202
254
254
251
255
255
255
255
255
234
226
240
170
246
238
194
244
237
207
250
250
213
249
247
222
237
240
205
247
248
211
249
246
207
214
197
158
233
227
185
232
238
180
249
252
195
235
248
168
216
224
161
237
243
221
245
249
234
243
243
210
231
235
191
224
239
176
235
248
190
233
237
195
232
238
189
240
242
191
229
238
181
241
253
210
250
255
235
245
252
220
236
246
198
250
253
213
247
246
213
243
251
214
232
240
186
253
253
204
254
254
195
247
247
175
254
254
233
252
254
226
240
241
188
249
251
224
255
255
246
235
244
184
245
250
203
253
255
236
250
255
215
243
248
196
242
251
199
246
251
208
255
255
214
252
255
221
250
255
217
220
236
174
247
254
206
238
254
197
251
255
223
249
255
206
250
255
216
252
255
208
255
255
228
255
255
230
251
250
184
244
247
204
254
254
215
255
255
218
254
255
235
255
255
241
255
255
233
244
252
207
242
249
206
244
248
220
228
230
192
243
248
199
229
235
178
218
221
159
205
211
154
217
225
172
252
254
227
234
238
190
166
173
121
224
224
171
238
238
188
253
252
213
231
229
176
182
198
145
208
228
162
199
209
161
212
210
177
241
238
203
255
255
245
246
252
226
247
249
197
255
255
217
235
254
191
222
240
177
219
243
178
240
255
210
255
254
224
255
255
217
255
255
247
255
255
248
255
255
232
255
255
222
255
255
227
255
252
220
255
255
229
255
255
230
255
255
241
255
255
254
255
255
255
253
253
238
199
192
171
156
159
131
213
218
173
236
228
182
180
175
137
195
218
154
205
215
154
119
113
93
119
121
89
244
252
203
240
250
200
221
230
178
180
177
140
165
158
145
251
253
241
246
251
234
182
185
142
227
225
190
191
191
159
216
220
184
226
234
197
180
179
138
174
165
138
231
221
181
253
252
237
254
255
231
254
255
221
250
248
210
249
245
209
255
250
219
255
253
218
255
253
234
255
255
246
255
255
242
255
255
250
255
255
242
255
255
243
255
255
255
255
255
255
255
255
255
255
255
255
255
255
255
255
255
255
255
255
255
255
255
255
255
255
255
255
255
255
255
255
255
255
255
252
255
255
255
255
255
255
255
255
255
255
255
255
255
255
251
255
255
241
251
245
221
227
208
181
239
218
180
254
242
198
255
250
221
255
244
207
255
250
204
251
241
200
255
246
197
244
224
179
232
203
153
217
182
132
182
153
112
206
183
131
254
254
219
254
255
212
255
253
221
240
252
207
245
255
213
250
248
200
251
251
178
220
210
154
247
244
229
248
254
233
255
255
245
242
243
196
245
249
208
253
240
206
255
176
134
241
199
146
232
228
164
236
218
169
240
221
186
251
248
238
253
255
235
251
253
234
229
233
200
235
221
176
243
235
207
254
254
233
240
236
202
252
250
223
235
235
188
214
198
158
210
187
148
187
187
136
235
242
178
219
225
153
205
220
139
203
214
153
230
246
196
223
229
198
223
228
186
184
195
150
227
237
176
244
248
195
250
254
215
253
255
234
245
245
201
241
242
181
250
254
222
252
255
214
254
255
240
248
251
225
249
251
205
249
245
197
242
250
200
242
245
194
255
255
216
255
255
215
253
254
191
255
255
205
244
246
198
252
254
236
253
254
224
239
244
184
225
237
183
224
231
167
250
253
213
249
251
220
229
248
192
246
253
204
255
255
252
255
255
229
255
255
246
245
255
225
199
224
158
243
249
209
234
251
193
248
254
196
250
255
194
241
252
187
253
255
209
251
255
216
254
255
208
253
254
181
255
255
247
251
251
217
255
255
238
254
255
243
255
255
243
255
255
222
255
255
226
255
255
223
252
253
213
249
252
188
250
253
225
246
250
196
241
245
178
230
234
185
246
253
201
241
253
200
252
254
222
211
216
163
229
230
176
254
254
219
255
253
201
244
234
179
225
235
180
207
230
164
245
252
195
213
219
167
248
250
203
250
254
216
234
251
195
252
255
230
251
254
205
251
255
211
219
240
170
234
251
189
228
252
200
255
255
237
254
246
196
255
254
236
255
255
251
255
255
251
255
255
244
254
254
231
255
255
244
255
255
208
255
255
227
255
255
227
255
255
254
255
255
248
255
254
232
201
191
168
191
181
153
239
236
191
255
255
231
253
252
225
249
254
214
254
254
231
139
139
111
221
228
197
252
255
220
254
255
225
216
220
171
226
228
189
197
187
160
254
254
247
255
255
250
216
215
183
241
240
223
235
239
217
214
229
184
242
247
218
216
225
172
204
194
155
249
246
200
250
246
207
242
251
200
251
253
222
252
248
207
250
243
200
255
255
230
255
255
250
255
255
244
255
255
252
255
255
247
255
255
254
253
255
224
255
255
251
255
255
255
255
255
255
255
255
255
255
255
255
255
255
255
255
255
255
255
255
255
255
255
255
255
255
255
255
255
255
255
255
255
255
255
255
255
255
255
255
255
255
255
255
255
255
255
255
254
248
238
255
254
244
251
249
232
223
217
204
227
209
186
239
235
193
249
246
200
255
245
207
247
239
218
239
237
214
248
250
215
248
249
209
236
235
177
216
205
133
195
180
128
227
222
160
249
250
208
254
255
214
249
251
226
219
236
168
234
249
189
249
246
211
251
250
201
242
241
177
219
209
165
244
250
222
255
255
253
251
252
221
250
255
213
250
248
210
245
240
201
237
231
183
226
218
159
244
251
209
255
254
238
254
253
226
252
253
231
251
253
232
242
239
200
255
254
217
233
220
194
246
243
212
251
251
212
249
248
208
224
224
173
219
213
172
203
187
141
217
208
152
241
244
196
205
213
137
208
216
150
232
242
194
232
243
190
228
230
196
234
236
188
232
236
211
246
252
200
245
247
195
253
255
203
254
255
236
255
255
248
240
252
178
248
254
208
255
255
215
255
255
227
255
255
243
252
253
216
250
251
193
247
252
198
248
249
202
251
253
200
253
252
215
254
255
229
254
255
203
247
246
187
235
247
187
245
254
189
242
250
177
247
251
206
214
235
164
228
239
177
236
243
213
251
255
237
253
255
218
252
254
225
237
247
201
252
255
241
249
255
240
206
234
175
248
251
225
238
244
193
232
245
178
254
255
203
225
230
167
231
238
167
234
253
185
229
251
179
233
245
168
254
254
217
253
253
201
255
255
249
253
255
241
252
255
210
255
255
228
255
255
229
253
255
214
254
255
209
247
253
205
254
255
230
254
255
199
248
253
194
255
255
220
254
255
238
243
254
187
252
255
208
247
253
189
234
238
174
255
254
232
255
254
218
252
252
189
233
249
185
231
249
184
252
254
195
254
255
216
253
254
220
234
249
192
221
242
174
251
254
237
241
253
199
237
255
195
212
238
165
216
232
168
216
242
187
255
255
243
255
253
226
255
254
230
255
255
245
255
255
254
254
255
232
243
247
202
255
255
240
255
255
203
255
255
220
255
255
254
255
255
255
255
255
242
255
255
231
242
237
215
212
210
163
252
254
199
255
255
255
255
255
221
255
255
234
255
255
252
244
246
229
249
255
226
251
255
215
255
255
242
244
250
208
254
255
241
237
234
195
253
253
246
255
255
255
251
252
234
254
254
224
255
255
254
220
229
187
238
248
209
228
237
179
228
226
180
234
233
182
250
252
212
248
252
195
252
252
200
254
252
205
255
252
207
255
255
245
255
255
242
255
255
239
255
255
234
255
255
250
255
255
244
254
255
235
255
255
255
255
255
255
255
255
255
255
255
255
255
255
255
255
255
255
255
255
255
255
255
255
255
255
255
255
255
255
255
255
255
255
255
255
255
255
255
255
255
255
255
255
255
255
255
255
255
255
255
255
254
249
249
243
217
255
255
239
246
242
228
240
236
218
252
254
222
255
255
240
226
225
205
210
199
162
142
126
86
221
224
181
244
249
202
249
253
209
229
244
163
195
192
126
226
245
178
243
250
194
255
255
223
245
249
206
233
245
182
222
245
177
225
222
177
250
249
213
225
221
166
240
248
198
246
250
199
252
254
224
240
243
211
252
255
209
243
231
179
228
228
168
238
225
175
212
205
153
243
251
215
255
255
243
247
247
234
253
253
241
250
254
228
251
251
212
255
255
234
251
248
227
252
249
205
241
237
181
210
202
153
220
217
164
228
227
196
178
163
120
229
229
189
230
239
205
200
209
144
227
228
177
239
248
210
228
245
185
202
215
169
209
222
173
230
230
215
238
248
201
252
255
208
245
255
189
240
252
192
251
254
224
218
239
164
208
231
172
225
246
182
251
254
208
253
255
216
236
252
183
231
242
170
233
244
184
227
240
185
235
249
182
242
250
194
247
255
215
253
254
204
230
233
163
232
238
171
234
248
175
244
254
183
217
229
171
192
208
147
235
243
188
221
233
181
243
248
221
243
253
206
230
239
186
231
242
181
234
249
200
231
248
207
202
233
162
223
245
187
210
226
170
199
223
159
230
249
182
215
226
167
202
210
144
226
248
173
237
253
192
250
254
193
242
240
178
255
255
219
255
255
245
253
255
225
255
255
205
255
255
231
250
255
209
241
254
191
249
255
180
253
255
208
249
251
190
255
255
208
255
255
216
254
255
209
255
255
248
248
255
187
252
255
203
237
253
191
238
249
186
255
253
199
254
255
206
248
255
191
252
255
198
245
255
195
255
255
211
250
255
208
255
255
224
236
253
184
232
247
178
254
255
247
254
255
233
241
254
196
216
242
166
205
222
154
199
232
167
250
255
219
255
255
224
255
255
225
255
255
230
255
255
255
254
255
235
254
255
225
232
236
196
222
224
164
255
255
214
255
255
250
255
255
254
255
255
235
255
255
251
255
254
246
241
238
208
255
255
215
255
255
240
255
255
246
255
255
249
255
255
254
244
254
210
251
255
221
252
252
210
253
253
235
250
255
215
253
255
237
234
240
201
255
255
249
254
255
241
250
254
206
250
254
225
255
255
255
243
254
223
248
255
213
252
255
219
255
255
239
253
254
222
251
255
206
255
255
212
255
255
212
255
253
202
255
255
230
255
255
241
255
255
215
255
255
222
255
255
220
255
255
235
255
255
235
255
255
251
255
255
255
255
255
255
255
255
248
255
255
254
255
255
255
255
255
255
255
255
255
255
255
255
255
255
253
255
255
253
255
255
255
255
255
251
255
255
244
255
255
255
255
255
255
255
255
255
255
255
255
255
255
255
255
255
233
231
231
210
237
236
213
252
251
236
250
255
225
251
251
211
213
211
162
248
250
210
218
226
175
233
237
205
253
255
234
239
253
204
242
255
192
242
248
184
230
245
179
252
255
205
255
255
228
255
255
246
255
255
244
243
255
204
242
241
196
255
254
217
254
253
206
239
243
175
234
235
182
252
251
219
245
252
207
248
254
194
248
249
204
234
242
188
243
243
184
211
221
170
245
254
220
248
255
213
254
255
237
252
253
240
253
254
213
251
253
196
255
254
240
236
223
174
252
251
213
249
249
228
234
235
198
234
238
187
252
252
225
214
203
168
247
247
228
201
218
162
203
223
148
243
249
207
238
254
205
221
245
172
230
240
188
189
207
163
188
191
164
253
254
240
243
253
207
230
251
184
218
235
170
210
226
154
222
244
182
214
232
190
191
215
154
219
239
180
240
253
200
217
233
158
224
235
158
242
244
172
250
250
191
253
253
206
254
255
223
245
254
204
251
250
204
221
224
160
215
226
156
205
227
159
247
251
188
223
231
182
215
236
176
241
252
198
245
251
202
221
229
176
244
252
199
221
228
176
235
246
195
233
250
180
219
245
174
202
235
157
215
240
182
198
220
163
176
194
140
207
231
167
210
231
162
213
216
158
222
244
162
253
255
210
250
254
198
253
253
189
255
255
217
252
255
212
236
255
192
251
253
198
255
255
241
253
255
220
246
255
187
233
252
176
251
255
203
255
255
212
255
253
197
255
253
203
255
255
202
255
255
226
255
255
226
250
255
190
227
253
176
221
234
168
254
253
201
248
253
181
236
250
179
251
254
208
252
255
203
255
255
206
246
254
202
255
255
227
235
255
181
254
255
202
255
255
247
255
255
232
253
255
208
240
255
191
233
249
182
197
229
152
232
250
188
254
254
200
255
255
222
255
255
218
255
255
244
255
255
230
255
255
232
240
247
192
235
240
192
247
255
201
250
255
224
255
255
238
255
254
217
255
255
246
255
255
253
255
255
240
255
255
246
255
255
234
255
255
248
255
255
254
255
255
251
251
255
215
246
255
199
233
248
182
236
250
184
238
255
194
238
255
192
238
252
202
254
255
236
252
255
210
255
255
205
249
251
195
255
255
250
247
255
229
235
254
199
241
249
197
255
255
252
251
253
242
244
253
196
255
255
215
255
255
222
255
255
214
255
255
225
247
255
202
255
255
213
255
255
209
255
255
216
255
255
222
255
255
250
255
255
254
255
255
255
255
255
254
255
255
232
255
255
255
255
255
255
255
255
252
255
255
249
255
255
246
255
255
244
255
255
240
255
255
255
255
255
252
255
255
240
255
255
254
255
255
255
255
255
255
255
255
255
255
255
255
255
255
244
238
240
229
252
253
243
254
254
240
254
253
228
255
255
211
242
242
204
252
253
223
239
245
191
227
240
194
253
255
236
236
255
201
245
255
199
254
255
199
250
255
188
255
255
223
255
255
225
255
255
237
255
255
210
255
255
205
254
254
225
255
255
220
255
255
236
254
253
203
249
248
194
248
250
209
252
254
214
242
241
178
244
245
202
255
255
219
253
254
224
225
245
194
244
253
208
243
247
200
254
254
233
249
252
211
252
253
232
250
254
203
255
255
246
254
252
217
254
254
234
243
245
223
254
255
229
252
255
226
250
250
223
252
252
246
255
255
253
247
251
237
203
227
163
246
254
219
250
255
234
230
243
184
254
255
219
248
251
227
250
250
234
255
255
251
252
255
233
214
238
176
224
246
186
186
202
138
201
221
167
218
235
196
204
219
164
192
204
146
178
196
137
221
219
154
229
224
158
251
247
182
255
255
214
255
255
230
255
254
227
255
255
233
255
255
244
254
255
208
224
236
157
198
210
146
244
250
182
237
243
179
218
243
168
241
255
204
230
246
188
234
240
179
240
246
187
225
239
184
226
243
184
238
251
168
225
253
165
222
252
177
221
235
178
210
230
166
198
218
156
212
232
163
226
246
172
241
251
182
227
251
164
231
250
178
247
254
190
255
255
211
255
255
216
245
255
200
252
255
222
254
255
205
255
255
237
254
255
211
248
255
192
237
249
185
247
254
202
255
255
229
255
255
217
255
254
206
255
252
184
251
255
188
253
255
208
250
255
207
239
255
189
230
233
168
236
233
167
233
240
169
250
255
214
253
255
204
234
252
172
243
254
187
239
255
189
251
255
204
233
254
186
252
254
206
252
254
212
255
255
225
244
253
203
254
255
223
247
253
198
207
230
150
226
250
176
248
253
193
255
255
230
255
255
230
255
255
252
248
254
223
242
254
199
253
255
205
252
255
218
240
253
193
240
254
200
255
255
213
255
255
229
255
255
245
255
255
219
251
254
210
255
255
244
255
255
243
255
255
238
253
255
244
253
255
231
254
255
220
249
255
191
249
255
205
242
255
198
246
255
221
252
255
215
250
255
222
255
255
243
255
255
215
255
255
226
254
255
206
255
255
245
237
253
208
225
250
184
246
255
203
255
255
226
255
255
239
254
255
215
255
255
209
255
255
244
255
255
246
247
255
214
235
255
196
253
255
200
253
255
212
245
255
202
255
255
237
255
255
254
254
255
243
253
255
233
255
255
241
255
255
244
255
255
249
255
255
254
255
255
227
255
255
244
255
255
230
255
255
243
250
255
235
255
255
255
254
255
232
254
255
248
255
255
253
255
255
253
255
255
255
255
255
251
255
255
253
255
255
251
254
255
249
254
255
236
251
254
193
254
254
211
253
255
202
255
255
245
255
255
253
255
255
225
251
255
219
246
255
219
233
252
199
248
255
211
248
254
185
240
254
182
254
255
213
255
255
238
254
255
231
252
255
196
246
254
178
252
254
228
255
255
220
255
255
229
248
248
181
248
253
188
253
253
240
255
255
241
255
255
254
255
255
254
255
255
228
255
255
225
244
253
214
243
250
195
252
253
213
251
255
207
250
255
201
253
254
222
249
252
234
255
255
249
255
255
237
252
255
239
243
247
193
255
255
246
255
255
251
241
239
195
255
255
245
253
253
245
251
253
238
236
249
219
242
254
205
254
255
228
255
255
238
250
255
224
255
255
249
251
254
235
253
255
222
245
255
207
233
252
195
234
253
200
203
219
166
199
221
159
206
235
162
221
237
173
196
203
153
163
165
113
253
248
203
255
243
208
255
247
202
255
255
210
255
255
206
255
253
211
255
255
226
255
255
249
255
255
223
252
249
196
232
226
167
238
252
194
229
242
180
214
236
173
232
254
195
202
226
163
237
249
194
227
241
185
211
234
169
215
240
167
250
255
176
235
255
177
229
252
186
223
232
173
221
233
168
233
248
182
240
249
175
239
252
180
245
255
184
240
255
182
225
243
169
238
249
172
255
255
215
255
255
218
237
254
195
253
255
219
254
255
221
255
255
245
248
255
206
245
255
204
254
255
194
247
255
196
255
255
230
255
255
217
255
255
206
255
254
186
252
255
178
248
255
195
243
255
196
241
255
196
252
251
205
233
235
159
243
249
199
255
255
248
255
255
237
243
254
186
225
249
171
240
254
187
255
255
222
253
255
210
250
253
196
248
251
194
255
255
223
252
254
210
255
255
244
254
255
223
236
244
166
244
255
191
248
255
209
255
255
231
255
255
227
255
255
252
252
255
230
237
255
185
243
255
187
242
255
197
255
255
230
245
255
196
255
255
218
255
255
239
255
255
237
255
255
225
248
255
200
255
255
201
255
255
212
255
255
232
248
255
210
253
255
230
254
255
222
252
255
197
255
255
241
251
255
221
254
255
242
255
255
239
255
255
235
255
255
248
255
255
223
255
255
220
255
255
225
254
255
218
236
253
179
222
249
175
251
255
227
254
252
203
251
252
181
251
254
186
255
255
212
255
255
247
255
255
251
242
255
202
249
255
196
249
255
202
250
255
225
251
255
230
255
255
246
254
255
247
254
255
238
253
255
210
255
255
230
255
255
245
255
255
226
255
255
239
255
255
239
255
255
215
253
255
212
250
255
220
253
255
219
253
255
227
255
255
226
255
255
252
254
255
236
254
255
248
255
255
252
255
255
243
255
255
246
255
255
246
250
255
211
255
255
250
255
255
234
254
255
211
252
255
201
255
255
252
255
255
255
255
255
254
255
255
245
253
255
242
228
249
191
243
254
192
239
251
174
253
255
203
249
255
206
255
255
245
255
255
205
252
255
198
243
254
187
234
249
185
249
255
227
255
254
234
249
253
196
247
253
194
249
247
220
255
255
239
255
255
236
255
255
244
255
255
240
255
255
225
253
255
237
242
252
196
239
246
192
249
253
203
252
254
203
238
239
180
254
255
246
255
255
248
255
255
253
255
255
240
254
255
196
252
255
210
255
255
251
253
255
221
247
255
210
247
252
219
252
254
239
255
255
247
253
255
217
240
251
197
253
255
243
253
255
235
246
255
226
253
255
246
243
254
192
226
245
175
217
243
179
243
255
223
251
254
235
220
235
180
188
208
142
232
245
200
187
199
155
179
179
128
253
228
160
255
222
170
255
211
161
255
251
192
255
255
189
255
255
224
255
248
206
255
249
221
255
249
204
255
252
230
255
245
204
254
255
220
231
248
184
238
253
193
219
244
181
197
222
157
205
228
169
241
253
205
213
232
169
222
246
171
250
255
191
245
253
193
215
230
171
208
213
167
223
223
179
232
234
182
242
247
189
247
255
197
241
255
191
254
255
213
253
255
225
245
255
192
241
255
188
253
255
208
232
251
191
250
254
216
255
255
233
254
255
237
244
255
201
251
255
227
254
255
208
245
255
199
254
255
225
255
255
222
255
255
213
252
253
190
235
250
165
251
255
208
233
255
192
243
255
209
255
255
214
252
254
187
251
253
216
255
255
251
255
255
254
253
255
221
245
253
201
232
247
187
255
255
244
255
255
224
255
255
201
245
252
192
237
252
194
249
255
212
255
255
239
255
255
233
254
255
208
247
255
203
242
255
205
255
255
243
255
255
223
255
255
221
250
255
205
234
255
185
244
255
189
244
255
193
252
255
218
244
255
196
255
255
232
255
255
218
255
255
229
254
255
226
248
255
204
255
255
208
255
255
205
255
255
218
255
255
218
255
255
235
254
255
218
244
255
194
255
255
240
255
255
248
255
255
244
255
255
218
255
255
222
255
255
211
255
255
198
255
255
230
253
255
231
240
254
191
236
250
172
244
255
193
244
255
208
255
255
208
252
255
189
250
255
183
254
255
196
255
255
236
254
255
236
238
255
184
247
255
201
254
255
229
239
255
214
255
255
249
254
255
240
250
255
223
253
255
235
255
255
242
255
255
230
255
255
232
255
255
228
255
255
248
255
255
254
252
255
207
249
255
197
226
253
183
239
255
194
246
255
198
251
255
227
254
255
250
254
255
246
254
255
239
255
255
235
255
255
231
255
255
255
255
255
247
248
255
205
255
255
253
255
255
250
254
255
220
252
255
205
255
255
225
255
255
243
255
255
255
255
255
242
255
255
251
254
255
225
251
255
198
242
255
188
251
255
200
251
250
186
247
250
196
255
255
219
247
253
205
225
246
180
196
222
156
217
236
168
253
254
226
254
255
234
252
255
202
252
255
207
252
254
210
255
255
234
255
255
225
255
255
244
255
255
220
253
255
236
233
252
191
231
247
175
254
255
240
253
254
221
243
251
189
255
255
253
254
255
242
252
255
222
241
249
208
252
254
203
255
255
226
246
254
211
249
254
203
244
254
184
253
255
217
252
255
227
243
251
216
250
254
208
244
254
217
245
255
237
254
255
245
238
247
218
255
255
247
234
254
189
228
251
170
213
245
167
236
254
213
253
255
240
241
254
214
224
242
187
220
237
190
167
170
129
175
174
127
246
242
182
255
254
191
255
235
169
255
242
171
248
245
167
250
254
209
255
235
177
255
235
180
255
216
168
255
218
171
255
228
188
248
253
210
221
239
172
235
248
185
205
230
165
216
238
174
217
237
175
238
249
194
239
250
191
221
246
165
251
255
204
221
228
176
181
192
141
156
160
122
187
188
150
203
205
158
246
249
208
250
255
213
251
255
220
255
255
248
255
255
248
254
255
225
244
255
200
254
255
218
244
255
204
251
255
211
255
255
233
255
255
234
245
255
203
253
255
229
252
254
213
235
253
187
235
253
187
254
255
207
255
255
201
243
246
176
235
241
157
253
255
196
243
255
199
251
255
215
254
255
204
255
255
200
255
255
234
255
255
243
255
255
247
255
255
241
255
255
230
250
255
207
255
255
235
255
255
246
255
255
231
243
250
196
229
248
181
249
255
217
246
255
213
237
255
199
251
255
220
255
255
242
255
255
243
255
255
224
255
255
239
252
255
214
240
255
191
251
255
203
242
255
183
253
255
212
255
255
230
247
255
203
251
255
202
254
255
213
255
255
215
249
255
200
232
255
187
249
255
199
244
255
188
246
255
190
253
255
206
254
255
204
232
249
180
244
255
197
255
255
248
255
255
253
255
255
214
255
255
216
255
255
232
255
255
208
251
254
198
234
248
183
237
253
187
234
252
187
240
248
188
255
255
242
251
255
215
255
255
225
248
255
205
249
255
198
251
255
181
255
255
222
255
255
249
253
255
241
255
255
240
254
255
221
238
255
194
239
255
200
239
254
193
249
254
204
255
255
237
255
255
243
255
255
218
255
255
217
253
255
208
255
255
245
255
255
244
251
255
194
251
255
198
237
254
186
252
255
214
254
255
230
248
255
210
250
255
217
255
255
251
255
255
255
255
255
220
254
255
202
255
255
245
255
255
243
236
252
183
255
255
229
255
255
252
255
255
245
252
255
212
255
255
218
255
255
227
255
255
237
255
255
251
255
255
237
255
255
234
251
255
206
240
255
197
246
255
201
255
255
213
255
255
229
255
255
250
255
255
244
240
250
200
194
217
155
219
236
170
253
255
216
255
255
254
244
253
217
239
254
201
244
253
204
254
255
212
255
255
213
255
255
226
246
251
197
255
255
230
250
255
220
249
254
211
252
255
221
253
255
213
254
255
240
255
255
255
255
255
255
253
255
236
248
254
217
254
254
217
248
255
202
250
255
212
255
255
233
252
255
206
252
255
216
248
255
217
248
253
215
245
254
202
252
255
225
253
255
248
255
255
255
251
253
237
251
253
229
244
255
199
234
255
182
244
255
182
245
255
209
245
255
224
253
255
234
238
255
205
244
251
196
196
198
147
207
208
161
228
241
181
243
247
176
251
247
170
253
249
185
238
230
167
245
253
205
254
246
186
253
252
198
255
230
182
255
224
169
255
252
213
255
255
226
232
238
165
230
245
181
216
238
177
242
253
212
251
255
215
253
255
209
249
253
202
211
229
153
225
239
174
190
203
148
187
201
154
178
191
143
201
217
167
228
244
199
246
254
209
245
250
201
246
251
211
255
255
240
255
255
253
255
255
230
251
255
213
254
255
211
247
255
195
249
255
191
255
255
228
255
255
239
253
255
202
255
255
203
255
255
221
245
255
196
237
255
183
253
255
197
252
255
203
253
254
202
255
255
205
255
255
205
255
255
246
255
255
239
255
255
213
255
255
193
255
255
217
255
255
252
255
255
245
254
255
227
253
255
217
246
254
195
254
255
209
255
255
222
255
255
246
255
255
240
240
254
186
246
255
205
250
255
217
252
255
234
253
255
227
255
255
239
255
255
247
254
255
204
255
255
210
250
255
206
247
255
209
255
255
223
246
255
194
255
255
238
255
255
247
244
255
198
242
255
183
253
255
213
255
255
228
250
255
205
230
255
178
244
255
198
233
255
177
237
255
172
247
254
182
245
253
180
236
253
177
248
255
200
255
255
236
255
255
241
255
255
240
255
255
253
255
255
251
254
255
207
248
255
194
243
253
191
248
255
195
243
255
202
252
255
222
254
255
233
253
255
215
254
255
223
246
255
211
250
255
203
255
255
184
252
254
195
248
254
212
255
255
241
255
255
245
253
255
210
238
254
187
223
245
172
248
255
195
255
255
205
254
255
218
255
255
244
251
255
196
251
255
185
249
255
195
253
255
227
250
255
224
250
255
213
255
255
217
255
255
198
255
255
188
255
255
221
255
255
243
245
255
206
243
253
210
251
255
220
255
255
242
251
255
205
255
255
237
251
255
226
240
251
196
246
252
193
254
255
238
255
255
244
255
255
231
255
255
251
255
255
246
255
255
247
255
255
253
255
255
230
255
255
213
255
255
216
252
255
205
251
255
208
252
251
198
255
255
223
255
255
236
255
255
238
248
252
216
220
238
179
249
253
215
255
255
234
255
255
255
255
255
251
255
255
250
255
255
234
245
255
211
255
255
243
254
255
226
244
248
195
251
252
214
255
255
244
255
255
246
250
255
205
251
255
206
255
255
234
255
255
255
255
255
248
253
255
244
244
255
207
255
255
218
252
255
197
253
255
206
250
255
211
254
255
222
251
255
222
255
255
231
254
255
228
244
254
210
205
234
165
243
251
226
255
255
246
250
254
222
249
254
233
254
255
208
235
255
183
245
255
185
236
254
187
245
254
217
255
255
240
255
255
233
255
255
220
247
247
193
242
248
189
227
245
184
227
242
176
241
249
179
254
254
232
255
255
248
254
255
225
253
255
206
253
255
209
255
253
217
255
252
197
255
255
238
255
255
224
237
247
177
235
253
186
242
252
203
255
255
237
255
255
216
255
255
206
254
255
211
224
230
172
192
205
142
191
213
151
215
233
177
232
247
192
229
246
191
253
255
242
255
255
239
255
255
228
254
255
234
255
255
254
255
255
251
255
255
219
255
255
223
252
255
215
243
255
187
248
255
186
253
255
203
255
255
225
253
255
210
255
255
210
255
255
215
242
255
185
240
255
184
252
255
194
255
255
223
255
255
232
255
255
224
255
255
229
255
255
251
255
255
241
249
253
208
255
255
215
255
255
224
255
255
233
255
255
240
254
255
230
247
255
211
242
254
194
255
255
210
253
255
206
251
255
218
255
255
252
251
255
212
250
255
212
255
255
246
255
255
255
255
255
254
255
255
252
255
255
243
246
255
192
252
255
205
255
255
246
255
255
246
255
255
221
252
255
207
255
255
239
255
255
209
243
255
187
239
255
180
244
255
200
255
255
236
243
255
198
242
255
192
254
255
224
240
255
188
243
255
176
236
247
167
217
231
147
244
253
180
255
255
205
255
255
238
255
255
221
254
255
226
255
255
248
255
255
232
243
255
195
252
255
200
254
255
199
243
255
180
251
255
209
255
255
231
247
254
199
246
254
198
255
255
232
247
255
216
250
255
210
255
255
217
248
252
195
226
242
167
249
255
184
249
254
187
252
255
196
239
254
182
236
252
173
249
255
189
244
255
186
246
255
186
255
255
208
237
252
179
247
254
176
243
255
179
235
254
191
253
255
222
233
245
191
255
255
207
255
255
193
255
255
188
255
255
217
255
255
248
251
255
218
220
243
176
242
255
199
255
255
253
255
255
239
255
255
251
255
255
242
254
255
224
241
251
201
249
255
221
255
255
241
255
255
228
255
255
254
255
255
250
255
255
247
255
255
236
255
255
249
255
255
230
255
255
194
253
255
199
255
255
209
252
250
195
255
255
213
255
255
241
255
255
247
250
253
207
250
254
218
254
255
226
251
255
215
255
255
251
255
255
249
246
250
212
255
255
241
237
251
200
252
254
208
242
254
195
250
254
204
254
255
220
255
255
234
255
255
249
255
255
225
251
255
208
253
255
214
255
255
252
255
255
249
254
255
230
247
255
201
254
255
206
252
255
193
246
255
190
246
255
201
254
255
228
254
255
231
255
255
252
255
255
252
239
253
199
224
245
178
235
247
192
254
255
232
254
255
230
254
255
244
255
255
226
246
255
208
246
255
190
248
255
197
250
255
201
254
255
209
255
255
239
255
255
247
255
255
212
254
255
205
246
252
199
233
244
180
234
243
175
250
253
204
255
255
240
246
255
209
230
250
176
251
255
211
255
255
242
254
255
211
255
255
220
252
255
215
236
252
192
223
244
181
226
246
188
246
255
209
254
255
225
254
255
223
241
254
207
240
251
204
184
208
144
199
227
160
235
253
198
247
255
210
244
255
206
249
255
233
255
255
252
255
255
237
253
255
222
255
255
242
255
255
238
255
255
218
255
255
241
252
255
215
250
255
194
251
255
189
236
243
171
235
249
190
247
255
207
255
255
218
254
255
217
248
254
186
248
255
183
246
254
183
253
255
202
255
255
212
255
255
225
255
255
231
253
255
224
239
244
193
237
241
186
247
254
202
253
255
217
255
255
218
255
255
232
255
255
236
255
255
239
255
255
223
255
255
213
255
255
216
255
255
216
255
255
224
254
255
223
255
255
227
255
255
241
255
255
240
255
255
236
255
255
254
255
255
245
252
255
202
255
255
237
255
255
255
255
255
247
255
255
218
255
255
217
255
255
234
255
255
228
255
255
215
249
255
196
230
253
174
246
255
203
242
255
197
246
255
207
255
255
254
251
255
213
250
255
186
250
253
183
242
249
172
243
254
178
252
255
202
255
255
254
255
255
247
254
254
227
255
255
234
251
254
203
241
254
186
252
255
196
254
255
202
254
255
186
242
254
190
236
247
189
242
255
191
248
254
195
255
255
233
250
255
225
255
255
230
255
255
235
251
255
199
223
249
167
240
255
175
242
253
180
239
255
180
233
251
171
231
241
167
227
243
168
214
242
164
232
245
175
253
255
201
249
254
178
252
255
183
241
255
181
237
255
185
249
253
200
234
239
175
255
255
201
255
255
203
255
255
205
255
255
240
254
255
244
254
255
213
239
254
184
249
255
187
241
246
182
254
255
243
255
255
253
255
255
236
255
253
215
254
255
222
254
255
224
255
255
229
255
255
246
255
255
255
255
255
250
253
255
219
247
254
189
254
254
212
255
255
249
255
255
247
255
255
218
255
255
219
255
255
228
255
255
231
255
255
244
255
255
247
255
255
234
255
255
252
255
255
232
255
255
239
255
255
247
251
254
213
236
244
191
244
249
207
223
240
181
250
253
192
240
251
183
232
245
182
252
255
209
254
255
228
254
255
240
250
255
213
238
255
197
248
255
203
255
255
251
255
255
234
252
255
216
252
255
216
250
255
207
223
249
179
233
250
189
255
255
228
255
255
231
242
254
216
246
254
226
255
255
254
239
253
208
225
243
181
236
248
190
250
255
216
255
255
245
255
255
255
254
255
222
240
254
205
236
253
178
254
255
217
254
255
217
250
255
202
255
255
234
255
255
251
253
255
210
254
255
222
255
255
227
252
254
204
253
255
195
253
255
197
247
255
204
238
254
192
230
247
175
250
254
204
255
255
233
249
254
202
250
255
194
248
255
207
230
254
195
219
238
179
218
240
182
249
255
204
255
255
229
253
255
225
236
253
203
235
255
205
203
233
166
207
238
169
225
246
189
237
253
203
243
255
207
229
252
188
250
255
224
255
255
238
253
255
230
254
255
216
253
255
214
247
255
207
253
255
232
250
255
209
250
255
198
238
249
182
223
237
166
247
254
205
252
255
209
249
254
201
255
255
232
255
255
228
254
255
204
240
249
180
246
255
185
254
255
197
255
255
203
252
254
202
249
252
198
232
234
176
248
245
184
243
250
182
250
255
200
255
255
213
255
255
230
254
255
230
255
255
234
255
255
233
255
255
226
255
255
228
255
255
234
255
255
212
246
255
197
252
255
212
255
255
223
255
255
227
255
255
224
255
255
247
254
255
226
254
255
227
255
255
253
255
255
247
255
255
218
255
255
238
255
255
252
255
255
247
255
255
242
255
255
248
255
255
234
245
254
198
247
255
196
255
255
215
255
255
225
255
255
255
252
255
231
230
254
177
247
255
191
255
255
194
253
255
192
248
255
188
255
255
245
254
254
225
246
246
189
255
255
212
247
255
196
250
255
191
247
252
185
225
240
163
234
252
167
231
250
170
237
251
178
242
255
180
248
255
199
255
255
229
255
255
252
255
255
237
255
255
226
254
255
207
243
255
182
252
255
184
251
255
191
245
255
190
235
250
179
226
239
172
234
245
180
214
235
162
225
242
170
250
255
190
247
254
176
252
255
181
245
254
178
248
254
186
248
255
192
246
255
190
254
255
203
255
255
209
255
255
211
255
255
242
255
255
231
255
255
208
253
255
194
254
255
210
254
254
220
255
255
247
255
255
235
253
253
208
235
224
171
242
246
196
245
252
205
253
250
198
254
252
224
255
255
250
255
255
241
253
255
205
241
247
176
249
252
185
255
255
240
255
255
250
253
255
218
244
254
191
255
255
208
255
255
232
255
255
234
255
255
226
255
255
225
255
255
238
255
255
216
255
255
231
255
255
247
253
254
236
248
252
212
241
252
201
213
237
173
244
251
195
236
244
179
231
242
176
250
254
198
255
255
214
241
250
199
237
251
192
230
253
178
238
255
185
254
255
221
254
255
227
254
255
236
255
255
240
248
255
204
214
231
161
238
244
188
255
255
222
253
255
214
231
246
188
230
249
196
254
255
248
252
255
238
227
246
190
224
239
176
250
254
224
255
255
255
250
255
236
250
255
213
232
251
192
237
254
183
245
255
195
238
251
194
244
252
201
254
255
216
255
255
236
255
255
230
255
255
236
255
255
234
255
255
222
254
255
205
241
255
189
238
255
197
237
255
194
250
255
196
255
255
216
255
255
228
254
255
212
255
255
223
250
255
219
231
254
196
228
243
182
224
241
178
242
255
197
250
255
196
247
255
196
231
251
196
242
255
208
226
248
184
215
243
178
217
239
182
246
255
210
254
255
222
246
255
202
249
255
215
255
255
252
255
255
251
249
255
210
250
255
209
249
255
212
251
255
216
244
255
202
242
255
196
218
235
167
225
238
169
254
255
213
254
254
211
248
253
190
255
255
216
255
255
229
255
255
211
250
253
193
255
255
214
255
255
212
255
255
203
251
255
194
246
254
189
238
243
176
245
244
179
239
246
177
246
252
185
251
251
194
255
255
222
255
255
237
255
255
231
255
255
248
255
255
242
255
255
229
255
255
234
255
255
231
254
255
219
254
255
213
255
255
240
255
255
224
255
255
228
255
255
231
253
255
208
254
255
228
255
255
242
255
255
213
254
255
183
255
255
235
255
255
255
255
255
255
255
255
255
255
255
253
255
255
244
255
255
249
255
255
227
255
255
219
255
255
228
255
255
255
251
255
225
226
252
171
237
255
176
253
255
191
255
255
211
250
255
180
255
255
223
255
255
221
255
254
201
255
255
206
246
251
187
240
254
179
239
251
169
216
235
149
230
250
161
243
255
174
254
255
192
234
254
174
236
255
193
254
255
224
255
255
230
255
255
226
255
255
219
244
254
194
237
249
178
248
254
182
233
250
174
230
246
181
228
243
179
249
253
207
255
255
228
236
244
178
236
244
174
254
255
195
254
255
191
254
255
185
254
255
200
254
255
203
253
255
193
246
255
185
255
255
211
255
255
199
254
255
199
254
255
227
253
255
201
251
253
185
245
245
181
252
253
205
255
255
221
255
255
233
250
253
208
251
253
197
245
244
194
229
240
176
237
244
191
252
247
198
245
237
179
255
255
230
255
255
245
253
255
211
248
251
185
254
255
197
255
255
229
255
255
246
250
254
208
240
252
188
254
255
199
251
255
200
254
255
233
255
255
249
251
255
220
252
255
212
255
255
210
255
255
214
255
255
239
255
255
255
255
255
246
244
254
209
216
242
176
232
246
185
244
246
188
244
251
184
250
255
198
244
254
202
245
250
192
238
247
183
237
253
183
245
255
197
254
255
215
241
249
194
242
252
209
254
255
239
253
254
224
232
238
174
251
250
203
254
254
220
255
255
216
246
251
187
232
246
188
255
255
247
253
255
242
240
255
200
242
252
193
255
255
245
254
255
240
222
244
195
243
254
206
232
248
190
243
254
195
245
255
196
233
252
185
236
251
185
252
255
205
255
255
218
255
255
231
255
255
240
255
255
233
255
255
215
252
255
202
235
253
190
232
254
197
244
255
208
255
255
205
255
255
218
255
255
240
255
255
236
255
255
245
253
255
224
241
253
195
244
250
184
241
252
182
239
255
190
243
255
189
248
255
191
250
255
212
255
255
228
251
255
202
222
241
177
210
230
170
247
253
206
255
255
224
255
255
222
255
255
214
255
255
248
255
255
255
251
255
219
255
255
217
255
255
221
255
255
224
255
255
217
245
255
200
220
238
171
232
235
168
255
255
200
250
249
195
250
249
187
255
255
209
255
255
217
253
254
200
253
253
208
255
255
240
255
255
234
255
255
221
253
255
203
246
255
190
244
253
181
243
249
180
238
249
185
244
251
182
254
254
198
255
255
214
255
255
227
255
255
238
255
255
254
255
255
245
254
255
219
251
255
213
255
255
245
255
255
251
255
255
237
255
255
255
255
255
235
255
255
211
255
255
220
254
255
203
250
255
190
254
255
195
255
255
183
250
255
176
254
255
221
255
255
244
255
255
255
255
255
254
255
255
232
253
255
204
255
255
233
255
255
253
255
255
253
255
255
251
255
255
254
248
253
208
223
239
167
239
253
182
253
255
195
255
255
212
254
255
191
255
255
197
255
255
211
255
255
198
255
255
217
252
254
200
240
253
174
252
255
176
249
254
174
251
255
179
253
255
187
255
255
209
235
254
184
244
255
199
255
255
226
250
251
190
252
249
192
255
255
204
242
255
189
244
252
187
247
251
188
222
234
170
214
230
167
229
241
178
246
252
199
255
255
218
254
252
199
254
255
195
255
255
207
255
255
207
254
255
192
255
255
238
255
255
243
250
252
189
238
251
175
254
255
192
254
255
182
251
255
186
248
254
198
255
255
199
234
241
172
215
224
156
236
250
186
238
254
189
251
255
201
244
253
190
250
254
195
255
255
221
249
254
219
252
254
236
254
254
217
255
254
205
255
255
213
255
255
213
255
255
215
255
255
229
255
255
229
255
255
217
254
255
221
230
239
178
249
252
203
255
255
209
246
255
187
240
254
197
254
255
227
242
247
194
253
255
201
255
255
207
255
255
213
255
255
229
255
255
248
255
255
217
249
254
199
245
254
201
240
250
188
249
245
186
252
250
188
251
255
208
246
253
212
236
245
176
236
246
175
229
245
174
252
255
214
255
255
224
252
255
200
240
252
179
241
248
184
254
255
219
245
247
210
219
217
168
237
237
184
253
255
209
244
252
183
249
255
201
254
255
234
245
255
219
244
255
198
250
255
206
255
255
228
252
255
217
216
233
185
247
254
214
232
248
193
229
241
184
247
253
202
255
255
219
246
255
198
239
253
193
249
254
210
255
255
244
255
255
255
255
255
241
252
255
208
255
255
223
243
254
208
221
249
188
236
255
202
251
255
203
253
255
208
255
255
234
255
255
232
255
255
232
248
255
207
246
255
192
250
248
181
242
245
174
240
252
184
254
255
208
255
255
205
255
255
217
255
255
228
255
255
208
249
253
201
244
249
195
246
254
193
248
254
200
252
255
204
249
255
196
252
255
217
255
255
254
255
255
248
255
255
223
255
255
227
255
255
229
255
255
219
250
255
201
238
252
184
250
252
188
255
255
215
255
254
210
255
253
199
255
255
209
255
255
202
253
254
186
252
252
195
255
255
224
255
255
231
255
255
226
254
255
204
248
255
194
253
255
192
252
255
191
242
252
189
250
254
192
255
255
207
254
255
212
251
254
207
255
255
242
255
255
255
255
255
242
253
255
211
251
255
207
255
255
227
255
255
253
255
255
255
255
255
255
255
255
254
255
255
237
255
255
225
255
255
208
252
255
185
255
255
184
255
255
184
250
255
190
247
255
214
245
255
217
254
255
248
255
255
253
255
255
224
246
254
189
252
254
201
255
255
236
255
255
245
255
255
255
255
255
242
250
255
198
247
254
189
248
255
184
254
255
197
255
255
204
255
255
216
255
255
205
249
255
197
252
255
185
255
255
207
254
255
199
250
255
185
255
255
180
255
255
183
255
255
191
255
255
194
254
255
210
244
255
196
253
255
213
255
255
227
255
255
199
255
254
200
253
255
201
235
254
182
253
255
203
255
255
213
230
248
189
237
248
188
250
254
195
234
245
177
250
252
195
253
247
196
253
252
193
255
255
207
253
255
190
246
254
180
253
255
225
255
255
247
236
243
180
234
247
178
253
255
193
254
255
189
245
248
182
248
251
203
255
255
222
243
251
197
234
251
183
243
255
199
241
255
191
237
249
183
243
252
191
254
255
204
247
253
197
240
250
202
250
255
228
255
255
216
255
255
228
255
255
234
255
255
214
255
255
203
255
255
248
255
255
244
255
255
211
249
253
195
232
242
174
251
254
204
255
255
222
252
255
203
236
251
184
247
246
184
241
238
170
255
255
202
255
255
215
255
255
232
255
255
247
255
255
250
255
255
243
255
255
236
255
255
247
255
255
214
254
254
203
252
253
201
254
255
225
255
255
225
238
247
177
226
238
166
219
239
161
234
252
185
253
255
211
255
255
213
251
255
195
247
254
189
255
255
227
254
254
239
221
218
172
222
227
169
224
235
174
238
251
182
254
255
215
247
255
211
213
243
175
236
252
195
255
255
235
245
254
222
234
249
198
228
237
184
251
255
221
236
250
197
240
246
192
240
247
198
253
255
221
248
255
200
233
254
181
242
253
199
255
255
251
255
255
255
255
255
245
245
253
202
255
255
229
247
255
221
230
254
200
242
255
207
241
254
194
244
254
197
254
255
217
254
255
214
247
254
201
249
255
204
255
255
224
255
255
214
246
248
187
236
249
182
246
254
194
251
255
201
251
253
201
255
255
221
255
255
222
255
255
219
255
255
223
253
255
201
235
244
177
225
240
170
241
249
184
254
255
199
255
255
236
255
255
246
255
255
218
255
255
220
255
255
228
255
255
219
254
255
198
254
255
194
255
255
202
255
255
227
255
255
221
255
255
222
255
255
214
255
255
198
254
255
186
255
255
189
254
255
195
255
255
223
255
255
225
252
255
202
242
255
189
248
255
188
254
255
198
252
255
196
255
255
196
255
253
201
252
252
194
252
255
201
255
255
240
255
255
254
255
255
232
255
255
215
255
255
221
255
255
234
255
255
255
255
255
255
255
255
255
255
255
255
255
255
253
255
255
240
255
255
229
255
255
201
255
255
191
255
255
205
253
255
210
241
255
207
236
255
202
247
255
221
255
255
236
255
255
230
255
255
234
255
255
224
255
255
226
255
255
222
255
255
219
250
255
202
245
255
187
255
255
195
248
255
184
255
255
193
255
255
193
255
255
199
255
255
187
253
255
174
255
255
183
255
255
204
255
255
204
255
255
201
255
255
185
255
255
182
255
255
187
252
255
190
244
255
189
242
255
193
255
255
228
255
255
231
255
255
200
255
255
207
251
255
202
235
255
183
252
255
212
255
255
235
244
254
207
252
254
206
255
255
205
235
247
174
230
229
164
238
230
175
244
247
191
252
255
197
247
255
182
243
254
185
252
255
208
253
255
223
226
247
175
236
251
182
249
255
195
244
249
183
240
241
179
245
250
194
255
255
219
248
255
203
233
252
187
242
255
196
253
255
200
243
253
197
252
255
209
251
255
206
250
254
206
242
254
198
246
254
211
255
255
223
255
255
225
255
255
244
255
255
217
255
255
200
255
255
221
255
255
218
254
255
205
244
251
192
236
246
180
247
254
184
254
255
205
251
253
193
241
229
158
251
227
144
255
250
163
255
255
195
255
255
216
255
255
208
255
255
218
255
255
222
255
255
224
255
255
236
255
255
229
254
254
205
255
255
229
255
255
236
255
255
224
254
255
218
252
254
203
235
251
182
218
245
160
221
245
164
237
255
189
242
255
206
249
255
203
251
255
197
255
255
207
242
245
191
224
224
168
244
247
191
225
233
176
231
244
181
253
255
217
246
255
210
199
229
171
236
250
204
253
255
230
229
251
206
216
238
185
224
231
175
251
255
216
244
255
207
253
255
206
240
251
196
233
254
189
232
255
178
228
255
164
243
255
198
255
255
254
255
255
255
255
255
245
240
253
197
242
255
200
234
254
201
231
254
196
249
255
206
239
252
189
229
250
179
236
253
192
235
252
191
234
250
188
245
253
199
255
255
241
255
255
235
254
254
215
243
254
196
220
238
169
220
239
176
239
247
191
255
255
225
255
255
235
255
255
212
255
255
208
255
255
202
241
249
178
218
234
162
226
235
173
249
249
194
255
255
216
255
255
223
255
253
203
254
252
199
255
255
206
255
255
204
255
255
208
255
255
211
255
255
212
255
255
222
255
255
225
255
255
213
255
255
220
255
255
225
255
255
223
255
255
214
255
255
198
255
255
214
255
255
218
249
255
200
243
255
196
248
255
197
255
255
212
255
255
211
255
255
211
255
255
207
255
255
208
255
255
219
255
255
231
255
255
241
255
255
227
255
255
229
255
255
245
255
255
231
255
255
253
255
255
255
255
255
255
255
255
255
255
255
255
255
255
255
255
255
248
255
255
221
255
255
210
255
255
219
254
255
214
243
255
200
235
255
196
233
255
195
248
255
205
254
255
213
255
255
242
255
255
254
255
255
245
255
255
241
252
255
203
237
253
181
247
255
189
255
255
198
255
255
192
255
255
194
255
255
181
255
255
184
255
255
184
255
254
175
255
244
167
255
249
176
255
255
190
255
255
192
255
255
197
255
255
201
255
255
194
246
255
186
242
255
190
245
255
197
254
255
222
255
255
219
255
255
218
255
255
224
254
255
207
250
255
190
254
255
209
255
255
247
251
255
211
254
255
200
253
254
201
230
242
166
229
233
163
243
241
183
243
251
191
248
255
197
250
255
190
246
255
192
247
255
198
251
255
203
242
255
192
246
255
190
251
255
192
234
248
181
220
232
167
232
236
169
249
251
189
238
248
186
230
251
189
231
250
183
239
250
187
247
255
204
253
255
212
255
255
220
255
255
229
254
255
214
255
255
226
249
255
212
251
255
215
255
255
222
255
255
208
255
252
195
255
255
196
254
255
211
254
255
213
241
250
192
250
253
195
255
255
196
255
255
209
249
245
185
221
188
124
222
172
91
247
222
126
255
254
183
255
255
217
255
255
203
254
254
212
255
255
210
255
255
210
255
255
209
254
254
202
253
254
210
255
255
239
255
255
233
244
255
201
248
255
203
255
255
217
235
251
175
224
251
165
229
252
172
241
254
183
239
254
199
252
255
210
249
255
200
240
254
185
223
236
165
238
241
181
253
251
206
229
221
173
239
242
191
255
255
216
248
254
213
218
241
186
228
248
195
250
255
216
251
255
220
233
247
198
218
230
165
232
251
193
239
253
201
249
255
209
231
254
190
220
253
166
224
255
163
237
255
178
252
255
217
255
255
254
255
255
255
254
255
242
239
255
196
233
255
184
235
253
187
232
245
183
237
247
189
232
247
184
222
243
174
222
246
183
218
246
185
217
242
182
241
252
194
255
254
205
251
248
200
253
253
207
249
255
206
217
236
168
213
236
174
236
253
196
254
255
221
255
255
231
255
255
210
255
255
207
255
255
201
246
251
182
228
240
171
228
234
175
239
238
184
254
252
201
255
254
208
253
246
193
248
244
187
250
249
189
254
252
194
255
255
207
255
255
208
255
255
209
255
255
223
255
255
225
255
255
218
255
255
218
255
255
232
255
255
239
255
255
247
255
255
237
255
255
232
255
255
219
242
254
193
235
253
187
246
255
195
253
255
208
255
255
216
255
255
216
255
255
213
255
255
226
255
255
232
255
255
239
255
255
239
255
255
229
255
255
232
255
255
242
255
255
223
252
255
218
255
255
239
255
255
239
255
255
234
255
255
247
255
255
254
255
255
253
255
255
238
255
255
223
255
255
215
251
255
202
242
254
187
235
254
190
235
255
192
235
252
189
243
252
193
255
255
218
255
255
237
255
255
255
255
255
246
253
255
206
250
255
195
254
255
201
255
255
204
255
255
205
255
254
191
255
253
179
255
255
182
255
251
173
255
239
161
255
245
170
255
254
192
255
255
198
255
254
192
255
255
224
255
255
240
255
255
221
242
255
191
235
250
187
240
251
194
253
255
210
255
255
215
255
255
221
255
255
221
255
255
213
255
255
206
255
255
212
255
255
234
255
255
212
253
255
193
248
253
189
240
244
178
239
241
179
246
252
192
240
254
192
242
253
193
245
254
193
239
249
188
241
250
192
248
255
202
251
255
207
254
255
202
251
255
192
231
250
179
228
243
175
244
245
180
245
245
186
237
249
192
225
245
185
221
236
173
224
236
177
239
253
203
247
255
209
254
255
215
254
255
221
251
255
209
246
255
208
233
250
193
234
248
187
247
254
196
250
250
190
252
248
189
255
255
202
251
255
210
248
255
206
239
248
189
251
252
201
255
255
210
252
254
207
243
241
188
219
193
136
201
163
100
216
190
116
249
246
169
253
252
192
239
237
174
235
231
177
252
251
208
255
255
237
255
255
232
255
255
240
255
255
244
253
252
223
248
248
202
244
251
193
253
255
205
255
255
212
235
253
172
225
252
163
243
255
180
244
255
178
238
251
183
252
255
209
254
255
223
246
254
202
227
240
180
236
242
187
254
254
210
250
243
197
251
251
200
255
255
212
255
255
232
245
254
213
220
243
184
226
248
185
240
253
197
228
244
184
243
250
196
223
242
187
223
244
183
227
251
179
211
241
163
209
237
161
234
253
186
249
255
206
255
255
229
255
255
247
255
255
248
253
255
233
241
255
206
234
255
188
238
251
183
240
241
181
238
243
186
239
252
193
229
250
183
217
241
180
215
242
184
221
243
188
245
254
203
248
250
187
234
233
170
237
234
179
230
237
177
218
230
169
220
237
179
236
252
197
239
245
188
253
252
206
255
255
223
255
255
220
255
255
209
245
253
187
237
247
182
242
246
190
251
250
199
255
253
203
255
249
200
251
243
193
255
253
203
251
245
190
254
245
191
254
249
194
250
249
190
255
255
207
255
255
224
255
255
226
255
255
225
255
255
211
255
255
199
255
255
212
255
255
236
255
255
246
255
255
243
253
255
212
234
252
188
232
251
183
240
255
188
245
255
198
253
255
212
255
255
220
255
255
225
255
255
233
255
255
234
255
255
240
255
255
238
255
255
223
253
255
212
254
255
216
255
255
213
253
254
208
255
255
216
255
255
218
255
255
209
255
255
219
255
255
239
255
255
244
255
255
237
255
255
223
255
255
216
251
255
203
244
254
192
241
254
193
236
251
188
238
252
189
242
252
191
250
255
195
254
254
208
255
255
238
255
255
239
251
255
204
253
255
196
255
255
202
255
255
209
255
255
213
255
255
207
255
255
204
255
252
186
253
222
155
255
221
151
255
251
185
255
255
222
255
255
223
255
255
206
255
255
227
255
255
248
255
255
228
239
254
195
238
252
194
245
253
201
255
255
213
255
255
213
255
255
211
252
255
202
255
255
209
255
255
214
255
255
212
255
255
230
255
255
226
254
255
202
248
251
188
253
251
195
248
248
193
238
249
195
227
244
189
237
251
198
239
252
196
239
249
192
239
246
191
243
252
200
253
255
216
254
255
214
247
255
197
239
255
194
251
255
209
255
254
206
251
250
202
238
250
199
223
241
183
222
235
176
231
242
187
233
250
200
241
255
206
246
255
200
238
253
195
231
249
191
222
240
183
225
240
181
233
248
186
238
251
186
237
245
174
246
248
186
246
252
196
246
255
207
239
253
198
237
247
184
254
255
205
255
255
214
247
251
200
226
236
183
217
216
161
212
201
149
215
205
148
229
224
153
233
225
155
237
225
163
238
235
172
253
254
218
255
255
251
255
255
252
254
254
242
240
234
204
207
197
159
222
217
167
232
230
176
242
244
186
247
255
187
226
252
162
226
254
163
234
255
175
230
255
170
240
252
192
254
255
238
255
255
247
251
255
213
233
245
187
230
240
183
254
255
223
255
255
223
250
255
200
249
255
192
255
255
221
253
255
223
234
247
190
227
246
174
221
243
166
229
241
177
247
254
200
231
250
190
215
240
165
205
236
148
197
231
141
207
233
162
239
252
198
254
255
227
255
255
230
254
255
219
245
252
209
238
252
204
239
255
205
240
255
195
240
249
187
240
240
184
240
248
191
242
255
198
227
249
181
224
250
186
242
255
212
247
255
217
244
255
206
235
245
179
242
245
180
252
251
198
249
251
201
233
247
191
228
246
188
229
247
189
228
241
179
249
250
196
255
255
216
255
255
220
255
255
210
248
255
192
241
251
184
249
254
199
255
255
211
255
255
216
255
254
212
255
254
213
255
255
216
255
254
207
255
251
200
250
243
191
234
232
178
251
246
194
255
255
209
255
255
212
255
255
207
255
255
200
255
255
199
255
255
217
255
255
221
250
253
206
242
244
192
234
244
187
231
249
186
245
254
193
250
255
194
242
255
193
248
255
204
254
255
216
255
255
230
255
255
229
255
255
224
255
255
226
255
255
223
253
255
209
243
254
194
247
255
200
255
255
223
255
255
229
255
255
232
255
255
232
255
255
217
255
255
211
255
255
221
255
255
236
255
255
236
255
255
233
255
255
226
253
255
212
239
253
192
235
251
187
240
252
187
243
254
188
244
255
188
244
253
185
249
251
191
255
255
210
255
255
211
245
253
187
250
254
186
255
255
192
255
255
204
255
255
205
255
255
204
255
254
204
255
247
185
248
221
155
253
226
154
255
254
187
255
255
203
255
254
202
255
249
191
255
251
202
255
255
224
253
255
220
236
253
195
242
255
199
251
255
207
255
255
218
255
255
211
255
255
218
255
255
219
254
255
212
249
255
206
248
255
203
254
255
228
255
255
239
255
255
221
255
255
203
255
254
201
251
255
200
240
254
203
230
246
193
233
250
196
234
254
199
238
251
196
242
251
196
234
247
193
243
254
206
246
255
207
242
255
200
244
255
204
255
255
225
255
255
218
246
247
198
229
240
188
221
241
181
219
237
177
226
240
185
231
242
193
240
251
199
238
251
192
236
251
194
226
243
187
222
236
181
220
233
176
226
243
181
232
247
181
239
247
178
242
251
189
230
242
184
225
242
182
225
245
184
235
249
186
254
255
206
255
255
215
242
249
199
225
234
183
224
234
183
230
241
189
227
236
180
223
220
162
222
214
150
229
227
165
240
247
183
253
255
210
255
255
229
255
254
225
240
231
187
188
182
137
174
164
124
186
183
135
207
203
157
238
239
188
251
255
194
236
254
177
232
254
177
225
253
171
233
253
173
255
255
241
255
255
255
255
255
241
254
255
215
248
254
202
249
254
202
251
255
203
243
251
196
240
252
188
243
255
177
249
254
189
252
255
210
246
255
201
228
246
173
221
241
166
225
236
172
245
254
193
234
253
188
222
247
167
200
233
139
205
234
148
219
240
170
244
254
207
255
255
239
255
255
228
242
250
194
221
232
177
222
233
179
237
252
194
249
255
202
249
254
197
246
251
193
241
250
192
234
249
187
220
242
168
223
247
178
250
255
224
253
255
228
240
251
199
235
244
185
241
246
186
253
253
206
255
255
228
255
255
223
237
249
199
224
241
180
231
245
180
251
255
196
254
255
203
254
255
206
253
255
204
246
255
191
247
255
190
253
255
208
255
255
227
255
255
232
255
255
221
255
255
216
254
255
215
254
255
213
252
253
202
242
243
192
234
234
181
252
244
195
255
254
211
255
255
212
255
255
206
255
255
207
255
255
212
255
255
232
255
255
226
253
251
203
235
233
176
225
235
177
237
248
188
254
255
199
255
255
201
246
255
198
242
255
199
250
255
211
255
255
224
255
255
221
254
255
212
253
255
208
252
254
206
241
251
192
237
249
187
251
255
206
255
255
228
255
255
241
255
255
238
255
255
235
255
255
225
255
255
224
255
255
226
255
255
227
255
255
233
255
255
238
255
255
231
250
255
216
242
254
197
243
253
188
246
254
188
241
253
184
233
250
177
237
251
182
248
254
193
252
255
202
250
255
197
242
251
184
249
253
190
255
255
197
255
255
206
255
255
212
255
255
212
255
255
207
255
253
192
252
239
171
248
235
164
253
252
186
248
244
178
251
239
178
254
232
180
254
243
192
255
255
210
251
255
212
234
252
194
232
247
192
249
254
207
255
255
218
255
255
215
255
255
233
255
255
227
249
255
208
232
254
193
236
255
194
254
255
223
255
255
241
255
255
232
255
255
211
247
247
191
245
252
197
252
255
211
246
254
204
240
252
198
228
247
194
234
250
196
242
254
199
238
248
194
240
252
199
244
255
207
248
255
215
251
255
216
255
255
220
252
252
206
239
240
190
223
234
181
224
243
186
219
239
182
217
232
178
216
224
173
217
225
173
237
246
187
244
254
200
229
243
190
225
236
179
225
234
177
233
248
188
239
250
191
238
248
186
234
245
186
226
241
183
218
239
177
222
245
183
232
252
193
250
255
207
252
255
210
230
242
190
221
235
182
231
246
194
239
255
204
232
248
194
225
230
174
211
215
152
212
228
165
220
242
179
243
253
190
255
255
202
254
252
202
236
232
177
201
201
146
177
174
126
182
185
133
193
198
148
223
223
175
235
240
186
237
245
185
240
253
190
228
248
179
224
239
163
251
254
214
255
255
246
255
255
251
255
255
247
255
255
239
250
254
207
232
245
181
238
250
189
250
255
195
243
252
178
221
238
161
233
247
184
246
255
201
235
250
184
224
241
173
239
249
193
249
255
205
212
229
164
215
237
161
216
242
157
226
247
166
239
254
182
242
255
196
251
255
210
247
252
192
224
234
167
209
220
160
211
223
163
233
245
183
251
255
202
255
255
212
254
255
207
246
251
197
234
238
177
217
232
160
203
227
152
230
247
192
250
255
211
243
252
196
230
239
181
230
239
180
243
245
189
254
254
212
255
255
219
249
252
200
230
239
176
230
240
174
245
251
190
250
255
202
252
255
208
251
255
208
245
255
198
253
255
202
255
255
220
255
255
240
255
255
236
255
255
220
250
251
197
242
252
199
242
251
200
238
244
193
233
239
188
239
243
189
253
251
202
255
255
223
255
255
227
255
255
222
255
255
216
255
255
219
255
255
227
255
255
222
254
253
207
240
241
186
226
233
176
243
247
189
254
254
196
255
255
201
246
255
198
242
255
202
249
255
212
255
255
220
253
255
211
253
255
208
249
255
202
245
252
197
234
245
187
237
250
191
252
255
207
255
255
222
255
255
234
255
255
235
255
255
221
255
255
224
255
255
233
255
255
231
253
255
216
252
255
216
250
255
218
252
255
219
246
255
210
249
255
204
252
255
197
247
252
185
238
247
177
230
243
171
237
249
182
245
254
193
247
255
196
252
255
199
254
255
206
255
255
213
255
255
211
255
255
216
255
255
215
255
255
215
255
255
216
255
255
204
252
251
186
240
242
174
238
244
178
239
243
178
247
241
184
255
245
192
255
248
197
254
254
205
247
255
203
230
244
187
226
238
184
240
249
198
253
255
214
255
255
218
255
255
217
248
252
205
230
247
188
224
247
185
239
254
195
254
255
214
255
255
234
255
255
230
249
252
205
236
240
185
241
249
195
253
255
211
251
255
207
236
245
191
229
244
194
236
251
197
240
253
197
244
253
198
240
252
199
239
250
202
252
255
222
254
255
220
252
255
208
244
250
197
235
242
188
228
240
186
231
249
194
229
248
193
217
233
179
206
214
163
214
218
167
243
246
189
248
254
202
232
244
192
227
237
181
230
240
182
240
252
195
236
245
191
229
238
183
228
238
182
225
239
180
219
239
178
224
246
183
224
248
186
235
253
198
234
251
195
207
227
172
213
231
177
231
247
194
235
250
198
224
241
189
215
225
170
208
214
156
209
221
162
217
235
172
246
253
198
255
255
212
253
253
199
242
243
183
229
230
170
216
213
159
202
207
152
197
206
151
206
210
159
207
212
160
219
228
167
233
246
182
235
245
180
212
223
150
228
239
170
254
254
213
255
255
244
255
255
252
253
255
228
233
244
188
225
236
175
244
249
191
253
253
195
235
243
177
209
228
156
221
239
171
244
255
197
238
251
190
231
247
184
243
255
200
238
255
200
186
193
135
208
219
152
227
241
165
239
252
174
240
250
176
232
243
171
234
248
170
238
246
161
233
239
169
232
241
181
237
246
187
238
247
186
250
255
201
255
255
214
254
255
210
248
254
200
235
241
179
227
240
171
213
233
159
226
243
176
252
255
204
252
254
202
236
244
185
231
241
180
244
251
188
252
254
194
254
254
201
252
249
193
244
243
182
243
245
182
248
250
193
253
255
211
255
255
217
254
255
217
244
254
200
254
255
211
255
255
222
255
255
235
255
255
224
253
253
208
241
243
188
240
252
195
238
249
194
233
242
188
228
237
184
239
246
190
255
254
204
255
255
219
255
255
218
255
255
218
255
255
211
252
255
210
254
255
215
255
255
220
255
255
210
246
247
193
228
234
178
244
245
188
254
253
197
255
255
198
245
254
196
238
253
198
244
254
205
249
254
210
243
249
200
251
254
207
254
255
209
251
255
205
243
252
198
237
253
195
242
255
200
249
255
207
255
255
217
255
255
214
255
255
212
255
255
226
255
255
234
255
255
224
249
255
210
247
255
206
243
255
208
239
253
203
236
252
199
247
255
204
254
255
202
249
250
189
241
244
180
232
239
174
235
242
182
240
247
188
245
252
192
251
255
200
255
255
216
255
255
230
255
255
225
255
255
218
255
255
211
255
255
209
255
255
219
255
255
215
255
255
201
247
253
188
240
247
182
241
244
184
248
246
190
253
251
198
253
254
202
247
253
199
242
252
197
228
239
183
224
235
180
242
251
199
254
255
212
255
255
219
252
253
203
232
238
182
221
233
175
222
238
179
239
250
193
251
255
203
254
255
216
247
253
210
240
248
196
238
245
190
244
252
198
245
253
201
238
249
196
230
242
190
235
248
198
235
248
194
240
252
195
243
253
200
240
254
205
240
254
207
246
255
211
253
255
212
247
253
202
240
250
195
230
240
186
233
243
191
236
251
198
231
249
194
217
235
179
213
222
169
225
230
177
243
246
190
239
247
195
232
243
192
231
240
187
229
240
185
233
244
191
225
235
185
216
224
172
221
230
175
217
228
171
210
226
166
216
233
170
217
234
173
221
242
186
212
240
180
194
221
163
202
224
168
218
236
182
221
236
184
215
228
177
213
222
168
210
214
159
201
212
154
209
223
162
232
242
179
242
250
186
230
238
174
238
237
175
244
232
172
243
230
171
229
224
165
216
222
165
219
225
171
216
222
169
214
225
165
230
242
179
239
245
180
224
231
158
215
224
155
228
237
180
235
247
202
245
254
223
233
247
199
216
228
172
218
229
171
237
241
184
231
235
176
220
231
166
209
225
158
207
224
153
219
236
163
222
239
173
234
252
193
238
255
198
225
252
187
206
211
155
218
226
165
228
240
175
228
242
175
224
236
170
214
226
157
226
239
165
249
254
179
254
255
193
254
255
211
255
255
212
252
255
202
253
255
204
255
255
211
255
255
209
253
255
213
245
253
197
244
254
191
240
252
183
244
253
181
255
255
194
254
253
197
251
255
195
249
254
198
248
254
199
240
248
182
234
236
175
242
240
181
248
246
188
251
248
191
255
253
201
255
255
221
255
255
224
255
255
217
244
253
200
253
255
210
254
255
211
255
255
217
252
254
206
242
248
194
241
249
192
246
255
200
247
254
197
244
252
198
243
251
196
248
254
199
255
255
200
255
254
208
255
254
210
253
250
202
249
250
199
244
253
200
252
255
212
254
255
214
255
255
211
254
254
202
246
250
195
247
248
191
255
253
198
251
248
194
241
248
193
231
245
188
233
246
191
239
249
197
245
251
202
252
255
207
255
255
212
254
255
208
248
255
202
240
255
198
241
255
199
237
252
193
242
251
195
241
249
195
251
255
206
255
255
224
255
255
238
251
255
220
244
255
206
242
253
201
232
249
195
227
244
190
229
246
191
239
254
200
248
255
199
251
252
195
242
242
186
234
236
180
236
240
186
238
241
185
240
245
185
248
253
195
255
255
214
255
255
226
255
255
219
255
255
220
255
255
213
255
255
209
255
255
216
255
255
221
255
255
209
253
255
198
243
252
189
240
246
187
242
248
191
245
252
198
243
252
199
239
246
192
233
241
187
228
238
182
222
233
178
235
245
193
251
253
205
253
253
205
242
242
189
219
221
166
211
216
160
219
226
169
228
233
177
245
245
191
246
249
196
235
240
190
232
240
185
243
251
196
245
250
197
238
247
191
233
246
191
229
246
195
237
251
200
241
250
197
241
247
193
248
254
211
245
255
218
241
255
212
235
248
194
235
243
192
229
239
186
225
235
183
225
233
181
229
236
185
232
245
192
226
243
186
218
237
178
222
232
176
225
233
177
231
236
180
229
239
189
232
242
195
230
238
188
225
236
186
226
240
191
223
235
189
217
225
175
215
224
172
207
217
162
204
214
156
213
224
164
212
229
167
210
234
176
199
230
170
190
219
161
192
216
159
207
226
172
216
231
180
218
226
177
221
225
172
213
216
161
203
218
158
214
228
167
226
238
173
222
235
167
212
229
159
226
220
157
235
211
154
234
211
156
228
219
162
220
223
168
220
223
170
211
215
164
206
218
163
220
228
171
228
228
173
220
223
162
209
214
156
211
223
168
214
230
176
210
229
175
207
222
168
215
225
170
223
231
175
228
233
176
219
228
168
222
230
166
229
232
172
211
219
157
207
218
154
212
228
166
230
249
191
228
247
186
219
240
173
229
238
175
238
249
188
235
248
188
221
238
180
214
229
169
209
225
160
221
235
167
242
250
179
254
255
200
255
255
222
255
255
223
255
255
220
255
255
213
255
255
212
254
255
209
255
255
221
255
255
221
255
255
211
254
255
200
255
255
199
247
248
187
241
240
181
249
249
189
253
255
199
250
255
200
242
251
190
223
229
169
225
230
171
234
239
181
242
241
188
248
245
196
254
253
208
255
255
217
255
255
215
252
255
209
253
255
211
252
255
205
248
254
200
245
253
198
244
252
197
250
255
205
245
255
202
246
255
199
246
255
198
251
255
201
253
255
199
254
251
196
255
252
197
254
252
201
250
249
198
246
248
195
245
252
199
251
255
214
250
255
211
250
255
205
249
253
199
255
255
208
254
255
205
249
251
195
235
239
182
229
239
182
225
238
184
229
242
188
239
248
196
247
255
206
252
255
207
254
255
208
246
251
197
240
246
188
240
251
191
246
255
200
238
253
194
229
242
183
221
236
181
234
248
196
252
255
220
254
255
228
254
255
215
249
255
208
239
249
195
230
243
187
224
237
181
227
241
184
234
249
192
242
253
196
243
251
194
240
245
190
240
242
191
238
245
190
239
246
189
237
242
183
244
249
190
252
255
203
255
255
214
255
255
213
255
255
208
255
255
214
255
255
217
255
255
219
255
255
218
255
255
213
253
255
202
240
251
190
234
245
184
240
254
195
239
250
195
233
243
189
224
231
177
224
231
179
230
239
186
224
234
180
221
232
176
233
240
188
238
242
190
227
231
178
213
220
163
207
214
157
209
215
157
219
224
166
231
235
178
225
233
175
217
225
171
219
227
174
232
239
185
234
239
182
236
240
184
235
245
189
234
251
196
238
252
197
242
249
196
249
252
203
255
255
225
251
255
226
235
252
203
224
239
184
222
232
177
215
228
175
210
222
169
218
226
174
220
227
175
225
235
182
222
236
181
226
241
185
230
241
186
224
235
176
222
233
179
221
234
182
224
236
184
220
230
178
223
233
186
226
239
192
221
235
189
217
231
181
215
228
175
215
225
171
212
222
165
213
228
167
208
229
169
199
224
166
191
219
162
188
216
159
197
220
164
215
232
180
231
244
196
236
246
197
235
241
188
226
234
178
215
232
174
217
237
175
229
241
180
216
231
168
203
223
158
213
216
154
219
203
146
220
203
149
221
217
161
217
223
170
206
210
160
204
209
159
204
214
161
215
219
169
219
218
170
217
217
168
210
213
163
204
214
160
211
222
167
211
221
168
217
225
173
223
231
177
223
231
174
221
232
169
222
229
164
233
233
172
236
232
177
213
214
161
207
213
160
213
223
170
229
242
188
224
238
184
213
228
168
226
228
164
238
245
188
241
254
200
228
246
190
220
235
178
219
233
170
226
235
172
239
243
179
253
255
199
255
255
217
253
255
212
255
255
219
255
255
217
255
255
212
255
255
208
255
255
223
255
255
228
255
255
219
255
255
219
255
255
210
240
245
188
227
230
174
233
233
176
240
247
187
251
255
203
250
255
202
235
244
188
228
235
181
227
235
180
227
231
178
227
227
178
241
238
192
253
253
209
254
255
212
253
255
218
255
255
225
255
255
216
253
255
208
254
255
212
252
255
209
248
255
207
233
251
191
232
248
185
236
247
187
248
251
194
249
247
191
247
239
185
252
248
193
252
254
198
248
253
197
241
247
192
239
248
198
251
255
220
246
255
222
239
255
206
242
253
197
253
255
208
255
255
209
247
251
196
234
240
184
229
241
186
235
248
193
241
251
197
243
252
198
247
253
202
249
254
201
249
252
197
238
244
186
233
238
179
240
248
188
244
254
194
245
255
196
235
246
187
223
236
181
231
245
193
241
254
208
249
255
213
255
255
213
249
255
204
243
251
196
231
240
182
228
236
179
227
237
179
233
246
187
240
254
195
243
253
197
245
251
199
249
253
203
241
250
197
238
245
190
242
247
189
245
250
191
254
255
204
255
255
209
255
255
208
255
255
206
255
255
206
255
255
207
254
255
207
254
255
207
251
253
200
243
252
192
235
248
186
232
248
185
235
251
189
235
247
189
228
237
181
220
227
173
224
231
179
234
243
191
230
240
187
220
231
175
216
223
168
224
229
174
221
226
170
209
219
159
209
219
159
211
220
160
216
224
165
227
235
176
226
236
178
219
228
171
220
229
170
222
230
169
228
233
174
234
238
180
238
246
188
241
253
196
242
253
196
238
247
191
247
252
199
253
255
216
243
254
212
226
243
188
221
236
179
222
235
176
220
233
178
214
224
170
216
223
171
214
223
170
216
229
175
221
239
184
232
249
195
236
250
197
227
241
186
218
235
181
218
237
183
214
234
178
216
233
179
220
232
182
222
235
187
217
232
183
213
231
179
215
230
177
220
232
178
216
228
170
211
229
167
207
231
170
195
220
162
189
213
158
189
214
157
207
227
171
229
243
193
251
255
217
249
255
210
239
248
196
230
242
188
228
245
189
233
249
191
239
246
189
231
240
182
217
232
173
208
220
159
212
210
152
216
209
153
218
219
163
218
225
171
212
216
166
213
217
166
208
214
159
208
211
161
214
214
166
212
214
165
204
209
159
203
211
160
208
217
165
216
223
172
222
227
176
221
226
173
216
223
166
212
224
161
224
230
165
233
232
173
233
225
173
219
214
165
211
211
161
210
219
168
227
237
186
224
233
183
206
215
161
223
217
163
227
229
174
239
249
193
243
252
201
232
241
187
229
237
178
231
236
178
239
238
182
254
254
204
255
255
227
255
255
230
253
255
216
254
255
214
253
255
200
253
255
203
255
255
221
255
255
231
255
255
229
255
255
224
255
255
217
244
250
196
226
231
179
221
223
168
226
233
175
242
250
193
253
255
209
253
255
214
247
252
206
234
242
191
225
233
180
227
231
180
233
232
185
243
248
199
252
255
210
253
255
216
255
255
224
255
255
222
255
255
224
255
255
226
255
255
224
250
255
214
234
252
192
219
236
171
225
237
175
238
238
180
238
231
177
239
227
175
245
241
186
253
255
203
245
254
196
235
245
186
233
244
188
241
253
205
244
255
213
237
254
200
232
250
185
246
254
200
252
255
206
245
252
197
241
250
195
235
247
193
244
254
199
249
255
201
245
252
196
249
252
200
251
253
198
250
252
193
247
251
191
244
248
193
248
251
197
250
254
198
245
253
192
236
244
186
229
238
184
233
247
194
236
253
201
242
252
204
246
251
200
249
254
200
248
254
197
239
244
186
234
240
181
231
238
179
234
245
184
242
255
195
251
255
209
255
255
220
253
255
213
250
255
207
242
249
195
239
244
188
245
250
191
254
255
207
255
255
213
255
255
209
255
255
205
255
255
199
251
255
195
242
247
190
236
239
184
235
238
183
232
241
181
232
246
183
230
250
185
235
250
187
232
244
183
220
230
172
225
232
177
235
242
189
238
247
194
233
244
190
221
233
175
216
224
167
214
218
162
210
215
157
210
221
159
216
227
165
219
229
169
224
235
175
232
242
183
238
247
190
235
245
184
234
244
178
230
240
172
229
236
173
234
240
181
239
247
188
244
253
195
244
253
196
242
252
194
245
254
198
247
255
206
240
254
201
229
242
186
225
240
181
230
246
185
230
240
183
224
232
176
224
230
177
218
226
173
213
230
175
225
245
191
234
251
199
234
248
196
223
239
188
217
236
182
216
240
184
213
239
183
222
245
189
221
237
185
220
234
182
212
227
174
206
224
171
209
225
171
215
229
174
211
224
167
207
227
165
205
232
170
198
223
165
195
216
163
194
215
159
214
232
177
237
248
199
252
255
218
245
253
206
239
251
199
238
251
200
237
252
201
245
254
203
252
253
202
237
244
187
218
237
172
210
225
158
215
215
155
222
214
161
226
224
171
221
228
176
224
228
178
220
223
172
209
213
157
207
211
158
207
210
159
206
212
161
205
212
161
209
215
166
213
219
170
215
220
171
211
213
164
205
208
155
205
212
155
203
214
152
221
223
156
243
233
169
244
225
169
230
214
163
215
211
161
210
218
166
216
228
178
207
219
170
197
210
157
228
224
169
233
233
176
237
247
189
245
253
198
240
249
193
238
245
190
243
248
192
243
245
187
254
255
207
255
255
227
255
255
242
255
255
234
250
255
213
245
254
199
248
254
196
255
255
217
255
255
227
255
255
236
255
255
223
255
255
221
250
253
202
233
240
185
219
228
165
222
231
167
240
249
190
254
255
216
255
255
229
253
255
222
240
249
199
236
246
192
234
244
190
234
242
189
234
242
186
247
253
204
255
255
218
255
255
223
255
255
230
255
255
244
255
255
244
255
255
244
254
255
224
238
250
193
224
236
170
226
235
167
234
235
173
240
234
179
239
227
175
244
239
185
255
255
215
253
255
211
246
253
198
232
241
184
228
239
184
224
241
182
221
239
177
227
246
182
234
249
189
239
250
196
240
250
199
239
250
196
244
254
201
251
255
207
253
255
211
254
255
208
255
254
203
254
253
199
255
254
200
255
255
207
255
255
222
255
255
231
255
255
227
252
254
205
236
240
182
229
235
179
232
240
186
232
241
189
228
234
183
232
236
184
241
244
189
247
251
194
247
251
190
241
249
186
236
245
182
236
247
185
244
254
196
253
255
209
255
255
222
255
255
223
250
255
206
240
247
192
235
240
183
238
245
186
246
252
195
255
255
205
255
255
199
255
255
201
255
255
196
250
253
193
240
243
188
236
230
178
229
226
173
224
231
173
227
237
176
229
244
180
234
245
185
229
238
178
226
234
175
234
243
185
247
253
199
245
254
199
238
249
194
224
239
174
217
226
163
203
206
148
202
203
146
211
216
155
221
229
167
225
235
175
230
241
182
242
253
194
248
255
198
244
253
188
243
253
181
242
254
179
234
248
179
234
245
187
236
246
191
239
252
196
239
254
195
241
254
195
245
254
197
252
255
204
252
255
204
239
248
192
234
245
189
235
252
193
241
250
192
236
244
185
229
234
181
222
230
177
214
229
176
223
241
189
235
249
199
236
244
195
230
240
189
218
235
180
219
243
184
217
243
186
222
246
190
226
245
190
221
236
180
213
225
168
205
218
158
202
215
158
206
217
162
206
218
162
211
231
172
214
239
179
205
229
174
202
222
173
205
222
169
211
229
176
227
238
187
233
241
192
234
242
190
241
250
199
248
255
211
239
255
208
243
254
209
250
255
208
239
253
197
220
242
175
214
231
161
221
225
163
224
221
165
229
231
178
219
229
177
220
229
177
219
226
173
210
219
162
207
216
159
202
209
154
207
214
162
213
219
170
214
221
170
214
221
170
209
215
165
205
208
159
202
204
154
200
204
147
215
216
152
249
235
164
255
246
177
255
241
181
245
225
171
219
215
161
206
215
162
204
216
166
193
206
157
193
206
157
230
234
174
232
241
180
236
245
185
241
251
192
247
254
198
251
255
201
252
255
201
246
251
190
251
253
198
255
255
222
255
255
237
255
255
242
251
255
220
247
255
205
251
255
201
255
255
218
255
255
221
255
255
231
255
255
222
255
255
219
250
254
206
239
250
192
228
244
172
225
242
164
239
253
187
252
255
210
255
255
223
251
255
218
240
249
202
237
246
197
239
248
195
235
243
187
229
237
179
237
247
192
255
255
224
255
255
238
255
255
249
255
255
255
255
255
253
255
255
254
254
255
227
242
249
192
231
235
172
229
233
170
246
246
188
251
244
192
248
235
186
252
249
200
255
255
221
255
255
220
253
255
208
230
236
179
220
223
166
213
222
160
213
226
163
222
239
176
237
248
189
243
250
199
250
254
211
249
254
212
254
255
223
255
255
230
255
255
223
255
255
211
255
250
204
249
240
196
248
239
196
254
252
216
255
255
237
255
255
245
255
255
242
255
255
221
239
239
186
230
232
177
227
232
176
226
231
178
223
224
172
227
227
175
237
237
183
245
247
190
243
248
186
242
249
187
242
253
189
239
253
190
240
254
194
247
255
202
253
255
211
254
255
215
247
253
203
235
243
187
230
235
179
232
236
178
237
243
180
244
250
186
245
253
183
250
255
191
250
255
195
248
251
192
247
245
190
242
236
184
236
232
180
226
226
173
225
229
173
230
240
179
232
243
183
228
237
178
237
245
188
251
254
207
254
255
213
255
255
214
248
255
196
235
248
178
221
234
164
203
210
148
193
195
139
209
211
153
219
223
165
226
235
178
232
243
186
244
254
197
241
249
191
241
251
182
240
252
173
245
255
179
243
254
189
234
248
193
231
247
192
232
250
195
236
251
192
241
250
193
245
247
192
254
254
204
255
255
205
246
251
194
237
247
188
235
249
189
245
255
196
244
250
190
233
234
181
226
228
177
222
232
180
226
242
191
237
252
200
241
250
200
233
243
190
221
239
180
218
244
182
221
247
189
226
251
193
230
251
193
223
242
183
211
228
166
207
222
158
208
217
157
207
214
159
210
222
168
216
236
180
223
247
191
212
235
181
204
225
172
207
229
177
206
225
174
211
221
172
220
222
172
236
234
184
241
243
192
239
246
196
239
250
201
250
255
218
246
255
208
235
254
195
219
242
173
212
230
161
217
227
166
223
230
171
219
233
173
211
227
173
211
225
172
215
226
172
215
225
167
209
219
162
205
213
158
207
214
162
208
214
165
207
214
163
207
214
163
206
213
162
209
214
162
207
208
155
212
205
148
242
222
153
255
237
163
255
241
170
255
236
176
252
223
171
225
212
162
200
204
153
188
199
148
189
201
150
198
209
158
237
244
183
224
237
174
227
236
176
234
243
183
245
252
196
250
255
204
254
255
207
250
255
198
253
255
197
255
255
209
255
255
221
255
255
231
255
255
218
254
255
212
254
255
205
255
255
214
255
255
224
255
255
227
252
255
221
250
255
212
253
255
212
253
255
210
249
255
197
237
254
175
238
255
178
245
255
195
254
255
213
252
255
216
246
254
210
237
248
198
238
249
196
238
248
191
232
239
179
228
240
180
252
255
217
255
255
247
255
255
255
255
255
255
255
255
255
255
255
251
255
255
227
242
244
189
232
230
171
235
234
176
252
250
194
255
254
204
255
252
205
255
255
216
255
255
221
255
255
221
250
253
204
233
236
179
232
230
174
226
229
169
228
236
175
241
249
192
254
255
215
255
255
230
255
255
247
255
255
251
255
255
252
255
255
251
255
255
244
255
255
232
255
252
219
249
237
203
231
217
185
237
223
192
250
243
218
255
253
231
255
255
231
254
249
212
238
235
186
227
228
175
224
228
172
227
229
175
231
229
175
238
234
181
237
235
181
242
242
186
240
243
187
236
244
184
241
253
190
240
255
193
239
255
193
233
250
188
238
252
194
242
253
199
242
251
194
236
241
184
227
231
174
225
228
170
226
229
166
231
234
167
234
240
171
236
246
180
239
247
187
244
243
187
247
239
186
242
236
183
233
229
175
224
221
169
226
228
175
230
239
184
234
248
189
239
250
193
251
254
209
255
255
219
255
255
224
255
255
217
253
255
196
242
253
179
224
238
166
207
216
153
196
200
145
209
212
159
213
215
161
220
227
171
231
242
186
241
253
198
236
245
187
236
246
176
242
252
175
252
255
194
252
255
205
244
254
206
227
247
193
226
248
191
233
248
188
239
245
189
244
242
189
254
252
200
253
252
198
248
249
193
235
242
182
232
245
181
239
251
185
241
248
184
237
235
182
231
229
180
229
237
186
233
246
196
241
253
202
243
252
201
238
249
194
226
243
185
220
242
182
224
247
189
228
252
193
229
252
191
223
243
180
215
234
172
215
228
169
224
230
175
225
225
175
225
234
182
223
240
186
227
247
193
215
236
182
203
225
172
206
230
178
211
229
179
215
224
175
229
228
179
244
236
187
240
237
187
228
231
181
232
240
190
248
253
205
249
255
203
238
252
191
219
235
170
209
221
158
210
220
163
215
227
169
211
229
168
206
224
165
205
223
166
210
226
169
212
226
168
213
224
167
210
217
164
207
214
162
205
211
161
196
203
153
199
207
154
202
211
156
207
215
158
214
212
156
232
209
152
254
222
155
255
234
163
255
228
163
255
217
162
253
208
160
234
202
158
206
197
148
187
190
138
189
198
146
208
214
162
238
246
183
223
236
175
219
228
170
226
234
177
234
241
187
244
253
201
254
255
210
253
255
205
254
255
197
250
255
196
249
255
200
250
255
209
250
255
208
254
255
210
253
254
205
254
254
208
255
255
225
255
255
223
248
255
219
232
247
196
252
255
214
255
255
221
255
255
218
253
255
201
241
255
179
242
255
188
254
255
206
255
255
217
250
255
212
243
255
203
243
254
201
244
254
198
240
247
187
229
241
179
241
251
197
254
255
237
255
255
254
255
255
255
255
255
253
255
255
240
254
255
214
240
242
186
237
236
178
243
240
183
254
248
193
255
255
205
255
255
210
255
255
213
254
255
213
253
255
210
248
254
203
249
250
202
254
254
212
255
255
213
254
255
210
255
255
219
255
255
228
255
255
241
255
255
254
255
255
255
255
255
255
255
255
255
255
255
254
255
255
245
255
253
229
247
234
203
232
217
188
219
203
178
210
193
171
219
204
181
228
214
186
228
217
183
224
218
172
220
219
170
220
224
170
232
236
179
244
242
187
250
247
191
242
241
184
238
240
182
241
245
189
237
246
187
237
251
189
240
255
194
242
255
196
232
248
186
225
241
180
233
248
188
237
248
187
233
240
181
225
229
171
212
216
157
216
217
156
221
223
155
225
231
163
223
234
169
228
235
175
236
233
178
235
223
172
235
224
171
228
222
168
220
218
165
223
228
176
228
240
187
233
250
193
241
254
201
254
255
216
255
255
220
255
255
220
253
253
206
249
247
191
242
247
182
227
236
171
217
223
164
210
215
162
213
216
166
217
220
168
220
227
171
226
236
180
231
244
190
233
244
187
239
249
183
248
255
188
255
255
208
255
255
213
250
255
208
228
248
190
224
246
184
235
249
187
240
247
189
245
243
191
249
244
193
250
247
193
249
246
191
239
243
183
235
247
179
231
243
175
232
238
174
234
233
180
236
236
186
236
244
193
235
247
197
242
252
201
242
249
197
237
246
191
227
241
184
220
238
180
221
241
183
228
250
191
226
248
185
220
240
178
225
243
184
227
238
180
237
241
188
242
241
192
240
249
196
235
250
195
230
245
190
217
234
180
211
229
176
218
239
187
228
242
193
237
245
196
248
250
201
248
244
192
237
230
179
232
226
178
238
236
188
244
249
198
245
253
198
232
241
183
216
220
163
209
210
157
211
216
164
216
227
171
211
227
166
204
223
160
206
224
163
208
226
167
210
224
167
212
221
166
214
217
164
213
214
161
213
214
159
202
210
153
201
211
151
197
208
148
200
209
150
220
211
155
242
203
151
255
203
146
255
204
146
255
197
144
255
190
145
254
190
148
241
189
149
222
194
148
204
193
144
205
203
149
216
217
165
240
248
181
225
238
177
214
223
168
222
229
175
229
236
184
239
250
197
249
255
207
255
255
212
254
255
201
248
255
193
239
254
185
233
251
184
240
253
193
249
254
200
249
250
200
250
247
204
255
255
219
253
255
222
244
254
215
222
238
186
239
250
201
253
255
218
255
255
223
254
255
209
243
255
188
238
255
187
243
255
195
251
255
208
253
255
212
242
253
199
239
252
194
245
254
196
244
250
190
233
245
183
232
248
186
250
255
217
255
255
240
255
255
238
255
255
237
255
255
222
250
254
197
243
247
188
243
246
188
247
251
193
249
251
193
249
251
193
252
254
201
255
255
212
255
255
213
252
255
210
252
255
210
255
255
220
255
255
228
255
255
230
255
255
225
255
255
223
255
255
224
255
255
231
255
255
242
255
255
248
255
255
245
255
253
237
252
247
225
250
239
212
247
233
203
247
232
200
249
235
202
235
220
190
218
202
175
199
181
157
179
165
136
205
197
162
219
220
174
221
227
177
225
235
179
228
235
175
238
239
182
244
244
185
243
244
185
234
239
178
232
240
180
234
247
187
233
249
189
239
254
193
237
253
191
234
249
188
229
245
183
228
244
179
233
247
183
229
239
176
221
227
166
207
211
152
208
209
147
212
216
148
221
229
161
219
231
166
224
231
172
235
231
176
232
221
170
227
220
166
218
219
163
213
216
161
214
221
168
221
236
182
228
247
192
241
255
205
252
255
215
253
255
213
254
255
208
251
245
197
241
230
183
235
231
182
225
227
172
220
224
171
216
220
169
217
217
168
216
221
167
218
227
170
224
234
178
222
235
180
237
240
187
248
249
192
254
254
195
255
255
202
254
255
202
247
255
197
228
247
182
223
244
175
233
247
183
240
246
187
246
246
191
247
244
192
252
248
194
254
252
195
244
246
184
232
243
173
224
235
167
226
231
167
231
232
178
237
241
189
241
250
198
244
253
202
251
255
206
249
254
200
240
247
192
225
236
180
218
233
175
220
237
177
226
246
185
227
246
185
225
242
183
232
246
191
238
246
189
245
250
196
246
250
198
244
254
199
240
253
196
234
244
188
226
238
183
228
242
188
241
253
203
248
254
210
253
255
213
253
255
208
247
250
194
240
235
181
239
232
181
249
243
195
253
254
209
244
249
198
227
233
180
212
213
163
211
209
162
213
213
167
216
223
170
220
234
171
215
234
168
213
231
168
213
229
169
212
223
167
212
218
164
220
224
170
223
228
170
225
231
167
218
227
159
205
216
150
203
213
150
208
208
151
233
206
157
246
190
147
250
180
132
251
177
130
252
176
130
253
172
133
254
177
139
252
188
150
244
204
160
235
209
157
231
213
149
223
221
159
236
248
178
224
237
172
212
223
165
218
229
173
228
238
182
240
250
195
251
255
206
255
255
214
254
255
207
243
255
188
233
254
176
226
247
172
226
245
178
231
243
183
238
244
191
242
244
200
245
253
211
243
253
213
233
248
199
215
232
177
217
235
175
237
253
195
251
255
204
248
255
197
244
255
194
241
255
192
239
254
193
241
251
192
242
250
195
233
242
184
230
242
180
233
247
185
237
247
187
233
244
182
231
243
180
247
255
208
255
255
228
255
255
222
253
255
217
249
255
208
241
251
190
249
252
196
247
253
198
253
255
205
254
255
206
252
255
204
255
255
211
255
255
215
252
255
211
246
254
206
238
249
199
244
249
203
254
254
221
255
255
231
255
255
222
246
247
204
237
235
194
227
221
184
221
212
178
221
210
179
223
211
180
216
205
173
210
198
167
213
200
173
213
203
170
234
224
188
252
243
205
245
232
196
224
208
176
202
186
156
185
173
140
203
206
165
225
233
186
226
237
187
230
243
189
226
238
178
228
235
173
233
236
173
232
236
173
228
235
171
224
233
166
224
237
175
224
242
181
226
243
182
231
246
183
232
250
182
231
250
180
227
247
176
228
244
176
225
237
170
220
227
163
213
217
156
213
217
153
212
218
151
219
227
162
223
234
172
229
235
178
236
234
179
238
231
176
228
227
169
217
225
166
214
224
166
214
226
169
218
233
178
225
244
190
237
253
202
245
255
208
251
255
208
253
253
204
248
241
193
234
220
176
228
215
172
214
213
162
210
211
160
211
210
161
213
212
165
219
222
171
220
226
171
229
234
179
237
239
189
245
242
196
253
252
199
255
254
198
255
255
197
254
255
192
247
254
185
242
252
179
239
248
173
246
252
183
251
253
191
252
252
196
255
252
200
255
253
200
254
252
195
243
245
180
229
239
165
227
235
170
227
231
172
232
234
180
235
244
189
239
253
200
244
255
205
254
255
209
249
253
202
238
246
191
226
235
180
226
236
179
230
240
181
235
246
189
238
248
193
236
247
192
237
250
195
245
254
199
243
254
196
242
252
193
239
251
189
232
244
183
233
243
184
235
248
191
236
253
198
250
255
214
255
255
219
254
255
212
246
255
198
240
248
187
244
244
186
253
248
195
255
254
209
253
254
208
240
245
194
222
228
174
214
216
163
215
214
163
219
222
170
219
229
171
224
241
175
225
245
175
223
242
173
222
237
172
221
233
173
227
236
179
237
246
189
240
249
189
240
249
184
226
240
170
225
231
162
232
227
162
243
221
165
246
202
157
234
175
137
229
157
121
228
162
121
229
166
122
237
159
122
249
173
139
254
194
162
255
216
170
254
223
165
254
223
159
246
225
160
230
244
179
216
230
167
205
218
156
210
221
161
224
235
175
244
251
196
255
255
208
255
255
213
255
255
207
248
255
196
232
253
181
226
248
175
222
244
173
225
241
178
236
247
193
247
253
209
241
252
207
235
248
203
218
235
182
217
234
179
220
238
177
228
252
181
241
255
190
246
255
197
249
255
197
250
255
198
245
255
197
244
254
195
239
247
191
225
234
178
221
232
174
226
239
181
229
238
181
229
239
180
228
239
178
244
254
204
254
255
219
252
255
213
246
255
206
246
255
201
243
254
192
254
255
207
255
255
220
255
255
218
255
255
215
255
255
210
253
254
205
250
254
206
241
251
200
226
235
187
213
221
176
210
215
174
221
223
183
223
227
186
212
217
172
202
208
160
189
191
146
170
169
128
160
157
120
147
142
108
137
132
98
139
134
100
140
135
103
137
132
99
144
144
105
171
171
130
222
222
177
239
236
189
230
224
181
214
207
166
205
199
159
213
218
175
239
250
206
243
254
210
238
253
201
231
245
187
221
231
169
228
233
172
228
235
173
226
235
173
221
230
166
212
223
160
218
230
168
224
238
173
231
246
179
234
252
181
234
254
181
232
252
179
228
244
174
228
240
173
225
232
170
216
223
163
216
223
160
214
222
156
218
229
165
226
237
178
230
238
181
236
240
182
238
240
180
231
238
174
225
236
174
228
240
179
226
237
178
228
238
182
234
247
193
237
250
197
241
253
198
245
253
197
250
253
199
245
242
191
234
222
177
219
208
164
200
199
150
198
198
149
205
203
156
206
204
157
220
223
172
231
235
180
243
245
191
248
247
197
253
252
204
255
254
201
255
255
204
255
255
205
255
255
200
255
255
193
255
255
186
255
255
179
255
255
189
255
255
197
255
255
206
255
255
209
255
255
202
254
253
188
240
241
173
230
238
168
234
240
176
235
239
180
233
239
182
232
244
186
233
251
194
241
255
202
255
255
212
248
253
202
236
245
187
231
239
182
238
244
187
246
252
196
248
255
202
246
254
202
245
253
202
243
254
202
242
254
198
238
251
192
234
247
186
235
247
185
231
243
181
236
247
186
241
253
194
246
255
206
250
255
213
252
255
211
247
255
201
238
251
189
242
251
187
252
252
192
255
251
196
253
250
200
245
245
198
229
235
184
218
227
172
217
225
168
217
222
166
222
229
173
230
241
181
233
247
185
233
250
184
232
248
179
237
251
181
238
251
187
245
254
199
248
255
208
245
255
203
240
254
192
244
251
179
253
246
179
255
245
179
255
232
176
250
200
157
223
165
129
209
151
115
211
163
121
219
166
123
226
160
123
234
179
141
246
203
165
255
224
177
255
223
168
255
218
159
255
217
157
226
241
180
211
227
165
196
212
149
203
214
151
223
235
171
240
249
188
254
255
203
255
255
206
254
255
203
245
254
195
233
250
186
227
249
179
225
249
176
223
242
177
237
251
196
254
255
218
250
255
214
243
252
208
221
237
182
218
234
178
224
242
180
228
253
184
238
255
188
246
255
194
248
255
199
252
255
203
246
255
201
244
254
196
238
247
191
226
234
180
215
225
172
219
231
177
228
237
181
234
243
185
239
249
189
245
255
201
251
255
213
247
255
208
240
255
199
242
255
193
248
255
197
254
255
209
255
255
227
255
255
222
255
255
214
250
252
205
241
239
192
238
243
194
222
229
182
186
194
149
166
172
132
155
160
124
160
166
126
172
182
137
180
190
143
184
195
145
180
188
139
165
170
123
154
158
115
152
156
116
160
164
125
163
167
126
159
163
119
152
157
109
159
169
115
182
193
136
198
210
151
216
225
168
221
226
173
210
214
164
214
216
168
218
227
180
242
253
212
248
255
218
240
255
207
237
251
195
230
240
181
235
241
182
238
245
186
236
246
186
233
242
181
223
231
169
218
226
162
228
238
170
233
248
176
236
254
181
237
255
183
236
255
182
229
246
174
227
238
174
224
232
174
218
226
168
217
226
165
215
225
162
222
234
173
225
239
180
230
239
182
230
239
180
228
237
175
228
241
174
228
243
178
236
250
187
236
247
186
241
246
189
239
247
193
239
249
194
242
251
195
248
254
197
246
251
194
241
241
189
238
228
183
221
213
168
204
202
155
210
209
162
215
213
167
213
212
164
220
222
172
237
239
186
251
250
199
251
247
199
253
253
203
255
255
209
255
255
216
255
255
220
255
255
215
255
255
207
255
255
201
255
255
197
255
255
202
255
255
212
255
255
220
255
255
217
255
255
207
255
255
188
243
242
169
228
233
165
231
234
171
233
238
179
228
238
179
226
240
180
224
243
183
232
250
192
245
253
199
243
252
196
244
250
191
241
246
188
248
252
195
255
255
206
252
255
207
254
255
214
254
255
216
252
255
213
240
254
198
230
246
185
229
243
181
235
247
185
240
251
189
247
254
196
251
255
204
254
255
215
255
255
217
253
255
207
243
255
191
241
254
190
252
255
196
255
255
199
255
247
193
246
233
183
237
234
187
233
240
188
224
237
181
223
235
175
223
233
173
223
235
174
235
246
186
238
249
190
238
253
191
239
253
185
243
254
183
248
255
194
249
255
204
249
255
210
244
255
202
244
255
196
254
255
191
255
252
190
255
247
183
255
230
172
247
198
154
219
168
134
206
165
128
206
175
132
206
171
126
209
167
127
215
191
146
227
211
163
248
222
172
255
219
169
255
209
160
251
196
148
226
242
187
205
224
165
192
211
149
203
215
153
221
231
167
238
245
181
250
254
192
254
255
198
252
255
197
244
254
194
237
251
190
233
250
187
227
247
180
225
241
178
240
250
193
252
255
209
254
255
215
249
255
205
234
246
187
230
244
184
228
245
182
230
252
183
236
255
187
246
255
194
250
255
203
248
255
202
243
255
197
244
255
197
237
246
189
227
237
182
217
227
173
216
226
172
227
237
180
240
249
192
250
255
202
254
255
207
250
255
207
241
255
201
238
255
194
238
255
190
249
255
198
255
255
209
255
255
216
255
255
214
250
255
206
239
241
190
223
220
173
211
212
166
188
193
147
158
165
121
150
159
115
147
157
112
160
173
124
174
189
137
183
197
145
183
198
145
185
198
144
174
184
131
173
182
130
187
197
148
204
213
167
201
214
166
197
210
158
193
203
150
188
203
140
202
221
154
209
229
161
208
225
161
212
226
167
212
223
170
220
230
178
231
241
189
241
252
202
247
255
209
245
255
206
241
255
196
242
250
192
247
251
197
250
254
203
251
254
205
249
254
198
241
249
186
233
238
174
231
239
171
234
247
176
236
253
179
238
255
182
238
255
183
239
253
187
234
245
184
226
234
178
223
231
175
221
231
172
215
226
167
221
234
175
225
240
180
229
239
182
229
239
181
226
237
177
227
242
177
226
243
178
232
250
185
243
254
193
247
251
192
243
247
193
241
249
191
243
252
192
247
255
195
243
251
191
241
246
189
244
240
193
236
233
182
227
227
175
226
229
176
226
229
176
223
224
173
227
228
177
240
240
190
252
252
203
251
250
201
254
253
201
255
255
208
255
255
216
255
255
224
255
255
217
255
255
211
255
255
206
255
255
205
255
255
213
255
255
225
255
255
228
255
255
221
255
255
207
255
255
185
252
247
166
238
235
162
229
234
169
229
237
177
224
238
175
219
236
175
218
238
178
221
240
181
232
246
187
240
250
190
240
251
189
243
251
191
248
253
194
251
254
200
253
255
206
255
255
219
255
255
218
251
255
210
234
251
192
224
241
179
231
245
183
243
254
194
252
255
200
255
255
208
255
255
215
255
255
221
255
255
224
255
255
215
250
255
199
250
255
201
255
255
200
255
255
197
255
249
192
250
241
190
246
245
197
245
253
204
239
250
197
230
245
187
233
245
185
232
245
184
238
249
189
243
252
193
246
255
197
242
251
188
237
246
179
238
249
184
242
253
194
241
255
197
239
254
193
243
254
194
252
253
190
255
249
187
255
240
176
252
220
162
240
201
153
225
190
151
217
191
150
210
192
145
204
185
138
197
182
133
207
201
149
221
217
164
235
220
168
249
215
166
251
201
157
245
191
147
219
238
184
203
224
167
193
216
156
198
217
155
219
231
169
237
244
181
248
253
190
252
255
194
241
250
188
234
248
186
230
247
187
226
242
185
225
239
179
226
237
177
230
239
180
246
252
195
253
255
202
249
255
200
242
253
194
242
254
196
237
253
190
235
254
188
238
255
188
243
255
190
248
255
199
244
255
195
236
253
188
236
249
188
232
242
181
231
242
183
228
239
181
224
235
178
233
245
187
247
254
201
254
255
210
255
255
213
248
255
205
234
255
191
230
255
184
232
255
182
237
254
185
249
254
198
251
255
204
249
255
202
245
253
196
232
238
181
215
212
160
202
201
151
187
190
140
173
179
129
169
177
128
168
178
125
181
195
139
188
203
145
196
211
153
204
219
160
203
219
162
195
208
153
196
208
153
209
223
168
228
241
188
229
244
192
226
242
187
219
233
176
211
228
164
217
234
166
223
238
171
217
231
168
209
225
166
215
230
172
226
237
180
236
244
188
239
248
189
247
255
199
247
255
199
245
255
194
250
254
193
254
255
201
255
255
211
255
255
214
255
255
205
253
255
195
247
248
184
237
239
176
234
242
174
235
250
176
239
255
179
242
255
182
246
255
192
248
255
196
244
251
194
239
246
191
229
239
180
224
236
175
226
239
178
227
242
180
232
244
185
234
246
188
227
240
179
229
244
179
233
250
185
233
251
187
241
253
192
251
254
196
251
253
197
246
251
192
246
254
192
246
255
193
242
253
189
242
252
189
245
247
192
248
251
194
248
252
195
241
249
188
234
243
181
227
232
175
228
232
179
240
246
194
253
254
209
255
255
214
255
255
208
255
255
204
255
255
203
255
255
209
255
255
206
255
255
202
255
255
200
255
255
201
255
255
205
255
255
216
255
255
225
255
255
225
255
255
208
255
255
188
255
254
171
254
246
164
246
240
170
236
239
175
226
240
174
219
236
173
210
229
167
213
229
168
224
238
177
233
246
183
239
253
187
241
252
188
241
249
187
245
249
191
251
252
199
255
255
215
255
255
213
244
254
200
226
244
184
219
235
173
235
248
186
252
255
202
255
255
209
255
255
215
255
255
222
255
255
227
255
255
233
255
255
224
255
255
210
254
255
206
255
255
202
255
255
207
255
255
212
255
255
219
255
255
222
255
255
222
250
254
210
240
251
194
242
251
193
246
251
194
251
254
198
251
252
196
247
246
190
238
239
182
228
232
173
231
237
178
234
243
183
243
254
194
242
253
193
240
251
191
239
247
185
239
239
175
243
230
168
240
220
163
239
218
167
234
216
169
232
222
174
213
211
162
199
200
149
196
196
146
209
216
162
226
230
177
238
236
182
233
221
168
225
202
152
224
195
148
203
223
167
199
221
162
201
225
164
207
230
168
223
240
179
233
244
181
242
251
187
245
252
189
233
248
185
224
241
179
227
247
187
222
239
184
222
235
180
219
233
175
223
233
173
235
241
179
245
250
188
249
255
198
246
255
201
245
255
200
240
255
195
241
255
192
240
255
187
243
255
189
245
255
191
244
255
191
241
254
190
239
252
189
238
248
184
240
251
189
243
254
193
238
249
188
238
252
191
245
255
200
251
255
209
255
255
217
248
255
205
234
255
190
224
252
176
226
252
174
228
249
177
236
251
186
241
254
194
247
255
200
250
255
199
242
250
187
229
232
171
216
216
158
203
204
149
194
197
144
189
196
140
190
201
142
203
217
154
209
223
160
220
235
173
221
238
176
221
237
178
217
232
174
217
231
172
225
239
181
238
251
197
241
255
203
235
251
196
230
244
188
231
241
184
232
239
181
234
240
180
224
234
174
216
233
172
221
236
174
230
240
177
237
243
180
244
248
184
252
254
192
254
255
192
255
255
192
255
255
196
255
255
201
255
255
211
255
255
214
255
255
215
255
255
207
254
252
191
244
241
181
232
237
174
239
250
178
242
255
181
246
255
183
254
255
195
255
255
201
254
255
205
251
255
202
242
251
192
237
248
186
232
245
181
230
245
181
233
247
186
237
252
191
236
251
188
237
251
187
237
252
187
243
255
193
245
255
193
252
255
198
255
255
202
249
254
193
243
253
187
243
254
191
245
255
194
247
255
196
250
254
196
254
255
200
255
255
202
246
255
192
236
250
182
230
240
177
236
245
190
247
254
204
255
255
219
255
255
216
255
255
207
255
255
197
255
255
189
255
255
192
255
255
192
255
255
189
255
255
184
255
255
184
255
255
188
255
255
198
255
255
206
255
255
211
255
255
203
255
255
190
255
255
181
255
254
176
255
252
172
251
247
174
234
238
172
220
231
168
212
224
163
213
225
164
221
235
173
230
246
182
238
255
191
240
254
189
237
247
183
240
245
185
252
253
196
254
255
204
249
254
201
235
246
188
216
235
174
220
237
175
245
253
195
255
255
207
255
255
216
255
255
218
255
255
216
255
255
226
255
255
234
255
255
226
255
255
212
255
255
204
255
255
206
255
255
219
255
255
232
255
255
242
255
255
239
255
255
227
252
255
210
252
255
204
254
255
204
255
255
206
255
255
202
255
251
198
252
244
192
229
226
174
223
223
171
237
238
186
248
250
198
250
255
199
247
254
197
240
251
191
236
248
187
229
238
176
231
230
170
235
227
173
239
230
179
239
233
184
235
235
186
219
225
174
211
217
166
212
216
165
224
229
177
239
240
188
246
248
194
231
234
179
218
217
163
214
206
155
193
214
152
197
218
158
207
229
169
211
235
173
224
247
185
232
251
187
237
252
187
237
250
186
227
244
181
225
244
182
225
247
187
221
244
186
216
238
181
213
233
173
218
232
171
234
241
178
238
248
181
247
255
197
247
255
203
247
255
204
250
255
207
248
255
200
245
255
192
243
255
189
240
255
186
242
255
188
241
255
189
238
252
186
239
250
183
242
253
186
247
255
192
246
255
192
241
255
194
240
255
196
249
255
209
253
255
213
244
255
202
234
255
189
232
255
183
228
251
175
229
250
178
233
251
185
237
252
192
245
255
200
249
255
201
246
254
191
238
246
179
225
229
163
214
215
152
208
211
152
208
216
151
213
224
159
222
236
169
231
245
178
238
253
191
236
252
193
234
249
190
236
250
192
235
250
191
237
250
191
245
254
202
248
255
208
244
255
204
240
250
197
245
251
198
247
251
196
247
248
193
236
242
185
229
243
181
231
245
179
237
245
179
241
242
176
250
244
181
255
248
185
255
251
188
255
252
190
255
254
198
255
255
203
255
255
211
255
255
211
255
255
215
255
255
213
255
255
202
254
253
193
246
246
184
245
252
185
246
255
187
250
255
186
255
255
194
255
255
199
255
255
208
255
255
207
252
255
200
243
254
192
238
252
188
234
251
186
234
250
187
240
254
192
245
255
195
245
255
194
244
255
193
245
254
192
244
253
191
248
253
196
254
255
201
253
255
197
242
253
186
243
254
189
246
255
195
251
255
198
252
255
198
254
255
198
254
255
199
246
255
191
236
252
180
235
248
181
246
254
197
254
255
209
255
255
217
255
255
214
255
255
202
255
255
191
255
255
183
255
255
179
255
255
174
255
255
173
255
255
172
255
255
172
255
255
173
255
255
179
255
255
185
255
255
194
255
255
197
255
255
193
255
255
190
255
255
185
255
255
180
255
254
178
251
245
174
233
236
165
218
228
163
220
232
170
223
237
175
230
248
185
240
255
195
242
254
191
244
253
190
250
254
196
253
255
198
247
252
192
239
247
187
229
239
177
214
229
167
227
241
180
252
255
203
255
255
209
255
255
219
255
255
214
255
255
209
255
255
217
255
255
223
255
255
218
255
255
211
255
255
207
255
255
214
255
255
231
255
255
238
255
255
245
255
255
240
255
255
221
248
255
205
251
255
203
253
255
203
255
255
204
255
255
203
255
252
201
252
243
192
237
231
181
236
233
184
253
252
206
255
255
213
254
255
208
249
255
200
242
253
193
238
248
187
233
241
181
229
234
175
235
237
181
238
240
186
238
238
189
233
235
186
227
233
182
223
227
174
225
229
176
231
234
181
237
242
189
237
244
190
229
239
183
225
232
176
223
224
170
149
167
114
153
170
120
162
179
131
166
186
136
176
198
147
183
202
149
185
200
147
184
198
145
178
191
141
176
191
142
178
195
147
177
196
150
172
192
146
173
191
143
174
186
137
182
189
138
188
198
141
191
201
151
196
202
160
197
202
164
200
202
167
200
202
162
194
202
153
193
202
151
189
202
147
192
202
149
192
202
150
190
201
147
189
198
143
191
201
145
193
202
148
194
202
149
189
202
153
186
201
153
191
202
160
197
202
165
194
202
160
190
202
153
190
202
149
186
201
142
181
198
140
185
199
146
187
200
151
193
202
158
196
202
158
194
202
151
189
197
142
179
186
128
175
177
122
172
175
122
172
180
122
179
189
132
185
196
140
190
201
146
194
202
155
195
202
162
193
201
158
195
202
160
196
202
160
196
202
158
197
202
161
198
202
164
198
202
164
195
201
160
197
199
159
201
202
160
201
201
158
193
196
152
186
196
146
186
197
143
190
195
141
194
192
138
200
194
143
202
196
145
202
194
144
202
193
146
202
194
146
202
197
151
202
202
160
202
202
166
202
202
171
202
202
170
202
202
166
202
202
158
201
201
153
197
200
149
198
202
152
201
202
152
202
202
154
202
202
154
202
202
158
202
202
160
199
202
158
196
202
156
191
202
152
185
201
147
183
198
145
193
202
152
198
202
156
199
202
157
199
202
157
191
199
150
190
197
149
193
198
152
198
200
155
198
202
155
191
201
147
190
201
146
195
202
152
200
202
157
200
202
157
201
202
156
200
202
154
193
202
147
187
200
141
192
201
147
198
202
155
199
202
158
201
202
165
202
202
163
202
202
155
202
202
148
202
202
143
202
202
141
202
202
138
202
202
136
202
202
136
202
202
133
202
202
133
202
202
134
202
202
139
202
202
144
202
202
151
202
202
155
202
202
155
202
202
151
202
202
152
202
202
144
202
201
141
200
198
136
188
193
138
185
193
143
180
193
142
182
197
146
190
202
153
196
202
154
199
202
154
196
202
153
197
201
152
191
196
145
184
191
139
179
187
134
177
187
136
185
193
146
201
202
161
202
202
164
202
202
171
202
202
164
202
202
159
202
202
163
202
202
166
202
202
164
202
202
162
202
202
166
202
202
175
202
202
191
202
202
196
202
202
192
202
202
183
199
202
169
192
201
158
194
201
157
196
202
156
201
202
157
202
202
161
202
200
159
200
193
152
199
191
152
199
193
155
202
201
169
202
202
172
202
202
171
200
202
164
191
200
151
189
197
148
186
193
144
185
190
142
190
195
148
188
193
148
185
187
147
182
184
145
181
183
143
180
182
138
181
183
139
181
185
141
183
191
146
181
190
145
179
190
145
177
186
142
178
183
141
