P3
# Created by GIMP version 2.10.34 PNM plug-in
200 200
255
255
255
255
255
255
255
255
255
255
255
255
255
255
255
255
255
255
255
255
255
255
255
255
255
255
255
255
255
255
255
255
255
255
255
255
255
255
255
255
255
255
255
255
255
255
255
255
255
255
255
255
255
255
255
255
255
255
255
255
255
255
255
255
255
255
255
255
255
255
255
255
255
255
255
255
255
255
255
255
255
255
255
255
255
255
255
255
255
255
255
255
255
255
255
255
255
255
255
255
255
255
255
255
255
255
255
255
255
255
255
255
255
255
255
255
255
255
255
255
255
255
255
255
255
255
255
255
255
255
255
255
255
255
255
255
255
255
255
255
255
255
255
255
255
255
255
255
255
255
255
255
255
255
255
255
255
255
255
255
255
255
255
255
255
255
255
255
255
255
255
255
255
255
255
255
255
255
255
255
255
255
255
255
255
255
255
255
255
255
255
255
255
255
255
255
255
255
255
255
255
255
255
255
255
255
255
255
255
255
255
255
255
255
255
255
255
255
255
255
255
255
255
255
255
255
255
255
255
255
255
255
255
255
255
255
255
255
255
255
255
255
255
255
255
255
255
255
255
255
255
255
255
255
255
255
255
255
255
255
255
255
255
255
255
255
255
255
255
255
255
255
255
255
255
255
255
255
255
255
255
255
255
255
255
255
255
255
255
255
255
255
255
255
255
255
255
255
255
255
255
255
255
255
255
255
255
255
255
255
255
255
255
255
255
255
255
255
255
255
255
255
255
255
255
255
255
255
255
255
255
255
255
255
255
255
255
255
255
255
255
255
255
255
255
255
255
255
255
255
255
255
255
255
255
255
255
255
255
255
255
255
255
255
255
255
255
255
255
255
255
255
255
255
255
255
255
255
255
255
255
255
255
255
255
255
255
255
255
255
255
255
255
255
255
255
255
255
255
255
255
255
255
255
255
255
255
255
255
255
255
255
255
255
255
255
255
255
255
255
255
255
255
255
255
255
255
255
255
255
255
255
255
255
255
255
255
255
255
255
255
255
255
255
255
255
255
255
255
255
255
255
255
255
255
255
255
255
255
255
255
255
255
255
255
255
255
255
255
255
255
255
255
255
255
255
255
255
255
255
255
255
255
255
255
255
255
255
255
255
255
255
255
255
255
255
255
255
255
255
255
255
255
255
255
255
255
255
255
255
255
255
255
255
255
255
255
255
255
255
255
255
255
255
255
255
255
255
255
255
255
255
255
255
255
255
255
255
255
255
255
255
255
255
255
255
255
255
255
255
255
255
255
255
255
255
255
255
255
255
255
255
255
255
255
255
255
255
255
255
255
255
255
255
255
255
255
255
255
255
255
255
255
255
255
255
255
255
255
255
255
255
255
255
255
255
255
255
255
255
255
255
255
255
255
255
255
255
255
255
255
255
255
255
255
255
255
255
255
255
255
255
255
255
255
255
255
255
255
255
255
255
255
255
255
255
255
255
255
255
255
255
255
255
255
255
255
255
255
255
255
255
255
255
255
255
255
255
255
255
255
255
255
255
255
255
255
255
255
255
255
255
255
255
255
255
255
255
255
255
255
255
255
255
255
255
255
255
255
255
255
255
255
255
255
255
255
255
255
255
255
255
255
255
255
255
255
255
255
255
255
255
255
255
255
255
255
255
255
255
255
255
255
255
255
255
255
255
255
255
255
255
255
255
255
255
255
255
255
255
255
255
255
255
255
255
255
255
255
255
255
255
255
255
255
255
255
255
255
255
255
255
255
255
255
255
255
255
255
255
255
255
255
255
255
255
255
255
255
255
255
255
255
255
255
255
255
255
255
255
255
255
255
255
255
255
255
255
255
255
255
255
255
255
255
255
255
255
255
255
255
255
255
255
255
255
255
255
255
255
255
255
255
255
255
255
255
255
255
255
255
255
255
255
255
255
255
255
255
255
255
255
255
255
255
255
255
255
255
255
255
255
255
255
255
255
255
255
255
255
255
255
255
255
255
255
255
255
255
255
255
255
255
255
255
255
255
255
255
255
255
255
255
255
255
255
255
255
255
255
255
255
255
255
255
255
255
255
255
255
255
255
255
255
255
255
255
255
255
255
255
255
255
255
255
255
255
255
255
255
255
255
255
255
255
255
255
255
255
255
255
255
255
255
255
255
255
255
255
255
255
255
255
255
255
255
255
255
255
255
255
255
255
255
255
255
255
255
255
255
255
255
255
255
255
255
255
255
255
255
255
255
255
255
255
255
255
255
255
255
255
255
255
255
255
255
255
255
255
255
255
255
255
255
255
255
255
255
255
255
255
255
255
255
255
255
255
255
255
255
255
255
255
255
255
255
255
255
255
255
255
255
255
255
255
255
255
255
255
255
255
255
255
255
255
255
255
255
255
255
255
255
255
255
255
255
255
255
255
255
255
255
255
255
255
255
255
255
255
255
255
255
255
255
255
255
255
255
255
255
255
255
255
255
255
255
255
255
255
255
255
255
255
255
255
255
255
255
255
255
255
255
255
255
255
255
255
255
255
255
255
255
255
255
255
255
255
255
255
255
255
255
255
255
255
255
255
255
255
255
255
255
255
255
255
255
255
255
255
255
255
255
255
255
255
255
255
255
255
255
255
255
255
255
255
255
255
255
255
255
255
255
255
255
255
255
255
255
255
255
255
255
255
255
255
255
255
255
255
255
255
255
255
255
255
255
255
255
255
255
255
255
255
255
255
255
255
255
255
255
255
255
255
255
255
255
255
255
255
255
255
255
255
255
255
255
255
255
255
255
255
255
255
255
255
255
255
255
255
255
255
255
255
255
255
255
255
255
255
255
255
255
255
255
255
255
255
255
255
255
255
255
255
255
255
255
255
255
255
255
255
255
255
255
255
255
255
255
255
255
255
255
255
255
255
255
255
255
255
255
255
255
255
255
255
255
255
255
255
255
255
255
255
255
255
255
255
255
255
255
255
255
255
255
255
255
255
255
255
255
255
255
255
255
255
255
255
255
255
255
255
255
255
255
255
255
255
255
255
255
255
255
255
255
255
255
255
255
255
255
255
255
255
255
255
255
255
255
255
255
255
255
255
255
255
255
255
255
255
255
255
255
255
255
255
255
255
255
255
255
255
255
255
255
255
255
255
255
255
255
255
255
255
255
255
255
255
255
255
255
255
255
255
255
255
255
255
255
255
255
255
255
255
255
255
255
255
255
255
255
255
255
255
255
255
255
255
255
255
255
255
255
255
255
255
255
255
255
255
255
255
255
255
255
255
255
255
255
255
255
255
255
255
255
255
255
255
255
255
255
255
255
255
255
255
255
255
255
255
255
255
255
255
255
255
255
255
255
255
255
255
255
255
255
255
255
255
255
255
255
255
255
255
255
255
255
255
255
255
255
255
255
255
255
255
255
255
255
255
255
255
255
255
255
255
255
255
255
255
255
255
255
255
255
255
255
255
255
255
255
255
255
255
255
255
255
255
255
255
255
255
255
255
255
255
255
255
255
255
255
255
255
255
255
255
255
255
255
255
255
255
255
255
255
255
255
255
255
255
255
255
255
255
255
255
255
255
255
255
255
255
255
255
255
255
255
255
255
255
255
255
255
255
255
255
255
255
255
255
255
255
255
255
255
255
255
255
255
255
255
255
255
255
255
255
255
255
255
255
255
255
255
255
255
255
255
255
255
255
255
255
255
255
255
255
255
255
255
255
255
255
255
255
255
255
255
255
255
255
255
255
255
255
255
255
255
255
255
255
255
255
255
255
255
255
255
255
255
255
255
255
255
255
255
255
255
255
255
255
255
255
255
255
255
255
255
255
255
255
255
255
255
255
255
255
255
255
255
255
255
255
255
255
255
255
255
255
255
255
255
255
255
255
255
255
255
255
255
255
255
255
255
255
255
255
255
255
255
255
255
255
255
255
255
255
255
255
255
255
255
255
255
255
255
255
255
255
255
255
255
255
255
255
255
255
255
255
255
255
255
255
255
255
255
255
255
255
255
255
255
255
255
255
255
255
255
255
255
255
255
255
255
255
255
255
255
255
255
255
255
255
255
255
255
255
255
255
255
255
255
255
255
255
255
255
255
255
255
255
255
255
255
255
255
255
255
255
255
255
255
255
255
255
255
255
255
255
255
255
255
255
255
255
255
255
255
255
255
255
255
255
255
255
255
255
255
255
255
255
255
255
255
255
255
255
255
255
255
255
255
255
255
255
255
255
255
255
255
255
255
255
255
255
255
255
255
255
255
255
255
255
255
255
255
255
255
255
255
255
255
255
255
255
255
255
255
255
255
255
255
255
255
255
255
255
255
255
255
255
255
255
255
255
255
255
255
255
255
255
255
255
255
255
255
255
255
255
255
255
255
255
255
255
255
255
255
255
255
255
255
255
255
255
255
255
255
255
255
255
255
255
255
255
255
255
255
255
255
255
255
255
255
255
255
255
255
255
255
255
255
255
255
255
255
255
255
255
255
255
255
255
255
255
255
255
255
255
255
255
255
255
255
255
255
255
255
255
255
255
255
255
255
255
255
255
255
255
255
255
255
255
255
255
255
255
255
255
255
255
255
255
255
255
255
255
255
255
255
255
255
255
255
255
255
255
255
255
255
255
255
255
255
255
255
255
255
255
255
255
255
255
255
255
255
255
255
255
255
255
255
255
255
255
255
255
255
255
255
255
255
255
255
255
255
255
255
255
255
255
255
255
255
255
255
255
255
255
255
255
255
255
255
255
255
255
255
255
255
255
255
255
255
255
255
255
255
255
255
255
255
255
255
255
255
255
255
255
255
255
255
255
255
255
255
255
255
255
255
255
255
255
255
255
255
255
255
255
255
255
255
255
255
255
255
255
255
255
255
255
255
255
255
255
255
255
255
255
255
255
255
255
255
255
255
255
255
255
255
255
255
255
255
255
255
255
255
255
255
255
255
255
255
255
255
255
255
255
255
255
255
255
255
255
255
255
255
255
255
255
255
255
255
255
255
255
255
255
255
255
255
255
255
255
255
255
255
255
255
255
255
255
255
255
255
255
255
255
255
255
255
255
255
255
255
255
255
255
255
255
255
255
255
255
255
255
255
255
255
255
255
255
255
255
255
255
255
255
255
255
255
255
255
255
255
255
255
255
255
255
255
255
255
255
255
255
255
255
255
255
255
255
255
255
255
255
255
255
255
255
255
255
255
255
255
255
255
255
255
255
255
255
255
255
255
255
255
255
255
255
255
255
255
255
255
255
255
255
255
255
255
255
255
255
255
255
255
255
255
255
255
255
255
255
255
255
255
255
255
255
255
255
255
255
255
255
255
255
255
255
255
255
255
255
255
255
255
255
255
255
255
255
255
255
255
255
255
255
255
255
255
255
255
255
255
255
255
255
255
255
255
255
255
255
255
255
255
255
255
255
255
255
255
255
255
255
255
255
255
255
255
255
255
255
255
255
255
255
255
255
255
255
255
255
255
255
255
255
255
255
255
255
255
255
255
255
255
255
255
255
255
255
255
255
255
255
255
255
255
255
255
255
255
255
255
255
255
255
255
255
255
255
255
255
255
255
255
255
255
255
255
255
255
255
255
255
255
255
255
255
255
255
255
255
255
255
255
255
255
255
255
255
255
255
255
255
255
255
255
255
255
255
255
255
255
255
255
255
255
255
255
255
255
255
255
255
255
255
255
255
255
255
255
255
255
255
255
255
255
255
255
255
255
255
255
255
255
255
255
255
255
255
255
255
255
255
255
255
255
255
255
255
255
255
255
255
255
255
255
255
255
255
255
255
255
255
255
255
255
255
255
255
255
255
255
255
255
255
255
255
255
255
255
255
255
255
255
255
255
255
255
255
255
255
255
255
255
255
255
255
255
255
255
255
255
255
255
255
255
255
255
255
255
255
255
255
255
255
255
255
255
255
255
255
255
255
255
255
255
255
255
255
255
255
255
255
255
255
255
255
255
255
255
255
255
255
255
255
255
255
255
255
255
255
255
255
255
255
255
255
255
255
255
255
255
255
255
255
255
255
255
255
255
255
255
255
255
255
255
255
255
255
255
255
255
255
255
255
255
255
255
255
255
255
255
255
255
255
255
255
255
255
255
255
255
255
255
255
255
255
255
255
255
255
255
255
255
255
255
255
255
255
255
255
255
255
255
255
255
255
255
255
255
255
255
255
255
255
255
255
255
255
255
255
255
255
255
255
255
255
255
255
255
255
255
255
255
255
255
255
255
255
255
255
255
255
255
255
255
255
255
255
255
255
255
255
255
255
255
255
255
255
255
255
255
255
255
255
255
255
255
255
255
255
255
255
255
255
255
255
255
255
255
255
255
255
255
255
255
255
255
255
255
255
255
255
255
255
255
255
255
255
255
255
255
255
255
255
255
255
255
255
255
255
255
255
255
255
255
255
255
255
255
255
255
255
255
255
255
255
255
255
255
255
255
255
255
255
255
255
255
255
255
255
255
255
255
255
255
255
255
255
255
255
255
255
255
255
255
255
255
255
255
255
255
255
255
255
255
255
255
255
255
255
255
255
255
255
255
255
255
255
255
255
255
255
255
255
255
255
255
255
255
255
255
255
255
255
255
255
255
255
255
255
255
255
255
255
255
255
255
255
255
255
255
255
255
255
255
255
255
255
255
255
255
255
255
255
255
255
255
255
255
255
255
255
255
255
255
255
255
255
255
255
255
255
255
255
255
255
255
255
255
255
255
255
255
255
255
255
255
255
255
255
255
255
255
255
255
255
255
255
255
255
255
255
255
255
255
255
255
255
255
255
255
255
255
255
255
255
255
255
255
255
255
255
255
255
255
255
255
255
255
255
255
255
255
255
255
255
255
255
255
255
255
255
255
255
255
255
255
255
255
255
255
255
255
255
255
255
255
255
255
255
255
255
255
255
255
255
255
255
255
255
255
255
255
255
255
255
255
255
255
255
255
255
255
255
255
255
255
255
255
255
255
255
255
255
255
255
255
255
255
255
255
255
255
255
255
255
255
255
255
255
255
255
255
255
255
255
255
255
255
255
255
255
255
255
255
255
255
255
255
255
255
255
255
255
255
255
255
255
255
255
255
255
255
255
255
255
255
255
255
255
255
255
255
255
255
255
255
255
255
255
255
255
255
255
255
255
255
255
255
255
255
255
255
255
255
255
255
255
255
255
255
255
255
255
255
255
255
255
255
255
255
255
255
255
255
255
255
255
255
255
255
255
255
255
255
255
255
255
255
255
255
255
255
255
255
255
255
255
255
255
255
255
255
255
255
255
255
255
255
255
255
255
255
255
255
255
255
255
255
255
255
255
255
255
255
255
255
255
255
255
255
255
255
255
255
255
255
255
255
255
255
255
255
255
255
255
255
255
255
255
255
255
255
255
255
255
255
255
255
255
255
255
255
255
255
255
255
255
255
255
255
255
255
255
255
255
255
255
255
255
255
255
255
255
255
255
255
255
255
255
255
255
255
255
255
255
255
255
255
255
255
255
255
255
255
255
255
255
255
255
255
255
255
255
255
255
255
255
255
255
255
255
255
255
255
255
255
255
255
255
255
255
255
255
255
255
255
255
255
255
255
255
255
255
255
255
255
255
255
255
255
255
255
255
255
255
255
255
255
255
255
255
255
255
255
255
255
255
255
255
255
255
255
255
255
255
255
255
255
255
255
255
255
255
255
255
255
255
255
255
255
255
255
255
255
255
255
255
255
255
255
255
255
255
255
255
255
255
255
255
255
255
255
255
255
255
255
255
255
255
255
255
255
255
255
255
255
255
255
255
255
255
255
255
255
255
255
255
255
255
255
255
255
255
255
255
255
255
255
255
255
255
255
255
255
255
255
255
255
255
255
255
255
255
255
255
255
255
255
255
255
255
255
255
255
255
255
255
255
255
255
255
255
255
255
255
255
255
255
255
255
255
255
255
255
255
255
255
255
255
255
255
255
255
255
255
255
255
255
255
255
255
255
255
255
255
255
255
255
255
255
255
255
255
255
255
255
255
255
255
255
255
255
255
255
255
255
255
255
255
255
255
255
255
255
255
255
255
255
255
255
255
255
255
255
255
255
255
255
255
255
255
255
255
255
255
255
255
255
255
255
255
255
255
255
255
255
255
255
255
255
255
255
255
255
255
255
255
255
255
255
255
255
255
255
255
255
255
255
255
255
255
255
255
255
255
255
255
255
255
255
255
255
255
255
255
255
255
255
255
255
255
255
255
255
255
255
255
255
255
255
255
255
255
255
255
255
255
255
255
255
255
255
255
255
255
255
255
255
255
255
255
255
255
255
255
255
255
255
255
255
255
255
255
255
255
255
255
255
255
255
255
255
255
255
255
255
255
255
255
255
255
255
255
255
255
255
255
255
255
255
255
255
255
255
255
255
255
255
255
255
255
255
255
255
255
255
255
255
255
255
255
255
255
255
255
255
255
255
255
255
255
255
255
255
255
255
255
255
255
255
255
255
255
255
255
255
255
255
255
255
255
255
255
255
255
255
255
255
255
255
255
255
255
255
255
255
255
255
255
255
255
255
255
255
255
255
255
255
255
255
255
255
255
255
255
255
255
255
255
255
255
255
255
255
255
255
255
255
255
255
255
255
255
255
255
255
255
255
255
255
255
255
255
255
255
255
255
255
255
255
255
255
255
255
255
255
255
255
255
255
255
255
255
255
255
255
255
255
255
255
255
255
255
255
255
255
255
255
255
255
255
255
255
255
255
255
255
255
255
255
255
255
255
255
255
255
255
255
255
255
255
255
255
255
255
255
255
255
255
255
255
255
255
255
255
255
255
255
255
255
255
255
255
255
255
255
255
255
255
255
255
255
255
255
255
255
255
255
255
255
255
255
255
255
255
255
255
255
255
255
255
255
255
255
255
255
255
255
255
255
255
255
255
255
255
255
255
255
255
255
255
255
255
255
255
255
255
255
255
255
255
255
255
255
255
255
255
255
255
255
255
255
255
255
255
255
255
255
255
255
255
255
255
255
255
255
255
255
255
255
255
255
255
255
255
255
255
255
255
255
255
255
255
255
255
255
255
255
255
255
255
255
255
255
255
255
255
255
255
255
255
255
255
255
255
255
255
255
255
255
255
255
255
255
255
255
255
255
255
255
255
255
255
255
255
255
255
255
255
255
255
255
255
255
255
255
255
255
255
255
255
255
255
255
255
255
255
255
255
255
255
255
255
255
255
255
255
255
255
255
255
255
255
255
255
255
255
255
255
255
255
255
255
255
255
255
255
255
255
255
255
255
255
255
255
255
255
255
255
255
255
255
255
255
255
255
255
255
255
255
255
255
255
255
255
255
255
255
255
255
255
255
255
255
255
255
255
255
255
255
255
255
255
255
255
255
255
255
255
255
255
255
255
255
255
255
255
255
255
255
255
255
255
255
255
255
255
255
255
255
255
255
255
255
255
255
255
255
255
255
255
255
255
255
255
255
255
255
255
255
255
255
255
255
255
255
255
255
255
255
255
255
255
255
255
255
255
255
255
255
255
255
255
255
255
255
255
255
255
255
255
255
255
255
255
255
255
255
255
255
255
255
255
255
255
255
255
255
255
255
255
255
255
255
255
255
255
255
255
255
255
255
255
255
255
255
255
255
255
255
255
255
255
255
255
255
255
255
255
255
255
255
255
255
255
255
255
255
255
255
255
255
255
255
255
255
255
255
255
255
255
255
255
255
255
255
255
255
255
255
255
255
255
255
255
255
255
255
255
255
255
255
255
255
255
255
255
255
255
255
255
255
255
255
255
255
255
255
255
255
255
255
255
255
255
255
255
255
255
255
255
255
255
255
255
255
255
255
255
255
255
255
255
255
255
255
255
255
255
255
255
255
255
255
255
255
255
255
255
255
255
255
255
255
255
255
255
255
255
255
255
255
255
255
255
255
255
255
255
255
255
255
255
255
255
255
255
255
255
255
255
255
255
255
255
255
255
255
255
255
255
255
255
255
255
255
255
255
255
255
255
255
255
255
255
255
255
255
255
255
255
255
255
255
255
255
255
255
255
255
255
255
255
255
255
255
255
255
255
255
255
255
255
255
255
255
255
255
255
255
255
255
255
255
255
255
255
255
255
255
255
255
255
255
255
255
255
255
255
255
255
255
255
255
255
255
255
255
255
255
255
255
255
255
255
255
255
255
255
255
255
255
255
255
255
255
255
255
255
255
255
255
255
255
255
255
255
255
255
255
255
255
255
255
255
255
255
255
255
255
255
255
255
255
255
255
255
255
255
255
255
255
255
255
255
255
255
255
255
255
255
255
255
255
255
255
255
255
255
255
255
255
255
255
255
255
255
255
255
255
255
255
255
255
255
255
255
255
255
255
255
255
255
255
255
255
255
255
255
255
255
255
255
255
255
255
255
255
255
255
255
255
255
255
255
255
255
255
255
255
255
255
255
255
255
255
255
255
255
255
255
255
255
255
255
255
255
255
255
255
255
255
255
255
255
255
255
255
255
255
255
255
255
255
255
255
255
255
255
255
255
255
255
255
255
255
255
255
255
255
255
255
255
255
255
255
255
255
255
255
255
255
255
255
255
255
255
255
255
255
255
255
255
255
255
255
255
255
255
255
255
255
255
255
255
255
255
255
255
255
255
255
255
255
255
255
255
255
255
255
255
255
255
255
255
255
255
255
255
255
255
255
255
255
255
255
255
255
255
255
255
255
255
255
255
255
255
255
255
255
255
255
255
255
255
255
255
255
255
255
255
255
255
255
255
255
255
255
255
255
255
255
255
255
255
255
255
255
255
255
255
255
255
255
255
255
255
255
255
255
255
255
255
255
255
255
255
255
255
255
255
255
255
255
255
255
255
255
255
255
255
255
255
255
255
255
255
255
255
255
255
255
255
255
255
255
255
255
255
255
255
255
255
255
255
255
255
255
255
255
255
255
255
255
255
255
255
255
255
255
255
255
255
255
255
255
255
255
255
255
255
255
255
255
255
255
255
255
255
255
255
255
255
255
255
255
255
255
255
255
255
255
255
255
255
255
255
255
255
255
255
255
255
255
255
255
255
255
255
255
255
255
255
255
255
255
255
255
255
255
255
255
255
255
255
255
255
255
255
255
255
255
255
255
255
255
255
255
255
255
255
255
255
255
255
255
255
255
255
255
255
255
255
255
255
255
255
255
255
255
255
255
255
255
255
255
255
255
255
255
255
255
255
255
255
255
255
255
255
255
255
255
255
255
255
255
255
255
255
255
255
255
255
255
255
255
255
255
255
255
255
255
255
255
255
255
255
255
255
255
255
255
255
255
255
255
255
255
255
255
255
255
255
255
255
255
255
255
255
255
255
255
255
255
255
255
255
255
255
255
255
255
255
255
255
255
255
255
255
255
255
255
255
255
255
255
255
255
255
255
255
255
255
255
255
255
255
255
255
255
255
255
255
255
255
255
255
255
255
255
255
255
255
255
255
255
255
255
255
255
255
255
255
255
255
255
255
255
255
255
255
255
255
255
255
255
255
255
255
255
255
255
255
255
255
255
255
255
255
255
255
255
255
255
255
255
255
255
255
255
255
255
255
255
255
255
255
255
255
255
255
255
255
255
255
255
255
255
255
255
255
255
255
255
255
255
255
255
255
255
255
255
255
255
255
255
255
255
255
255
255
255
255
255
255
255
255
255
255
255
255
255
255
255
255
255
255
255
255
255
255
255
255
255
255
255
255
255
255
255
255
255
255
255
255
255
255
255
255
255
255
255
255
255
255
255
255
255
255
255
255
255
255
255
255
255
255
255
255
255
255
255
255
255
255
255
255
255
255
255
255
255
255
255
255
255
255
255
255
255
255
255
255
255
255
255
255
255
255
255
255
255
255
255
255
255
255
255
255
255
255
255
255
255
255
255
255
255
255
255
255
255
255
255
255
255
255
255
255
255
255
255
255
255
255
255
255
255
255
255
255
255
255
255
255
255
255
255
255
255
255
255
255
255
255
255
255
255
255
255
255
255
255
255
255
255
255
255
255
255
255
255
255
255
255
255
255
255
255
255
255
255
255
255
255
255
255
255
255
255
255
255
255
255
255
255
255
255
255
255
255
255
255
255
255
255
255
255
255
255
255
255
255
255
255
255
255
255
255
255
255
255
255
255
255
255
255
255
255
255
255
255
255
255
255
255
255
255
255
255
255
255
255
255
255
255
255
255
255
255
255
255
255
255
255
255
255
255
255
255
255
255
255
255
255
255
255
255
255
255
255
255
255
255
255
255
255
255
255
255
255
255
255
255
255
255
255
255
255
255
255
255
255
255
255
255
255
255
255
255
255
255
255
255
255
255
255
255
255
255
255
255
255
255
255
255
255
255
255
255
255
255
255
255
255
255
255
255
255
255
255
255
255
255
255
255
255
255
255
255
255
255
255
255
255
255
255
255
255
255
255
255
255
255
255
255
255
255
255
255
255
255
255
255
255
255
255
255
255
255
255
255
255
255
255
255
255
255
255
255
255
255
255
255
255
255
255
255
255
255
255
255
255
255
255
255
255
255
255
255
255
255
255
255
255
255
255
255
255
255
255
255
255
255
255
255
255
255
255
255
255
255
255
255
255
255
255
255
255
255
255
255
255
255
255
255
255
255
255
255
255
255
255
255
255
255
255
255
255
255
255
255
255
255
255
255
255
255
255
255
255
255
255
255
255
255
255
255
255
255
255
255
255
255
255
255
255
255
255
255
255
255
255
255
255
255
255
255
255
255
255
255
255
255
255
255
255
255
255
255
255
255
255
255
255
255
255
255
255
255
255
255
255
255
255
255
255
255
255
255
255
255
255
255
255
255
255
255
255
255
255
255
255
255
255
255
255
255
255
255
255
255
255
255
255
255
255
255
255
255
255
255
255
255
255
255
255
255
255
255
255
255
255
255
255
255
255
255
255
255
255
255
255
255
255
255
255
255
255
255
255
255
255
255
255
255
255
255
255
255
255
255
255
255
255
255
255
255
255
255
255
255
255
255
255
255
255
255
255
255
255
255
255
255
255
255
255
255
255
255
255
255
255
255
255
255
255
255
255
255
255
255
255
255
255
255
255
255
255
255
255
255
255
255
255
255
255
255
255
255
255
255
255
255
255
255
255
255
255
255
255
255
255
255
255
255
255
255
255
255
255
255
255
255
255
255
255
255
255
255
255
255
255
255
255
255
255
255
255
255
255
255
255
255
255
255
255
255
255
255
255
255
255
255
255
255
255
255
255
255
255
255
255
255
255
255
255
255
255
255
255
255
255
255
255
255
255
255
255
255
255
255
255
255
255
255
255
255
255
255
255
255
255
255
255
255
255
255
255
255
255
255
255
255
255
255
255
255
255
255
255
255
255
255
255
255
255
255
255
255
255
255
255
255
255
255
255
255
255
255
255
255
255
255
255
255
255
255
255
255
255
255
255
255
255
255
255
255
255
255
255
255
255
255
255
255
255
255
255
255
255
255
255
255
255
255
255
255
255
255
255
255
255
255
255
255
255
255
255
255
255
255
255
255
255
255
255
255
255
255
255
255
255
255
255
255
255
255
255
255
255
255
255
255
255
255
255
255
255
255
255
255
255
255
255
255
255
255
255
255
255
255
255
255
255
255
255
255
255
255
255
255
255
255
255
255
255
255
255
255
255
255
255
255
255
255
255
255
255
255
255
255
255
255
255
255
255
255
255
255
255
255
255
255
255
255
255
255
255
255
255
255
255
255
255
255
255
255
255
255
255
255
255
255
255
255
255
255
255
255
255
255
255
255
255
255
255
255
255
255
255
255
255
255
255
255
255
255
255
255
255
255
255
255
255
255
255
255
255
255
255
255
255
255
255
255
255
255
255
255
255
255
255
255
255
255
255
255
255
255
255
255
255
255
255
255
255
255
255
255
255
255
255
255
255
255
255
255
255
255
255
255
255
255
255
255
255
255
255
255
255
255
255
255
255
255
255
255
255
255
255
255
255
255
255
255
255
255
255
255
255
255
255
255
255
255
255
255
255
255
255
255
255
255
255
255
255
255
255
255
255
255
255
255
255
255
255
255
255
255
255
255
255
255
255
255
255
255
255
255
255
255
255
255
255
255
255
255
255
255
255
255
255
255
255
255
255
255
255
255
255
255
255
255
255
255
255
255
255
255
255
255
255
255
255
255
255
255
255
255
255
255
255
255
255
255
255
255
255
255
255
255
255
255
255
255
255
255
255
255
255
255
255
255
255
255
255
255
255
255
255
255
255
255
255
255
255
255
255
255
255
255
255
255
255
255
255
255
255
255
255
255
255
255
255
255
255
255
255
255
255
255
255
255
255
255
255
255
255
255
255
255
255
255
255
255
255
255
255
255
255
255
255
255
255
255
255
255
255
255
255
255
255
255
255
255
255
255
255
255
255
255
255
255
255
255
255
255
255
255
255
255
255
255
255
255
255
255
255
255
255
255
255
255
255
255
255
255
255
255
255
255
255
255
255
255
255
255
255
255
255
255
255
255
255
255
255
255
255
255
255
255
255
255
255
255
255
255
255
255
255
255
255
255
255
255
255
255
255
255
255
255
255
255
255
255
255
255
255
255
255
255
255
255
255
255
255
255
255
255
255
255
255
255
255
255
255
255
255
255
255
255
255
255
255
255
255
255
255
255
255
255
255
255
255
255
255
255
255
255
255
255
255
255
255
255
255
255
255
255
255
255
255
255
255
255
255
255
255
255
255
255
255
255
255
255
255
255
255
255
255
255
255
255
255
255
255
255
255
255
255
255
255
255
255
255
255
255
255
255
255
255
255
255
255
255
255
255
255
255
255
255
255
255
255
255
255
255
255
255
255
255
255
255
255
255
255
255
255
255
255
255
255
255
255
255
255
255
255
255
255
255
255
255
255
255
255
255
255
255
255
255
255
255
255
255
255
255
255
255
255
255
255
255
255
255
255
255
255
255
255
255
255
255
255
255
255
255
255
255
255
255
255
255
255
255
255
255
255
255
255
255
255
255
255
255
255
255
255
255
255
255
255
255
255
255
255
255
255
255
255
255
255
255
255
255
255
255
255
255
255
255
255
255
255
255
255
255
255
255
255
255
255
255
255
255
255
255
255
255
255
255
255
255
255
255
255
255
255
255
255
255
255
255
255
255
255
255
255
255
255
255
255
255
255
255
255
255
255
255
255
255
255
255
255
255
255
255
255
255
255
255
255
255
255
255
255
255
255
255
255
255
255
255
255
255
255
255
255
255
255
255
255
255
255
255
255
255
255
255
255
255
255
255
255
255
255
255
255
255
255
255
255
255
255
255
255
255
255
255
255
255
255
255
255
255
255
255
255
255
255
255
255
255
255
255
255
255
255
255
255
255
255
255
255
255
255
255
255
255
255
255
255
255
255
255
255
255
255
255
255
255
255
255
255
255
255
255
255
255
255
255
255
255
255
255
255
255
255
255
255
255
255
255
255
255
255
255
255
255
255
255
255
255
255
255
255
255
255
255
255
255
255
255
255
255
255
255
255
255
255
255
255
255
255
255
255
255
255
255
255
255
255
255
255
255
255
255
255
255
255
255
255
255
255
255
255
255
255
255
255
255
255
255
255
255
255
255
255
255
255
255
255
255
255
255
255
255
255
255
255
255
255
255
255
255
255
255
255
255
255
255
255
255
255
255
255
255
255
255
255
255
255
255
255
255
255
255
255
255
255
255
255
255
255
255
255
255
255
255
255
255
255
255
255
255
255
255
255
255
255
255
255
255
255
255
255
255
255
255
255
255
255
255
255
255
255
255
255
255
255
255
255
255
255
255
255
255
255
255
255
255
255
255
255
255
255
255
255
255
255
255
255
255
255
255
255
255
255
255
255
255
255
255
255
255
255
255
255
255
255
255
255
255
255
255
255
255
255
255
255
255
255
255
255
255
255
255
255
255
255
255
255
255
255
255
255
255
255
255
255
255
255
255
255
255
255
255
255
255
255
255
255
255
255
255
255
255
255
255
255
255
255
255
255
255
255
255
255
255
255
255
255
255
255
255
255
255
255
255
255
255
255
255
255
255
255
255
255
255
255
255
255
255
255
255
255
255
255
255
255
255
255
255
255
255
255
255
255
255
255
255
255
255
255
255
255
255
255
255
255
255
255
255
255
255
255
255
255
255
255
255
255
255
255
255
255
255
255
255
255
255
255
255
255
255
255
255
255
255
255
255
255
255
255
255
255
255
255
255
255
255
255
255
255
255
255
255
255
255
255
255
255
255
255
255
255
255
255
255
255
255
255
255
255
255
255
255
255
255
255
255
255
255
255
255
255
255
255
255
255
255
255
255
255
255
255
255
255
255
255
255
255
255
255
255
255
255
255
255
255
255
255
255
255
255
255
255
255
255
255
255
255
255
255
255
255
255
255
255
255
255
255
255
255
255
255
255
255
255
255
255
255
255
255
255
255
255
255
255
255
255
255
255
255
255
255
255
255
255
255
255
255
255
255
255
255
255
255
255
255
255
255
255
255
255
255
255
255
255
255
255
255
255
255
255
255
255
255
255
255
255
255
255
255
255
255
255
255
255
255
255
255
255
255
255
255
255
255
255
255
255
255
255
255
255
255
255
255
255
255
255
255
255
255
255
255
255
255
255
255
255
255
255
255
255
255
255
255
255
255
255
255
255
255
255
255
255
255
255
255
255
255
255
255
255
255
255
255
255
255
255
255
255
255
255
255
255
255
255
255
255
255
255
255
255
255
255
255
255
255
255
255
255
255
255
255
255
255
255
255
255
255
255
255
255
255
255
255
255
255
255
255
255
255
255
255
255
255
255
255
255
255
255
255
255
255
255
255
255
255
255
255
255
255
255
255
255
255
255
255
255
255
255
255
255
255
255
255
255
255
255
255
255
255
255
255
255
255
255
255
255
255
255
255
255
255
255
255
255
255
255
255
255
255
255
255
255
255
255
255
255
255
255
255
255
255
255
255
255
255
255
255
255
255
255
255
255
255
255
255
255
255
255
255
255
255
255
255
255
255
255
255
255
255
255
255
255
255
255
255
255
255
255
255
255
255
255
255
255
255
255
255
255
255
255
255
255
255
255
255
255
255
255
255
255
255
255
255
255
255
255
255
255
255
255
255
255
255
255
255
255
255
255
255
255
255
255
255
255
255
255
255
255
255
255
255
255
255
255
255
255
255
255
255
255
255
255
255
255
255
255
255
255
255
255
255
255
255
255
255
255
255
255
255
255
255
255
255
255
255
255
255
255
255
255
255
255
255
255
255
255
255
255
255
255
255
255
255
255
255
255
255
255
255
255
255
255
255
255
255
255
255
255
255
255
255
255
255
255
255
255
255
255
255
255
255
255
255
255
255
255
255
255
255
255
255
255
255
255
255
255
255
255
255
255
255
255
255
255
255
255
255
255
255
255
255
255
255
255
255
255
255
255
255
255
255
255
255
255
255
255
255
255
255
255
255
255
255
255
255
255
255
255
255
255
255
255
255
255
255
255
255
255
255
255
255
255
255
255
255
255
255
255
255
255
255
255
255
255
255
255
255
255
255
255
255
255
255
255
255
255
255
255
255
255
255
255
255
255
255
255
255
255
255
255
255
255
255
255
255
255
255
255
255
255
255
255
255
255
255
255
255
255
255
255
255
255
255
255
255
255
255
255
255
255
255
255
255
255
255
255
255
255
255
255
255
255
255
255
255
255
255
255
255
255
255
255
255
255
255
255
255
255
255
255
255
255
255
255
255
255
255
255
255
255
255
255
255
255
255
255
255
255
255
255
255
255
255
255
255
255
255
255
255
255
255
255
255
255
255
255
255
255
255
255
255
255
255
255
255
255
255
255
255
255
255
255
255
255
255
255
255
255
255
255
255
255
255
255
255
255
255
255
255
255
255
255
255
255
255
255
255
255
255
255
255
255
255
255
255
255
255
255
255
255
255
255
255
255
255
255
255
255
255
255
255
255
255
255
255
255
255
255
255
255
255
255
255
255
255
255
255
255
255
255
255
255
255
255
255
255
255
255
255
255
255
255
255
255
255
255
255
255
255
255
255
255
255
255
255
255
255
255
255
255
255
255
255
255
255
255
255
255
255
255
255
255
255
255
255
255
255
255
255
255
255
255
255
255
255
255
255
255
255
255
255
255
255
255
255
255
255
255
255
255
255
255
255
255
255
255
255
255
255
255
255
255
255
255
255
255
255
255
255
255
255
255
255
255
255
255
255
255
255
255
255
255
255
255
255
255
255
255
255
255
255
255
255
255
255
255
255
255
255
255
255
255
255
255
255
255
255
255
255
255
255
255
255
255
255
255
255
255
255
255
255
255
255
255
255
255
255
255
255
255
255
255
255
255
255
255
255
255
255
255
255
255
255
255
255
255
255
255
255
255
255
255
255
255
255
255
255
255
255
255
255
255
255
255
255
255
255
255
255
255
255
255
255
255
255
255
255
255
255
255
255
255
255
255
255
255
255
255
255
255
255
255
255
255
255
255
255
255
255
255
255
255
255
255
255
255
255
255
255
255
255
255
255
255
255
255
255
255
255
255
255
255
255
255
255
255
255
255
255
255
255
255
255
255
255
255
255
255
255
255
255
255
255
255
255
255
255
255
255
255
255
255
255
255
255
255
255
255
255
255
255
255
255
255
255
255
255
255
255
255
255
255
255
255
255
255
255
255
255
255
255
255
255
255
255
255
255
255
255
255
255
255
255
255
255
255
255
255
255
255
255
255
255
255
255
255
255
255
255
255
255
255
255
255
255
255
255
255
255
255
255
255
255
255
255
255
255
255
255
255
255
255
255
255
255
255
255
255
255
255
255
255
255
255
255
255
255
255
255
255
255
255
255
255
255
255
255
255
255
255
255
255
255
255
255
255
255
255
255
255
255
255
255
255
255
255
255
255
255
255
255
255
255
255
255
255
255
255
255
255
255
255
255
255
255
255
255
255
255
255
255
255
255
255
255
255
255
255
255
255
255
255
255
255
255
255
255
255
255
255
255
255
255
255
255
255
255
255
255
255
255
255
255
255
255
255
255
255
255
255
255
255
255
255
255
255
255
255
255
255
255
255
255
255
255
255
255
255
255
255
255
255
255
255
255
255
255
255
255
255
255
255
255
255
255
255
255
255
255
255
255
255
255
255
255
255
255
255
255
255
255
255
255
255
255
255
255
255
255
255
255
255
255
255
255
255
255
255
255
255
255
255
255
255
255
255
255
255
255
255
255
255
255
255
255
255
255
255
255
255
255
255
255
255
255
255
255
255
255
255
255
255
255
255
255
255
255
255
255
255
255
255
255
255
255
255
255
255
255
255
255
255
255
255
255
255
255
255
255
255
255
255
255
255
255
255
255
255
255
255
255
255
255
255
255
255
255
255
255
255
255
255
255
255
255
255
255
255
255
255
255
255
255
255
255
255
255
255
255
255
255
255
255
255
255
255
255
255
255
255
255
255
255
255
255
255
255
255
255
255
255
255
255
255
255
255
255
255
255
255
255
255
255
255
255
255
255
255
255
255
255
255
255
255
255
255
255
255
255
255
255
255
255
255
255
255
255
255
255
255
255
255
255
255
255
255
255
255
255
255
255
255
255
255
255
255
255
255
255
255
255
255
255
255
255
255
255
255
255
255
255
255
255
255
255
255
255
255
255
255
255
255
255
255
255
255
255
255
255
255
255
255
255
255
255
255
255
255
255
255
255
255
255
255
255
255
255
255
255
255
255
255
255
255
255
255
255
255
255
255
255
255
255
255
255
255
255
255
255
255
255
255
255
255
255
255
255
255
255
255
255
255
255
255
255
255
255
255
255
255
255
255
255
255
255
255
255
255
255
255
255
255
255
255
255
255
255
255
255
255
255
255
255
255
255
255
255
255
255
255
255
255
255
255
255
255
255
255
255
255
255
255
255
255
255
255
255
255
255
255
255
255
255
255
255
255
255
255
255
255
255
255
255
255
255
255
255
255
255
255
255
255
255
255
255
255
255
255
255
255
255
255
255
255
255
255
255
255
255
255
255
255
255
255
255
255
255
255
255
255
255
255
255
255
255
255
255
255
255
255
255
255
255
255
255
255
255
255
255
255
255
255
255
255
255
255
255
255
255
255
255
255
255
255
255
255
255
255
255
255
255
255
255
255
255
255
255
255
255
255
255
255
255
255
255
255
255
255
255
255
255
255
255
255
255
255
255
255
255
255
255
255
255
255
255
255
255
255
255
255
255
255
255
255
255
255
255
255
255
255
255
255
255
255
255
255
255
255
255
255
255
255
255
255
255
255
255
255
255
255
255
255
255
255
255
255
255
255
255
255
255
255
255
255
255
255
255
255
255
255
255
255
255
255
255
255
255
255
255
255
255
255
255
255
255
255
255
255
255
255
255
255
255
255
255
255
255
255
255
255
255
255
255
255
255
255
255
255
255
255
255
255
255
255
255
255
255
255
255
255
255
255
255
255
255
255
255
255
255
255
255
255
255
255
255
255
255
255
255
255
255
255
255
255
255
255
255
255
255
255
255
255
255
255
255
255
255
255
255
255
255
255
255
255
255
255
255
255
255
255
255
255
255
255
255
255
255
255
255
255
255
255
255
255
255
255
255
255
255
255
255
255
255
255
255
255
255
255
255
255
255
255
255
255
255
255
255
255
255
255
255
255
255
255
255
255
255
255
255
255
255
255
255
255
255
255
255
255
255
255
255
255
255
255
255
255
255
255
255
255
255
255
255
255
255
255
255
255
255
255
255
255
255
255
255
255
255
255
255
255
255
255
255
255
255
255
255
255
255
255
255
255
255
255
255
255
255
255
255
255
255
255
255
255
255
255
255
255
255
255
255
255
255
255
255
255
255
255
255
255
255
255
255
255
255
255
255
255
255
255
255
255
255
255
255
255
255
255
255
255
255
255
255
255
255
255
255
255
255
255
255
255
255
255
255
255
255
255
255
255
255
255
255
255
255
255
255
255
255
255
255
255
255
255
255
255
255
255
255
255
255
255
255
255
255
255
255
255
255
255
255
255
255
255
255
255
255
255
255
255
255
255
255
255
255
255
255
255
255
255
255
255
255
255
255
255
255
255
255
255
255
255
255
255
255
255
255
255
255
255
255
255
255
255
255
255
255
255
255
255
255
255
255
255
255
255
255
255
255
255
255
255
255
255
255
255
255
255
255
255
255
255
255
255
255
255
255
255
255
255
255
255
255
255
255
255
255
255
255
255
255
255
255
255
255
255
255
255
255
255
255
255
255
255
255
255
255
255
255
255
255
255
255
255
255
255
255
255
255
255
255
255
255
255
255
255
255
255
255
255
255
255
255
255
255
255
255
255
255
255
255
255
255
255
255
255
255
255
255
255
255
255
255
255
255
255
255
255
255
255
255
255
255
255
255
255
255
255
255
255
255
255
255
255
255
255
255
255
255
255
255
255
255
255
255
255
255
255
255
255
255
255
255
255
255
255
255
255
255
255
255
255
255
255
255
255
255
255
255
255
255
255
255
255
255
255
255
255
255
255
255
255
255
255
255
255
255
255
255
255
255
255
255
255
255
255
255
255
255
255
255
255
255
255
255
255
255
255
255
255
255
255
255
255
255
255
255
255
255
255
255
255
255
255
255
255
255
255
255
255
255
255
255
255
255
255
255
255
255
255
255
255
255
255
255
255
255
255
255
255
255
255
255
255
255
255
255
255
255
255
255
255
255
255
255
255
255
255
255
255
255
255
255
255
255
255
255
255
255
255
255
255
255
255
255
255
255
255
255
255
255
255
255
255
255
255
255
255
255
255
255
255
255
255
255
255
255
255
255
255
255
255
255
255
255
255
255
255
255
255
255
255
255
255
255
255
255
255
255
255
255
255
255
255
255
255
255
255
255
255
255
255
255
255
255
255
255
255
255
255
255
255
255
255
255
255
255
255
255
255
255
255
255
255
255
255
255
255
255
255
255
255
255
255
255
255
255
255
255
255
255
255
255
255
255
255
255
255
255
255
255
255
255
255
255
255
255
255
255
255
255
255
255
255
255
255
255
255
255
255
255
255
255
255
255
255
255
255
255
255
255
255
255
255
255
255
255
255
255
255
255
255
255
255
255
255
255
255
255
255
255
255
255
255
255
255
255
255
255
255
255
255
255
255
255
255
255
255
255
255
255
255
255
255
255
255
255
255
255
255
255
255
255
255
255
255
255
255
255
255
255
255
255
255
255
255
255
255
255
255
255
255
255
255
255
255
255
255
255
255
255
255
255
255
255
255
255
255
255
255
255
255
255
255
255
255
255
255
255
255
255
255
255
255
255
255
255
255
255
255
255
255
255
255
255
255
255
255
255
255
255
255
255
255
255
255
255
255
255
255
255
255
255
255
255
255
255
255
255
255
255
255
255
255
255
255
255
255
255
255
255
255
255
255
255
255
255
255
255
255
255
255
255
255
255
255
255
255
255
255
255
255
255
255
255
255
255
255
255
255
255
255
255
255
255
255
255
255
255
255
255
255
255
255
255
255
255
255
255
255
255
255
255
255
255
255
255
255
255
255
255
255
255
255
255
255
255
255
255
255
255
255
255
255
255
255
255
255
255
255
255
255
255
255
255
255
255
255
255
255
255
255
255
255
255
255
255
255
255
255
255
255
255
255
255
255
255
255
255
255
255
255
255
255
255
255
255
255
255
255
255
255
255
255
255
255
255
255
255
255
255
255
255
255
255
255
255
255
255
255
255
255
255
255
255
255
255
255
255
255
255
255
255
255
255
255
255
255
255
255
255
255
255
255
255
255
255
255
255
255
255
255
255
255
255
255
255
255
255
255
255
255
255
255
255
255
255
255
255
255
255
255
255
255
255
255
255
255
255
255
255
255
255
255
255
255
255
255
255
255
255
255
255
255
255
255
255
255
255
255
255
255
255
255
255
255
255
255
255
255
255
255
255
255
255
255
255
255
255
255
255
255
255
255
255
255
255
255
255
255
255
255
255
255
255
255
255
255
255
255
255
255
255
255
255
255
255
255
255
255
255
255
255
255
255
255
255
255
255
255
255
255
255
255
255
255
255
255
255
255
255
255
255
255
255
255
255
255
255
255
255
255
255
255
255
255
255
255
255
255
255
255
255
255
255
255
255
255
255
255
255
255
255
255
255
255
255
255
255
255
255
255
255
255
255
255
255
255
255
255
255
255
255
255
255
255
255
255
255
255
255
255
255
255
255
255
255
255
255
255
255
255
255
255
255
255
255
255
255
255
255
255
255
255
255
255
255
255
255
255
255
255
255
255
255
255
255
255
255
255
255
255
255
255
255
255
255
255
255
255
255
255
255
255
255
255
255
255
255
255
255
255
255
255
255
255
255
255
255
255
255
255
255
255
255
255
255
255
255
255
255
255
255
255
255
255
255
255
255
255
255
255
255
255
255
255
255
255
255
255
255
255
255
255
255
255
255
255
255
255
255
255
255
255
255
255
255
255
255
255
255
255
255
255
255
255
255
255
255
255
255
255
255
255
255
255
255
255
255
255
255
255
255
255
255
255
255
255
255
255
255
255
255
255
255
255
255
255
255
255
255
255
255
255
255
255
255
255
255
255
255
255
255
255
255
255
255
255
255
255
255
255
255
255
255
255
255
255
255
255
255
255
255
255
255
255
255
255
255
255
255
255
255
255
255
255
255
255
255
255
255
255
255
255
255
255
255
255
255
255
255
255
255
255
255
255
255
255
255
255
255
255
255
255
255
255
255
255
255
255
255
255
255
255
255
255
255
255
255
255
255
255
255
255
255
255
255
255
255
255
255
255
255
255
255
255
255
255
255
255
255
255
255
255
255
255
255
255
255
255
255
255
255
255
255
255
255
255
255
255
255
255
255
255
255
255
255
255
255
255
255
255
255
255
255
255
255
255
255
255
255
255
255
255
255
255
255
255
255
255
255
255
255
255
255
255
255
255
255
255
255
255
255
255
255
255
255
255
255
255
255
255
255
255
255
255
255
255
255
255
255
255
255
255
255
255
255
255
255
255
255
255
255
255
255
255
255
255
255
255
255
255
255
255
255
255
255
255
255
255
255
255
255
255
255
255
255
255
255
255
255
255
255
255
255
255
255
255
255
255
255
255
255
255
255
255
255
255
255
255
255
255
255
255
255
255
255
255
255
255
255
255
255
255
255
255
255
255
255
255
255
255
255
255
255
255
255
255
255
255
255
255
255
255
255
255
255
255
255
255
255
255
255
255
255
255
255
255
255
255
255
255
255
255
255
255
255
255
255
255
255
255
255
255
255
255
255
255
255
255
255
255
255
255
255
255
255
255
255
255
255
255
255
255
255
255
255
255
255
255
255
255
255
255
255
255
255
255
255
255
255
255
255
255
255
255
255
255
255
255
255
255
255
255
255
255
255
255
255
255
255
255
255
255
255
255
255
255
255
255
255
255
255
255
255
255
255
255
255
255
255
255
255
255
255
255
255
255
255
255
255
255
255
255
255
255
255
255
255
255
255
255
255
255
255
255
255
255
255
255
255
255
255
255
255
255
255
255
255
255
255
255
255
255
255
255
255
255
255
255
255
255
255
255
255
255
255
255
255
255
255
255
255
255
255
255
255
255
255
255
255
255
255
255
255
255
255
255
255
255
255
255
255
255
255
255
255
255
255
255
255
255
255
255
255
255
255
255
255
255
255
255
255
255
255
255
255
255
255
255
255
255
255
255
255
255
255
255
255
255
255
255
255
255
255
255
255
255
255
255
255
255
255
255
255
255
255
255
255
255
255
255
255
255
255
255
255
255
255
255
255
255
255
255
255
255
255
255
255
255
255
255
255
255
255
255
255
255
255
255
255
255
255
255
255
255
255
255
255
255
255
255
255
255
255
255
255
255
255
255
255
255
255
255
255
255
255
255
255
255
255
255
255
255
255
255
255
255
255
255
255
255
255
255
255
255
255
255
255
255
255
255
255
255
255
255
255
255
255
255
255
255
255
255
255
255
255
255
255
255
255
255
255
255
255
255
255
255
255
255
255
255
255
255
255
255
255
255
255
255
255
255
255
255
255
255
255
255
255
255
255
255
255
255
255
255
255
255
255
255
255
255
255
255
255
255
255
255
255
255
255
255
255
255
255
255
255
255
255
255
255
255
255
255
255
255
255
255
255
255
255
255
255
255
255
255
255
255
255
255
255
255
255
255
255
255
255
255
255
255
255
255
255
255
255
255
255
255
255
255
255
255
255
255
255
255
255
255
255
255
255
255
255
255
255
255
255
255
255
255
255
255
255
255
255
255
255
255
255
255
255
255
255
255
255
255
255
255
255
255
255
255
255
255
255
255
255
255
255
255
255
255
255
255
255
255
255
255
255
255
255
255
255
255
255
255
255
255
255
255
255
255
255
255
255
255
255
255
255
255
255
255
255
255
255
255
255
255
255
255
255
255
255
255
255
255
255
255
255
255
255
255
255
255
255
255
255
255
255
255
255
255
255
255
255
255
255
255
255
255
255
255
255
255
255
255
255
255
255
255
255
255
255
255
255
255
255
255
255
255
255
255
255
255
255
255
255
255
255
255
255
255
255
255
255
255
255
255
255
255
255
255
255
255
255
255
255
255
255
255
255
255
255
255
255
255
255
255
255
255
255
255
255
255
255
255
255
255
255
255
255
255
255
255
255
255
255
255
255
255
255
255
255
255
255
255
255
255
255
255
255
255
255
255
255
255
255
255
255
255
255
255
255
255
255
255
255
255
255
255
255
255
255
255
255
255
255
255
255
255
255
255
255
255
255
255
255
255
255
255
255
255
255
255
255
255
255
255
255
255
255
255
255
255
255
255
255
255
255
255
255
255
255
255
255
255
255
255
255
255
255
255
255
255
255
255
255
255
255
255
255
255
255
255
255
255
255
255
255
255
255
255
255
255
255
255
255
255
255
255
255
255
255
255
255
255
255
255
255
255
255
255
255
255
255
255
255
255
255
255
255
255
255
255
255
255
255
255
255
255
255
255
255
255
255
255
255
255
255
255
255
255
255
255
255
255
255
255
255
255
255
255
255
255
255
255
255
255
255
255
255
255
255
255
255
255
255
255
255
255
255
255
255
255
255
255
255
255
255
255
255
255
255
255
255
255
255
255
255
255
255
255
255
255
255
255
255
255
255
255
255
255
255
255
255
255
255
255
255
255
255
255
255
255
255
255
255
255
255
255
255
255
255
255
255
255
255
255
255
255
255
255
255
255
255
255
255
255
255
255
255
255
255
255
255
255
255
255
255
255
255
255
255
255
255
255
255
255
255
255
255
255
255
255
255
255
255
255
255
255
255
255
255
255
255
255
255
255
255
255
255
255
255
255
255
255
255
255
255
255
255
255
255
255
255
255
255
255
255
255
255
255
255
255
255
255
255
255
255
255
255
255
255
255
255
255
255
255
255
255
255
255
255
255
255
255
255
255
255
255
255
255
255
255
255
255
255
255
255
255
255
255
255
255
255
255
255
255
255
255
255
255
255
255
255
255
255
255
255
255
255
255
255
255
255
255
255
255
255
255
255
255
255
255
255
255
255
255
255
255
255
255
255
255
255
255
255
255
255
255
255
255
255
255
255
255
255
255
255
255
255
255
255
255
255
255
255
255
255
255
255
255
255
255
255
255
255
255
255
255
255
255
255
255
255
255
255
255
255
255
255
255
255
255
255
255
255
255
255
255
255
255
255
255
255
255
255
255
255
255
255
255
255
255
255
255
255
255
255
255
255
255
255
255
255
255
255
255
255
255
255
255
255
255
255
255
255
255
255
255
255
255
255
255
255
255
255
255
255
255
255
255
255
255
255
255
255
255
255
255
255
255
255
255
255
255
255
255
255
255
255
255
255
255
255
255
255
255
255
255
255
255
255
255
255
255
255
255
255
255
255
255
255
255
255
255
255
255
255
255
255
255
255
255
255
255
255
255
255
255
255
255
255
255
255
255
255
255
255
255
255
255
255
255
255
255
255
255
255
255
255
255
255
255
255
255
255
255
255
255
255
255
255
255
255
255
255
255
255
255
255
255
255
255
255
255
255
255
255
255
255
255
255
255
255
255
255
255
255
255
255
255
255
255
255
255
255
255
255
255
255
255
255
255
255
255
255
255
255
255
255
255
255
255
255
255
255
255
255
255
255
255
255
255
255
255
255
255
255
255
255
255
255
255
255
255
255
255
255
255
255
255
255
255
255
255
255
255
255
255
255
255
255
255
255
255
255
255
255
255
255
255
255
255
255
255
255
255
255
255
255
255
255
255
255
255
255
255
255
255
255
255
255
255
255
255
255
255
255
255
255
255
255
255
255
255
255
255
255
255
255
255
255
255
255
255
255
255
255
255
255
255
255
255
255
255
255
255
255
255
255
255
255
255
255
255
255
255
255
255
255
255
255
255
255
255
255
255
255
255
255
255
255
255
255
255
255
255
255
255
255
255
255
255
255
255
255
255
255
255
255
255
255
255
255
255
255
255
255
255
255
255
255
255
255
255
255
255
255
255
255
255
255
255
255
255
255
255
255
255
255
255
255
255
255
255
255
255
255
255
255
255
255
255
255
255
255
255
255
255
255
255
255
255
255
255
255
255
255
255
255
255
255
255
255
255
255
255
255
255
255
255
255
255
255
255
255
255
255
255
255
255
255
255
255
255
255
255
255
255
255
255
255
255
255
255
255
255
255
255
255
255
255
255
255
255
255
255
255
255
255
255
255
255
255
255
255
255
255
255
255
255
255
255
255
255
255
255
255
255
255
255
255
255
255
255
255
255
255
255
255
255
255
255
255
255
255
255
255
255
255
255
255
255
255
255
255
255
255
255
255
255
255
255
255
255
255
255
255
255
255
255
255
255
255
255
255
255
255
255
255
255
255
255
255
255
255
255
255
255
255
255
255
255
255
255
255
255
255
255
255
255
255
255
255
255
255
255
255
255
255
255
255
255
255
255
255
255
255
255
255
255
255
255
255
255
255
255
255
255
255
255
255
255
255
255
255
255
255
255
255
255
255
255
255
255
255
255
255
255
255
255
255
255
255
255
255
255
255
255
255
255
255
255
255
255
255
255
255
255
255
255
255
255
255
255
255
255
255
255
255
255
255
255
255
255
255
255
255
255
255
255
255
255
255
255
255
255
255
255
255
255
255
255
255
255
255
255
255
255
255
255
255
255
255
255
255
255
255
255
255
255
255
255
255
255
255
255
255
255
255
255
255
255
255
255
255
255
255
255
255
255
255
255
255
255
255
255
255
255
255
255
255
255
255
255
255
255
255
255
255
255
255
255
255
255
255
255
255
255
255
255
255
255
255
255
255
255
255
255
255
255
255
255
255
255
255
255
255
255
255
255
255
255
255
255
255
255
255
255
255
255
255
255
255
255
255
255
255
255
255
255
255
255
255
255
255
255
255
255
255
255
255
255
255
255
255
255
255
255
255
255
255
255
255
255
255
255
255
255
255
255
255
255
255
255
255
255
255
255
255
255
255
255
255
255
255
255
255
255
255
255
255
255
255
255
255
255
255
255
255
255
255
255
255
255
255
255
255
255
255
255
255
255
255
255
255
255
255
255
255
255
255
255
255
255
255
255
255
255
255
255
255
255
255
255
255
255
255
255
255
255
255
255
255
255
255
255
255
255
255
255
255
255
255
255
255
255
255
255
255
255
255
255
255
255
255
255
255
255
255
255
255
255
255
255
255
255
255
255
255
255
255
255
255
255
255
255
255
255
255
255
255
255
255
255
255
255
255
255
255
255
255
255
255
255
255
255
255
255
255
255
255
255
255
255
255
255
255
255
255
255
255
255
255
255
255
255
255
255
255
255
255
255
255
255
255
255
255
255
255
255
255
255
255
255
255
255
255
255
255
255
255
255
255
255
255
255
255
255
255
255
255
255
255
255
255
255
255
255
255
255
255
255
255
255
255
255
255
255
255
255
255
255
255
255
255
255
255
255
255
255
255
255
255
255
255
255
255
255
255
255
255
255
255
255
255
255
255
255
255
255
255
255
255
255
255
255
255
255
255
255
255
255
255
255
255
255
255
255
255
255
255
255
255
255
255
255
255
255
255
255
255
255
255
255
255
255
255
255
255
255
255
255
255
255
255
255
255
255
255
255
255
255
255
255
255
255
255
255
255
255
255
255
255
255
255
255
255
255
255
255
255
255
255
255
255
255
255
255
255
255
255
255
255
255
255
255
255
255
255
255
255
255
255
255
255
255
255
255
255
255
255
255
255
255
255
255
255
255
255
255
255
255
255
255
255
255
255
255
255
255
255
255
255
255
255
255
255
255
255
255
255
255
255
255
255
255
255
255
255
255
255
255
255
255
255
255
255
255
255
255
255
255
255
255
255
255
255
255
255
255
255
255
255
255
255
255
255
255
255
255
255
255
255
255
255
255
255
255
255
255
255
255
255
255
255
255
255
255
255
255
255
255
255
255
255
255
255
255
255
255
255
255
255
255
255
255
255
255
255
255
255
255
255
255
255
255
255
255
255
255
255
255
255
255
255
255
255
255
255
255
255
255
255
255
255
255
255
255
255
255
255
255
255
255
255
255
255
255
255
255
255
255
255
255
255
255
255
255
255
255
255
255
255
255
255
255
255
255
255
255
255
255
255
255
255
255
255
255
255
255
255
255
255
255
255
255
255
255
255
255
255
255
255
255
255
255
255
255
255
255
255
255
255
255
255
255
255
255
255
255
255
255
255
255
255
255
255
255
255
255
255
255
255
255
255
255
255
255
255
255
255
255
255
255
255
255
255
255
255
255
255
255
255
255
255
255
255
255
255
255
255
255
255
255
255
255
255
255
255
255
255
255
255
255
255
255
255
255
255
255
255
255
255
255
255
255
255
255
255
255
255
255
255
255
255
255
255
255
255
255
255
255
255
255
255
255
255
255
255
255
255
255
255
255
255
255
255
255
255
255
255
255
255
255
255
255
255
255
255
255
255
255
255
255
255
255
255
255
255
255
255
255
255
255
255
255
255
255
255
255
255
255
255
255
255
255
255
255
255
255
255
255
255
255
255
255
255
255
255
255
255
255
255
255
255
255
255
255
255
255
255
255
255
255
255
255
255
255
255
255
255
255
255
255
255
255
255
255
255
255
255
255
255
255
255
255
255
255
255
255
255
255
255
255
255
255
255
255
255
255
255
255
255
255
255
255
255
255
255
255
255
255
255
255
255
255
255
255
255
255
255
255
255
255
255
255
255
255
255
255
255
255
255
255
255
255
255
255
255
255
255
255
255
255
255
255
255
255
255
255
255
255
255
255
255
255
255
255
255
255
255
255
255
255
255
255
255
255
255
255
255
255
255
255
255
255
255
255
255
255
255
255
255
255
255
255
255
255
255
255
255
255
255
255
255
255
255
255
255
255
255
255
255
255
255
255
255
255
255
255
255
255
255
255
255
255
255
255
255
255
255
255
255
255
255
255
255
255
255
255
255
255
255
255
255
255
255
255
255
255
255
255
255
255
255
255
255
255
255
255
255
255
255
255
255
255
255
255
255
255
255
255
255
255
255
255
255
255
255
255
255
255
255
255
255
255
255
255
255
255
255
255
255
255
255
255
255
255
255
255
255
255
255
255
255
255
255
255
255
255
255
255
255
255
255
255
255
255
255
255
255
255
255
255
255
255
255
255
255
255
255
255
255
255
255
255
255
255
255
255
255
255
255
255
255
255
255
255
255
255
255
255
255
255
255
255
255
255
255
255
255
255
255
255
255
255
255
255
255
255
255
255
255
255
255
255
255
255
255
255
255
255
255
255
255
255
255
255
255
255
255
255
255
255
255
255
255
255
255
255
255
255
255
255
255
255
255
255
255
255
255
255
255
255
255
255
255
255
255
255
255
255
255
255
255
255
255
255
255
255
255
255
255
255
255
255
255
255
255
255
255
255
255
255
255
255
255
255
255
255
255
255
255
255
255
255
255
255
255
255
255
255
255
255
255
255
255
255
255
255
255
255
255
255
255
255
255
255
255
255
255
255
255
255
255
255
255
255
255
255
255
255
255
255
255
255
255
255
255
255
255
255
255
255
255
255
255
255
255
255
255
255
255
255
255
255
255
255
255
255
255
255
255
255
255
255
255
255
255
255
255
255
255
255
255
255
255
255
255
255
255
255
255
255
255
255
255
255
255
255
255
255
255
255
255
255
255
255
255
255
255
255
255
255
255
255
255
255
255
255
255
255
255
255
255
255
255
255
255
255
255
255
255
255
255
255
255
255
255
255
255
255
255
255
255
255
255
255
255
255
255
255
255
255
255
255
255
255
255
255
255
255
255
255
255
255
255
255
255
255
255
255
255
255
255
255
255
255
255
255
255
255
255
255
255
255
255
255
255
255
255
255
255
255
255
255
255
255
255
255
255
255
255
255
255
255
255
255
255
255
255
255
255
255
255
255
255
255
255
255
255
255
255
255
255
255
255
255
255
255
255
255
255
255
255
255
255
255
255
255
255
255
255
255
255
255
255
255
255
255
255
255
255
255
255
255
255
255
255
255
255
255
255
255
255
255
255
255
255
255
255
255
255
255
255
255
255
255
255
255
255
255
255
255
255
255
255
255
255
255
255
255
255
255
255
255
255
255
255
255
255
255
255
255
255
255
255
255
255
255
255
255
255
255
255
255
255
255
255
255
255
255
255
255
255
255
255
255
255
255
255
255
255
255
255
255
255
255
255
255
255
255
255
255
255
255
255
255
255
255
255
255
255
255
255
255
255
255
255
255
255
255
255
255
255
255
255
255
255
255
255
255
255
255
255
255
255
255
255
255
255
255
255
255
255
255
255
255
255
255
255
255
255
255
255
255
255
255
255
255
255
255
255
255
255
255
255
255
255
255
255
255
255
255
255
255
255
255
255
255
255
255
255
255
255
255
255
255
255
255
255
255
255
255
255
255
255
255
255
255
255
255
255
255
255
255
255
255
255
255
255
255
255
255
255
255
255
255
255
255
255
255
255
255
255
255
255
255
255
255
255
255
255
255
255
255
255
255
255
255
255
255
255
255
255
255
255
255
255
255
255
255
255
255
255
255
255
255
255
255
255
255
255
255
255
255
255
255
255
255
255
255
255
255
255
255
255
255
255
255
255
255
255
255
255
255
255
255
255
255
255
255
255
255
255
255
255
255
255
255
255
255
255
255
255
255
255
255
255
255
255
255
255
255
255
255
255
255
255
255
255
255
255
255
255
255
255
255
255
255
255
255
255
255
255
255
255
255
255
255
255
255
255
255
255
255
255
255
255
255
255
255
255
255
255
255
255
255
255
255
255
255
255
255
255
255
255
255
255
255
255
255
255
255
255
255
255
255
255
255
255
255
255
255
255
255
255
255
255
255
255
255
255
255
255
255
255
255
255
255
255
255
255
255
255
255
255
255
255
255
255
255
255
255
255
255
255
255
255
255
255
255
255
255
255
255
255
255
255
255
255
255
255
255
255
255
255
255
255
255
255
255
255
255
255
255
255
255
255
255
255
255
255
255
255
255
255
255
255
255
255
255
255
255
255
255
255
255
255
255
255
255
255
255
255
255
255
255
255
255
255
255
255
255
255
255
255
255
255
255
255
255
255
255
255
255
255
255
255
255
255
255
255
255
255
255
255
255
255
255
255
255
255
255
255
255
255
255
255
255
255
255
255
255
255
255
255
255
255
255
255
255
255
255
255
255
255
255
255
255
255
255
255
255
255
255
255
255
255
255
255
255
255
255
255
255
255
255
255
255
255
255
255
255
255
255
255
255
255
255
255
255
255
255
255
255
255
255
255
255
255
255
255
255
255
255
255
255
255
255
255
255
255
255
255
255
255
255
255
255
255
255
255
255
255
255
255
255
255
255
255
255
255
255
255
255
255
255
255
255
255
255
255
255
255
255
255
255
255
255
255
255
255
255
255
255
255
255
255
255
255
255
255
255
255
255
255
255
255
255
255
255
255
255
255
255
255
255
255
255
255
255
255
255
255
255
255
255
255
255
255
255
255
255
255
255
255
255
255
255
255
255
255
255
255
255
255
255
255
255
255
255
255
255
255
255
255
255
255
255
255
255
255
255
255
255
255
255
255
255
255
255
255
255
255
255
255
255
255
255
255
255
255
255
255
255
255
255
255
255
255
255
255
255
255
255
255
255
255
255
255
255
255
255
255
255
255
255
255
255
255
255
255
255
255
255
255
255
255
255
255
255
255
255
255
255
255
255
255
255
255
255
255
255
255
255
255
255
255
255
255
255
255
255
255
255
255
255
255
255
255
255
255
255
255
255
255
255
255
255
255
255
255
255
255
255
255
255
255
255
255
255
255
255
255
255
255
255
255
255
255
255
255
255
255
255
255
255
255
255
255
255
255
255
255
255
255
255
255
255
255
255
255
255
255
255
255
255
255
255
255
255
255
255
255
255
255
255
255
255
255
255
255
255
255
255
255
255
255
255
255
255
255
255
255
255
255
255
255
255
255
255
255
255
255
255
255
255
255
255
255
255
255
255
255
255
255
255
255
255
255
255
255
255
255
255
255
255
255
255
255
255
255
255
255
255
255
255
255
255
255
255
255
255
255
255
255
255
255
255
255
255
255
255
255
255
255
255
255
255
255
255
255
255
255
255
255
255
255
255
255
255
255
255
255
255
255
255
255
255
255
255
255
255
255
255
255
255
255
255
255
255
255
255
255
255
255
255
255
255
255
255
255
255
255
255
255
255
255
255
255
255
255
255
255
255
255
255
255
255
255
255
255
255
255
255
255
255
255
255
255
255
255
255
255
255
255
255
255
255
255
255
255
255
255
255
255
255
255
255
255
255
255
255
255
255
255
255
255
255
255
255
255
255
255
255
255
255
255
255
255
255
255
255
255
255
255
255
255
255
255
255
255
255
255
255
255
255
255
255
255
255
255
255
255
255
255
255
255
255
255
255
255
255
255
255
255
255
255
255
255
255
255
255
255
255
255
255
255
255
255
255
255
255
255
255
255
255
255
255
255
255
255
255
255
255
255
255
255
255
255
255
255
255
255
255
255
255
255
255
255
255
255
255
255
255
255
255
255
255
255
255
255
255
255
255
255
255
255
255
255
255
255
255
255
255
255
255
255
255
255
255
255
255
255
255
255
255
255
255
255
255
255
255
255
255
255
255
255
255
255
255
255
255
255
255
255
255
255
255
255
255
255
255
255
255
255
255
255
255
255
255
255
255
255
255
255
255
255
255
255
255
255
255
255
255
255
255
255
255
255
255
255
255
255
255
255
255
255
255
255
255
255
255
255
255
255
255
255
255
255
255
255
255
255
255
255
255
255
255
255
255
255
255
255
255
255
255
255
255
255
255
255
255
255
255
255
255
255
255
255
255
255
255
255
255
255
255
255
255
255
255
255
255
255
255
255
255
255
255
255
255
255
255
255
255
255
255
255
255
255
255
255
255
255
255
255
255
255
255
255
255
255
255
255
255
255
255
255
255
255
255
255
255
255
255
255
255
255
255
255
255
255
255
255
255
255
255
255
255
255
255
255
255
255
255
255
255
255
255
255
255
255
255
255
255
255
255
255
255
255
255
255
255
255
255
255
255
255
255
255
255
255
255
255
255
255
255
255
255
255
255
255
255
255
255
255
255
255
255
255
255
255
255
255
255
255
255
255
255
255
255
255
255
255
255
255
255
255
255
255
255
255
255
255
255
255
255
255
255
255
255
255
255
255
255
255
255
255
255
255
255
255
255
255
255
255
255
255
255
255
255
255
255
255
255
255
255
255
255
255
255
255
255
255
255
255
255
255
255
255
255
255
255
255
255
255
255
255
255
255
255
255
255
255
255
255
255
255
255
255
255
255
255
255
255
255
255
255
255
255
255
255
255
255
255
255
255
255
255
255
255
255
255
255
255
255
255
255
255
255
255
255
255
255
255
255
255
255
255
255
255
255
255
255
255
255
255
255
255
255
255
255
255
255
255
255
255
255
255
255
255
255
255
255
255
255
255
255
255
255
255
255
255
255
255
255
255
255
255
255
255
255
255
255
255
255
255
255
255
255
255
255
255
255
255
255
255
255
255
255
255
255
255
255
255
255
255
255
255
255
255
255
255
255
255
255
255
255
255
255
255
255
255
255
255
255
255
255
255
255
255
255
255
255
255
255
255
255
255
255
255
255
255
255
255
255
255
255
255
255
255
255
255
255
255
255
255
255
255
255
255
255
255
255
255
255
255
255
255
255
255
255
255
255
255
255
255
255
255
255
255
255
255
255
255
255
255
255
255
255
255
255
255
255
255
255
255
255
255
255
255
255
255
255
255
255
255
255
255
255
255
255
255
255
255
255
255
255
255
255
255
255
255
255
255
255
255
255
255
255
255
255
255
255
255
255
255
255
255
255
255
255
255
255
255
255
255
255
255
255
255
255
255
255
255
255
255
255
255
255
255
255
255
255
255
255
255
255
255
255
255
255
255
255
255
255
255
255
255
255
255
255
255
255
255
255
255
255
255
255
255
255
255
255
255
255
255
255
255
255
255
255
255
255
255
255
255
255
255
255
255
255
255
255
255
255
255
255
255
255
255
255
255
255
255
255
255
255
255
255
255
255
255
255
255
255
255
255
255
255
255
255
255
255
255
255
255
255
255
255
255
255
255
255
255
255
255
255
255
255
255
255
255
255
255
255
255
255
255
255
255
255
255
255
255
255
255
255
255
255
255
255
255
255
255
255
255
255
255
255
255
255
255
255
255
255
255
255
255
255
255
255
255
255
255
255
255
255
255
255
255
255
255
255
255
255
255
255
255
255
255
255
255
255
255
255
255
255
255
255
255
255
255
255
255
255
255
255
255
255
255
255
255
255
255
255
255
255
255
255
255
255
255
255
255
255
255
255
255
255
255
255
255
255
255
255
255
255
255
255
255
255
255
255
255
255
255
255
255
255
255
255
255
255
255
255
255
255
255
255
255
255
255
255
255
255
255
255
255
255
255
255
255
255
255
255
255
255
255
255
255
255
255
255
255
255
255
255
255
255
255
255
255
255
255
255
255
255
255
255
255
255
255
255
255
255
255
255
255
255
255
255
255
255
255
255
255
255
255
255
255
255
255
255
255
255
255
255
255
255
255
255
255
255
255
255
255
255
255
255
255
255
255
255
255
255
255
255
255
255
255
255
255
255
255
255
255
255
255
255
255
255
255
255
255
255
255
255
255
255
255
255
255
255
255
255
255
255
255
255
255
255
255
255
255
255
255
255
255
255
255
255
255
255
255
255
255
255
255
255
255
255
255
255
255
255
255
255
255
255
255
255
255
255
255
255
255
255
255
255
255
255
255
255
255
255
255
255
255
255
255
255
255
255
255
255
255
255
255
255
255
255
255
255
255
255
255
255
255
255
255
255
255
255
255
255
255
255
255
255
255
255
255
255
255
255
255
255
255
255
255
255
255
255
255
255
255
255
255
255
255
255
255
255
255
255
255
255
255
255
255
255
255
255
255
255
255
255
255
255
255
255
255
255
255
255
255
255
255
255
255
255
255
255
255
255
255
255
255
255
255
255
255
255
255
255
255
255
255
255
255
255
255
255
255
255
255
255
255
255
255
255
255
255
255
255
255
255
255
255
255
255
255
255
255
255
255
255
255
255
255
255
255
255
255
255
255
255
255
255
255
255
255
255
255
255
255
255
255
255
255
255
255
255
255
255
255
255
255
255
255
255
255
255
255
255
255
255
255
255
255
255
255
255
255
255
255
255
255
255
255
255
255
255
255
255
255
255
255
255
255
255
255
255
255
255
255
255
255
255
255
255
255
255
255
255
255
255
255
255
255
255
255
255
255
255
255
255
255
255
255
255
255
255
255
255
255
255
255
255
255
255
255
255
255
255
255
255
255
255
255
255
255
255
255
255
255
255
255
255
255
255
255
255
255
255
255
255
255
255
255
255
255
255
255
255
255
255
255
255
255
255
255
255
255
255
255
255
255
255
255
255
255
255
255
255
255
255
255
255
255
255
255
255
255
255
255
255
255
255
255
255
255
255
255
255
255
255
255
255
255
255
255
255
255
255
255
255
255
255
255
255
255
255
255
255
255
255
255
255
255
255
255
255
255
255
255
255
255
255
255
255
255
255
255
255
255
255
255
255
255
255
255
255
255
255
255
255
255
255
255
255
255
255
255
255
255
255
255
255
255
255
255
255
255
255
255
255
255
255
255
255
255
255
255
255
255
255
255
255
255
255
255
255
255
255
255
255
255
255
255
255
255
255
255
255
255
255
255
255
255
255
255
255
255
255
255
255
255
255
255
255
255
255
255
255
255
255
255
255
255
255
255
255
255
255
255
255
255
255
255
255
255
255
255
255
255
255
255
255
255
255
255
255
255
255
255
255
255
255
255
255
255
255
255
255
255
255
255
255
255
255
255
255
255
255
255
255
255
255
255
255
255
255
255
255
255
255
255
255
255
255
255
255
255
255
255
255
255
255
255
255
255
255
255
255
255
255
255
255
255
255
255
255
255
255
255
255
255
255
255
255
255
255
255
255
255
255
255
255
255
255
255
255
255
255
255
255
255
255
255
255
255
255
255
255
255
255
255
255
255
255
255
255
255
255
255
255
255
255
255
255
255
255
255
255
255
255
255
255
255
255
255
255
255
255
255
255
255
255
255
255
255
255
255
255
255
255
255
255
255
255
255
255
255
255
255
255
255
255
255
255
255
255
255
255
255
255
255
255
255
255
255
255
255
255
255
255
255
255
255
255
255
255
255
255
255
255
255
255
255
255
255
255
255
255
255
255
255
255
255
255
255
255
255
255
255
255
255
255
255
255
255
255
255
255
255
255
255
255
255
255
255
255
255
255
255
255
255
255
255
255
255
255
255
255
255
255
255
255
255
255
255
255
255
255
255
255
255
255
255
255
255
255
255
255
255
255
255
255
255
255
255
255
255
255
255
255
255
255
255
255
255
255
255
255
255
255
255
255
255
255
255
255
255
255
255
255
255
255
255
255
255
255
255
255
255
255
255
255
255
255
255
255
255
255
255
255
255
255
255
255
255
255
255
255
255
255
255
255
255
255
255
255
255
255
255
255
255
255
255
255
255
255
255
255
255
255
255
255
255
255
255
255
255
255
255
255
255
255
255
255
255
255
255
255
255
255
255
255
255
255
255
255
255
255
255
255
255
255
255
255
255
255
255
255
255
255
255
255
255
255
255
255
255
255
255
255
255
255
255
255
255
255
255
255
255
255
255
255
255
255
255
255
255
255
255
255
255
255
255
255
255
255
255
255
255
255
255
255
255
255
255
255
255
255
255
255
255
255
255
255
255
255
255
255
255
255
255
255
255
255
255
255
255
255
255
255
255
255
255
255
255
255
255
255
255
255
255
255
255
255
255
255
255
255
255
255
255
255
255
255
255
255
255
255
255
255
255
255
255
255
255
255
255
255
255
255
255
255
255
255
255
255
255
255
255
255
255
255
255
255
255
255
255
255
255
255
255
255
255
255
255
255
255
255
255
255
255
255
255
255
255
255
255
255
255
255
255
255
255
255
255
255
255
255
255
255
255
255
255
255
255
255
255
255
255
255
255
255
255
255
255
255
255
255
255
255
255
255
255
255
255
255
255
255
255
255
255
255
255
255
255
255
255
255
255
255
255
255
255
255
255
255
255
255
255
255
255
255
255
255
255
255
255
255
255
255
255
255
255
255
255
255
255
255
255
255
255
255
255
255
255
255
255
255
255
255
255
255
255
255
255
255
255
255
255
255
255
255
255
255
255
255
255
255
255
255
255
255
255
255
255
255
255
255
255
255
255
255
255
255
255
255
255
255
255
255
255
255
255
255
255
255
255
255
255
255
255
255
255
255
255
255
255
255
255
255
255
255
255
255
255
255
255
255
255
255
255
255
255
255
255
255
255
255
255
255
255
255
255
255
255
255
255
255
255
255
255
255
255
255
255
255
255
255
255
255
255
255
255
255
255
255
255
255
255
255
255
255
255
255
255
255
255
255
255
255
255
255
255
255
255
255
255
255
255
255
255
255
255
255
255
255
255
255
255
255
255
255
255
255
255
255
255
255
255
255
255
255
255
255
255
255
255
255
255
255
255
255
255
255
255
255
255
255
255
255
255
255
255
255
255
255
255
255
255
255
255
255
255
255
255
255
255
255
255
255
255
255
255
255
255
255
255
255
255
255
255
255
255
255
255
255
255
255
255
255
255
255
255
255
255
255
255
255
255
255
255
255
255
255
255
255
255
255
255
255
255
255
255
255
255
255
255
255
255
255
255
255
255
255
255
255
255
255
255
255
255
255
255
255
255
255
255
255
255
255
255
255
255
255
255
255
255
255
255
255
255
255
255
255
255
255
255
255
255
255
255
255
255
255
255
255
255
255
255
255
255
255
255
255
255
255
255
255
255
255
255
255
255
255
255
255
255
255
255
255
255
255
255
255
255
255
255
255
255
255
255
255
255
255
255
255
255
255
255
255
255
255
255
255
255
255
255
255
255
255
255
255
255
255
255
255
255
255
255
255
255
255
255
255
255
255
255
255
255
255
255
255
255
255
255
255
255
255
255
255
255
255
255
255
255
255
255
255
255
255
255
255
255
255
255
255
255
255
255
255
255
255
255
255
255
255
255
255
255
255
255
255
255
255
255
255
255
255
255
255
255
255
255
255
255
255
255
255
255
255
255
255
255
255
255
255
255
255
255
255
255
255
255
255
255
255
255
255
255
255
255
255
255
255
255
255
255
255
255
255
255
255
255
255
255
255
255
255
255
255
255
255
255
255
255
255
255
255
255
255
255
255
255
255
255
255
255
255
255
255
255
255
255
255
255
255
255
255
255
255
255
255
255
255
255
255
255
255
255
255
255
255
255
255
255
255
255
255
255
255
255
255
255
255
255
255
255
255
255
255
255
255
255
255
255
255
255
255
255
255
255
255
255
255
255
255
255
255
255
255
255
255
255
255
255
255
255
255
255
255
255
255
255
255
255
255
255
255
255
255
255
255
255
255
255
255
255
255
255
255
255
255
255
255
255
255
255
255
255
255
255
255
255
255
255
255
255
255
255
255
255
255
255
255
255
255
255
255
255
255
255
255
255
255
255
255
255
255
255
255
255
255
255
255
255
255
255
255
255
255
255
255
255
255
255
255
255
255
255
255
255
255
255
255
255
255
255
255
255
255
255
255
255
255
255
255
255
255
255
255
255
255
255
255
255
255
255
255
255
255
255
255
255
255
255
255
255
255
255
255
255
255
255
255
255
255
255
255
255
255
255
255
255
255
255
255
255
255
255
255
255
255
255
255
255
255
255
255
255
255
255
255
255
255
255
255
255
255
255
255
255
255
255
255
255
255
255
255
255
255
255
255
255
255
255
255
255
255
255
255
255
255
255
255
255
255
255
255
255
255
255
255
255
255
255
255
255
255
255
255
255
255
255
255
255
255
255
255
255
255
255
255
255
255
255
255
255
255
255
255
255
255
255
255
255
255
255
255
255
255
255
255
255
255
255
255
255
255
255
255
255
255
255
255
255
255
255
255
255
255
255
255
255
255
255
255
255
255
255
255
255
255
255
255
255
255
255
255
255
255
255
255
255
255
255
255
255
255
255
255
255
255
255
255
255
255
255
255
255
255
255
255
255
255
255
255
255
255
255
255
255
255
255
255
255
255
255
255
255
255
255
255
255
255
255
255
255
255
255
255
255
255
255
255
255
255
255
255
255
255
255
255
255
255
255
255
255
255
255
255
255
255
255
255
255
255
255
255
255
255
255
255
255
255
255
255
255
255
255
255
255
255
255
255
255
255
255
255
255
255
255
255
255
255
255
255
255
255
255
255
255
255
255
255
255
255
255
255
255
255
255
255
255
255
255
255
255
255
255
255
255
255
255
255
255
255
255
255
255
255
255
255
255
255
255
255
255
255
255
255
255
255
255
255
255
255
255
255
255
255
255
255
255
255
255
255
255
255
255
255
255
255
255
255
255
255
255
255
255
255
255
255
255
255
255
255
255
255
255
255
255
255
255
255
255
255
255
255
255
255
255
255
255
255
255
255
255
255
255
255
255
255
255
255
255
255
255
255
255
255
255
255
255
255
255
255
255
255
255
255
255
255
255
255
255
255
255
255
255
255
255
255
255
255
255
255
255
255
255
255
255
255
255
255
255
255
255
255
255
255
255
255
255
255
255
255
255
255
255
255
255
255
255
255
255
255
255
255
255
255
255
255
255
255
255
255
255
255
255
255
255
255
255
255
255
255
255
255
255
255
255
255
255
255
255
255
255
255
255
255
255
255
255
255
255
255
255
255
255
255
255
255
255
255
255
255
255
255
255
255
255
255
255
255
255
255
255
255
255
255
255
255
255
255
255
255
255
255
255
255
255
255
255
255
255
255
255
255
255
255
255
255
255
255
255
255
255
255
255
255
255
255
255
255
255
255
255
255
255
255
255
255
255
255
255
255
255
255
255
255
255
255
255
255
255
255
255
255
255
255
255
255
255
255
255
255
255
255
255
255
255
255
255
255
255
255
255
255
255
255
255
255
255
255
255
255
255
255
255
255
255
255
255
255
255
255
255
255
255
255
255
255
255
255
255
255
255
255
255
255
255
255
255
255
255
255
255
255
255
255
255
255
255
255
255
255
255
255
255
255
255
255
255
255
255
255
255
255
255
255
255
255
255
255
255
255
255
255
255
255
255
255
255
255
255
255
255
255
255
255
255
255
255
255
255
255
255
255
255
255
255
255
255
255
255
255
255
255
255
255
255
255
255
255
255
255
255
255
255
255
255
255
255
255
255
255
255
255
255
255
255
255
255
255
255
255
255
255
255
255
255
255
255
255
255
255
255
255
255
255
255
255
255
255
255
255
255
255
255
255
255
255
255
255
255
255
255
255
255
255
255
255
255
255
255
255
255
255
255
255
255
255
255
255
255
255
255
255
255
255
255
255
255
255
255
255
255
255
255
255
255
255
255
255
255
255
255
255
255
255
255
255
255
255
255
255
255
255
255
255
255
255
255
255
255
255
255
255
255
255
255
255
255
255
255
255
255
255
255
255
255
255
255
255
255
255
255
255
255
255
255
255
255
255
255
255
255
255
255
255
255
255
255
255
255
255
255
255
255
255
255
255
255
255
255
255
255
255
255
255
255
255
255
255
255
255
255
255
255
255
255
255
255
255
255
255
255
255
255
255
255
255
255
255
255
255
255
255
255
255
255
255
255
255
255
255
255
255
255
255
255
255
255
255
255
255
255
255
255
255
255
255
255
255
255
255
255
255
255
255
255
255
255
255
255
255
255
255
255
255
255
255
255
255
255
255
255
255
255
255
255
255
255
255
255
255
255
255
255
255
255
255
255
255
255
255
255
255
255
255
255
255
255
255
255
255
255
255
255
255
255
255
255
255
255
255
255
255
255
255
255
255
255
255
255
255
255
255
255
255
255
255
255
255
255
255
255
255
255
255
255
255
255
255
255
255
255
255
255
255
255
255
255
255
255
255
255
255
255
255
255
255
255
255
255
255
255
255
255
255
255
255
255
255
255
255
255
255
255
255
255
255
255
255
255
255
255
255
255
255
255
255
255
255
255
255
255
255
255
255
255
255
255
255
255
255
255
255
255
255
255
255
255
255
255
255
255
255
255
255
255
255
255
255
255
255
255
255
255
255
255
255
255
255
255
255
255
255
255
255
255
255
255
255
255
255
255
255
255
255
255
255
255
255
255
255
255
255
255
255
255
255
255
255
255
255
255
255
255
255
255
255
255
255
255
255
255
255
255
255
255
255
255
255
255
255
255
255
255
255
255
255
255
255
255
255
255
255
255
255
255
255
255
255
255
255
255
255
255
255
255
255
255
255
255
255
255
255
255
255
255
255
255
255
255
255
255
255
255
255
255
255
255
255
255
255
255
255
255
255
255
255
255
255
255
255
255
255
255
255
255
255
255
255
255
255
255
255
255
255
255
255
255
255
255
255
255
255
255
255
255
255
255
255
255
255
255
255
255
255
255
255
255
255
255
255
255
255
255
255
255
255
255
255
255
255
255
255
255
255
255
255
255
255
255
255
255
255
255
255
255
255
255
255
255
255
255
255
255
255
255
255
255
255
255
255
255
255
255
255
255
255
255
255
255
255
255
255
255
255
255
255
255
255
255
255
255
255
255
255
255
255
255
255
255
255
255
255
255
255
255
255
255
255
255
255
255
255
255
255
255
255
255
255
255
255
255
255
255
255
255
255
255
255
255
255
255
255
255
255
255
255
255
255
255
255
255
255
255
255
255
255
255
255
255
255
255
255
255
255
255
255
255
255
255
255
255
255
255
255
255
255
255
255
255
255
255
255
255
255
255
255
255
255
255
255
255
255
255
255
255
255
255
255
255
255
255
255
255
255
255
255
255
255
255
255
255
255
255
255
255
255
255
255
255
255
255
255
255
255
255
255
255
255
255
255
255
255
255
255
255
255
255
255
255
255
255
255
255
255
255
255
255
255
255
255
255
255
255
255
255
255
255
255
255
255
255
255
255
255
255
255
255
255
255
255
255
255
255
255
255
255
255
255
255
255
255
255
255
255
255
255
255
255
255
255
255
255
255
255
255
255
255
255
255
255
255
255
255
255
255
255
255
255
255
255
255
255
255
255
255
255
255
255
255
255
255
255
255
255
255
255
255
255
255
255
255
255
255
255
255
255
255
255
255
255
255
255
255
255
255
255
255
255
255
255
255
255
255
255
255
255
255
255
255
255
255
255
255
255
255
255
255
255
255
255
255
255
255
255
255
255
255
255
255
255
255
255
255
255
255
255
255
255
255
255
255
255
255
255
255
255
255
255
255
255
255
255
255
255
255
255
255
255
255
255
255
255
255
255
255
255
255
255
255
255
255
255
255
255
255
255
255
255
255
255
255
255
255
255
255
255
255
255
255
255
255
255
255
255
255
255
255
255
255
255
255
255
255
255
255
255
255
255
255
255
255
255
255
255
255
255
255
255
255
255
255
255
255
255
255
255
255
255
255
255
255
255
255
255
255
255
255
255
255
255
255
255
255
255
255
255
255
255
255
255
255
255
255
255
255
255
255
255
255
255
255
255
255
255
255
255
255
255
255
255
255
255
255
255
255
255
255
255
255
255
255
255
255
255
255
255
255
255
255
255
255
255
255
255
255
255
255
255
255
255
255
255
255
255
255
255
255
255
255
255
255
255
255
255
255
255
255
255
255
255
255
255
255
255
255
255
255
255
255
255
255
255
255
255
255
255
255
255
255
255
255
255
255
255
255
255
255
255
255
255
255
255
255
255
255
255
255
255
255
255
255
255
255
255
255
255
255
255
255
255
255
255
255
255
255
255
255
255
255
255
255
255
255
255
255
255
255
255
255
255
255
255
255
255
255
255
255
255
255
255
255
255
255
255
255
255
255
255
255
255
255
255
255
255
255
255
255
255
255
255
255
255
255
255
255
255
255
255
255
255
255
255
255
255
255
255
255
255
255
255
255
255
255
255
255
255
255
255
255
255
255
255
255
255
255
255
255
255
255
255
255
255
255
255
255
255
255
255
255
255
255
255
255
255
255
255
255
255
255
255
255
255
255
255
255
255
255
255
255
255
255
255
255
255
255
255
255
255
255
255
255
255
255
255
255
255
255
255
255
255
255
255
255
255
255
255
255
255
255
255
255
255
255
255
255
255
255
255
255
255
255
255
255
255
255
255
255
255
255
255
255
255
255
255
255
255
255
255
255
255
255
255
255
255
255
255
255
255
255
255
255
255
255
255
255
255
255
255
255
255
255
255
255
255
255
255
255
255
255
255
255
255
255
255
255
255
255
255
255
255
255
255
255
255
255
255
255
255
255
255
255
255
255
255
255
255
255
255
255
255
255
255
255
255
255
255
255
255
255
255
255
255
255
255
255
255
255
255
255
255
255
255
255
255
255
255
255
255
255
255
255
255
255
255
255
255
255
255
255
255
255
255
255
255
255
255
255
255
255
255
255
255
255
255
255
255
255
255
255
255
255
255
255
255
255
255
255
255
255
255
255
255
255
255
255
255
255
255
255
255
255
255
255
255
255
255
255
255
255
255
255
255
255
255
255
255
255
255
255
255
255
255
255
255
255
255
255
255
255
255
255
255
255
255
255
255
255
255
255
255
255
255
255
255
255
255
255
255
255
255
255
255
255
255
255
255
255
255
255
255
255
255
255
255
255
255
255
255
255
255
255
255
255
255
255
255
255
255
255
255
255
255
255
255
255
255
255
255
255
255
255
255
255
255
255
255
255
255
255
255
255
255
255
255
255
255
255
255
255
255
255
255
255
255
255
255
255
255
255
255
255
255
255
255
255
255
255
255
255
255
255
255
255
255
255
255
255
255
255
255
255
255
255
255
255
255
255
255
255
255
255
255
255
255
255
255
255
255
255
255
255
255
255
255
255
255
255
255
255
255
255
255
255
255
255
255
255
255
255
255
255
255
255
255
255
255
255
255
255
255
255
255
255
255
255
255
255
255
255
255
255
255
255
255
255
255
255
255
255
255
255
255
255
255
255
255
255
255
255
255
255
255
255
255
255
255
255
255
255
255
255
255
255
255
255
255
255
255
255
255
255
255
255
255
255
255
255
255
255
255
255
255
255
255
255
255
255
255
255
255
255
255
255
255
255
255
255
255
255
255
255
255
255
255
255
255
255
255
255
255
255
255
255
255
255
255
255
255
255
255
255
255
255
255
255
255
255
255
255
255
255
255
255
255
255
255
255
255
255
255
255
255
255
255
255
255
255
255
255
255
255
255
255
255
255
255
255
255
255
255
255
255
255
255
255
255
255
255
255
255
255
255
255
255
255
255
255
255
255
255
255
255
255
255
255
255
255
255
255
255
255
255
255
255
255
255
255
255
255
255
255
255
255
255
255
255
255
255
255
255
255
255
255
255
255
255
255
255
255
255
255
255
255
255
255
255
255
255
255
255
255
255
255
255
255
255
255
255
255
255
255
255
255
255
255
255
255
255
255
255
255
255
255
255
255
255
255
255
255
255
255
255
255
255
255
255
255
255
255
255
255
255
255
255
255
255
255
255
255
255
255
255
255
255
255
255
255
255
255
255
255
255
255
255
255
255
255
255
255
255
255
255
255
255
255
255
255
255
255
255
255
255
255
255
255
255
255
255
255
255
255
255
255
255
255
255
255
255
255
255
255
255
255
255
255
255
255
255
255
255
255
255
255
255
255
255
255
255
255
255
255
255
255
255
255
255
255
255
255
255
255
255
255
255
255
255
255
255
255
255
255
255
255
255
255
255
255
255
255
255
255
255
255
255
255
255
255
255
255
255
255
255
255
255
255
255
255
255
255
255
255
255
255
255
255
255
255
255
255
255
255
255
255
255
255
255
255
255
255
255
255
255
255
255
255
255
255
255
255
255
255
255
255
255
255
255
255
255
255
255
255
255
255
255
255
255
255
255
255
255
255
255
255
255
255
255
255
255
255
255
255
255
255
255
255
255
255
255
255
255
255
255
255
255
255
255
255
255
255
255
255
255
255
255
255
255
255
255
255
255
255
255
255
255
255
255
255
255
255
255
255
255
255
255
255
255
255
255
255
255
255
255
255
255
255
255
255
255
255
255
255
255
255
255
255
255
255
255
255
255
255
255
255
255
255
255
255
255
255
255
255
255
255
255
255
255
255
255
255
255
255
255
255
255
255
255
255
255
255
255
255
255
255
255
255
255
255
255
255
255
255
255
255
255
255
255
255
255
255
255
255
255
255
255
255
255
255
255
255
255
255
255
255
255
255
255
255
255
255
255
255
255
255
255
255
255
255
255
255
255
255
255
255
255
255
255
255
255
255
255
255
255
255
255
255
255
255
255
255
255
255
255
255
255
255
255
255
255
255
255
255
255
255
255
255
255
255
255
255
255
255
255
255
255
255
255
255
255
255
255
255
255
255
255
255
255
255
255
255
255
255
255
255
255
255
255
255
255
255
255
255
255
255
255
255
255
255
255
255
255
255
255
255
255
255
255
255
255
255
255
255
255
255
255
255
255
255
255
255
255
255
255
255
255
255
255
255
255
255
255
255
255
255
255
255
255
255
255
255
255
255
255
255
255
255
255
255
255
255
255
255
255
255
255
255
255
255
255
255
255
255
255
255
255
255
255
255
255
255
255
255
255
255
255
255
255
255
255
255
255
255
255
255
255
255
255
255
255
255
255
255
255
255
255
255
255
255
255
255
255
255
255
255
255
255
255
255
255
255
255
255
255
255
255
255
255
255
255
255
255
255
255
255
255
255
255
255
255
255
255
255
255
255
255
255
255
255
255
255
255
255
255
255
255
255
255
255
255
255
255
255
255
255
255
255
255
255
255
255
255
255
255
255
255
255
255
255
255
255
255
255
255
255
255
255
255
255
255
255
255
255
255
255
255
255
255
255
255
255
255
255
255
255
255
255
255
255
255
255
255
255
255
255
255
255
255
255
255
255
255
255
255
255
255
255
255
255
255
255
255
255
255
255
255
255
255
255
255
255
255
255
255
255
255
255
255
255
255
255
255
255
255
255
255
255
255
255
255
255
255
255
255
255
255
255
255
255
255
255
255
255
255
255
255
255
255
255
255
255
255
255
255
255
255
255
255
255
255
255
255
255
255
255
255
255
255
255
255
255
255
255
255
255
255
255
255
255
255
255
255
255
255
255
255
255
255
255
255
255
255
255
255
255
255
255
255
255
255
255
255
255
255
255
255
255
255
255
255
255
255
255
255
255
255
255
255
255
255
255
255
255
255
255
255
255
255
255
255
255
255
255
255
255
255
255
255
255
255
255
255
255
255
255
255
255
255
255
255
255
255
255
255
255
255
255
255
255
255
255
255
255
255
255
255
255
255
255
255
255
255
255
255
255
255
255
255
255
255
255
255
255
255
255
255
255
255
255
255
255
255
255
255
255
255
255
255
255
255
255
255
255
255
255
255
255
255
255
255
255
255
255
255
255
255
255
255
255
255
255
255
255
255
255
255
255
255
255
255
255
255
255
255
255
255
255
255
255
255
255
255
255
255
255
255
255
255
255
255
255
255
255
255
255
255
255
255
255
255
255
255
255
255
255
255
255
255
255
255
255
255
255
255
255
255
255
255
255
255
255
255
255
255
255
255
255
255
255
255
255
255
255
255
255
255
255
255
255
255
255
255
255
255
255
255
255
255
255
255
255
255
255
255
255
255
255
255
255
255
255
255
255
255
255
255
255
255
255
255
255
255
255
255
255
255
255
255
255
255
255
255
255
255
255
255
255
255
255
255
255
255
255
255
255
255
255
255
255
255
255
255
255
255
255
255
255
255
255
255
255
255
255
255
255
255
255
255
255
255
255
255
255
255
255
255
255
255
255
255
255
255
255
255
255
255
255
255
255
255
255
255
255
255
255
255
255
255
255
255
255
255
255
255
255
255
255
255
255
255
255
255
255
255
255
255
255
255
255
255
255
255
255
255
255
255
255
255
255
255
255
255
255
255
255
255
255
255
255
255
255
255
255
255
255
255
255
255
255
255
255
255
255
255
255
255
255
255
255
255
255
255
255
255
255
255
255
255
255
255
255
255
255
255
255
255
255
255
255
255
255
255
255
255
255
255
255
255
255
255
255
255
255
255
255
255
255
255
255
255
255
255
255
255
255
255
255
255
255
255
255
255
255
255
255
255
255
255
255
255
255
255
255
255
255
255
255
255
255
255
255
255
255
255
255
255
255
255
255
255
255
255
255
255
255
255
255
255
255
255
255
255
255
255
255
255
255
255
255
255
255
255
255
255
255
255
255
255
255
255
255
255
255
255
255
255
255
255
255
255
255
255
255
255
255
255
255
255
255
255
255
255
255
255
255
255
255
255
255
255
255
255
255
255
255
255
255
255
255
255
255
255
255
255
255
255
255
255
255
255
255
255
255
255
255
255
255
255
255
255
255
255
255
255
255
255
255
255
255
255
255
255
255
255
255
255
255
255
255
255
255
255
255
255
255
255
255
255
255
255
255
255
255
255
255
255
255
255
255
255
255
255
255
255
255
255
255
255
255
255
255
255
255
255
255
255
255
255
255
255
255
255
255
255
255
255
255
255
255
255
255
255
255
255
255
255
255
255
255
255
255
255
255
255
255
255
255
255
255
255
255
255
255
255
255
255
255
255
255
255
255
255
255
255
255
255
255
255
255
255
255
255
255
255
255
255
255
255
255
255
255
255
255
255
255
255
255
255
255
255
255
255
255
255
255
255
255
255
255
255
255
255
255
255
255
255
255
255
255
255
255
255
255
255
255
255
255
255
255
255
255
255
255
255
255
255
255
255
255
255
255
255
255
255
255
255
255
255
255
255
255
255
255
255
255
255
255
255
255
255
255
255
255
255
255
255
255
255
255
255
255
255
255
255
255
255
255
255
255
255
255
255
255
255
255
255
255
255
255
255
255
255
255
255
255
255
255
255
255
255
255
255
255
255
255
255
255
255
255
255
255
255
255
255
255
255
255
255
255
255
255
255
255
255
255
255
255
255
255
255
255
255
255
255
255
255
255
255
255
255
255
255
255
255
255
255
255
255
255
255
255
255
255
255
255
255
255
255
255
255
255
255
255
255
255
255
255
255
255
255
255
255
255
255
255
255
255
255
255
255
255
255
255
255
255
255
255
255
255
255
255
255
255
255
255
255
255
255
255
255
255
255
255
255
255
255
255
255
255
255
255
255
255
255
255
255
255
255
255
255
255
255
255
255
255
255
255
255
255
255
255
255
255
255
255
255
255
255
255
255
255
255
255
255
255
255
255
255
255
255
255
255
255
255
255
255
255
255
255
255
255
255
255
255
255
255
255
255
255
255
255
255
255
255
255
255
255
255
255
255
255
255
255
255
255
255
255
255
255
255
255
255
255
255
255
255
255
255
255
255
255
255
255
255
255
255
255
255
255
255
255
255
255
255
255
255
255
255
255
255
255
255
255
255
255
255
255
255
255
255
255
255
255
255
255
255
255
255
255
255
255
255
255
255
255
255
255
255
255
255
255
255
255
255
255
255
255
255
255
255
255
255
255
255
255
255
255
255
255
255
255
255
255
255
255
255
255
255
255
255
255
255
255
255
255
255
255
255
255
255
255
255
255
255
255
255
255
255
255
255
255
255
255
255
255
255
255
255
255
255
255
255
255
255
255
255
255
255
255
255
255
255
255
255
255
255
255
255
255
255
255
255
255
255
255
255
255
255
255
255
255
255
255
255
255
255
255
255
255
255
255
255
255
255
255
255
255
255
255
255
255
255
255
255
255
255
255
255
255
255
255
255
255
255
255
255
255
255
255
255
255
255
255
255
255
255
255
255
255
255
255
255
255
255
255
255
255
255
255
255
255
255
255
255
255
255
255
255
255
255
255
255
255
255
255
255
255
255
255
255
255
255
255
255
255
255
255
255
255
255
255
255
255
255
255
255
255
255
255
255
255
255
255
255
255
255
255
255
255
255
255
255
255
255
255
255
255
255
255
255
255
255
255
255
255
255
255
255
255
255
255
255
255
255
255
255
255
255
255
255
255
255
255
255
255
255
255
255
255
255
255
255
255
255
255
255
255
255
255
255
255
255
255
255
255
255
255
255
255
255
255
255
255
255
255
255
255
255
255
255
255
255
255
255
255
255
255
255
255
255
255
255
255
255
255
255
255
255
255
255
255
255
255
255
255
255
255
255
255
255
255
255
255
255
255
255
255
255
255
255
255
255
255
255
255
255
255
255
255
255
255
255
255
255
255
255
255
255
255
255
255
255
255
255
255
255
255
255
255
255
255
255
255
255
255
255
255
255
255
255
255
255
255
255
255
255
255
255
255
255
255
255
255
255
255
255
255
255
255
255
255
255
255
255
255
255
255
255
255
255
255
255
255
255
255
255
255
255
255
255
255
255
255
255
255
255
255
255
255
255
255
255
255
255
255
255
255
255
255
255
255
255
255
255
255
255
255
255
255
255
255
255
255
255
255
255
255
255
255
255
255
255
255
255
255
255
255
255
255
255
255
255
255
255
255
255
255
255
255
255
255
255
255
255
255
255
255
255
255
255
255
255
255
255
255
255
255
255
255
255
255
255
255
255
255
255
255
255
255
255
255
255
255
255
255
255
255
255
255
255
255
255
255
255
255
255
255
255
255
255
255
255
255
255
255
255
255
255
255
255
255
255
255
255
255
255
255
255
255
255
255
255
255
255
255
255
255
255
255
255
255
255
255
255
255
255
255
255
255
255
255
255
255
255
255
255
255
255
255
255
255
255
255
255
255
255
255
255
255
255
255
255
255
255
255
255
255
255
255
255
255
255
255
255
255
255
255
255
255
255
255
255
255
255
255
255
255
255
255
255
255
255
255
255
255
255
255
255
255
255
255
255
255
255
255
255
255
255
255
255
255
255
255
255
255
255
255
255
255
255
255
255
255
255
255
255
255
255
255
255
255
255
255
255
255
255
255
255
255
255
255
255
255
255
255
255
255
255
255
255
255
255
255
255
255
255
255
255
255
255
255
255
255
255
255
255
255
255
255
255
255
255
255
255
255
255
255
255
255
255
255
255
255
255
255
255
255
255
255
255
255
255
255
255
255
255
255
255
255
255
255
255
255
255
255
255
255
255
255
255
255
255
255
255
255
255
255
255
255
255
255
255
255
255
255
255
255
255
255
255
255
255
255
255
255
255
255
255
255
255
255
255
255
255
255
255
255
255
255
255
255
255
255
255
255
255
255
255
255
255
255
255
255
255
255
255
255
255
255
255
255
255
255
255
255
255
255
255
255
255
255
255
255
255
255
255
255
255
255
255
255
255
255
255
255
255
255
255
255
255
255
255
255
255
255
255
255
255
255
255
255
255
255
255
255
255
255
255
255
255
255
255
255
255
255
255
255
255
255
255
255
255
255
255
255
255
255
255
255
255
255
255
255
255
255
255
255
255
255
255
255
255
255
255
255
255
255
255
255
255
255
255
255
255
255
255
255
255
255
255
255
255
255
255
255
255
255
255
255
255
255
255
255
255
255
255
255
255
255
255
255
255
255
255
255
255
255
255
255
255
255
255
255
255
255
255
255
255
255
255
255
255
255
255
255
255
255
255
255
255
255
255
255
255
255
255
255
255
255
255
255
255
255
255
255
255
255
255
255
255
255
255
255
255
255
255
255
255
255
255
255
255
255
255
255
255
255
255
255
255
255
255
255
255
255
255
255
255
255
255
255
255
255
255
255
255
255
255
255
255
255
255
255
255
255
255
255
255
255
255
255
255
255
255
255
255
255
255
255
255
255
255
255
255
255
255
255
255
255
255
255
255
255
255
255
255
255
255
255
255
255
255
255
255
255
255
255
255
255
255
255
255
255
255
255
255
255
255
255
255
255
255
255
255
255
255
255
255
255
255
255
255
255
255
255
255
255
255
255
255
255
255
255
255
255
255
255
255
255
255
255
255
255
255
255
255
255
255
255
255
255
255
255
255
255
255
255
255
255
255
255
255
255
255
255
255
255
255
255
255
255
255
255
255
255
255
255
255
255
255
255
255
255
255
255
255
255
255
255
255
255
255
255
255
255
255
255
255
255
255
255
255
255
255
255
255
255
255
255
255
255
255
255
255
255
255
255
255
255
255
255
255
255
255
255
255
255
255
255
255
255
255
255
255
255
255
255
255
255
255
255
255
255
255
255
255
255
255
255
255
255
255
255
255
255
255
255
255
255
255
255
255
255
255
255
255
255
255
255
255
255
255
255
255
255
255
255
255
255
255
255
255
255
255
255
255
255
255
255
255
255
255
255
255
255
255
255
255
255
255
255
255
255
255
255
255
255
255
255
255
255
255
255
255
255
255
255
255
255
255
255
255
255
255
255
255
255
255
255
255
255
255
255
255
255
255
255
255
255
255
255
255
255
255
255
255
255
255
255
255
255
255
255
255
255
255
255
255
255
255
255
255
255
255
255
255
255
255
255
255
255
255
255
255
255
255
255
255
255
255
255
255
255
255
255
255
255
255
255
255
255
255
255
255
255
255
255
255
255
255
255
255
255
255
255
255
255
255
255
255
255
255
255
255
255
255
255
255
255
255
255
255
255
255
255
255
255
255
255
255
255
255
255
255
255
255
255
255
255
255
255
255
255
255
255
255
255
255
255
255
255
255
255
255
255
255
255
255
255
255
255
255
255
255
255
255
255
255
255
255
255
255
255
255
255
255
255
255
255
255
255
255
255
255
255
255
255
255
255
255
255
255
255
255
255
255
255
255
255
255
255
255
255
255
255
255
255
255
255
255
255
255
255
255
255
255
255
255
255
255
255
255
255
255
255
255
255
255
255
255
255
255
255
255
255
255
255
255
255
255
255
255
255
255
255
255
255
255
255
255
255
255
255
255
255
255
255
255
255
255
255
255
255
255
255
255
255
255
255
255
255
255
255
255
255
255
255
255
255
255
255
255
255
255
255
255
255
255
255
255
255
255
255
255
255
255
255
255
255
255
255
255
255
255
255
255
255
255
255
255
255
255
255
255
255
255
255
255
255
255
255
255
255
255
255
255
255
255
255
255
255
255
255
255
255
255
255
255
255
255
255
255
255
255
255
255
255
255
255
255
255
255
255
255
255
255
255
255
255
255
255
255
255
255
255
255
255
255
255
255
255
255
255
255
255
255
255
255
255
255
255
255
255
255
255
255
255
255
255
255
255
255
255
255
255
255
255
255
255
255
255
255
255
255
255
255
255
255
255
255
255
255
255
255
255
255
255
255
255
255
255
255
255
255
255
255
255
255
255
255
255
255
255
255
255
255
255
255
255
255
255
255
255
255
255
255
255
255
255
255
255
255
255
255
255
255
255
255
255
255
255
255
255
255
255
255
255
255
255
255
255
255
255
255
255
255
255
255
255
255
255
255
255
255
255
255
255
255
255
255
255
255
255
255
255
255
255
255
255
255
255
255
255
255
255
255
255
255
255
255
255
255
255
255
255
255
255
255
255
255
255
255
255
255
255
255
255
255
255
255
255
255
255
255
255
255
255
255
255
255
255
255
255
255
255
255
255
255
255
255
255
255
255
255
255
255
255
255
255
255
255
255
255
255
255
255
255
255
255
255
255
255
255
255
255
255
255
255
255
255
255
255
255
255
255
255
255
255
255
255
255
255
255
255
255
255
255
255
255
255
255
255
255
255
255
255
255
255
255
255
255
255
255
255
255
255
255
255
255
255
255
255
255
255
255
255
255
255
255
255
255
255
255
255
255
255
255
255
255
255
255
255
255
255
255
255
255
255
255
255
255
255
255
255
255
255
255
255
255
255
255
255
255
255
255
255
255
255
255
255
255
255
255
255
255
255
255
255
255
255
255
255
255
255
255
255
255
255
255
255
255
255
255
255
255
255
255
255
255
255
255
255
255
255
255
255
255
255
255
255
255
255
255
255
255
255
255
255
255
255
255
255
255
255
255
255
255
255
255
255
255
255
255
255
255
255
255
255
255
255
255
255
255
255
255
255
255
255
255
255
255
255
255
255
255
255
255
255
255
255
255
255
255
255
255
255
255
255
255
255
255
255
255
255
255
255
255
255
255
255
255
255
255
255
255
255
255
255
255
255
255
255
255
255
255
255
255
255
255
255
255
255
255
255
255
255
255
255
255
255
255
255
255
255
255
255
255
255
255
255
255
255
255
255
255
255
255
255
255
255
255
255
255
255
255
255
255
255
255
255
255
255
255
255
255
255
255
255
255
255
255
255
255
255
255
255
255
255
255
255
255
255
255
255
255
255
255
255
255
255
255
255
255
255
255
255
255
255
255
255
255
255
255
255
255
255
255
255
255
255
255
255
255
255
255
255
255
255
255
255
255
255
255
255
255
255
255
255
255
255
255
255
255
255
255
255
255
255
255
255
255
255
255
255
255
255
255
255
255
255
255
255
255
255
255
255
255
255
255
255
255
255
255
255
255
255
255
255
255
255
255
255
255
255
255
255
255
255
255
255
255
255
255
255
255
255
255
255
255
255
255
255
255
255
255
255
255
255
255
255
255
255
255
255
255
255
255
255
255
255
255
255
255
255
255
255
255
255
255
255
255
255
255
255
255
255
255
255
255
255
255
255
255
255
255
255
255
255
255
255
255
255
255
255
255
255
255
255
255
255
255
255
255
255
255
255
255
255
255
255
255
255
255
255
255
255
255
255
255
255
255
255
255
255
255
255
255
255
255
255
255
255
255
255
255
255
255
255
255
255
255
255
255
255
255
255
255
255
255
255
255
255
255
255
255
255
255
255
255
255
255
255
255
255
255
255
255
255
255
255
255
255
255
255
255
255
255
255
255
255
255
255
255
255
255
255
255
255
255
255
255
255
255
255
255
255
255
255
255
255
255
255
255
255
255
255
255
255
255
255
255
255
255
255
255
255
255
255
255
255
255
255
255
255
255
255
255
255
255
255
255
255
255
255
255
255
255
255
255
255
255
255
255
255
255
255
255
255
255
255
255
255
255
255
255
255
255
255
255
255
255
255
255
255
255
255
255
255
255
255
255
255
255
255
255
255
255
255
255
255
255
255
255
255
255
255
255
255
255
255
255
255
255
255
255
255
255
255
255
255
255
255
255
255
255
255
255
255
255
255
255
255
255
255
255
255
255
255
255
255
255
255
255
255
255
255
255
255
255
255
255
255
255
255
255
255
255
255
255
255
255
255
255
255
255
255
255
255
255
255
255
255
255
255
255
255
255
255
255
255
255
255
255
255
255
255
255
255
255
255
255
255
255
255
255
255
255
255
255
255
255
255
255
255
255
255
255
255
255
255
255
255
255
255
255
255
255
255
255
255
255
255
255
255
255
255
255
255
255
255
255
255
255
255
255
255
255
255
255
255
255
255
255
255
255
255
255
255
255
255
255
255
255
255
255
255
255
255
255
255
255
255
255
255
255
255
255
255
255
255
255
255
255
255
255
255
255
255
255
255
255
255
255
255
255
255
255
255
255
255
255
255
255
255
255
255
255
255
255
255
255
255
255
255
255
255
255
255
255
255
255
255
255
255
255
255
255
255
255
255
255
255
255
255
255
255
255
255
255
255
255
255
255
255
255
255
255
255
255
255
255
255
255
255
255
255
255
255
255
255
255
255
255
255
255
255
255
255
255
255
255
255
255
255
255
255
255
255
255
255
255
255
255
255
255
255
255
255
255
255
255
255
255
255
255
255
255
255
255
255
255
255
255
255
255
255
255
255
255
255
255
255
255
255
255
255
255
255
255
255
255
255
255
255
255
255
255
255
255
255
255
255
255
255
255
255
255
255
255
255
255
255
255
255
255
255
255
255
255
255
255
255
255
255
255
255
255
255
255
255
255
255
255
255
255
255
255
255
255
255
255
255
255
255
255
255
255
255
255
255
255
255
255
255
255
255
255
255
255
255
255
255
255
255
255
255
255
255
255
255
255
255
255
255
255
255
255
255
255
255
255
255
255
255
255
255
255
255
255
255
255
255
255
255
255
255
255
255
255
255
255
255
255
255
255
255
255
255
255
255
255
255
255
255
255
255
255
255
255
255
255
255
255
255
255
255
255
255
255
255
255
255
255
255
255
255
255
255
255
255
255
255
255
255
255
255
255
255
255
255
255
255
255
255
255
255
255
255
255
255
255
255
255
255
255
255
255
255
255
255
255
255
255
255
255
255
255
255
255
255
255
255
255
255
255
255
255
255
255
255
255
255
255
255
255
255
255
255
255
255
255
255
255
255
255
255
255
255
255
255
255
255
255
255
255
255
255
255
255
255
255
255
255
255
255
255
255
255
255
255
255
255
255
255
255
255
255
255
255
255
255
255
255
255
255
255
255
255
255
255
255
255
255
255
255
255
255
255
255
255
255
255
255
255
255
255
255
255
255
255
255
255
255
255
255
255
255
255
255
255
255
255
255
255
255
255
255
255
255
255
255
255
255
255
255
255
255
255
255
255
255
255
255
255
255
255
255
255
255
255
255
255
255
255
255
255
255
255
255
255
255
255
255
255
255
255
255
255
255
255
255
255
255
255
255
255
255
255
255
255
255
255
255
255
255
255
255
255
255
255
255
255
255
255
255
255
255
255
255
255
255
255
255
255
255
255
255
255
255
255
255
255
255
255
255
255
255
255
255
255
255
255
255
255
255
255
255
255
255
255
255
255
255
255
255
255
255
255
255
255
255
255
255
255
255
255
255
255
255
255
255
255
255
255
255
255
255
255
255
255
255
255
255
255
255
255
255
255
255
255
255
255
255
255
255
255
255
255
255
255
255
255
255
255
255
255
255
255
255
255
255
255
255
255
255
255
255
255
255
255
255
255
255
255
255
255
255
255
255
255
255
255
255
255
255
255
255
255
255
255
255
255
255
255
255
255
255
255
255
255
255
255
255
255
255
255
255
255
255
255
255
255
255
255
255
255
255
255
255
255
255
255
255
255
255
255
255
255
255
255
255
255
255
255
255
255
255
255
255
255
255
255
255
255
255
255
255
255
255
255
255
255
255
255
255
255
255
255
255
255
255
255
255
255
255
255
255
255
255
255
255
255
255
255
255
255
255
255
255
255
255
255
255
255
255
255
255
255
255
255
255
255
255
255
255
255
255
255
255
255
255
255
255
255
255
255
255
255
255
255
255
255
255
255
255
255
255
255
255
255
255
255
255
255
255
255
255
255
255
255
255
255
255
255
255
255
255
255
255
255
255
255
255
255
255
255
255
255
255
255
255
255
255
255
255
255
255
255
255
255
255
255
255
255
255
255
255
255
255
255
255
255
255
255
255
255
255
255
255
255
255
255
255
255
255
255
255
255
255
255
255
255
255
255
255
255
255
255
255
255
255
255
255
255
255
255
255
255
255
255
255
255
255
255
255
255
255
255
255
255
255
255
255
255
255
255
255
255
255
255
255
255
255
255
255
255
255
255
255
255
255
255
255
255
255
255
255
255
255
255
255
255
255
255
255
255
255
255
255
255
255
255
255
255
255
255
255
255
255
255
255
255
255
255
255
255
255
255
255
255
255
255
255
255
255
255
255
255
255
255
255
255
255
255
255
255
255
255
255
255
255
255
255
255
255
255
255
255
255
255
255
255
255
255
255
255
255
255
255
255
255
255
255
255
255
255
255
255
255
255
255
255
255
255
255
255
255
255
255
255
255
255
255
255
255
255
255
255
255
255
255
255
255
255
255
255
255
255
255
255
255
255
255
255
255
255
255
255
255
255
255
255
255
255
255
255
255
255
255
255
255
255
255
255
255
255
255
255
255
255
255
255
255
255
255
255
255
255
255
255
255
255
255
255
255
255
255
255
255
255
255
255
255
255
255
255
255
255
255
255
255
255
255
255
255
255
255
255
255
255
255
255
255
255
255
255
255
255
255
255
255
255
255
255
255
255
255
255
255
255
255
255
255
255
255
255
255
255
255
255
255
255
255
255
255
255
255
255
255
255
255
255
255
255
255
255
255
255
255
255
255
255
255
255
255
255
255
255
255
255
255
255
255
255
255
255
255
255
255
255
255
255
255
255
255
255
255
255
255
255
255
255
255
255
255
255
255
255
255
255
255
255
255
255
255
255
255
255
255
255
255
255
255
255
255
255
255
255
255
255
255
255
255
255
255
255
255
255
255
255
255
255
255
255
255
255
255
255
255
255
255
255
255
255
255
255
255
255
255
255
255
255
255
255
255
255
255
255
255
255
255
255
255
255
255
255
255
255
255
255
255
255
255
255
255
255
255
255
255
255
255
255
255
255
255
255
255
255
255
255
255
255
255
255
255
255
255
255
255
255
255
255
255
255
255
255
255
255
255
255
255
255
255
255
255
255
255
255
255
255
255
255
255
255
255
255
255
255
255
255
255
255
255
255
255
255
255
255
255
255
255
255
255
255
255
255
255
255
255
255
255
255
255
255
255
255
255
255
255
255
255
255
255
255
255
255
255
255
255
255
255
255
255
255
255
255
255
255
255
255
255
255
255
255
255
255
255
255
255
255
255
255
255
255
255
255
255
255
255
255
255
255
255
255
255
255
255
255
255
255
255
255
255
255
255
255
255
255
255
255
255
255
255
255
255
255
255
255
255
255
255
255
255
255
255
255
255
255
255
255
255
255
255
255
255
255
255
255
255
255
255
255
255
255
255
255
255
255
255
255
255
255
255
255
255
255
255
255
255
255
255
255
255
255
255
255
255
255
255
255
255
255
255
255
255
255
255
255
255
255
255
255
255
255
255
255
255
255
255
255
255
255
255
255
255
255
255
255
255
255
255
255
255
255
255
255
255
255
255
255
255
255
255
255
255
255
255
255
255
255
255
255
255
255
255
255
255
255
255
255
255
255
255
255
255
255
255
255
255
255
255
255
255
255
255
255
255
255
255
255
255
255
255
255
255
255
255
255
255
255
255
255
255
255
255
255
255
255
255
255
255
255
255
255
255
255
255
255
255
255
255
255
255
255
255
255
255
255
255
255
255
255
255
255
255
255
255
255
255
255
255
255
255
255
255
255
255
255
255
255
255
255
255
255
255
255
255
255
255
255
255
255
255
255
255
255
255
255
255
255
255
255
255
255
255
255
255
255
255
255
255
255
255
255
255
255
255
255
255
255
255
255
255
255
255
255
255
255
255
255
255
255
255
255
255
255
255
255
255
255
255
255
255
255
255
255
255
255
255
255
255
255
255
255
255
255
255
255
255
255
255
255
255
255
255
255
255
255
255
255
255
255
255
255
255
255
255
255
255
255
255
255
255
255
255
255
255
255
255
255
255
255
255
255
255
255
255
255
255
255
255
255
255
255
255
255
255
255
255
255
255
255
255
255
255
255
255
255
255
255
255
255
255
255
255
255
255
255
255
255
255
255
255
255
255
255
255
255
255
255
255
255
255
255
255
255
255
255
255
255
255
255
255
255
255
255
255
255
255
255
255
255
255
255
255
255
255
255
255
255
255
255
255
255
255
255
255
255
255
255
255
255
255
255
255
255
255
255
255
255
255
255
255
255
255
255
255
255
255
255
255
255
255
255
255
255
255
255
255
255
255
255
255
255
255
255
255
255
255
255
255
255
255
255
255
255
255
255
255
255
255
255
255
255
255
255
255
255
255
255
255
255
255
255
255
255
255
255
255
255
255
255
255
255
255
255
255
255
255
255
255
255
255
255
255
255
255
255
255
255
255
255
255
255
255
255
255
255
255
255
255
255
255
255
255
255
255
255
255
255
255
255
255
255
255
255
255
255
255
255
255
255
255
255
255
255
255
255
255
255
255
255
255
255
255
255
255
255
255
255
255
255
255
255
255
255
255
255
255
255
255
255
255
255
255
255
255
255
255
255
255
255
255
255
255
255
255
255
255
255
255
255
255
255
255
255
255
255
255
255
255
255
255
255
255
255
255
255
255
255
255
255
255
255
255
255
255
255
255
255
255
255
255
255
255
255
255
255
255
255
255
255
255
255
255
255
255
255
255
255
255
255
255
255
255
255
255
255
255
255
255
255
255
255
255
255
255
255
255
255
255
255
255
255
255
255
255
255
255
255
255
255
255
255
255
255
255
255
255
255
255
255
255
255
255
255
255
255
255
255
255
255
255
255
255
255
255
255
255
255
255
255
255
255
255
255
255
255
255
255
255
255
255
255
255
255
255
255
255
255
255
255
255
255
255
255
255
255
255
255
255
255
255
255
255
255
255
255
255
255
255
255
255
255
255
255
255
255
255
255
255
255
255
255
255
255
255
255
255
255
255
255
255
255
255
255
255
255
255
255
255
255
255
255
255
255
255
255
255
255
255
255
255
255
255
255
255
255
255
255
255
255
255
255
255
255
255
255
255
255
255
255
255
255
255
255
255
255
255
255
255
255
255
255
255
255
255
255
255
255
255
255
255
255
255
255
255
255
255
255
255
255
255
255
255
255
255
255
255
255
255
255
255
255
255
255
255
255
255
255
255
255
255
255
255
255
255
255
255
255
255
255
255
255
255
255
255
255
255
255
255
255
255
255
255
255
255
255
255
255
255
255
255
255
255
255
255
255
255
255
255
255
255
255
255
255
255
255
255
255
255
255
255
255
255
255
255
255
255
255
255
255
255
255
255
255
255
255
255
255
255
255
255
255
255
255
255
255
255
255
255
255
255
255
255
255
255
255
255
255
255
255
255
255
255
255
255
255
255
255
255
255
255
255
255
255
255
255
255
255
255
255
255
255
255
255
255
255
255
255
255
255
255
255
255
255
255
255
255
255
255
255
255
255
255
255
255
255
255
255
255
255
255
255
255
255
255
255
255
255
255
255
255
255
255
255
255
255
255
255
255
255
255
255
255
255
255
255
255
255
255
255
255
255
255
255
255
255
255
255
255
255
255
255
255
255
255
255
255
255
255
255
255
255
255
255
255
255
255
255
255
255
255
255
255
255
255
255
255
255
255
255
255
255
255
255
255
255
255
255
255
255
255
255
255
255
255
255
255
255
255
255
255
255
255
255
255
255
255
255
255
255
255
255
255
255
255
255
255
255
255
255
255
255
255
255
255
255
255
255
255
255
255
255
255
255
255
255
255
255
255
255
255
255
255
255
255
255
255
255
255
255
255
255
255
255
255
255
255
255
255
255
255
255
255
255
255
255
255
255
255
255
255
255
255
255
255
255
255
255
255
255
255
255
255
255
255
255
255
255
255
255
255
255
255
255
255
255
255
255
255
255
255
255
255
255
255
255
255
255
255
255
255
255
255
255
255
255
255
255
255
255
255
255
255
255
255
255
255
255
255
255
255
255
255
255
255
255
255
255
255
255
255
255
255
255
255
255
255
255
255
255
255
255
255
255
255
255
255
255
255
255
255
255
255
255
255
255
255
255
255
255
255
255
255
255
255
255
255
255
255
255
255
255
255
255
255
255
255
255
255
255
255
255
255
255
255
255
255
255
255
255
255
255
255
255
255
255
255
255
255
255
255
255
255
255
255
255
255
255
255
255
255
255
255
255
255
255
255
255
255
255
255
255
255
255
255
255
255
255
255
255
255
255
255
255
255
255
255
255
255
255
255
255
255
255
255
255
255
255
255
255
255
255
255
255
255
255
255
255
255
255
255
255
255
255
255
255
255
255
255
255
255
255
255
255
255
255
255
255
255
255
255
255
255
255
255
255
255
255
255
255
255
255
255
255
255
255
255
255
255
255
255
255
255
255
255
255
255
255
255
255
255
255
255
255
255
255
255
255
255
255
255
255
255
255
255
255
255
255
255
255
255
255
255
255
255
255
255
255
255
255
255
255
255
255
255
255
255
255
255
255
255
255
255
255
255
255
255
255
255
255
255
255
255
255
255
255
255
255
255
255
255
255
255
255
255
255
255
255
255
255
255
255
255
255
255
255
255
255
255
255
255
255
255
255
255
255
255
255
255
255
255
255
255
255
255
255
255
255
255
255
255
255
255
255
255
255
255
255
255
255
255
255
255
255
255
255
255
255
255
255
255
255
255
255
255
255
255
255
255
255
255
255
255
255
255
255
255
255
255
255
255
255
255
255
255
255
255
255
255
255
255
255
255
255
255
255
255
255
255
255
255
255
255
255
255
255
255
255
255
255
255
255
255
255
255
255
255
255
255
255
255
255
255
255
255
255
255
255
255
255
255
255
255
255
255
255
255
255
255
255
255
255
255
255
255
255
255
255
255
255
255
255
255
255
255
255
255
255
255
255
255
255
255
255
255
255
255
255
255
255
255
255
255
255
255
255
255
255
255
255
255
255
255
255
255
255
255
255
255
255
255
255
255
255
255
255
255
255
255
255
255
255
255
255
255
255
255
255
255
255
255
255
255
255
255
255
255
255
255
255
255
255
255
255
255
255
255
255
255
255
255
255
255
255
255
255
255
255
255
255
255
255
255
255
255
255
255
255
255
255
255
255
255
255
255
255
255
255
255
255
255
255
255
255
255
255
255
255
255
255
255
255
255
255
255
255
255
255
255
255
255
255
255
255
255
255
255
255
255
255
255
255
255
255
255
255
255
255
255
255
255
255
255
255
255
255
255
255
255
255
255
255
255
255
255
255
255
255
255
255
255
255
255
255
255
255
255
255
255
255
255
255
255
255
255
255
255
255
255
255
255
255
255
255
255
255
255
255
255
255
255
255
255
255
255
255
255
255
255
255
255
255
255
255
255
255
255
255
255
255
255
255
255
255
255
255
255
255
255
255
255
255
255
255
255
255
255
255
255
255
255
255
255
255
255
255
255
255
255
255
255
255
255
255
255
255
255
255
255
255
255
255
255
255
255
255
255
255
255
255
255
255
255
255
255
255
255
255
255
255
255
255
255
255
255
255
255
255
255
255
255
255
255
255
255
255
255
255
255
255
255
255
255
255
255
255
255
255
255
255
255
255
255
255
255
255
255
255
255
255
255
255
255
255
255
255
255
255
255
255
255
255
255
255
255
255
255
255
255
255
255
255
255
255
255
255
255
255
255
255
255
255
255
255
255
255
255
255
255
255
255
255
255
255
255
255
255
255
255
255
255
255
255
255
255
255
255
255
255
255
255
255
255
255
255
255
255
255
255
255
255
255
255
255
255
255
255
255
255
255
255
255
255
255
255
255
255
255
255
255
255
255
255
255
255
255
255
255
255
255
255
255
255
255
255
255
255
255
255
255
255
255
255
255
255
255
255
255
255
255
255
255
255
255
255
255
255
255
255
255
255
255
255
255
255
255
255
255
255
255
255
255
255
255
255
255
255
255
255
255
255
255
255
255
255
255
255
255
255
255
255
255
255
255
255
255
255
255
255
255
255
255
255
255
255
255
255
255
255
255
255
255
255
255
255
255
255
255
255
255
255
255
255
255
255
255
255
255
255
255
255
255
255
255
255
255
255
255
255
255
255
255
255
255
255
255
255
255
255
255
255
255
255
255
255
255
255
255
255
255
255
255
255
255
255
255
255
255
255
255
255
255
255
255
255
255
255
255
255
255
255
255
255
255
255
255
255
255
255
255
255
255
255
255
255
255
255
255
255
255
255
255
255
255
255
255
255
255
255
255
255
255
255
255
255
255
255
255
255
255
255
255
255
255
255
255
255
255
255
255
255
255
255
255
255
255
255
255
255
255
255
255
255
255
255
255
255
255
255
255
255
255
255
255
255
255
255
255
255
255
255
255
255
255
255
255
255
255
255
255
255
255
255
255
255
255
255
255
255
255
255
255
255
255
255
255
255
255
255
255
255
255
255
255
255
255
255
255
255
255
255
255
255
255
255
255
255
255
255
255
255
255
255
255
255
255
255
255
255
255
255
255
255
255
255
255
255
255
255
255
255
255
255
255
255
255
255
255
255
255
255
255
255
255
255
255
255
255
255
255
255
255
255
255
255
255
255
255
255
255
255
255
255
255
255
255
255
255
255
255
255
255
255
255
255
255
255
255
255
255
255
255
255
255
255
255
255
255
255
255
255
255
255
255
255
255
255
255
255
255
255
255
255
255
255
255
255
255
255
255
255
255
255
255
255
255
255
255
255
255
255
255
255
255
255
255
255
255
255
255
255
255
255
255
255
255
255
255
255
255
255
255
255
255
255
255
255
255
255
255
255
255
255
255
255
255
255
255
255
255
255
255
255
255
255
255
255
255
255
255
255
255
255
255
255
255
255
255
255
255
255
255
255
255
255
255
255
255
255
255
255
255
255
255
255
255
255
255
255
255
255
255
255
255
255
255
255
255
255
255
255
255
255
255
255
255
255
255
255
255
255
255
255
255
255
255
255
255
255
255
255
255
255
255
255
255
255
255
255
255
255
255
255
255
255
255
255
255
255
255
255
255
255
255
255
255
255
255
255
255
255
255
255
255
255
255
255
255
255
255
255
255
255
255
255
255
255
255
255
255
255
255
255
255
255
255
255
255
255
255
255
255
255
255
255
255
255
255
255
255
255
255
255
255
255
255
255
255
255
255
255
255
255
255
255
255
255
255
255
255
255
255
255
255
255
255
255
255
255
255
255
255
255
255
255
255
255
255
255
255
255
255
255
255
255
255
255
255
255
255
255
255
255
255
255
255
255
255
255
255
255
255
255
255
255
255
255
255
255
255
255
255
255
255
255
255
255
255
255
255
255
255
255
255
255
255
255
255
255
255
255
255
255
255
255
255
255
255
255
255
255
255
255
255
255
255
255
255
255
255
255
255
255
255
255
255
255
255
255
255
255
255
255
255
255
255
255
255
255
255
255
255
255
255
255
255
255
255
255
255
255
255
255
255
255
255
255
255
255
255
255
255
255
255
255
255
255
255
255
255
255
255
255
255
255
255
255
255
255
255
255
255
255
255
255
255
255
255
255
255
255
255
255
255
255
255
255
255
255
255
255
255
255
255
255
255
255
255
255
255
255
255
255
255
255
255
255
255
255
255
255
255
255
255
255
255
255
255
255
255
255
255
255
255
255
255
255
255
255
255
255
255
255
255
255
255
255
255
255
255
255
255
255
255
255
255
255
255
255
255
255
255
255
255
255
255
255
255
255
255
255
255
255
255
255
255
255
255
255
255
255
255
255
255
255
255
255
255
255
255
255
255
255
255
255
255
255
255
255
255
255
255
255
255
255
255
255
255
255
255
255
255
255
255
255
255
255
255
255
255
255
255
255
255
255
255
255
255
255
255
255
255
255
255
255
255
255
255
255
255
255
255
255
255
255
255
255
255
255
255
255
255
255
255
255
255
255
255
255
255
255
255
255
255
255
255
255
255
255
255
255
255
255
255
255
255
255
255
255
255
255
255
255
255
255
255
255
255
255
255
255
255
255
255
255
255
255
255
255
255
255
255
255
255
255
255
255
255
255
255
255
255
255
255
255
255
255
255
255
255
255
255
255
255
255
255
255
255
255
255
255
255
255
255
255
255
255
255
255
255
255
255
255
255
255
255
255
255
255
255
255
255
255
255
255
255
255
255
255
255
255
255
255
255
255
255
255
255
255
255
255
255
255
255
255
255
255
255
255
255
255
255
255
255
255
255
255
255
255
255
255
255
255
255
255
255
255
255
255
255
255
255
255
255
255
255
255
255
255
255
255
255
255
255
255
255
255
255
255
255
255
255
255
255
255
255
255
255
255
255
255
255
255
255
255
255
255
255
255
255
255
255
255
255
255
255
255
255
255
255
255
255
255
255
255
255
255
255
255
255
255
255
255
255
255
255
255
255
255
255
255
255
255
255
255
255
255
255
255
255
255
255
255
255
255
255
255
255
255
255
255
255
255
255
255
255
255
255
255
255
255
255
255
255
255
255
255
255
255
255
255
255
255
255
255
255
255
255
255
255
255
255
255
255
255
255
255
255
255
255
255
255
255
255
255
255
255
255
255
255
255
255
255
255
255
255
255
255
255
255
255
255
255
255
255
255
255
255
255
255
255
255
255
255
255
255
255
255
255
255
255
255
255
255
255
255
255
255
255
255
255
255
255
255
255
255
255
255
255
255
255
255
255
255
255
255
255
255
255
255
255
255
255
255
255
255
255
255
255
255
255
255
255
255
255
255
255
255
255
255
255
255
255
255
255
255
255
255
255
255
255
255
255
255
255
255
255
255
255
255
255
255
255
255
255
255
255
255
255
255
255
255
255
255
255
255
255
255
255
255
255
255
255
255
255
255
255
255
255
255
255
255
255
255
255
255
255
255
255
255
255
255
255
255
255
255
255
255
255
255
255
255
255
255
255
255
255
255
255
255
255
255
255
255
255
255
255
255
255
255
255
255
255
255
255
255
255
255
255
255
255
255
255
255
255
255
255
255
255
255
255
255
255
255
255
255
255
255
255
255
255
255
255
255
255
255
255
255
255
255
255
255
255
255
255
255
255
255
255
255
255
255
255
255
255
255
255
255
255
255
255
255
255
255
255
255
255
255
255
255
255
255
255
255
255
255
255
255
255
255
255
255
255
255
255
255
255
255
255
255
255
255
255
255
255
255
255
255
255
255
255
255
255
255
255
255
255
255
255
255
255
255
255
255
255
255
255
255
255
255
255
255
255
255
255
255
255
255
255
255
255
255
255
255
255
255
255
255
255
255
255
255
255
255
255
255
255
255
255
255
255
255
255
255
255
255
255
255
255
255
255
255
255
255
255
255
255
255
255
255
255
255
255
255
255
255
255
255
255
255
255
255
255
255
255
255
255
255
255
255
255
255
255
255
255
255
255
255
255
255
255
255
255
255
255
255
255
255
255
255
255
255
255
255
255
255
255
255
255
255
255
255
255
255
255
255
255
255
255
255
255
255
255
255
255
255
255
255
255
255
255
255
255
255
255
255
255
255
255
255
255
255
255
255
255
255
255
255
255
255
255
255
255
255
255
255
255
255
255
255
255
255
255
255
255
255
255
255
255
255
255
255
255
255
255
255
255
255
255
255
255
255
255
255
255
255
255
255
255
255
255
255
255
255
255
255
255
255
255
255
255
255
255
255
255
255
255
255
255
255
255
255
255
255
255
255
255
255
255
255
255
255
255
255
255
255
255
255
255
255
255
255
255
255
255
255
255
255
255
255
255
255
255
255
255
255
255
255
255
255
255
255
255
255
255
255
255
255
255
255
255
255
255
255
255
255
255
255
255
255
255
255
255
255
255
255
255
255
255
255
255
255
255
255
255
255
255
255
255
255
255
255
255
255
255
255
255
255
255
255
255
255
255
255
255
255
255
255
255
255
255
255
255
255
255
255
255
255
255
255
255
255
255
255
255
255
255
255
255
255
255
255
255
255
255
255
255
255
255
255
255
255
255
255
255
255
255
255
255
255
255
255
255
255
255
255
255
255
255
255
255
255
255
255
255
255
255
255
255
255
255
255
255
255
255
255
255
255
255
255
255
255
255
255
255
255
255
255
255
255
255
255
255
255
255
255
255
255
255
255
255
255
255
255
255
255
255
255
255
255
255
255
255
255
255
255
255
255
255
255
255
255
255
255
255
255
255
255
255
255
255
255
255
255
255
255
255
255
255
255
255
255
255
255
255
255
255
255
255
255
255
255
255
255
255
255
255
255
255
255
255
255
255
255
255
255
255
255
255
255
255
255
255
255
255
255
255
255
255
255
255
255
255
255
255
255
255
255
255
255
255
255
255
255
255
255
255
255
255
255
255
255
255
255
255
255
255
255
255
255
255
255
255
255
255
255
255
255
255
255
255
255
255
255
255
255
255
255
255
255
255
255
255
255
255
255
255
255
255
255
255
255
255
255
255
255
255
255
255
255
255
255
255
255
255
255
255
255
255
255
255
255
255
255
255
255
255
255
255
255
255
255
255
255
255
255
255
255
255
255
255
255
255
255
255
255
255
255
255
255
255
255
255
255
255
255
255
255
255
255
255
255
255
255
255
255
255
255
255
255
255
255
255
255
255
255
255
255
255
255
255
255
255
255
255
255
255
255
255
255
255
255
255
255
255
255
255
255
255
255
255
255
255
255
255
255
255
255
255
255
255
255
255
255
255
255
255
255
255
255
255
255
255
255
255
255
255
255
255
255
255
255
255
255
255
255
255
255
255
255
255
255
255
255
255
255
255
255
255
255
255
255
255
255
255
255
255
255
255
255
255
255
255
255
255
255
255
255
255
255
255
255
255
255
255
255
255
255
255
255
255
255
255
255
255
255
255
255
255
255
255
255
255
255
255
255
255
255
255
255
255
255
255
255
255
255
255
255
255
255
255
255
255
255
255
255
255
255
255
255
255
255
255
255
255
255
255
255
255
255
255
255
255
255
255
255
255
255
255
255
255
255
255
255
255
255
255
255
255
255
255
255
255
255
255
255
255
255
255
255
255
255
255
255
255
255
255
255
255
255
255
255
255
255
255
255
255
255
255
255
255
255
255
255
255
255
255
255
255
255
255
255
255
255
255
255
255
255
255
255
255
255
255
255
255
255
255
255
255
255
255
255
255
255
255
255
255
255
255
255
255
255
255
255
255
255
255
255
255
255
255
255
255
255
255
255
255
255
255
255
255
255
255
255
255
255
255
255
255
255
255
255
255
255
255
255
255
255
255
255
255
255
255
255
255
255
255
255
255
255
255
255
255
255
255
255
255
255
255
255
255
255
255
255
255
255
255
255
255
255
255
255
255
255
255
255
255
255
255
255
255
255
255
255
255
255
255
255
255
255
255
255
255
255
255
255
255
255
255
255
255
255
255
255
255
255
255
255
255
255
255
255
255
255
255
255
255
255
255
255
255
255
255
255
255
255
255
255
255
255
255
255
255
255
255
255
255
255
255
255
255
255
255
255
255
255
255
255
255
255
255
255
255
255
255
255
255
255
255
255
255
255
255
255
255
255
255
255
255
255
255
255
255
255
255
255
255
255
255
255
255
255
255
255
255
255
255
255
255
255
255
255
255
255
255
255
255
255
255
255
255
255
255
255
255
255
255
255
255
255
255
255
255
255
255
255
255
255
255
255
255
255
255
255
255
255
255
255
255
255
255
255
255
255
255
255
255
255
255
255
255
255
255
255
255
255
255
255
255
255
255
255
255
255
255
255
255
255
255
255
255
255
255
255
255
255
255
255
255
255
255
255
255
255
255
255
255
255
255
255
255
255
255
255
255
255
255
255
255
255
255
255
255
255
255
255
255
255
255
255
255
255
255
255
255
255
255
255
255
255
255
255
255
255
255
255
255
255
255
255
255
255
255
255
255
255
255
255
255
255
255
255
255
255
255
255
255
255
255
255
255
255
255
255
255
255
255
255
255
255
255
255
255
255
255
255
255
255
255
255
255
255
255
255
255
255
255
255
255
255
255
255
255
255
255
255
255
255
255
255
255
255
255
255
255
255
255
255
255
255
255
255
255
255
255
255
255
255
255
255
255
255
255
255
255
255
255
255
255
255
255
255
255
255
255
255
255
255
255
255
255
255
255
255
255
255
255
255
255
255
255
255
255
255
255
255
255
255
255
255
255
255
255
255
255
255
255
255
255
255
255
255
255
255
255
255
255
255
255
255
255
255
255
255
255
255
255
255
255
255
255
255
255
255
255
255
255
255
255
255
255
255
255
255
255
255
255
255
255
255
255
255
255
255
255
255
255
255
255
255
255
255
255
255
255
255
255
255
255
255
255
255
255
255
255
255
255
255
255
255
255
255
255
255
255
255
255
255
255
255
255
255
255
255
255
255
255
255
255
255
255
255
255
255
255
255
255
255
255
255
255
255
255
255
255
255
255
255
255
255
255
255
255
255
255
255
255
255
255
255
255
255
255
255
255
255
255
255
255
255
255
255
255
255
255
255
255
255
255
255
255
255
255
255
255
255
255
255
255
255
255
255
255
255
255
255
255
255
255
255
255
255
255
255
255
255
255
255
255
255
255
255
255
255
255
255
255
255
255
255
255
255
255
255
255
255
255
255
255
255
255
255
255
255
255
255
255
255
255
255
255
255
255
255
255
255
255
255
255
255
255
255
255
255
255
255
255
255
255
255
255
255
255
255
255
255
255
255
255
255
255
255
255
255
255
255
255
255
255
255
255
255
255
255
255
255
255
255
255
255
255
255
255
255
255
255
255
255
255
255
255
255
255
255
255
255
255
255
255
255
255
255
255
255
255
255
255
255
255
255
255
255
255
255
255
255
255
255
255
255
255
255
255
255
255
255
255
255
255
255
255
255
255
255
255
255
255
255
255
255
255
255
255
255
255
255
255
255
255
255
255
255
255
255
255
255
255
255
255
255
255
255
255
255
255
255
255
255
255
255
255
255
255
255
255
255
255
255
255
255
255
255
255
255
255
255
255
255
255
255
255
255
255
255
255
255
255
255
255
255
255
255
255
255
255
255
255
255
255
255
255
255
255
255
255
255
255
255
255
255
255
255
255
255
255
255
255
255
255
255
255
255
255
255
255
255
255
255
255
255
255
255
255
255
255
255
255
255
255
255
255
255
255
255
255
255
255
255
255
255
255
255
255
255
255
255
255
255
255
255
255
255
255
255
255
255
255
255
255
255
255
255
255
255
255
255
255
255
255
255
255
255
255
255
255
255
255
255
255
255
255
255
255
255
255
255
255
255
255
255
255
255
255
255
255
255
255
255
255
255
255
255
255
255
255
255
255
255
255
255
255
255
255
255
255
255
255
255
255
255
255
255
255
255
255
255
255
255
255
255
255
255
255
255
255
255
255
255
255
255
255
255
255
255
255
255
255
255
255
255
255
255
255
255
255
255
255
255
255
255
255
255
255
255
255
255
255
255
255
255
255
255
255
255
255
255
255
255
255
255
255
255
255
255
255
255
255
255
255
255
255
255
255
255
255
255
255
255
255
255
255
255
255
255
255
255
255
255
255
255
255
255
255
255
255
255
255
255
255
255
255
255
255
255
255
255
255
255
255
255
255
255
255
255
255
255
255
255
255
255
255
255
255
255
255
255
255
255
255
255
255
255
255
255
255
255
255
255
255
255
255
255
255
255
255
255
255
255
255
255
255
255
255
255
255
255
255
255
255
255
255
255
255
255
255
255
255
255
255
255
255
255
255
255
255
255
255
255
255
255
255
255
255
255
255
255
255
255
255
255
255
255
255
255
255
255
255
255
255
255
255
255
255
255
255
255
255
255
255
255
255
255
255
255
255
255
255
255
255
255
255
255
255
255
255
255
255
255
255
255
255
255
255
255
255
255
255
255
255
255
255
255
255
255
255
255
255
255
255
255
255
255
255
255
255
255
255
255
255
255
255
255
255
255
255
255
255
255
255
255
255
255
255
255
255
255
255
255
255
255
255
255
255
255
255
255
255
255
255
255
255
255
255
255
255
255
255
255
255
255
255
255
255
255
255
255
255
255
255
255
255
255
255
255
255
255
255
255
255
255
255
255
255
255
255
255
255
255
255
255
255
255
255
255
255
255
255
255
255
255
255
255
255
255
255
255
255
255
255
255
255
255
255
255
255
255
255
255
255
255
255
255
255
255
255
255
255
255
255
255
255
255
255
255
255
255
255
255
255
255
255
255
255
255
255
255
255
255
255
255
255
255
255
255
255
255
255
255
255
255
255
255
255
255
255
255
255
255
255
255
255
255
255
255
255
255
255
255
255
255
255
255
255
255
255
255
255
255
255
255
255
255
255
255
255
255
255
255
255
255
255
255
255
255
255
255
255
255
255
255
255
255
255
255
255
255
255
255
255
255
255
255
255
255
255
255
255
255
255
255
255
255
255
255
255
255
255
255
255
255
255
255
255
255
255
255
255
255
255
255
255
255
255
255
255
255
255
255
255
255
255
255
255
255
255
255
255
255
255
255
255
255
255
255
255
255
255
255
255
255
255
255
255
255
255
255
255
255
255
255
255
255
255
255
255
255
255
255
255
255
255
255
255
255
255
255
255
255
255
255
255
255
255
255
255
255
255
255
255
255
255
255
255
255
255
255
255
255
255
255
255
255
255
255
255
255
255
255
255
255
255
255
255
255
255
255
255
255
255
255
255
255
255
255
255
255
255
255
255
255
255
255
255
255
255
255
255
255
255
255
255
255
255
255
255
255
255
255
255
255
255
255
255
255
255
255
255
255
255
255
255
255
255
255
255
255
255
255
255
255
255
255
255
255
255
255
255
255
255
255
255
255
255
255
255
255
255
255
255
255
255
255
255
255
255
255
255
255
255
255
255
255
255
255
255
255
255
255
255
255
255
255
255
255
255
255
255
255
255
255
255
255
255
255
255
255
255
255
255
255
255
255
255
255
255
255
255
255
255
255
255
255
255
255
255
255
255
255
255
255
255
255
255
255
255
255
255
255
255
255
255
255
255
255
255
255
255
255
255
255
255
255
255
255
255
255
255
255
255
255
255
255
255
255
255
255
255
255
255
255
255
255
255
255
255
255
255
255
255
255
255
255
255
255
255
255
255
255
255
255
255
255
255
255
255
255
255
255
255
255
255
255
255
255
255
255
255
255
255
255
255
255
255
255
255
255
255
255
255
255
255
255
255
255
255
255
255
255
255
255
255
255
255
255
255
255
255
255
255
255
255
255
255
255
255
255
255
255
255
255
255
255
255
255
255
255
255
255
255
255
255
255
255
255
255
255
255
255
255
255
255
255
255
255
255
255
255
255
255
255
255
255
255
255
255
255
255
255
255
255
255
255
255
255
255
255
255
255
255
255
255
255
255
255
255
255
255
255
255
255
255
255
255
255
255
255
255
255
255
255
255
255
255
255
255
255
255
255
255
255
255
255
255
255
255
255
255
255
255
255
255
255
255
255
255
255
255
255
255
255
255
255
255
255
255
255
255
255
255
255
255
255
255
255
255
255
255
255
255
255
255
255
255
255
255
255
255
255
255
255
255
255
255
255
255
255
255
255
255
255
255
255
255
255
255
255
255
255
255
255
255
255
255
255
255
255
255
255
255
255
255
255
255
255
255
255
255
255
255
255
255
255
255
255
255
255
255
255
255
255
255
255
255
255
255
255
255
255
255
255
255
255
255
255
255
255
255
255
255
255
255
255
255
255
255
255
255
255
255
255
255
255
255
255
255
255
255
255
255
255
255
255
255
255
255
255
255
255
255
255
255
255
255
255
255
255
255
255
255
255
255
255
255
255
255
255
255
255
255
255
255
255
255
255
255
255
255
255
255
255
255
255
255
255
255
255
255
255
255
255
255
255
255
255
255
255
255
255
255
255
255
255
255
255
255
255
255
255
255
255
255
255
255
255
255
255
255
255
255
255
255
255
255
255
255
255
255
255
255
255
255
255
255
255
255
255
255
255
255
255
255
255
255
255
255
255
255
255
255
255
255
255
255
255
255
255
255
255
255
255
255
255
255
255
255
255
255
255
255
255
255
255
255
255
255
255
255
255
255
255
255
255
255
255
255
255
255
255
255
255
255
255
255
255
255
255
255
255
255
255
255
255
255
255
255
255
255
255
255
255
255
255
255
255
255
255
255
255
255
255
255
255
255
255
255
255
255
255
255
255
255
255
255
255
255
255
255
255
255
255
255
255
255
255
255
255
255
255
255
255
255
255
255
255
255
255
255
255
255
255
255
255
255
255
255
255
255
255
255
255
255
255
255
255
255
255
255
255
255
255
255
255
255
255
255
255
255
255
255
255
255
255
255
255
255
255
255
255
255
255
255
255
255
255
255
255
255
255
255
255
255
255
255
255
255
255
255
255
255
255
255
255
255
255
255
255
255
255
255
255
255
255
255
255
255
255
255
255
255
255
255
255
255
255
255
255
255
255
255
255
255
255
255
255
255
255
255
255
255
255
255
255
255
255
255
255
255
255
255
255
255
255
255
255
255
255
255
255
255
255
255
255
255
255
255
255
255
255
255
255
255
255
255
255
255
255
255
255
255
255
255
255
255
255
255
255
255
255
255
255
255
255
255
255
255
255
255
255
255
255
255
255
255
255
255
255
255
255
255
255
255
255
255
255
255
255
255
255
255
255
255
255
255
255
255
255
255
255
255
255
255
255
255
255
255
255
255
255
255
255
255
255
255
255
255
255
255
255
255
255
255
255
255
255
255
255
255
255
255
255
255
255
255
255
255
255
255
255
255
255
255
255
255
255
255
255
255
255
255
255
255
255
255
255
255
255
255
255
255
255
255
255
255
255
255
255
255
255
255
255
255
255
255
255
255
255
255
255
255
255
255
255
255
255
255
255
255
255
255
255
255
255
255
255
255
255
255
255
255
255
255
255
255
255
255
255
255
255
255
255
255
255
255
255
255
255
255
255
255
255
255
255
255
255
255
255
255
255
255
255
255
255
255
255
255
255
255
255
255
255
255
255
255
255
255
255
255
255
255
255
255
255
255
255
255
255
255
255
255
255
255
255
255
255
255
255
255
255
255
255
255
255
255
255
255
255
255
255
255
255
255
255
255
255
255
255
255
255
255
255
255
255
255
255
255
255
255
255
255
255
255
255
255
255
255
255
255
255
255
255
255
255
255
255
255
255
255
255
255
255
255
255
255
255
255
255
255
255
255
255
255
255
255
255
255
255
255
255
255
255
255
255
255
255
255
255
255
255
255
255
255
255
255
255
255
255
255
255
255
255
255
255
255
255
255
255
255
255
255
255
255
255
255
255
255
255
255
255
255
255
255
255
255
255
255
255
255
255
255
255
255
255
255
255
255
255
255
255
255
255
255
255
255
255
255
255
255
255
255
255
255
255
255
255
255
255
255
255
255
255
255
255
255
255
255
255
255
255
255
255
255
255
255
255
255
255
255
255
255
255
255
255
255
255
255
255
255
255
255
255
255
255
255
255
255
255
255
255
255
255
255
255
255
255
255
255
255
255
255
255
255
255
255
255
255
255
255
255
255
255
255
255
255
255
255
255
255
255
255
255
255
255
255
255
255
255
255
255
255
255
255
255
255
255
255
255
255
255
255
255
255
255
255
255
255
255
255
255
255
255
255
255
255
255
255
255
255
255
255
255
255
255
255
255
255
255
255
255
255
255
255
255
255
255
255
255
255
255
255
255
255
255
255
255
255
255
255
255
255
255
255
255
255
255
255
255
255
255
255
255
255
255
255
255
255
255
255
255
255
255
255
255
255
255
255
255
255
255
255
255
255
255
255
255
255
255
255
255
255
255
255
255
255
255
255
255
255
255
255
255
255
255
255
255
255
255
255
255
255
255
255
255
255
255
255
255
255
255
255
255
255
255
255
255
255
255
255
255
255
255
255
255
255
255
255
255
255
255
255
255
255
255
255
255
255
255
255
255
255
255
255
255
255
255
255
255
255
255
255
255
255
255
255
255
255
255
255
255
255
255
255
255
255
255
255
255
255
255
255
255
255
255
255
255
255
255
255
255
255
255
255
255
255
255
255
255
255
255
255
255
255
255
255
255
255
255
255
255
255
255
255
255
255
255
255
255
255
255
255
255
255
255
255
255
255
255
255
255
255
255
255
255
255
255
255
255
255
255
255
255
255
255
255
255
255
255
255
255
255
255
255
255
255
255
255
255
255
255
255
255
255
255
255
255
255
255
255
255
255
255
255
255
255
255
255
255
255
255
255
255
255
255
255
255
255
255
255
255
255
255
255
255
255
255
255
255
255
255
255
255
255
255
255
255
255
255
255
255
255
255
255
255
255
255
255
255
255
255
255
255
255
255
255
255
255
255
255
255
255
255
255
255
255
255
255
255
255
255
255
255
255
255
255
255
255
255
255
255
255
255
255
255
255
255
255
255
255
255
255
255
255
255
255
255
255
255
255
255
255
255
255
255
255
255
255
255
255
255
255
255
255
255
255
255
255
255
255
255
255
255
255
255
255
255
255
255
255
255
255
255
255
255
255
255
255
255
255
255
255
255
255
255
255
255
255
255
255
255
255
255
255
255
255
255
255
255
255
255
255
255
255
255
255
255
255
255
255
255
255
255
255
255
255
255
255
255
255
255
255
255
255
255
255
255
255
255
255
255
255
255
255
255
255
255
255
255
255
255
255
255
255
255
255
255
255
255
255
255
255
255
255
255
255
255
255
255
255
255
255
255
255
255
255
255
255
255
255
255
255
255
255
255
255
255
255
255
255
255
255
255
255
255
255
255
255
255
255
255
255
255
255
255
255
255
255
255
255
255
255
255
255
255
255
255
255
255
255
255
255
255
255
255
255
255
255
255
255
255
255
255
255
255
255
255
255
255
255
255
255
255
255
255
255
255
255
255
255
255
255
255
255
255
255
255
255
255
255
255
255
255
255
255
255
255
255
255
255
255
255
255
255
255
255
255
255
255
255
255
255
255
255
255
255
255
255
255
255
255
255
255
255
255
255
255
255
255
255
255
255
255
255
255
255
255
255
255
255
255
255
255
255
255
255
255
255
255
255
255
255
255
255
255
255
255
255
255
255
255
255
255
255
255
255
255
255
255
255
255
255
255
255
255
255
255
255
255
255
255
255
255
255
255
255
254
255
253
249
255
255
255
255
255
255
255
255
255
255
255
255
255
255
255
255
255
255
255
255
255
255
255
255
255
255
255
255
255
255
255
255
255
255
255
255
255
255
255
255
255
255
255
255
255
255
255
255
255
255
255
255
255
255
255
255
255
255
255
255
255
255
255
255
255
255
255
255
255
255
255
255
255
255
255
255
255
255
255
255
255
255
255
255
255
255
255
255
255
255
255
255
255
255
255
255
255
255
255
255
255
255
255
255
255
255
255
255
255
255
255
255
255
255
255
255
255
255
255
255
255
255
255
255
255
255
255
255
255
255
255
255
255
255
255
255
255
255
255
255
255
255
255
255
255
255
255
255
255
255
255
255
255
255
255
255
255
255
255
255
255
255
255
255
255
255
255
255
255
255
255
255
255
255
255
255
255
255
255
255
255
255
255
255
255
255
255
255
255
255
255
255
255
255
255
255
255
255
255
255
255
255
255
255
255
255
255
255
255
255
255
255
255
255
255
255
255
255
255
255
255
255
255
255
255
255
255
255
255
255
255
255
255
255
255
255
255
255
255
255
255
255
255
255
255
255
255
255
255
255
255
255
255
255
255
255
255
255
255
255
255
255
255
255
255
255
255
255
255
255
255
255
255
255
255
255
255
255
255
255
255
255
255
255
255
255
255
255
255
255
255
255
255
255
255
255
255
255
255
255
255
255
255
255
255
255
255
255
255
255
255
255
255
255
255
255
255
255
255
255
255
255
255
255
255
255
255
255
255
255
255
255
255
255
255
255
255
255
255
255
255
255
255
255
255
255
255
255
255
255
255
255
255
255
255
255
255
255
255
255
255
255
255
255
255
255
255
255
255
255
255
255
255
255
255
255
255
255
255
255
255
255
255
255
255
255
255
255
255
255
255
255
255
255
255
255
255
255
255
255
255
255
255
255
255
255
255
255
255
255
255
255
255
255
255
255
255
255
255
255
255
255
255
255
255
255
255
255
255
255
255
255
255
255
255
255
255
255
255
255
255
255
255
255
255
255
255
255
255
255
255
255
255
255
255
255
255
255
255
255
255
255
255
255
255
255
255
255
255
255
255
255
255
255
255
255
255
255
255
255
255
255
255
255
255
255
255
255
255
255
255
255
255
255
255
255
255
255
255
255
255
255
255
255
255
255
255
255
255
255
255
255
255
255
255
255
255
255
255
255
255
255
255
255
255
255
255
255
255
255
255
255
255
255
255
255
255
255
255
255
255
255
255
255
255
255
255
255
255
255
255
255
255
255
255
255
255
255
255
255
255
255
255
255
255
255
255
255
255
255
255
255
255
255
255
255
255
255
255
255
255
255
255
255
255
255
255
255
255
255
255
255
255
255
255
253
243
253
238
211
250
239
225
255
255
255
255
255
255
255
255
255
255
255
255
255
255
255
255
255
255
255
255
255
255
255
255
255
255
255
255
255
255
255
255
255
255
255
255
255
255
255
255
255
255
255
255
255
255
255
255
255
255
255
255
255
255
255
255
255
255
255
255
255
255
255
255
255
255
255
255
255
255
255
255
255
255
255
255
255
255
255
255
255
255
255
255
255
255
255
255
255
255
255
255
255
255
255
255
255
255
255
255
255
255
255
255
255
255
255
255
255
255
255
255
255
255
255
255
255
255
255
255
255
255
255
255
255
255
255
255
255
255
255
255
255
255
255
255
255
255
255
255
255
255
255
255
255
255
255
255
255
255
255
255
255
255
255
255
255
255
255
255
255
255
255
255
255
255
255
255
255
255
255
255
255
255
255
255
255
255
255
255
255
255
255
255
255
255
255
255
255
255
255
255
255
255
255
255
255
255
255
255
255
255
255
255
255
255
255
255
255
255
255
255
255
255
255
255
255
255
255
255
255
255
255
255
255
255
255
255
255
255
255
255
255
255
255
255
255
255
255
255
255
255
255
255
255
255
255
255
255
255
255
255
255
255
255
255
255
255
255
255
255
255
255
255
255
255
255
255
255
255
255
255
255
255
255
255
255
255
255
255
255
255
255
255
255
255
255
255
255
255
255
255
255
255
255
255
255
255
255
255
255
255
255
255
255
255
255
255
255
255
255
255
255
255
255
255
255
255
255
255
255
255
255
255
255
255
255
255
255
255
255
255
255
255
255
255
255
255
255
255
255
255
255
255
255
255
255
255
255
255
255
255
255
255
255
255
255
255
255
255
255
255
255
255
255
255
255
255
255
255
255
255
255
255
255
255
255
255
255
255
255
255
255
255
255
255
255
255
255
255
255
255
255
255
255
255
255
255
255
255
255
255
255
255
255
255
255
255
255
255
255
255
255
255
255
255
255
255
255
255
255
255
255
255
255
255
255
255
255
255
255
255
255
255
255
255
255
255
255
255
255
255
255
255
255
255
255
255
255
255
255
255
255
255
255
255
255
255
255
255
255
255
255
255
255
255
255
255
255
255
255
255
255
255
255
255
255
255
255
255
255
255
255
255
255
255
255
255
255
255
255
255
255
255
255
255
255
255
255
255
255
255
255
255
255
255
255
255
255
255
255
255
255
255
255
255
255
255
255
255
255
255
255
255
255
255
255
255
255
255
255
255
255
255
255
255
255
255
255
255
255
255
255
255
255
255
255
255
255
255
255
255
255
255
255
255
255
255
255
255
255
255
255
255
255
255
255
255
255
255
255
255
255
255
255
255
255
255
255
255
255
255
255
255
255
255
255
255
255
255
252
250
237
220
209
185
163
209
183
165
253
247
236
255
255
255
255
255
255
255
255
255
255
255
255
255
255
255
255
255
255
255
255
255
255
255
255
255
255
255
255
255
255
255
255
255
255
255
255
255
255
255
255
255
255
255
255
255
255
255
255
255
255
255
255
255
255
255
255
255
255
255
255
255
255
255
255
255
255
255
255
255
255
255
255
255
255
255
255
255
255
255
255
255
255
255
255
255
255
255
255
255
255
255
255
255
255
255
255
255
255
255
255
255
255
255
255
255
255
255
255
255
255
255
255
255
255
255
255
255
255
255
255
255
255
255
255
255
255
255
255
255
255
255
255
255
255
255
255
255
255
255
255
255
255
255
255
255
255
255
255
255
255
255
255
255
255
255
255
255
255
255
255
255
255
255
255
255
255
255
255
255
255
255
255
255
255
255
255
255
255
255
255
255
255
255
255
255
255
255
255
255
255
255
255
255
255
255
255
255
255
255
255
255
255
255
255
255
255
255
255
255
255
255
255
255
255
255
255
255
255
255
255
255
255
255
255
255
255
255
255
255
255
255
255
255
255
255
255
255
255
255
255
255
255
255
255
255
255
255
255
255
255
255
255
255
255
255
255
255
255
255
255
255
255
255
255
255
255
255
255
255
255
255
255
255
255
255
255
255
255
255
255
255
255
255
255
255
255
255
255
255
255
255
255
255
255
255
255
255
255
255
255
255
255
255
255
255
255
255
255
255
255
255
255
255
255
255
255
255
255
255
255
255
255
255
255
255
255
255
255
255
255
255
255
255
255
255
255
255
255
255
255
255
255
255
255
255
255
255
255
255
255
255
255
255
255
255
255
255
255
255
255
255
255
255
255
255
255
255
255
255
255
255
255
255
255
255
255
255
255
255
255
255
255
255
255
255
255
255
255
255
255
255
255
255
255
255
255
255
255
255
255
255
255
255
255
255
255
255
255
255
255
255
255
255
255
255
255
255
255
255
255
255
255
255
255
255
255
255
255
255
255
255
255
255
255
255
255
255
255
255
255
255
255
255
255
255
255
255
255
255
255
255
255
255
255
255
255
255
255
255
255
255
255
255
255
255
255
255
255
255
255
255
255
255
255
255
255
255
255
255
255
255
255
255
255
255
255
255
255
255
255
255
255
255
255
255
255
255
255
255
255
255
255
255
255
255
255
255
255
255
255
255
255
255
255
255
255
255
255
255
255
255
255
255
255
255
255
255
255
255
255
255
255
255
255
255
255
255
255
255
255
255
255
255
255
255
255
255
255
255
255
255
255
255
255
255
255
255
255
255
255
255
255
255
255
255
255
255
255
255
255
255
255
255
255
255
255
255
255
255
255
255
255
254
254
254
223
217
212
183
172
162
166
150
138
168
152
140
222
205
185
255
253
250
255
255
255
255
255
255
255
255
255
255
255
255
255
255
255
255
255
255
255
255
255
255
255
255
255
255
255
255
255
255
250
249
243
250
249
244
255
255
255
255
255
255
255
255
255
255
255
255
255
255
255
255
255
255
255
255
255
255
255
255
255
255
255
255
255
255
255
255
255
255
255
255
255
255
255
255
255
255
255
255
255
255
255
255
255
255
255
255
255
255
255
255
255
255
255
255
255
255
255
255
255
255
255
255
255
255
255
255
255
255
255
255
255
255
255
255
255
255
255
255
255
255
255
255
255
255
255
255
255
255
255
255
255
255
255
255
255
255
255
255
255
255
255
255
255
255
255
255
255
255
255
255
255
255
255
255
255
255
255
255
255
255
255
255
255
255
255
255
255
255
255
255
255
255
255
255
255
255
255
255
255
255
255
255
255
255
255
255
255
255
255
255
255
255
255
255
255
255
255
255
255
255
255
255
255
255
255
255
255
255
255
255
255
255
255
255
255
255
255
255
255
255
255
255
255
255
255
255
255
255
255
255
255
255
255
255
255
255
255
255
255
255
255
255
255
255
255
255
255
255
255
255
255
255
255
255
255
255
255
255
255
255
255
255
255
255
255
255
255
255
255
255
255
255
255
255
255
255
255
255
255
255
255
255
255
255
255
255
255
255
255
255
255
255
255
255
255
255
255
255
255
255
255
255
255
255
255
255
255
255
255
255
255
255
255
255
255
255
255
255
255
255
255
255
255
255
255
255
255
255
255
255
255
255
255
255
255
255
255
255
255
255
255
255
255
255
255
255
255
255
255
255
255
255
255
255
255
255
255
255
255
255
255
255
255
255
255
255
255
255
255
255
255
255
255
255
255
255
255
255
255
255
255
255
255
255
255
255
255
255
255
255
255
255
255
255
255
255
255
255
255
255
255
255
255
255
255
255
255
255
255
255
255
255
255
255
255
255
255
255
255
255
255
255
255
255
255
255
255
255
255
255
255
255
255
255
255
255
255
255
255
255
255
255
255
255
255
255
255
255
255
255
255
255
255
255
255
255
255
255
255
255
255
255
255
255
255
255
255
255
255
255
255
255
255
255
255
255
255
255
255
255
255
255
255
255
255
255
255
255
255
255
255
255
255
255
255
255
255
255
255
255
255
255
255
255
255
255
255
255
255
255
255
255
255
255
255
255
255
255
255
255
255
255
255
255
255
255
255
255
255
255
255
255
255
255
255
255
255
255
255
255
255
255
255
255
255
255
255
255
255
255
255
255
255
255
255
255
255
255
255
255
255
255
255
255
255
255
255
255
255
255
255
255
255
255
253
251
247
185
179
172
66
60
57
174
176
179
146
150
154
79
73
67
123
109
97
240
231
218
255
255
255
255
255
255
255
255
255
255
255
255
255
255
255
255
255
255
255
255
255
255
255
255
255
255
255
255
255
255
255
255
255
255
255
255
255
255
255
255
255
255
255
255
255
255
255
255
255
255
255
255
255
255
255
255
255
255
255
255
255
255
255
255
255
255
255
255
255
255
255
255
255
255
255
255
255
255
255
255
255
255
255
255
255
255
255
255
255
255
255
255
255
255
255
255
255
255
255
255
255
255
255
255
255
255
255
255
255
255
255
255
255
255
255
255
255
255
255
255
255
255
255
255
255
255
255
255
255
255
255
255
255
255
255
255
255
255
255
255
255
255
255
255
255
255
255
255
255
255
255
255
255
255
255
255
255
255
255
255
255
255
255
255
255
255
255
255
255
255
255
255
255
255
255
255
255
255
255
255
255
255
255
255
255
255
255
255
255
255
255
255
255
255
255
255
255
255
255
255
255
255
255
255
255
255
255
255
255
255
255
255
255
255
255
255
255
255
255
255
255
255
255
255
255
255
255
255
255
255
255
255
255
255
255
255
255
255
255
255
255
255
255
255
255
255
255
255
255
255
255
255
255
255
255
255
255
255
255
255
255
255
255
255
255
255
255
255
255
255
255
255
255
255
255
255
255
255
255
255
255
255
255
255
255
255
255
255
255
255
255
255
255
255
255
255
255
255
255
255
255
255
255
255
255
255
255
255
255
255
255
255
255
255
255
255
255
255
255
255
255
255
255
255
255
255
255
255
255
255
255
255
255
255
255
255
255
255
255
255
255
255
255
255
255
255
255
255
255
255
255
255
255
255
255
255
255
255
255
255
255
255
255
255
255
255
255
255
255
255
255
255
255
255
255
255
255
255
255
255
255
255
255
255
255
255
255
255
255
255
255
255
255
255
255
255
255
255
255
255
255
255
255
255
255
255
255
255
255
255
255
255
255
255
255
255
255
255
255
255
255
255
255
255
255
255
255
255
255
255
255
255
255
255
255
255
255
255
255
255
255
255
255
255
255
255
255
255
255
255
255
255
255
255
255
255
255
255
255
255
255
255
255
255
255
255
255
255
255
255
255
255
255
255
255
255
255
255
255
255
255
255
255
255
255
255
255
255
255
255
255
255
255
255
255
255
255
255
255
255
255
255
255
255
255
255
255
255
255
255
255
255
255
255
255
255
255
255
255
255
255
255
255
255
255
255
255
255
255
255
255
255
255
255
255
255
254
255
255
252
255
255
255
255
255
255
255
255
255
255
255
255
255
255
255
255
255
255
255
255
255
255
255
255
255
255
251
255
255
255
255
255
255
251
247
241
190
173
157
60
59
58
95
95
95
110
115
120
147
150
154
56
56
57
121
107
97
242
236
223
255
255
255
255
255
255
255
255
255
255
255
255
255
255
255
255
255
255
255
255
255
255
255
255
255
255
255
255
255
255
255
255
255
255
255
255
255
255
255
255
255
255
255
255
255
255
255
255
255
255
255
255
255
255
255
255
255
255
255
255
255
255
255
255
255
255
255
255
255
255
255
255
255
255
255
255
255
255
255
255
255
255
255
255
255
255
255
255
255
255
255
255
255
255
255
255
255
255
255
255
255
255
255
255
255
255
255
255
255
255
255
255
255
255
255
255
255
255
255
255
255
255
255
255
255
255
255
255
255
255
255
255
255
255
255
255
255
255
255
255
255
255
255
255
255
255
255
255
255
255
255
255
255
255
255
255
255
255
255
255
255
255
255
255
255
255
255
255
255
255
255
255
255
255
255
255
255
255
255
255
255
255
255
255
255
255
255
255
255
255
255
255
255
255
255
255
255
255
255
255
255
255
255
255
255
255
255
255
255
255
255
255
255
255
255
255
255
255
255
255
255
255
255
255
255
255
255
255
255
255
255
255
255
255
255
255
255
255
255
255
255
255
255
255
255
255
255
255
255
255
255
255
255
255
255
255
255
255
255
255
255
255
255
255
255
255
255
255
255
255
255
255
255
255
255
255
255
255
255
255
255
255
255
255
255
255
255
255
255
255
255
255
255
255
255
255
255
255
255
255
255
255
255
255
255
255
255
255
255
255
255
255
255
255
255
255
255
255
255
255
255
255
255
255
255
255
255
255
255
255
255
255
255
255
255
255
255
255
255
255
255
255
255
255
255
255
255
255
255
255
255
255
255
255
255
255
255
255
255
255
255
255
255
255
255
255
255
255
255
255
255
255
255
255
255
255
255
255
255
255
255
255
255
255
255
255
255
255
255
255
255
255
255
255
255
255
255
255
255
255
255
255
255
255
255
255
255
255
255
255
255
255
255
255
255
255
255
255
255
255
255
255
255
255
255
255
255
255
255
255
255
255
255
255
255
255
255
255
255
255
255
255
255
255
255
255
255
255
255
255
255
255
255
255
255
255
255
255
255
255
255
255
255
255
255
255
255
255
255
255
255
255
255
255
255
255
255
255
255
255
255
255
255
255
255
255
255
255
255
255
255
255
255
255
255
255
255
255
255
255
255
255
255
255
255
255
255
255
255
255
255
255
255
255
255
255
255
255
255
255
255
255
255
255
255
255
255
255
255
255
254
255
255
239
255
252
215
252
245
223
255
255
255
255
255
255
255
255
255
255
255
255
255
255
255
255
255
255
255
255
255
255
255
248
255
255
250
255
255
253
253
250
239
187
170
152
126
124
124
122
128
132
84
86
88
87
82
77
130
122
115
164
155
143
229
211
192
252
248
238
255
255
255
255
255
255
255
255
255
255
255
255
255
255
255
255
255
255
255
255
255
255
255
255
255
255
255
255
255
255
255
255
255
255
255
255
255
255
255
255
255
255
255
255
255
255
255
255
255
255
255
255
255
255
255
255
255
255
255
255
255
255
255
255
255
255
255
255
255
255
255
255
255
255
255
255
255
255
255
255
255
255
255
255
255
255
255
255
255
255
255
255
255
255
255
255
255
255
255
255
255
255
255
255
255
255
255
255
255
255
255
255
255
255
255
255
255
255
255
255
255
255
255
255
255
255
255
255
255
255
255
255
255
255
255
255
255
255
255
255
255
255
255
255
255
255
255
255
255
255
255
255
255
255
255
255
255
255
255
255
255
255
255
255
255
255
255
255
255
255
255
255
255
255
255
255
255
255
255
255
255
255
255
255
255
255
255
255
255
255
255
255
255
255
255
255
255
255
255
255
255
255
255
255
255
255
255
255
255
255
255
255
255
255
255
255
255
255
255
255
255
255
255
255
255
255
255
255
255
255
255
255
255
255
255
255
255
255
255
255
255
255
255
255
255
255
255
255
255
255
255
255
255
255
255
255
255
255
255
255
255
255
255
255
255
255
255
255
255
255
255
255
255
255
255
255
255
255
255
255
255
255
255
255
255
255
255
255
255
255
255
255
255
255
255
255
255
255
255
255
255
255
255
255
255
255
255
255
255
255
255
255
255
255
255
255
255
255
255
255
255
255
255
255
255
255
255
255
255
255
255
255
255
255
255
255
255
255
255
255
255
255
255
255
255
255
255
255
255
255
255
255
255
255
255
255
255
255
255
255
255
255
255
255
255
255
255
255
255
255
255
255
255
255
255
255
255
255
255
255
255
255
255
255
255
255
255
255
255
255
255
255
255
255
255
255
255
255
255
255
255
255
255
255
255
255
255
255
255
255
255
255
255
255
255
255
255
255
255
255
255
255
255
255
255
255
255
255
255
255
255
255
255
255
255
255
255
255
255
255
255
255
255
255
255
255
255
255
255
255
255
255
255
255
255
255
255
255
255
255
255
255
255
255
255
255
255
255
255
255
255
255
255
255
255
255
255
255
255
255
255
255
255
255
255
255
255
255
255
255
255
255
255
255
255
255
255
255
255
255
255
255
255
255
255
255
255
255
255
255
255
255
255
255
255
255
255
255
255
255
255
255
255
255
255
255
255
246
255
255
241
255
255
246
255
244
210
248
220
192
255
255
254
255
255
255
255
255
255
255
255
255
255
255
255
255
255
254
255
255
242
255
255
231
255
255
248
255
251
237
219
199
179
117
103
91
136
127
119
184
173
164
201
198
186
223
219
208
245
243
237
255
255
252
255
255
251
255
255
253
255
255
255
255
255
255
255
255
255
255
255
255
255
255
255
255
255
255
255
255
255
255
255
255
255
255
255
255
255
255
247
244
242
226
221
218
220
221
221
237
238
237
250
250
251
247
247
247
241
242
243
254
254
254
255
255
255
255
255
255
255
255
255
255
255
255
255
255
255
255
255
255
255
255
255
255
255
255
255
255
255
255
255
255
255
255
255
255
255
255
255
255
255
255
255
255
255
255
255
255
255
255
255
255
255
255
255
255
255
255
255
255
255
255
255
255
255
255
255
255
255
255
255
255
255
255
255
255
255
255
255
255
255
255
255
255
255
255
255
255
255
255
255
255
255
255
255
255
255
255
255
255
255
255
255
255
255
255
255
255
255
255
255
255
255
255
255
255
255
255
255
255
255
255
255
255
255
255
255
255
255
255
255
255
255
255
255
255
255
255
255
255
255
255
255
255
255
255
255
255
255
255
255
255
255
255
255
255
255
255
255
255
255
255
255
255
255
255
255
255
255
255
255
255
255
255
255
255
255
255
255
255
255
255
255
255
255
255
255
255
255
255
255
255
255
255
255
255
255
255
255
255
255
255
255
255
255
255
255
255
255
255
255
255
255
255
255
255
255
255
255
255
255
255
255
255
255
255
255
255
255
255
255
255
255
255
255
255
255
255
255
255
255
255
255
255
255
255
255
255
255
255
255
255
255
255
255
255
255
255
255
255
255
255
255
255
255
255
255
255
255
255
255
255
255
255
255
255
255
255
255
255
255
255
255
255
255
255
255
255
255
255
255
255
255
255
255
255
255
255
255
255
255
255
255
255
255
255
255
255
255
255
255
255
255
255
255
255
255
255
255
255
255
255
255
255
255
255
255
255
255
255
255
255
255
255
255
255
255
255
255
255
255
255
255
255
255
255
255
255
255
255
255
255
255
255
255
255
255
255
255
255
255
255
255
255
255
255
255
255
255
255
255
255
255
255
255
255
255
255
255
255
255
255
255
255
255
255
255
255
255
255
255
255
255
255
255
255
255
255
255
255
255
255
255
255
255
255
255
255
255
255
255
255
255
255
255
255
255
255
255
255
255
255
255
255
255
255
255
255
255
255
255
255
255
255
255
255
255
255
255
255
255
255
255
255
255
255
255
255
255
255
255
255
255
255
255
255
255
255
255
255
255
255
255
255
255
255
255
255
255
255
255
255
252
255
253
221
255
243
199
255
237
203
254
234
197
241
212
183
255
255
254
255
255
245
255
255
254
255
255
255
255
255
252
255
255
247
255
253
227
255
249
219
252
238
204
233
203
170
220
193
168
224
215
195
243
235
223
254
249
238
255
255
247
255
255
254
255
255
255
255
255
255
255
255
255
255
255
255
255
255
255
255
255
255
255
255
255
255
255
255
255
255
255
255
255
255
255
255
255
255
255
255
255
255
255
251
251
246
177
172
167
131
129
127
114
114
112
106
106
104
103
102
101
118
118
116
121
120
119
172
172
166
253
253
251
255
255
255
255
255
255
255
255
255
255
255
255
255
255
255
255
255
255
255
255
255
255
255
255
255
255
255
255
255
255
255
255
255
255
255
255
255
255
255
255
255
255
255
255
255
255
255
255
255
255
255
255
255
255
255
255
255
255
255
255
255
255
255
255
255
255
255
255
255
255
255
255
255
255
255
255
255
255
255
255
255
255
255
255
255
255
255
255
255
255
255
255
255
255
255
255
255
255
255
255
255
255
255
255
255
255
255
255
255
255
255
255
255
255
255
255
255
255
255
255
255
255
255
255
255
255
255
255
255
255
255
255
255
255
255
255
255
255
255
255
255
255
255
255
255
255
255
255
255
255
255
255
255
255
255
255
255
255
255
255
255
255
255
255
255
255
255
255
255
255
255
255
255
255
255
255
255
255
255
255
255
255
255
255
255
255
255
255
255
255
255
255
255
255
255
255
255
255
255
255
255
255
255
255
255
255
255
255
255
255
255
255
255
255
255
255
255
255
255
255
255
254
255
255
254
255
255
255
255
255
255
255
255
255
255
255
255
255
255
255
255
255
255
255
255
255
255
255
255
255
255
255
255
255
255
255
255
255
255
255
255
255
255
255
255
255
255
255
255
255
255
255
255
255
255
255
255
255
255
255
255
255
255
255
255
255
255
255
255
255
255
255
255
255
255
255
255
255
255
255
255
255
255
255
255
255
255
255
255
255
255
255
255
255
255
255
255
255
255
255
255
255
255
255
255
255
255
255
255
255
255
255
255
255
255
255
255
255
255
255
255
255
255
255
255
255
255
255
255
255
255
255
255
255
255
255
255
255
255
255
255
255
255
255
255
255
255
255
255
255
255
255
255
255
255
255
255
255
255
255
255
255
255
255
255
255
255
255
255
255
255
255
255
255
255
255
255
255
255
255
255
255
255
255
255
255
255
255
255
255
255
255
255
255
255
255
255
255
255
255
255
255
255
255
255
255
255
255
255
255
255
255
255
255
255
255
255
255
255
255
255
255
255
255
255
255
255
255
255
255
255
255
255
255
255
255
255
255
255
255
255
255
255
255
255
255
255
237
255
251
205
255
235
194
254
232
200
251
227
195
240
215
187
255
255
251
255
255
255
255
255
255
255
255
251
255
250
225
252
232
197
242
213
175
236
206
168
240
209
174
250
223
188
255
245
212
255
255
246
255
255
255
255
255
255
255
255
254
255
255
253
255
255
255
255
255
255
255
255
255
255
255
255
255
255
255
255
255
255
255
255
255
255
255
255
255
255
255
255
255
255
255
255
255
255
255
251
247
241
227
189
184
173
91
90
88
75
74
70
46
45
41
28
28
24
34
34
30
57
58
54
50
51
45
49
48
41
229
229
222
255
255
255
255
255
255
255
255
255
255
255
255
255
255
255
255
255
255
255
255
255
255
255
255
255
255
255
255
255
255
255
255
255
255
255
255
255
255
255
255
255
255
255
255
255
255
255
255
255
255
255
255
255
255
255
255
255
255
255
255
255
255
255
255
255
255
255
255
255
255
255
255
255
255
255
255
255
255
255
255
255
255
255
255
255
255
255
255
255
255
255
255
255
255
255
255
255
255
255
255
255
255
255
255
255
255
255
255
255
255
255
255
255
255
255
255
255
255
255
255
255
255
255
255
255
255
255
255
255
255
255
255
255
255
255
255
255
255
255
255
255
255
255
255
255
255
255
255
255
255
255
255
255
255
255
255
255
255
255
255
255
255
255
255
255
255
255
255
255
255
255
255
255
255
255
255
255
255
255
255
255
255
255
255
255
255
255
255
255
255
255
255
255
255
255
255
255
255
255
255
255
255
255
255
255
255
255
255
255
255
255
255
255
255
255
255
255
255
253
255
255
253
255
255
252
255
255
255
255
255
255
255
255
255
255
255
255
255
255
255
255
255
255
255
255
255
255
255
255
255
255
255
255
255
255
255
255
255
255
255
255
255
255
255
255
255
255
255
255
255
255
255
255
255
255
255
255
255
255
255
255
255
255
255
255
255
255
255
255
255
255
255
255
255
255
255
255
255
255
255
255
255
255
255
255
255
255
255
255
255
255
255
255
255
255
255
255
255
255
255
255
255
255
255
255
255
255
255
255
255
255
255
255
255
255
255
255
255
255
255
255
255
255
255
255
255
255
255
255
255
255
255
255
255
255
255
255
255
255
255
255
255
255
255
255
255
255
255
255
255
255
255
255
255
255
255
255
255
255
255
255
255
255
255
255
255
255
255
255
255
255
255
255
255
255
255
255
255
255
255
255
255
255
255
255
255
255
255
255
255
255
255
255
255
255
255
255
255
255
255
255
255
255
255
255
255
255
255
255
255
255
255
255
255
255
255
255
255
255
255
255
255
255
255
255
255
255
255
255
255
255
255
255
255
255
255
255
255
255
255
255
255
255
255
249
255
249
207
255
230
185
245
211
175
216
185
158
211
184
158
246
233
218
255
255
255
255
255
255
255
254
245
254
243
209
244
218
179
239
210
173
245
221
187
254
242
212
253
244
219
255
245
219
255
251
222
255
255
239
255
255
244
255
250
233
255
253
238
255
255
252
255
255
255
255
255
255
255
255
255
255
255
255
255
255
253
255
255
255
255
255
254
255
255
255
255
255
255
255
255
255
255
255
254
255
252
233
197
181
163
89
86
78
59
57
52
42
42
37
30
30
24
18
19
13
25
26
20
41
42
36
48
50
48
66
66
62
246
245
243
255
255
255
255
255
255
255
255
255
255
255
255
255
255
255
255
255
255
255
255
255
255
255
255
255
255
255
255
255
255
255
255
255
255
255
255
255
255
255
255
255
255
255
255
255
255
255
255
255
255
255
255
255
255
255
255
255
255
255
255
255
255
255
255
255
255
255
255
255
255
255
255
255
255
255
255
255
255
255
255
255
255
255
255
255
255
255
255
255
255
255
255
255
255
255
255
255
255
255
255
255
255
255
255
255
255
255
255
255
255
255
255
255
255
255
255
255
255
255
255
255
255
255
255
255
255
255
255
255
255
255
255
255
255
255
255
255
255
255
255
255
255
255
255
255
255
255
255
255
255
255
255
255
255
255
255
255
255
255
255
255
255
255
255
255
255
255
255
255
255
255
255
255
255
255
255
255
255
255
255
255
255
255
255
255
255
255
255
255
255
255
255
255
255
255
255
255
255
255
255
255
255
255
255
255
255
255
255
255
255
255
255
255
255
255
255
255
255
254
255
255
253
255
255
252
255
255
253
255
255
255
255
255
255
255
255
255
255
255
255
255
255
255
255
255
255
255
255
255
255
255
255
255
255
255
255
255
255
255
255
255
255
255
255
255
255
255
255
255
255
255
255
255
255
255
255
255
255
255
255
255
255
255
255
255
255
255
255
255
255
255
255
255
255
255
255
255
255
255
255
255
255
255
255
255
255
255
255
255
255
255
255
255
255
255
255
255
255
255
255
255
255
255
255
255
255
255
255
255
255
255
255
255
255
255
255
255
255
255
255
255
255
255
255
255
255
255
255
255
255
255
255
255
255
255
255
255
255
255
255
255
255
255
255
255
255
255
255
255
255
255
255
255
255
255
255
255
255
255
255
255
255
255
255
255
255
255
255
255
255
255
255
255
255
255
255
255
255
255
255
255
255
255
255
255
255
255
255
255
255
255
255
255
255
255
255
255
255
255
255
255
255
255
255
255
255
255
255
255
255
255
255
255
255
255
255
255
255
255
255
255
255
255
255
255
255
255
255
255
255
255
255
255
255
255
254
255
255
246
255
255
254
255
255
240
254
237
195
244
208
170
217
183
154
187
157
137
200
178
156
255
252
247
255
255
245
255
252
222
255
245
208
254
233
195
252
237
203
255
250
227
255
254
246
255
255
248
255
255
250
255
255
251
255
255
253
255
255
252
255
255
254
255
254
248
255
254
249
255
255
255
255
255
255
255
255
255
255
255
255
255
255
251
255
255
245
255
255
253
255
255
254
255
255
255
255
255
255
255
255
253
255
255
254
255
255
246
252
251
246
178
176
168
73
73
70
39
40
39
28
28
28
30
31
28
35
36
31
33
34
27
54
55
50
185
185
180
249
250
249
255
255
255
255
255
255
255
255
255
255
255
255
255
255
255
255
255
255
255
255
255
255
255
255
255
255
255
255
255
255
255
255
255
255
255
255
255
255
255
255
255
255
255
255
255
255
255
255
255
255
255
255
255
255
255
255
255
255
255
255
255
255
255
255
255
255
255
255
255
255
255
255
255
255
255
255
255
255
255
255
255
255
255
255
255
255
255
255
255
255
255
255
255
255
255
255
255
255
255
255
255
255
255
255
255
255
255
255
255
255
255
255
255
255
255
255
255
255
255
255
255
255
255
255
255
255
255
255
255
255
255
255
255
255
255
255
255
255
255
255
255
255
255
255
255
255
255
255
255
255
255
255
255
255
255
255
255
255
255
255
255
255
255
255
255
255
255
255
255
255
255
255
255
255
255
255
255
255
255
255
255
255
255
255
255
255
255
255
255
255
255
255
255
255
255
255
255
255
255
255
255
255
255
255
255
255
255
255
255
255
255
255
255
255
255
255
255
255
255
255
255
255
255
255
254
255
255
254
255
255
255
255
255
255
255
255
255
255
255
255
255
255
255
255
255
255
255
255
255
255
255
255
255
255
255
255
255
255
255
255
255
255
255
255
255
255
255
255
255
255
255
255
255
255
255
255
255
255
255
255
255
255
255
255
255
255
255
255
255
255
255
255
255
255
255
255
255
255
255
255
255
255
255
255
255
255
255
255
255
255
255
255
255
255
255
255
255
255
255
255
255
255
255
255
255
255
255
255
255
255
255
255
255
255
255
255
255
255
255
255
255
255
255
255
255
255
255
255
255
255
255
255
255
255
255
255
255
255
255
255
255
255
255
255
255
255
255
255
255
255
255
255
255
255
255
255
255
255
255
255
255
255
255
255
255
255
255
255
255
255
255
255
255
255
255
255
255
255
255
255
255
255
255
255
255
255
255
255
255
255
255
255
255
255
255
255
255
255
255
255
255
255
255
255
255
255
255
255
255
255
255
255
255
255
255
255
255
255
255
255
255
255
255
255
255
255
255
255
255
255
255
255
255
255
255
245
255
255
235
255
255
247
255
250
221
252
214
174
219
182
150
165
133
109
161
134
115
235
223
206
255
255
248
255
254
226
255
254
223
255
252
220
255
248
213
255
252
226
255
255
249
255
255
253
255
255
255
255
255
255
255
255
254
255
255
254
255
255
255
255
255
255
255
255
255
255
255
255
255
255
255
255
255
255
255
255
255
255
255
251
255
255
243
255
255
249
255
255
253
255
255
255
255
255
255
255
255
253
255
255
251
255
255
251
255
255
246
255
254
249
241
239
232
159
155
152
67
67
67
56
56
55
50
50
48
33
34
28
32
33
26
34
36
27
98
99
92
253
253
253
255
255
255
255
255
255
255
255
255
255
255
255
255
255
255
255
255
255
255
255
255
255
255
255
255
255
255
255
255
255
255
255
255
255
255
255
255
255
255
255
255
255
255
255
255
255
255
255
255
255
255
255
255
255
255
255
255
255
255
255
255
255
255
255
255
255
255
255
255
255
255
255
255
255
255
255
255
255
255
255
255
255
255
255
255
255
255
255
255
255
255
255
255
255
255
255
255
255
255
255
255
255
255
255
255
255
255
255
255
255
255
255
255
255
255
255
255
255
255
255
255
255
255
255
255
255
255
255
255
255
255
255
255
255
255
255
255
255
255
255
255
255
255
255
255
255
255
255
255
255
255
255
255
255
255
255
255
255
255
255
255
255
255
255
255
255
255
255
255
255
255
255
255
255
255
255
255
255
255
255
255
255
255
255
255
255
255
255
255
255
255
255
255
255
255
255
255
255
255
255
255
255
255
255
255
255
255
255
255
255
255
255
255
255
255
255
255
255
255
255
255
255
255
255
255
255
255
255
255
255
255
255
255
255
255
255
255
255
255
255
255
255
255
255
255
255
255
255
255
255
255
255
255
255
255
255
255
255
255
255
255
255
255
255
255
255
255
255
255
255
255
255
255
255
255
255
255
255
255
255
255
255
255
255
255
255
255
255
255
255
255
255
255
255
255
255
255
255
255
255
255
255
255
255
255
255
255
255
255
255
255
255
255
255
255
255
255
255
255
255
255
255
255
255
255
255
255
255
255
255
255
255
255
255
255
255
255
255
255
255
255
255
255
255
255
255
255
255
255
255
255
255
255
255
255
255
255
255
255
255
255
255
255
255
255
255
255
255
255
255
255
255
255
255
255
255
255
255
255
255
255
255
255
255
255
255
255
255
255
255
255
255
255
255
255
255
255
255
255
255
255
255
255
255
255
255
255
255
255
255
255
255
255
255
255
255
255
255
255
255
255
255
255
255
255
255
255
255
255
255
255
255
255
255
255
255
255
255
255
255
255
255
255
255
255
255
255
255
255
255
255
255
250
255
253
233
255
252
223
255
255
237
255
245
210
224
182
147
165
131
107
151
122
102
195
172
152
251
250
245
255
255
246
255
255
241
255
255
230
255
253
220
255
255
232
255
255
247
255
255
255
255
255
255
255
255
255
255
255
255
255
255
255
255
255
255
255
255
255
255
255
255
255
255
255
255
255
255
255
255
255
255
255
255
255
255
251
255
255
242
255
255
250
255
255
253
255
255
254
255
255
246
255
253
232
255
255
242
255
251
232
255
244
217
255
252
234
253
251
241
229
219
202
168
162
155
102
100
94
77
77
72
46
47
42
35
36
31
33
34
28
47
49
41
146
144
139
254
254
254
255
255
255
255
255
255
255
255
255
255
255
255
255
255
255
255
255
255
255
255
255
255
255
255
255
255
255
255
255
255
255
255
255
255
255
255
255
255
255
255
255
255
255
255
255
255
255
255
255
255
255
255
255
255
255
255
255
255
255
255
255
255
255
255
255
255
255
255
255
255
255
255
255
255
255
255
255
255
255
255
255
255
255
255
255
255
255
255
255
255
255
255
255
255
255
255
255
255
255
255
255
255
255
255
255
255
255
255
255
255
255
255
255
255
255
255
255
255
255
255
255
255
255
255
255
255
255
255
255
255
255
255
255
255
255
255
255
255
255
255
255
255
255
255
255
255
255
255
255
255
255
255
255
255
255
255
255
255
255
255
255
255
255
255
255
255
255
255
255
255
255
255
255
255
255
255
255
255
255
255
255
255
255
255
255
255
255
255
255
255
255
255
255
255
255
255
255
255
255
255
255
255
255
255
255
255
255
255
255
255
255
255
255
255
255
255
255
255
255
255
255
255
255
255
255
255
255
255
255
255
255
255
255
255
255
255
255
255
255
255
255
255
255
255
255
255
255
255
255
255
255
255
255
255
255
255
255
255
255
255
255
255
255
255
255
255
255
255
255
255
255
255
255
255
255
255
255
255
255
255
255
255
255
255
255
255
255
255
255
255
255
255
255
255
255
255
255
255
255
255
255
255
255
255
255
255
255
255
255
255
255
255
255
255
255
255
255
255
255
255
255
255
255
255
255
255
255
255
255
255
255
255
255
255
255
255
255
255
255
255
255
255
255
255
255
255
255
255
255
255
255
255
255
255
255
255
255
255
255
255
255
255
255
255
255
255
255
255
255
255
255
255
255
255
255
255
255
255
255
255
255
255
255
255
255
255
255
255
255
255
255
255
255
255
255
255
255
255
255
255
255
255
255
255
255
255
255
255
255
255
255
255
255
255
255
255
255
255
255
255
255
255
255
255
255
255
255
255
255
255
255
255
255
255
255
255
255
255
255
255
255
255
255
255
255
255
255
255
255
255
255
255
242
254
240
210
255
248
221
255
255
244
245
217
179
200
160
129
166
135
113
165
140
121
223
210
192
255
255
252
255
255
236
255
252
221
255
253
217
255
255
230
255
255
243
255
255
255
255
255
255
255
255
255
255
255
254
255
255
254
255
255
255
255
255
255
255
255
255
255
255
255
255
255
255
255
255
255
255
255
254
255
255
253
255
252
239
255
251
228
255
255
252
255
255
250
255
253
242
255
255
228
255
254
234
252
245
223
251
235
209
243
224
199
242
227
203
242
226
203
226
212
195
161
152
141
105
101
93
78
76
71
79
79
74
93
94
88
48
49
44
89
89
84
199
196
191
254
254
253
255
255
255
255
255
255
255
255
255
255
255
255
255
255
255
255
255
255
255
255
255
255
255
255
255
255
255
255
255
255
255
255
255
255
255
255
255
255
255
255
255
255
255
255
255
255
255
255
255
255
255
255
255
255
255
255
255
255
255
255
255
255
255
255
255
255
255
255
255
255
255
255
255
255
255
255
255
255
255
255
255
255
255
255
255
255
255
255
255
255
255
255
255
255
255
255
255
255
255
255
255
255
255
255
255
255
255
255
255
255
255
255
255
255
255
255
255
255
255
255
255
255
255
255
255
255
255
255
255
255
255
255
255
255
255
255
255
255
255
255
255
255
255
255
255
255
255
255
255
255
255
255
255
255
255
255
255
255
255
255
255
255
255
255
255
255
255
255
255
255
255
255
255
255
255
255
255
255
255
255
255
255
255
255
255
255
255
255
255
255
255
255
255
255
255
255
255
255
255
255
255
255
255
255
255
255
255
255
255
255
255
255
255
255
255
255
255
255
255
255
255
255
255
255
255
255
255
255
255
255
255
255
255
255
255
255
255
255
255
255
255
255
255
255
255
255
255
255
255
255
255
255
255
255
255
255
255
255
255
255
255
255
255
255
255
255
255
255
255
255
255
255
255
255
255
255
255
255
255
255
255
255
255
255
255
255
255
255
255
255
255
255
255
255
255
255
255
255
255
255
255
255
255
255
255
255
255
255
255
255
255
255
255
255
255
255
255
255
255
255
255
255
255
255
255
255
255
255
255
255
255
255
255
255
255
255
255
255
255
255
255
255
255
255
255
255
255
255
255
255
255
255
255
255
255
255
255
255
255
255
255
255
255
255
255
255
255
255
255
255
255
255
255
255
255
255
255
255
255
255
255
255
255
255
255
255
255
255
255
255
255
255
255
255
255
255
255
255
255
255
255
255
255
255
255
255
255
255
255
255
255
255
255
255
255
255
255
255
255
255
255
255
255
255
255
255
255
255
255
255
255
255
255
255
255
255
255
255
255
255
255
255
255
255
255
255
255
255
255
249
255
249
222
245
213
180
255
252
240
255
251
235
237
197
160
192
154
125
173
146
124
173
153
134
240
229
214
255
255
241
255
254
221
255
246
209
255
252
224
255
255
240
255
255
249
255
255
254
255
255
254
255
255
255
255
255
255
255
255
255
255
255
255
255
255
255
255
255
255
255
255
255
255
255
255
255
255
253
255
255
249
255
255
237
255
253
232
255
255
246
255
255
246
255
255
244
255
252
234
254
246
226
249
240
221
240
224
203
232
216
196
221
204
182
217
201
181
213
197
176
185
171
154
145
133
120
116
109
100
86
82
73
70
69
63
98
98
93
103
104
99
117
115
111
198
191
181
254
253
246
255
255
255
255
255
255
255
255
255
255
255
255
255
255
255
255
255
255
255
255
255
255
255
255
255
255
255
255
255
255
255
255
255
255
255
255
255
255
255
255
255
255
255
255
255
255
255
255
255
255
255
255
255
255
255
255
255
255
255
255
255
255
255
255
255
255
255
255
255
255
255
255
255
255
255
255
255
255
255
255
255
255
255
255
255
255
255
255
255
255
255
255
255
255
255
255
255
255
255
255
255
255
255
255
255
255
255
255
255
255
255
255
255
255
255
255
255
255
255
255
255
255
255
255
255
255
255
255
255
255
255
255
255
255
255
255
255
255
255
255
255
255
255
255
255
255
255
255
255
255
255
255
255
255
255
255
255
255
255
255
255
255
255
255
255
255
255
255
255
255
255
255
255
255
255
255
255
255
255
255
255
255
255
255
255
255
255
255
255
255
255
255
255
255
255
255
255
255
255
255
255
255
255
255
255
255
255
255
255
255
255
255
255
255
255
255
255
255
255
255
255
255
255
255
255
255
255
255
255
255
255
255
255
255
255
255
255
255
255
255
255
255
255
255
255
255
255
255
255
255
255
255
255
255
255
255
255
255
255
255
255
255
255
255
255
255
255
255
255
255
255
255
255
255
255
255
255
255
255
255
255
255
255
255
255
255
255
255
255
255
255
255
255
255
255
255
255
255
255
255
255
255
255
255
255
255
255
255
255
255
255
255
255
255
255
255
255
255
255
255
255
255
255
255
255
255
255
255
255
255
255
255
255
255
255
255
255
255
255
255
255
255
255
255
255
255
255
255
255
255
255
255
255
255
255
255
255
255
255
255
255
255
255
255
255
255
255
255
255
255
255
255
255
255
255
255
255
255
255
255
255
255
255
255
255
255
255
255
255
255
255
255
255
255
255
255
255
255
255
255
255
255
255
255
255
255
255
255
255
255
255
255
255
255
255
255
255
255
255
255
255
255
255
255
255
255
255
255
255
255
255
255
255
255
255
255
255
255
255
255
255
255
255
255
255
255
254
255
253
234
254
234
199
243
218
185
255
255
249
254
234
201
228
185
149
165
129
105
167
144
122
173
152
132
238
224
199
255
254
225
255
246
211
255
247
212
255
255
229
255
255
238
255
255
249
255
255
255
255
255
255
255
255
255
255
255
255
255
255
255
255
255
255
255
255
255
255
255
255
255
255
255
255
255
254
255
255
245
255
255
246
255
255
229
255
255
242
255
255
253
255
255
251
255
255
251
255
255
254
255
253
245
253
251
242
248
237
221
242
225
204
241
231
216
208
190
169
209
193
174
178
163
148
137
126
113
123
116
104
110
106
96
91
88
80
101
97
89
129
126
119
111
109
99
190
185
170
254
252
248
255
255
255
255
255
255
255
255
255
255
255
255
255
255
255
255
255
255
255
255
255
255
255
255
255
255
255
255
255
255
255
255
255
255
255
255
255
255
255
255
255
255
255
255
255
255
255
255
255
255
255
255
255
255
255
255
255
255
255
255
255
255
255
255
255
255
255
255
255
255
255
255
255
255
255
255
255
255
255
255
255
255
255
255
255
255
255
255
255
255
255
255
255
255
255
255
255
255
255
255
255
255
255
255
255
255
255
255
255
255
255
255
255
255
255
255
255
255
255
255
255
255
255
255
255
255
255
255
255
255
255
255
255
255
255
255
255
255
255
255
255
255
255
255
255
255
255
255
255
255
255
255
255
255
255
255
255
255
255
255
255
255
255
255
255
255
255
255
255
255
255
255
255
255
255
255
255
255
255
255
255
255
255
255
255
255
255
255
255
255
255
255
255
255
255
255
255
255
255
255
255
255
255
255
255
255
255
255
255
255
255
255
255
255
255
254
255
255
254
255
255
254
255
255
255
255
255
255
255
255
255
255
255
255
255
255
255
255
255
255
255
255
255
255
255
255
255
255
255
255
255
255
255
255
255
255
255
255
255
255
255
255
255
255
255
255
255
255
255
255
255
255
255
255
255
255
255
255
255
255
255
255
255
255
255
255
255
255
255
255
255
255
255
255
255
255
255
255
255
255
255
255
255
255
255
255
255
255
255
255
255
255
255
255
255
255
255
255
255
255
255
255
255
255
255
255
255
255
255
255
255
255
255
255
255
255
255
255
255
255
255
255
255
255
255
255
255
255
255
255
255
255
255
255
255
255
255
255
255
255
255
255
255
255
255
255
255
255
255
255
255
255
255
255
255
255
255
255
255
255
255
255
255
255
255
255
255
255
255
255
255
255
255
255
255
255
255
255
255
255
255
255
255
255
255
255
255
255
255
255
255
255
255
255
255
255
255
255
255
255
255
255
255
255
255
255
255
255
255
255
255
255
255
255
255
255
255
255
255
255
255
255
255
255
255
254
241
255
240
205
246
214
180
246
232
211
255
255
245
254
224
183
229
187
154
165
132
109
146
124
104
194
173
153
237
222
193
255
252
220
255
234
198
255
242
208
255
255
234
255
255
242
255
255
246
255
255
244
255
255
243
255
255
255
255
255
255
255
255
255
255
255
255
255
255
255
255
255
254
255
255
248
255
255
236
255
255
227
255
254
225
255
251
218
255
252
220
255
246
220
255
254
241
255
255
244
253
248
226
249
241
220
233
219
195
222
206
185
228
219
204
205
191
171
193
178
157
197
183
164
164
152
136
137
127
115
110
103
94
120
112
103
113
108
97
104
100
89
84
80
70
134
131
117
181
173
157
248
245
237
255
255
255
255
255
255
255
255
255
255
255
255
255
255
255
255
255
255
255
255
255
255
255
255
255
255
255
255
255
255
255
255
255
255
255
255
255
255
255
255
255
255
255
255
255
255
255
255
255
255
255
255
255
255
255
255
255
255
255
255
255
255
255
255
255
255
255
255
255
255
255
255
255
255
255
255
255
255
255
255
255
255
255
255
255
255
255
255
255
255
255
255
255
255
255
255
255
255
255
255
255
255
255
255
255
255
255
255
255
255
255
255
255
255
255
255
255
255
255
255
255
255
255
255
255
255
255
255
255
255
255
255
255
255
255
255
255
255
255
255
255
255
255
255
255
255
255
255
255
255
255
255
255
255
255
255
255
255
255
255
255
255
255
255
255
255
255
255
255
255
255
255
255
255
255
255
255
255
255
255
255
255
255
255
255
255
255
255
255
255
255
255
255
255
255
255
255
255
255
255
255
255
255
255
255
255
255
255
255
255
255
255
255
255
255
255
255
255
254
255
255
254
255
255
254
255
255
254
255
255
255
255
255
255
255
255
255
255
255
255
255
255
255
255
255
255
255
255
255
255
255
255
255
255
255
255
255
255
255
255
255
255
255
255
255
255
255
255
255
255
255
255
255
255
255
255
255
255
255
255
255
255
255
255
255
255
255
255
255
255
255
255
255
255
255
255
255
255
255
255
255
255
255
255
255
255
255
255
255
255
255
255
255
255
255
255
255
255
255
255
255
255
255
255
255
255
255
255
255
255
255
255
255
255
255
255
255
255
255
255
255
255
255
255
255
255
255
255
255
255
255
255
255
255
255
255
255
255
255
255
255
255
255
255
255
255
255
255
255
255
255
255
255
255
255
255
255
255
255
255
255
255
255
255
255
255
255
255
255
255
255
255
255
255
255
255
255
255
255
255
255
255
255
255
255
255
255
255
255
255
255
255
255
255
255
255
255
255
255
255
255
255
255
255
255
255
255
255
255
255
255
255
255
255
255
255
255
255
255
255
255
255
255
252
255
245
211
254
224
189
239
206
174
252
242
231
255
252
231
251
214
173
230
193
161
171
140
118
150
132
112
215
195
173
243
226
197
255
250
216
255
240
204
255
241
207
255
253
225
255
254
224
255
255
236
255
255
227
255
255
234
255
255
252
255
255
255
255
255
255
255
255
255
255
255
250
255
255
235
255
255
229
254
250
214
253
245
205
250
239
201
254
244
213
251
244
213
254
249
227
255
250
226
255
254
238
255
253
236
251
239
211
246
233
208
230
216
193
232
221
201
211
197
178
186
172
154
171
159
141
163
154
138
127
118
104
141
133
118
150
138
121
103
94
83
36
32
26
29
26
18
56
52
43
135
126
108
220
212
190
255
255
255
255
255
255
255
255
255
255
255
255
255
255
255
255
255
255
255
255
255
255
255
255
255
255
255
255
255
255
255
255
255
255
255
255
255
255
255
255
255
255
255
255
255
255
255
255
255
255
255
255
255
255
255
255
255
255
255
255
255
255
255
255
255
255
255
255
255
255
255
255
255
255
255
255
255
255
255
255
255
255
255
255
255
255
255
255
255
255
255
255
255
255
255
255
255
255
255
255
255
255
255
255
255
255
255
255
255
255
255
255
255
255
255
255
255
255
255
255
255
255
255
255
255
255
255
255
255
255
255
255
255
255
255
255
255
255
255
255
255
255
255
255
255
255
255
255
255
255
255
255
255
255
255
255
255
255
255
255
255
255
255
255
255
255
255
255
255
255
255
255
255
255
255
255
255
255
255
255
255
255
255
255
255
255
255
255
255
255
255
255
255
255
255
255
255
255
255
255
255
255
255
255
255
255
255
255
255
255
255
255
255
255
255
255
255
255
255
255
255
255
255
255
253
255
255
252
255
255
254
255
255
255
255
255
255
255
255
255
255
255
255
255
255
255
255
255
255
255
255
255
255
255
255
255
255
255
255
255
255
255
255
255
255
255
255
255
255
255
255
255
255
255
255
255
255
255
255
255
255
255
255
255
255
255
255
255
255
255
255
255
255
255
255
255
255
255
255
255
255
255
255
255
255
255
255
255
255
255
255
255
255
255
255
255
255
255
255
255
255
255
255
255
255
255
255
255
255
255
255
255
255
255
255
255
255
255
255
255
255
255
255
255
255
255
255
255
255
255
255
255
255
255
255
255
255
255
255
255
255
255
255
255
255
255
255
255
255
255
255
255
255
255
255
255
255
255
255
255
255
255
255
255
255
255
255
255
255
255
255
255
255
255
255
255
255
255
255
255
255
255
255
255
255
255
255
255
255
255
255
255
255
255
255
255
255
255
255
255
255
255
255
255
255
255
255
255
255
255
255
255
255
255
255
255
255
255
255
255
255
255
255
250
255
245
210
246
216
182
244
212
183
255
254
246
255
251
213
253
228
188
212
175
145
168
139
117
181
162
138
211
193
168
245
234
205
255
254
224
255
242
205
255
248
212
255
254
224
255
255
224
255
253
213
255
251
215
255
254
230
255
255
248
255
255
244
255
255
244
255
255
243
255
255
231
255
252
213
249
238
198
231
214
176
212
196
159
228
210
177
225
210
178
228
215
183
245
236
207
246
238
218
245
233
206
250
243
217
237
225
196
233
220
194
217
203
176
218
203
179
207
192
172
178
163
145
159
151
130
149
142
124
110
104
90
115
107
93
162
147
126
194
179
145
173
170
153
74
66
55
69
61
52
135
122
104
227
218
194
255
255
254
255
255
255
255
255
255
255
255
255
255
255
255
255
255
255
255
255
255
255
255
255
255
255
255
255
255
255
255
255
255
255
255
255
255
255
255
255
255
255
255
255
255
255
255
255
255
255
255
255
255
255
255
255
255
255
255
255
255
255
255
255
255
255
255
255
255
255
255
255
255
255
255
255
255
255
255
255
255
255
255
255
255
255
255
255
255
255
255
255
255
255
255
255
255
255
255
255
255
255
255
255
255
255
255
255
255
255
255
255
255
255
255
255
255
255
255
255
255
255
255
255
255
255
255
255
255
255
255
255
255
255
255
255
255
255
255
255
255
255
255
255
255
255
255
255
255
255
255
255
255
255
255
255
255
255
255
255
255
255
255
255
255
255
255
255
255
255
255
255
255
255
255
255
255
255
255
255
255
255
255
255
255
255
255
255
255
255
255
255
255
255
255
255
255
255
255
255
255
255
255
255
255
255
255
255
255
255
255
255
255
255
255
255
255
255
255
255
255
255
255
255
253
255
255
251
255
255
252
255
255
255
255
255
255
255
255
255
255
255
255
255
255
255
255
255
255
255
255
255
255
255
254
255
255
254
255
255
250
255
255
249
255
255
251
255
255
253
255
255
254
255
255
255
255
255
255
255
255
255
255
255
255
255
255
255
255
255
255
255
255
255
255
255
255
255
255
255
255
255
255
255
255
255
255
255
255
255
255
255
255
255
255
255
255
255
255
255
255
255
255
255
255
255
255
255
255
255
255
255
255
255
255
255
255
255
255
255
255
255
255
255
255
255
255
255
255
255
255
255
255
255
255
255
255
255
255
255
255
255
255
255
255
255
255
255
255
255
255
255
255
255
255
255
255
255
255
255
255
255
255
255
255
255
255
255
255
255
255
255
255
255
255
255
255
255
255
255
255
255
255
255
255
255
255
255
255
255
255
255
255
255
255
255
255
255
255
255
255
255
255
255
255
255
255
255
255
255
255
255
255
255
255
255
255
255
255
255
255
255
255
246
254
239
203
238
203
171
251
234
211
255
255
246
255
253
212
239
210
172
197
166
136
164
139
115
172
152
128
213
195
170
249
240
211
254
247
213
255
242
205
255
244
207
255
254
220
255
254
214
255
253
212
255
248
209
255
252
219
255
255
230
255
255
236
255
255
239
255
253
226
253
243
206
236
221
185
184
170
139
134
120
100
152
141
120
176
165
143
173
160
136
213
200
177
228
216
192
218
205
179
239
225
197
238
225
196
237
223
195
213
199
172
217
203
176
205
190
165
197
182
159
174
159
139
158
146
124
102
90
76
44
42
32
46
43
35
143
130
111
234
222
195
255
255
254
234
231
212
225
211
178
235
224
186
254
250
227
255
252
225
255
255
255
255
255
255
255
255
255
255
255
255
255
255
255
255
255
255
255
255
255
255
255
255
255
255
255
255
255
255
255
255
255
255
255
255
255
255
255
255
255
255
255
255
255
255
255
255
255
255
255
255
255
255
255
255
255
255
255
255
255
255
255
255
255
255
255
255
255
255
255
255
255
255
255
255
255
255
255
255
255
255
255
255
255
255
255
255
255
255
255
255
255
255
255
255
255
255
255
255
255
255
255
255
255
255
255
255
255
255
255
255
255
255
255
255
255
255
255
255
255
255
255
255
255
255
255
255
255
255
255
255
255
255
255
255
255
255
255
255
255
255
255
255
255
255
255
255
255
255
255
255
255
255
255
255
255
255
255
255
255
255
255
255
255
255
255
255
255
255
255
255
255
255
255
255
255
255
255
255
255
255
255
255
255
255
255
255
255
255
255
255
255
255
255
255
255
255
255
255
255
255
255
255
255
255
255
255
255
255
255
255
255
255
255
255
255
255
255
255
255
253
255
255
251
255
255
249
255
255
255
255
255
255
255
255
255
255
255
255
255
255
255
255
255
251
255
255
250
255
255
248
255
255
245
255
255
241
255
255
238
255
255
238
255
255
239
255
255
243
255
255
246
255
255
246
255
255
250
255
255
253
255
255
254
255
255
255
255
255
255
255
255
255
255
255
255
255
255
255
255
255
255
255
255
255
255
255
255
255
255
255
255
255
255
255
255
255
255
255
255
255
255
255
255
255
255
255
255
255
255
255
255
255
255
255
255
255
255
255
255
255
255
255
255
255
255
255
255
255
255
255
255
255
255
255
255
255
255
255
255
255
255
255
255
255
255
255
255
255
255
255
255
255
255
255
255
255
255
255
255
255
255
255
255
255
255
255
255
255
255
255
255
255
255
255
255
255
255
255
255
255
255
255
255
255
255
255
255
255
255
255
255
255
255
255
255
255
255
255
255
255
255
255
255
255
255
255
255
255
255
255
255
255
255
255
255
255
255
255
236
254
231
194
248
213
180
254
246
230
255
255
240
255
250
213
230
194
158
207
178
148
161
137
114
161
144
120
204
188
162
233
216
186
244
226
192
250
231
196
248
229
192
255
244
206
255
243
203
255
239
197
253
231
191
255
242
201
255
255
221
255
255
230
255
255
233
250
240
205
239
224
187
181
170
140
66
61
48
37
33
29
97
95
88
44
42
33
91
86
76
158
150
135
177
165
147
191
177
156
215
200
175
216
202
175
213
199
172
192
179
153
198
187
162
163
151
127
156
143
124
105
92
78
87
73
65
77
58
51
79
67
60
87
84
79
190
177
151
254
250
235
255
255
255
255
255
254
253
228
195
240
210
174
240
205
170
255
240
198
255
255
251
255
255
255
255
255
255
255
255
255
255
255
255
255
255
255
255
255
255
255
255
255
255
255
255
255
255
255
255
255
255
255
255
255
255
255
255
255
255
255
255
255
255
255
255
255
255
255
255
255
255
255
255
255
255
255
255
255
255
255
255
255
255
255
255
255
255
255
255
255
255
255
255
255
255
255
255
255
255
255
255
255
255
255
255
255
255
255
255
255
255
255
255
255
255
255
255
255
255
255
255
255
255
255
255
255
255
255
255
255
255
255
255
255
255
255
255
255
255
255
255
255
255
255
255
255
255
255
255
255
255
255
255
255
255
255
255
255
255
255
255
255
255
255
255
255
255
255
255
255
255
255
255
255
255
255
255
255
255
255
255
255
255
255
255
255
255
255
255
255
255
255
255
255
255
255
255
255
255
255
255
255
255
255
255
255
255
255
255
255
255
255
255
255
255
255
255
255
255
255
255
255
255
255
255
255
255
255
255
255
255
255
255
255
255
255
253
255
255
251
255
255
249
255
255
248
255
255
255
255
255
255
255
255
255
255
255
253
255
255
251
255
255
248
255
255
247
255
255
243
255
255
239
255
255
234
255
255
231
255
255
228
255
255
228
255
255
232
255
255
235
255
255
236
255
255
240
255
255
243
255
255
245
255
255
250
255
255
254
255
255
255
255
255
255
255
255
255
255
255
255
255
255
255
255
255
254
255
255
255
255
255
255
255
255
255
255
255
255
255
255
255
255
255
255
255
255
255
255
255
255
255
255
255
255
255
255
255
255
255
255
255
255
255
255
255
255
255
255
255
255
255
255
255
255
255
255
255
255
255
255
255
255
255
255
255
255
255
255
255
255
255
255
255
255
255
255
255
255
255
255
255
255
255
255
255
255
255
255
255
255
255
255
255
255
255
255
255
255
255
255
255
255
255
255
255
255
255
255
255
255
255
255
255
255
255
255
255
255
255
255
255
255
255
255
255
255
255
255
255
255
255
255
255
255
253
255
253
226
255
231
194
253
224
191
255
247
225
255
255
237
255
236
200
228
192
156
214
185
156
157
134
112
152
136
112
194
177
152
216
198
168
236
217
184
251
231
197
248
228
192
255
243
205
255
241
201
255
240
198
254
237
196
255
252
212
255
255
228
255
255
239
255
253
225
245
232
195
215
202
166
108
101
83
23
22
17
53
52
48
53
52
48
20
18
15
86
82
77
94
87
81
84
71
64
121
104
97
122
104
93
157
140
126
136
120
104
117
102
88
125
113
101
74
64
55
64
56
47
56
48
40
80
69
64
77
61
55
116
98
92
151
136
128
236
227
202
255
255
249
255
255
255
253
246
233
222
180
149
215
175
143
226
185
152
252
226
183
255
255
248
255
255
255
255
255
255
255
255
255
255
255
255
255
255
255
255
255
255
255
255
255
255
255
255
255
255
255
255
255
255
255
255
255
255
255
255
255
255
255
255
255
255
255
255
255
255
255
255
255
255
255
255
255
255
255
255
255
255
255
255
255
255
255
255
255
255
255
255
255
255
255
255
255
255
255
255
255
255
255
255
255
255
255
255
255
255
255
255
255
255
255
255
255
255
255
255
255
255
255
255
255
255
255
255
255
255
255
255
255
255
255
255
255
255
255
255
255
255
255
255
255
255
255
255
255
255
255
255
255
255
255
255
255
255
255
255
255
255
255
255
255
255
255
255
255
255
255
255
255
255
255
255
255
255
255
255
255
255
255
255
255
255
255
255
255
255
255
255
255
255
255
255
255
255
255
255
255
255
255
255
255
255
255
255
255
255
255
255
255
255
255
255
255
255
255
255
255
255
255
255
255
255
255
255
255
255
255
255
255
255
255
255
255
255
255
253
255
255
253
255
255
250
255
255
249
255
255
255
255
255
255
255
255
251
255
255
245
255
255
244
255
255
241
255
255
242
255
255
243
255
255
238
255
255
233
255
255
226
255
255
222
255
255
222
255
255
225
255
255
225
255
255
228
255
255
233
255
255
233
255
255
235
255
255
242
255
255
247
255
255
252
255
255
254
255
255
254
255
255
255
255
255
253
255
255
255
255
255
255
255
255
255
255
255
255
255
255
255
255
255
255
255
255
255
255
255
255
255
255
255
255
255
255
255
255
255
255
255
255
255
255
255
255
255
255
255
255
255
255
255
255
255
255
255
255
255
255
255
255
255
255
255
255
255
255
255
255
255
255
255
255
255
255
255
255
255
255
255
255
255
255
255
255
255
255
255
255
255
255
255
255
255
255
255
255
255
255
255
255
255
255
255
255
255
255
255
255
255
255
255
255
255
255
255
255
255
255
255
255
255
255
255
255
255
255
255
255
255
255
255
255
255
255
255
249
255
252
218
253
230
195
244
210
178
253
236
210
255
255
234
255
231
191
236
200
164
219
190
161
162
139
117
142
126
103
196
180
154
218
200
170
247
228
195
254
235
201
251
233
196
255
245
207
255
250
209
255
249
206
255
249
207
255
255
221
255
255
228
255
255
237
255
255
226
250
239
205
191
181
151
44
42
33
29
28
25
51
50
47
39
38
35
52
50
50
94
90
88
57
49
46
79
64
63
95
77
74
119
97
94
124
102
97
133
112
105
132
112
107
119
101
97
90
76
72
89
77
71
87
75
71
87
77
74
106
92
88
126
105
101
182
157
153
254
250
239
255
255
254
255
255
255
243
227
205
215
172
142
209
169
139
214
176
144
238
203
167
255
254
254
255
255
255
255
255
255
255
255
255
255
255
255
255
255
255
255
255
255
255
255
255
255
255
255
255
255
255
255
255
255
255
255
255
255
255
255
255
255
255
255
255
255
255
255
255
255
255
255
255
255
255
255
255
255
255
255
255
255
255
255
255
255
255
255
255
255
255
255
255
255
255
255
255
255
255
255
255
255
255
255
255
255
255
255
255
255
255
255
255
255
255
255
255
255
255
255
255
255
255
255
255
255
255
255
255
255
255
255
255
255
255
255
255
255
255
255
255
255
255
255
255
255
255
255
255
255
255
255
255
255
255
255
255
255
255
255
255
255
255
255
255
255
255
255
255
255
255
255
255
255
255
255
255
255
255
255
255
255
255
255
255
255
255
255
255
255
255
255
255
255
255
255
255
255
255
255
255
255
255
255
255
255
255
255
255
255
255
255
255
255
255
255
255
255
255
255
255
255
255
255
255
255
255
255
255
255
255
255
255
255
255
255
255
255
255
253
255
255
253
255
255
250
255
255
244
255
255
255
255
255
253
255
255
250
255
255
242
255
255
242
255
255
238
255
255
241
255
255
245
255
255
242
255
255
234
255
255
227
255
255
225
255
255
225
255
255
223
255
255
222
255
255
226
255
255
228
255
255
231
255
255
231
255
255
237
255
255
248
255
255
252
255
255
253
255
255
254
255
255
255
255
255
255
255
255
255
255
255
255
255
255
255
255
255
255
255
255
255
255
255
255
255
255
255
255
255
255
255
255
255
255
255
255
255
255
255
255
255
255
255
255
255
255
255
255
255
255
255
255
255
255
255
255
255
255
255
255
255
255
255
255
255
255
255
255
255
255
255
255
255
255
255
255
255
255
255
255
255
255
255
255
255
255
255
255
255
255
255
255
255
255
255
255
255
255
255
255
255
255
255
255
255
255
255
255
255
255
255
255
255
255
255
255
255
255
255
255
255
255
255
255
255
255
255
255
255
255
255
255
255
255
255
255
255
241
255
247
214
252
223
185
245
214
181
253
249
229
255
255
229
254
231
190
231
196
160
219
193
162
165
144
122
160
144
121
204
187
160
228
211
181
250
234
201
253
235
201
253
237
201
255
251
214
255
248
210
255
245
203
255
248
205
255
250
211
255
253
213
255
255
226
255
255
220
251
243
207
190
178
152
54
49
40
39
36
34
54
51
48
38
35
32
84
79
76
114
104
100
118
106
101
83
70
67
89
76
73
111
92
88
125
100
98
140
118
114
168
144
141
158
134
133
139
120
119
121
106
104
123
111
108
117
103
102
124
110
109
149
133
132
177
151
150
248
238
236
255
255
255
255
255
254
241
224
201
235
203
170
216
185
154
226
188
155
228
195
163
255
254
248
255
255
255
255
255
255
255
255
255
255
255
255
255
255
255
255
255
255
255
255
255
255
255
255
255
255
255
255
255
255
255
255
255
255
255
255
255
255
255
255
255
255
255
255
255
255
255
255
255
255
255
255
255
255
255
255
255
255
255
255
255
255
255
255
255
255
255
255
255
255
255
255
255
255
255
255
255
255
255
255
255
255
255
255
255
255
255
255
255
255
255
255
255
255
255
255
255
255
255
255
255
255
255
255
255
255
255
255
255
255
255
255
255
255
255
255
255
255
255
255
255
255
255
255
255
255
255
255
255
255
255
255
255
255
255
255
255
255
255
255
255
255
255
255
255
255
255
255
255
255
255
255
255
255
255
255
255
255
255
255
255
255
255
255
255
255
255
255
255
255
254
255
255
253
255
255
255
255
255
255
255
255
255
255
255
255
255
255
255
255
255
255
255
255
255
255
255
255
255
255
255
255
255
255
255
255
255
255
255
255
255
255
255
255
255
254
255
255
250
255
255
245
255
255
238
255
255
253
255
255
254
255
255
253
255
255
249
255
255
244
255
255
240
255
255
242
255
255
243
255
255
246
255
255
238
255
255
233
255
255
230
255
255
228
255
255
227
255
255
226
255
255
231
255
255
231
255
255
235
255
255
235
255
255
239
255
255
245
255
255
250
255
255
253
255
255
254
255
255
255
255
255
255
255
255
255
255
255
255
255
255
255
255
255
255
255
255
255
255
255
255
255
255
255
255
255
255
255
255
255
255
255
255
255
255
255
255
255
255
255
255
255
255
255
255
255
255
255
255
255
255
255
255
255
255
255
255
255
255
255
255
255
255
255
255
255
255
255
255
255
255
255
255
255
255
255
255
255
255
255
255
255
255
255
255
255
255
255
255
255
255
255
255
255
255
255
255
255
255
255
255
255
255
255
255
255
255
255
255
255
255
255
255
255
255
255
255
255
255
255
255
255
255
255
255
255
255
255
255
255
255
255
255
253
225
251
226
190
250
222
188
246
218
185
247
233
201
255
255
226
251
226
184
235
200
165
221
194
162
178
155
131
161
143
119
202
185
158
229
212
183
250
233
201
253
237
203
255
242
204
255
246
208
255
241
202
255
242
201
252
235
193
254
240
198
255
249
206
254
248
208
255
251
212
251
238
201
196
181
150
99
89
72
51
48
41
52
48
44
53
51
49
62
58
56
116
107
104
139
128
125
121
110
107
179
170
163
163
152
144
113
90
88
131
107
106
194
168
165
193
166
166
184
159
162
161
141
143
158
139
141
170
154
156
158
142
144
169
153
154
214
194
194
252
242
244
255
255
255
255
255
254
246
221
190
233
190
155
253
231
189
254
250
227
255
253
250
255
255
245
255
255
255
255
255
255
255
255
255
255
255
255
255
255
255
255
255
255
255
255
255
255
255
255
255
255
255
255
255
255
255
255
255
255
255
255
255
255
255
255
255
255
255
255
255
255
255
255
255
255
255
255
255
255
255
255
255
255
255
255
255
255
255
255
255
255
255
255
255
255
255
255
255
255
255
255
255
255
255
255
255
255
255
255
255
255
255
255
255
255
255
255
255
255
255
255
255
255
255
255
255
255
255
255
255
255
255
255
255
255
255
255
255
255
255
255
255
255
255
255
255
255
255
255
255
255
255
255
255
255
255
255
255
255
255
255
255
255
255
255
255
255
255
255
255
255
255
255
255
255
255
255
255
255
255
255
255
255
255
255
255
255
255
255
255
255
255
255
255
255
255
255
255
255
255
255
255
255
255
255
255
255
255
255
255
255
255
255
255
255
255
255
255
255
255
255
255
255
255
255
255
255
255
255
255
255
255
255
255
255
255
255
255
255
255
252
255
255
243
255
255
241
255
255
245
255
255
255
255
255
255
255
255
255
255
255
255
255
255
252
255
255
248
255
255
247
255
255
249
255
255
250
255
255
246
255
255
244
255
255
241
255
255
238
255
255
237
255
255
236
255
255
240
255
255
240
255
255
241
255
255
241
255
255
245
255
255
246
255
255
248
255
255
249
255
255
249
255
255
250
255
255
253
255
255
255
255
255
255
255
255
255
255
255
255
255
255
255
255
255
255
255
255
255
255
255
255
255
255
255
255
255
255
255
255
255
255
255
255
255
255
255
255
255
255
255
255
255
255
255
255
255
255
255
255
255
255
255
255
255
255
255
255
255
255
255
255
255
255
255
255
255
255
255
255
255
255
255
255
255
255
255
255
255
255
255
255
255
255
255
255
255
255
255
255
255
255
255
255
255
255
255
255
255
255
255
255
255
255
255
255
255
255
255
255
255
255
255
255
255
255
255
255
255
255
255
255
255
255
255
255
252
255
241
203
254
225
192
248
217
185
227
195
162
247
233
207
255
254
224
254
226
185
235
200
165
217
188
156
183
158
133
153
132
107
185
168
142
229
213
183
243
227
194
246
232
197
251
236
199
255
245
207
254
241
202
254
238
197
248
226
185
245
226
184
238
220
177
245
226
185
250
236
196
248
234
194
220
204
168
180
165
141
93
87
74
60
57
51
65
63
61
52
51
48
72
66
64
115
106
106
163
153
149
218
210
199
204
196
184
120
105
100
135
113
113
179
152
150
215
186
186
207
180
184
199
174
179
186
164
169
198
179
182
205
186
190
198
177
184
229
208
215
254
244
247
255
255
255
255
255
253
255
253
231
255
243
209
255
254
244
255
255
255
255
255
255
255
255
255
255
255
255
255
255
255
255
255
255
255
255
255
255
255
255
255
255
255
255
255
255
255
255
255
255
255
255
255
255
255
255
255
255
255
255
255
255
255
255
255
255
255
255
255
255
255
255
255
255
255
255
255
255
255
255
255
255
255
255
255
255
255
255
255
255
255
255
255
255
255
255
255
255
255
255
255
255
255
255
255
255
255
255
255
255
255
255
255
255
255
255
255
255
255
255
255
255
255
255
255
255
255
255
255
255
255
255
255
255
255
255
255
255
255
255
255
255
255
255
255
255
255
255
255
255
255
255
255
255
255
255
255
255
255
255
255
255
255
255
255
255
255
255
255
255
255
255
255
255
255
255
255
255
255
255
255
255
255
255
255
255
255
255
255
255
255
255
255
255
255
255
255
255
255
255
255
255
255
255
255
255
255
255
255
255
255
255
255
255
255
255
255
255
255
255
255
255
255
255
255
255
255
255
255
255
255
255
255
255
255
255
255
255
255
255
252
255
255
244
255
255
247
255
255
254
255
255
255
255
255
255
255
255
255
255
255
255
255
255
255
255
255
254
255
255
254
255
255
255
255
255
254
255
255
254
255
255
254
255
255
253
255
255
251
255
255
247
255
255
246
255
255
247
255
255
246
255
255
244
255
255
244
255
255
250
255
255
250
255
255
252
255
255
254
255
255
254
255
255
254
255
255
254
255
255
255
255
255
255
255
255
255
255
255
255
255
255
255
255
255
255
255
255
255
255
255
255
255
255
255
255
255
255
255
255
255
255
255
255
255
255
255
255
255
255
255
255
255
255
255
255
255
255
255
255
255
255
255
255
255
255
255
255
255
255
255
255
255
255
255
255
255
255
255
255
255
255
255
255
255
255
255
255
255
255
255
255
255
255
255
255
255
255
255
255
255
255
255
255
255
255
255
255
255
255
255
255
255
255
255
255
255
255
255
255
255
255
255
255
255
255
255
255
255
255
255
255
255
255
255
255
250
255
243
202
251
217
183
241
206
175
232
204
172
255
252
220
255
250
212
254
226
187
225
190
155
213
182
152
180
154
128
146
124
101
182
164
139
207
190
160
225
210
176
238
222
188
251
235
200
253
238
201
254
242
204
245
225
184
242
221
180
225
203
162
227
205
164
245
224
183
241
224
181
253
238
197
244
229
193
227
211
179
185
171
144
120
111
95
71
68
63
66
67
64
48
49
48
39
37
36
90
81
78
155
147
139
169
163
152
151
143
137
215
203
202
139
118
116
211
184
184
216
188
195
209
181
190
208
183
194
212
189
198
228
205
213
244
226
233
234
212
220
249
227
236
255
254
255
255
255
255
255
255
255
255
255
255
255
255
255
255
255
255
255
255
255
255
255
255
255
255
255
255
255
255
255
255
255
255
255
255
255
255
255
255
255
255
255
255
255
255
255
255
255
255
255
255
255
255
255
255
255
255
255
255
255
255
255
255
255
255
255
255
255
255
255
255
255
255
255
255
255
255
255
255
255
255
255
255
255
255
255
255
255
255
255
255
255
255
255
255
255
255
255
255
255
255
255
255
255
255
255
255
255
255
255
255
255
255
255
255
255
255
255
255
255
255
255
255
255
255
255
255
255
255
255
255
255
255
255
255
255
255
255
255
255
255
255
255
255
255
255
255
255
255
255
255
255
255
255
255
255
255
255
255
255
255
255
255
255
255
255
255
255
255
255
255
255
255
255
255
255
255
255
255
255
255
255
255
255
255
255
255
255
255
255
255
255
255
255
255
255
255
255
255
255
255
255
255
255
255
255
255
255
255
255
255
255
255
255
255
255
255
255
255
255
255
255
255
255
255
255
255
255
255
255
255
255
255
255
255
255
255
255
254
255
255
254
255
255
255
255
255
255
255
255
255
255
255
255
255
255
255
255
255
255
255
255
255
255
255
255
255
255
255
255
255
255
255
255
255
255
255
255
255
255
255
255
255
255
255
255
255
255
255
253
255
255
252
255
255
254
255
255
254
255
255
255
255
255
255
255
255
255
255
255
255
255
255
255
255
255
255
255
255
255
255
255
255
255
255
255
255
255
255
255
255
255
255
255
255
255
255
255
255
255
255
255
255
255
255
255
255
255
255
255
255
255
255
255
255
255
255
255
255
255
255
255
255
255
255
255
255
255
255
255
255
255
255
255
255
255
255
255
255
255
255
255
255
255
255
255
255
255
255
255
255
255
255
255
255
255
255
255
255
255
255
255
255
255
255
255
255
255
255
255
255
255
255
255
255
255
255
255
255
255
255
255
255
255
255
255
255
255
255
255
255
255
255
255
255
255
255
255
255
255
255
255
255
255
255
255
255
255
255
255
255
255
255
255
252
255
248
213
252
218
181
238
204
170
237
209
177
252
234
198
255
244
207
253
227
188
229
194
159
215
184
153
184
158
131
152
131
107
172
155
127
187
170
141
201
184
153
218
202
169
235
219
184
239
222
184
243
224
185
238
216
175
232
210
169
226
204
163
238
216
175
232
211
169
235
217
174
247
229
190
254
238
200
252
237
201
224
207
172
191
175
149
135
122
105
83
77
69
59
57
54
55
57
53
55
51
48
38
35
31
55
50
46
102
98
95
125
121
118
102
92
90
175
154
156
231
200
205
231
196
206
235
199
211
246
233
237
250
223
234
254
230
242
255
251
255
255
247
253
255
253
255
255
255
255
255
255
255
255
255
255
255
255
255
255
255
255
255
255
255
255
255
255
255
255
255
255
255
255
255
255
255
255
255
255
255
255
255
255
255
255
255
255
255
255
255
255
255
255
255
255
255
255
255
255
255
255
255
255
255
255
255
255
255
255
255
255
255
255
255
255
255
255
255
255
255
255
255
255
255
255
255
255
255
255
255
255
255
255
255
255
255
255
255
255
255
255
255
255
255
255
255
255
255
255
255
255
255
255
255
255
255
255
255
255
255
255
255
255
255
255
255
255
255
255
255
255
255
255
255
255
255
255
255
255
255
255
255
255
255
255
255
255
255
255
255
255
255
255
255
255
255
255
255
255
255
255
255
255
255
255
255
255
255
255
255
255
255
255
255
255
255
255
255
255
255
255
255
255
255
255
255
255
255
255
255
255
255
255
255
255
255
255
255
255
255
255
255
255
255
255
255
255
255
255
255
255
255
255
255
255
255
255
255
255
255
255
255
255
255
255
255
255
255
255
255
255
255
255
255
255
255
255
255
255
255
255
255
255
255
255
255
255
255
255
255
255
255
255
255
255
255
255
255
255
255
255
255
255
255
255
255
255
255
255
255
255
255
255
255
255
255
255
255
255
255
255
255
255
255
255
255
255
255
255
255
255
255
255
255
255
255
255
255
255
255
255
255
255
255
255
255
255
255
255
255
255
255
255
255
255
255
255
255
255
255
255
255
255
255
255
255
255
255
255
255
255
255
255
255
255
255
255
255
255
255
255
255
255
255
255
255
255
255
255
255
255
255
255
255
255
255
255
255
255
255
255
255
255
255
255
255
255
255
255
255
255
255
255
255
255
255
255
255
255
255
255
255
255
255
255
255
255
255
255
255
255
255
255
255
255
255
255
255
255
255
255
255
255
255
255
255
255
255
255
255
255
255
255
255
255
255
255
255
255
255
255
255
255
255
255
255
255
255
255
255
255
255
255
255
255
255
255
255
255
255
255
255
255
255
255
255
255
255
255
255
255
255
255
255
255
255
255
255
255
255
255
230
254
233
193
238
204
170
221
191
160
240
210
178
255
241
202
253
230
192
223
188
155
211
181
151
198
171
143
157
133
107
152
131
100
160
141
112
174
156
128
191
175
142
213
197
162
227
210
174
238
221
184
241
223
185
237
217
177
231
209
168
229
207
165
223
201
160
233
213
171
243
222
182
254
237
197
255
241
201
244
229
196
234
216
183
215
196
164
175
160
136
121
110
97
68
63
56
64
60
56
57
55
53
50
47
47
45
44
42
46
45
41
55
53
50
89
79
78
184
158
158
216
183
184
198
160
163
253
251
250
252
228
232
255
228
245
255
247
255
255
255
255
255
255
255
255
255
255
255
255
255
255
255
255
255
255
255
255
255
255
255
255
255
255
255
255
255
255
255
255
255
255
255
255
255
255
255
255
255
255
255
255
255
255
255
255
255
255
255
255
255
255
255
255
255
255
255
255
255
255
255
255
255
255
255
255
255
255
255
255
255
255
255
255
255
255
255
255
255
255
255
255
255
255
255
255
255
255
255
255
255
255
255
255
255
255
255
255
255
255
255
255
255
255
255
255
255
255
255
255
255
255
255
255
255
255
255
255
255
255
255
255
255
255
255
255
255
255
255
255
255
255
255
255
255
255
255
255
255
255
255
255
255
255
255
255
255
255
255
255
255
255
255
255
255
255
255
255
255
255
255
255
255
255
255
255
255
255
255
255
255
255
255
255
255
255
255
255
255
255
255
255
255
255
255
255
255
255
255
255
255
255
255
255
255
255
255
255
255
255
255
255
255
255
255
255
255
255
255
255
255
255
255
255
255
255
255
255
255
255
255
255
255
255
255
255
255
255
255
255
255
255
255
255
255
255
255
255
255
255
255
255
255
255
255
255
255
255
255
255
255
255
255
255
255
255
255
255
255
255
255
255
255
255
255
255
255
255
255
255
255
255
255
255
255
255
255
255
255
255
255
255
255
255
255
255
255
255
255
255
255
255
255
255
255
255
255
255
255
255
255
255
255
255
255
255
255
255
255
255
255
255
255
255
255
255
255
255
255
255
255
255
255
255
255
255
255
255
255
255
255
255
255
255
255
255
255
255
255
255
255
255
255
255
255
255
255
255
255
255
255
255
255
255
255
255
255
255
255
255
255
255
255
255
255
255
255
255
255
255
255
255
255
255
255
255
255
255
255
255
255
255
255
255
255
255
255
255
255
255
255
255
255
255
255
255
255
255
255
255
255
255
255
255
255
255
255
255
255
255
255
255
255
255
255
255
255
255
255
255
255
255
255
255
255
255
255
255
255
255
255
255
255
255
255
255
255
255
255
255
255
255
255
255
255
255
255
255
255
255
255
255
255
255
255
255
255
255
255
255
244
255
247
215
244
209
174
206
175
144
231
200
169
254
234
195
254
232
194
224
189
157
209
180
149
198
170
141
176
150
123
162
139
108
163
142
114
186
167
139
194
177
147
203
187
154
220
204
170
234
218
183
243
227
193
251
233
195
246
225
186
245
223
182
231
209
168
238
216
175
237
215
174
250
229
188
255
242
201
255
241
204
251
234
197
236
217
180
214
198
164
192
178
150
176
160
137
129
116
100
76
69
61
56
53
48
53
51
48
53
52
49
62
61
57
62
61
57
59
56
54
66
58
57
88
74
72
236
220
213
220
189
186
251
228
237
255
248
252
255
254
255
255
255
255
255
255
255
255
255
255
255
255
255
255
255
255
255
255
255
255
255
255
255
255
255
255
255
255
255
255
255
255
255
255
255
255
255
255
255
255
255
255
255
255
255
255
255
255
255
255
255
255
255
255
255
255
255
255
255
255
255
255
255
255
255
255
255
255
255
255
255
255
255
255
255
255
255
255
255
255
255
255
255
255
255
255
255
255
255
255
255
255
255
255
255
255
255
255
255
255
255
255
255
255
255
255
255
255
255
255
255
255
255
255
255
255
255
255
255
255
255
255
255
255
255
255
255
255
255
255
255
255
255
255
255
255
255
255
255
255
255
255
255
255
255
255
255
255
255
255
255
255
255
255
255
255
255
255
255
255
255
255
255
255
255
255
255
255
255
255
255
255
255
255
255
255
255
255
255
255
255
255
255
255
255
255
255
255
255
255
255
255
255
255
255
255
255
255
255
255
255
255
255
255
255
255
255
255
255
255
255
255
255
255
255
255
255
255
255
255
255
255
255
255
255
255
255
255
255
255
255
255
255
255
255
255
255
255
255
255
255
255
255
255
255
255
255
255
255
255
255
255
255
255
255
255
255
255
255
255
255
255
255
255
255
255
255
255
255
255
255
255
255
255
255
255
255
255
255
255
255
255
255
255
255
255
255
255
255
255
255
255
255
255
255
255
255
255
255
255
255
255
255
255
255
255
255
255
255
255
255
255
255
255
255
255
255
255
255
255
255
255
255
255
255
255
255
255
255
255
255
255
255
255
255
255
255
255
255
255
255
255
255
255
255
255
255
255
255
255
255
255
255
255
255
255
255
255
255
255
255
255
255
255
255
255
255
255
255
255
255
255
255
255
255
255
255
255
255
255
255
255
255
255
255
255
255
255
255
255
255
255
255
255
255
255
255
255
255
255
255
255
255
255
255
255
255
255
255
255
255
255
255
255
255
255
255
255
255
255
255
255
255
255
255
255
255
255
255
255
255
255
255
255
255
255
255
255
255
255
255
255
255
255
255
255
255
255
255
255
255
255
255
255
255
255
255
255
255
255
255
254
232
251
231
189
219
185
151
206
175
145
247
224
186
255
231
193
221
187
154
207
178
148
201
174
144
198
173
146
191
168
137
177
157
128
180
161
134
169
152
124
184
168
137
210
193
161
225
209
176
237
221
188
244
228
192
250
231
193
245
225
185
242
220
179
230
208
167
230
208
167
251
231
190
255
239
198
255
239
198
251
234
194
247
231
195
238
222
188
230
212
178
217
196
163
201
180
151
181
162
139
155
139
122
129
117
104
81
75
66
49
48
44
58
57
53
53
51
50
74
71
70
90
84
82
136
123
123
124
109
109
163
133
138
220
188
196
245
224
231
254
243
246
254
250
253
254
251
250
244
243
241
255
255
255
255
255
255
255
255
255
255
255
255
255
255
255
255
255
255
255
255
255
255
255
255
255
255
255
255
255
255
255
255
255
255
255
255
255
255
255
255
255
255
255
255
255
255
255
255
255
255
255
255
255
255
255
255
255
255
255
255
255
255
255
255
255
255
255
255
255
255
255
255
255
255
255
255
255
255
255
255
255
255
255
255
255
255
255
255
255
255
255
255
255
255
255
255
255
255
255
255
255
255
255
255
255
255
255
255
255
255
255
255
255
255
255
255
255
255
255
255
255
255
255
255
255
255
255
255
255
255
255
255
255
255
255
255
255
255
255
255
255
255
255
255
255
255
255
255
255
255
255
255
255
255
255
255
255
255
255
255
255
255
255
255
255
255
255
255
255
255
255
255
255
255
255
255
255
255
255
255
255
255
255
255
255
255
255
255
255
255
255
255
255
255
255
255
255
255
255
255
255
255
255
255
255
255
255
255
255
255
255
255
255
255
255
255
255
255
255
255
255
255
255
255
255
255
255
255
255
255
255
255
255
255
255
255
255
255
255
255
255
255
255
255
255
255
255
255
255
255
255
255
255
255
255
255
255
255
255
255
255
255
255
255
255
255
255
255
255
255
255
255
255
255
255
255
255
255
255
255
255
255
255
255
255
255
255
255
255
255
255
255
255
255
255
255
255
255
255
255
255
255
255
255
255
255
255
255
255
255
255
255
255
255
255
255
255
255
255
255
255
255
255
255
255
255
255
255
255
255
255
255
255
255
255
255
255
255
255
255
255
255
255
255
255
255
255
255
255
255
255
255
255
255
255
255
255
255
255
255
255
255
255
255
255
255
255
255
255
255
255
255
255
255
255
255
255
255
255
255
255
255
255
255
255
255
255
255
255
255
255
255
255
255
255
255
255
255
255
255
255
255
255
255
255
255
255
255
255
255
255
255
255
255
255
255
255
255
255
255
255
255
255
255
255
255
255
255
255
255
255
255
255
255
255
255
255
255
255
255
255
255
255
255
255
255
255
255
255
253
255
251
225
253
233
187
231
198
158
241
214
176
255
232
192
228
195
162
204
174
146
189
161
136
177
152
123
178
155
123
169
148
117
168
149
119
168
148
120
187
168
140
210
190
160
225
207
175
236
221
188
245
229
194
247
232
195
250
235
195
250
230
190
242
220
179
241
218
177
247
224
183
245
223
182
246
226
184
253
236
196
254
239
202
245
227
190
246
227
194
232
212
178
216
195
162
204
184
153
203
182
151
192
175
150
150
143
127
69
65
57
53
51
48
67
66
62
62
61
57
52
51
47
69
67
67
76
75
75
56
54
53
67
60
58
108
98
97
129
115
114
150
139
136
168
164
159
229
227
221
255
255
255
255
255
255
255
255
255
255
255
255
255
255
255
255
255
255
255
255
255
255
255
255
255
255
255
255
255
255
255
255
255
255
255
255
255
255
255
255
255
255
255
255
255
255
255
255
255
255
255
255
255
255
255
255
255
255
255
255
255
255
255
255
255
255
255
255
255
255
255
255
255
255
255
255
255
255
255
255
255
255
255
255
255
255
255
255
255
255
255
255
255
255
255
255
255
255
255
255
255
255
255
255
255
255
255
255
255
255
255
255
255
255
255
255
255
255
255
255
255
255
255
255
255
255
255
255
255
255
255
255
255
255
255
255
255
255
255
255
255
255
255
255
255
255
255
255
255
255
255
255
255
255
255
255
255
255
255
255
255
255
255
255
255
255
255
255
255
255
255
255
255
255
255
255
255
255
255
255
255
255
255
255
255
255
255
255
255
255
255
255
255
255
255
255
255
255
255
255
255
255
255
255
255
255
255
255
255
255
255
255
255
255
255
255
255
255
255
255
255
255
255
255
255
255
255
255
255
255
255
255
255
255
255
255
255
255
255
255
255
255
255
255
255
255
255
255
255
255
255
255
255
255
255
255
255
255
255
255
255
255
255
255
255
255
255
255
255
255
255
255
255
255
255
255
255
255
255
255
255
255
255
255
255
255
255
255
255
255
255
255
255
255
255
255
255
255
255
255
255
255
255
255
255
255
255
255
255
255
255
255
255
255
255
255
255
255
255
255
255
255
255
255
255
255
255
255
255
255
255
255
255
255
255
255
255
255
255
255
255
255
255
255
255
255
255
255
255
255
255
255
255
255
255
255
255
255
255
255
255
255
255
255
255
255
255
255
255
255
255
255
255
255
255
255
255
255
255
255
255
255
255
255
255
255
255
255
255
255
255
255
255
255
255
255
255
255
255
255
255
255
255
255
255
255
255
255
255
255
255
255
255
255
255
255
255
255
255
255
255
255
255
255
255
255
255
255
255
255
255
255
255
255
255
255
255
255
255
255
255
255
255
255
255
255
255
255
255
255
255
255
242
255
255
236
255
250
220
254
242
200
255
235
194
224
190
160
196
164
137
179
151
126
177
152
123
187
164
132
181
161
130
185
167
136
187
168
137
189
170
139
196
177
145
218
201
168
234
219
186
243
227
194
248
232
197
250
234
198
252
234
196
249
228
189
237
214
173
225
202
161
228
205
164
233
212
170
248
227
185
253
234
192
250
230
189
252
233
195
242
222
184
228
208
172
232
212
179
223
203
169
215
195
165
179
168
147
88
83
73
66
62
58
68
65
60
59
56
52
66
63
58
68
65
60
68
65
60
81
78
72
76
74
65
74
74
64
80
80
70
113
110
99
215
212
205
255
255
255
255
255
255
255
255
255
255
255
255
255
255
255
255
255
255
255
255
255
255
255
255
255
255
255
255
255
255
255
255
255
255
255
255
255
255
255
255
255
255
255
255
255
255
255
255
255
255
255
255
255
255
255
255
255
255
255
255
255
255
255
255
255
255
255
255
255
255
255
255
255
255
255
255
255
255
255
255
255
255
255
255
255
255
255
255
255
255
255
255
255
255
255
255
255
255
255
255
255
255
255
255
255
255
255
255
255
255
255
255
255
255
255
255
255
255
255
255
255
255
255
255
255
255
255
255
255
255
255
255
255
255
255
255
255
255
255
255
255
255
255
255
255
255
255
255
255
255
255
255
255
255
255
255
255
255
255
255
255
255
255
255
255
255
255
255
255
255
255
255
255
255
255
255
255
255
255
255
255
255
255
255
255
255
255
255
255
255
255
255
255
255
255
255
255
255
255
255
255
255
255
255
255
255
255
255
255
255
255
255
255
255
255
255
255
255
255
255
255
255
255
255
255
255
255
255
255
255
255
255
255
255
255
255
255
255
255
255
255
255
255
255
255
255
255
255
255
255
255
255
255
255
255
255
255
255
255
255
255
255
255
255
255
255
255
255
255
255
255
255
255
255
255
255
255
255
255
255
255
255
255
255
255
255
255
255
255
255
255
255
255
255
255
255
255
255
255
255
255
255
255
255
255
255
255
255
255
255
255
255
255
255
255
255
255
255
255
255
255
255
255
255
255
255
255
255
255
255
255
255
255
255
255
255
255
255
255
255
255
255
255
255
255
255
255
255
255
255
255
255
255
255
255
255
255
255
255
255
255
255
255
255
255
255
255
255
255
255
255
255
255
255
255
255
255
255
255
255
255
255
255
255
255
255
255
255
255
255
255
255
255
255
255
255
255
255
255
255
255
255
255
255
255
255
255
255
255
255
255
255
255
255
255
255
255
255
255
255
255
255
255
255
255
255
255
255
255
255
255
255
255
255
255
255
255
255
255
255
255
255
255
255
255
255
255
255
255
255
255
255
255
255
255
255
255
255
253
255
255
250
255
255
241
255
244
202
233
200
163
194
162
131
176
148
123
184
159
130
199
177
143
208
188
156
208
189
157
198
179
145
190
171
138
193
173
141
207
190
157
223
208
176
236
220
189
245
230
196
247
232
197
248
231
195
243
225
188
239
218
179
236
214
173
230
207
166
219
197
155
222
200
156
229
207
162
242
220
177
251
228
187
241
220
179
230
210
171
233
212
175
236
215
180
236
214
180
223
205
178
153
140
122
134
122
110
131
123
111
125
120
107
121
117
104
124
119
108
111
107
96
113
107
97
113
107
95
122
118
104
150
144
131
191
185
171
249
248
242
255
255
255
255
255
255
255
255
255
255
255
255
255
255
255
255
255
255
255
255
255
255
255
255
255
255
255
255
255
255
255
255
255
255
255
255
255
255
255
255
255
255
255
255
255
255
255
255
255
255
255
255
255
255
255
255
255
255
255
255
255
255
255
255
255
255
255
255
255
255
255
255
255
255
255
255
255
255
255
255
255
255
255
255
255
255
255
255
255
255
255
255
255
255
255
255
255
255
255
255
255
255
255
255
255
255
255
255
255
255
255
255
255
255
255
255
255
255
255
255
255
255
255
255
255
255
255
255
255
255
255
255
255
255
255
255
255
255
255
255
255
255
255
255
255
255
255
255
255
255
255
255
255
255
255
255
255
255
255
255
255
255
255
255
255
255
255
255
255
255
255
255
255
255
255
255
255
255
255
255
255
255
255
255
255
255
255
255
255
255
255
255
255
255
255
255
255
255
255
255
255
255
255
255
255
255
255
255
255
255
255
255
255
255
255
255
255
255
255
255
255
255
255
255
255
255
255
255
255
255
255
255
255
255
255
255
255
255
255
255
255
255
255
255
255
255
255
255
255
255
255
255
255
255
255
255
255
255
255
255
255
255
255
255
255
255
255
255
255
255
255
255
255
255
255
255
255
255
255
255
255
255
255
255
255
255
255
255
255
255
255
255
255
255
255
255
255
255
255
255
255
255
255
255
255
255
255
255
255
255
255
255
255
255
255
255
255
255
255
255
255
255
255
255
255
255
255
255
255
255
255
255
255
255
255
255
255
255
255
255
255
255
255
255
255
255
255
255
255
255
255
255
255
255
255
255
255
255
255
255
255
255
255
255
255
255
255
255
255
255
255
255
255
255
255
255
255
255
255
255
255
255
255
255
255
255
255
255
255
255
255
255
255
255
255
255
255
255
255
255
255
255
255
255
255
255
255
255
255
255
255
255
255
255
255
255
255
255
255
255
255
255
255
255
255
255
255
255
255
255
255
255
255
255
255
255
255
255
255
255
255
255
255
255
255
255
255
255
255
255
255
255
255
255
255
255
255
255
255
255
255
255
255
255
253
255
254
235
240
214
173
189
158
128
171
144
117
220
196
164
226
206
166
216
195
158
211
191
156
215
195
160
215
195
160
207
187
153
212
195
162
227
212
181
239
224
194
248
233
201
253
238
204
251
235
201
251
236
202
251
234
199
247
228
190
239
218
178
236
215
173
228
207
166
226
204
163
227
204
163
239
214
174
240
216
173
233
210
167
232
209
166
240
216
176
236
211
174
237
215
179
220
202
170
205
188
163
178
164
144
166
155
136
182
174
153
179
171
150
174
165
144
179
171
151
193
185
165
201
192
167
227
215
186
253
252
239
255
255
255
255
255
255
255
255
255
255
255
255
255
255
255
255
255
255
255
255
255
255
255
255
255
255
255
255
255
255
255
255
255
255
255
255
255
255
255
255
255
255
255
255
255
255
255
255
255
255
255
255
255
255
255
255
255
255
255
255
255
255
255
255
255
255
255
255
255
255
255
255
255
255
255
255
255
255
255
255
255
255
255
255
255
255
255
255
255
255
255
255
255
255
255
255
255
255
255
255
255
255
255
255
255
255
255
255
255
255
255
255
255
255
255
255
255
255
255
255
255
255
255
255
255
255
255
255
255
255
255
255
255
255
255
255
255
255
255
255
255
255
255
255
255
255
255
255
255
255
255
255
255
255
255
255
255
255
255
255
255
255
255
255
255
255
255
255
255
255
255
255
255
255
255
255
255
255
255
255
255
255
255
255
255
255
255
255
255
255
255
255
255
255
255
255
255
255
255
255
255
255
255
255
255
255
255
255
255
255
255
255
255
255
255
255
255
255
255
255
255
255
255
255
255
255
255
255
255
255
255
255
255
255
255
255
255
255
255
255
255
255
255
255
255
255
255
255
255
255
255
255
255
255
255
255
255
255
255
255
255
255
255
255
255
255
255
255
255
255
255
255
255
255
255
255
255
255
255
255
255
255
255
255
255
255
255
255
255
255
255
255
255
255
255
255
255
255
255
255
255
255
255
255
255
255
255
255
255
255
255
255
255
255
255
255
255
255
255
255
255
255
255
255
255
255
255
255
255
255
255
255
255
255
255
255
255
255
255
255
255
255
255
255
255
255
255
255
255
255
255
255
255
255
255
255
255
255
255
255
255
255
255
255
255
255
255
255
255
255
255
255
255
255
255
255
255
255
255
255
255
255
255
255
255
255
255
255
255
255
255
255
255
255
255
255
255
255
255
255
255
255
255
255
255
255
255
255
255
255
255
255
255
255
255
255
255
255
255
255
255
255
255
255
255
255
255
255
255
255
255
255
255
255
255
255
255
255
255
255
255
255
255
255
255
255
255
255
255
255
255
255
255
255
255
255
255
255
255
255
255
255
255
255
255
255
255
255
255
255
254
240
219
180
179
147
117
180
155
126
248
237
202
244
222
181
225
202
163
212
190
152
210
190
152
214
194
156
206
187
152
211
194
161
227
212
181
244
229
200
252
238
206
252
238
204
254
239
205
253
237
203
250
236
201
253
239
203
255
239
201
253
237
197
248
231
191
241
222
182
232
211
170
234
211
170
238
214
170
241
216
171
232
207
162
236
211
166
238
212
170
239
213
172
241
217
176
235
214
175
217
197
163
207
188
156
215
198
166
200
183
151
214
197
165
214
198
165
233
217
182
241
227
187
253
248
207
255
255
250
255
255
255
255
255
255
255
255
255
255
255
255
255
255
255
255
255
255
255
255
255
255
255
255
255
255
255
255
255
255
255
255
255
255
255
255
255
255
255
255
255
255
255
255
255
255
255
255
255
255
255
255
255
255
255
255
255
255
255
255
255
255
255
255
255
255
255
255
255
255
255
255
255
255
255
255
255
255
255
255
255
255
255
255
255
255
255
255
255
255
255
255
255
255
255
255
255
255
255
255
255
255
255
255
255
255
255
255
255
255
255
255
255
255
255
255
255
255
255
255
255
255
255
255
255
255
255
255
255
255
255
255
255
255
255
255
255
255
255
255
255
255
255
255
255
255
255
255
255
255
255
255
255
255
255
255
255
255
255
255
255
255
255
255
255
255
255
255
255
255
255
255
255
255
255
255
255
255
255
255
255
255
255
255
255
255
255
255
255
255
255
255
255
255
255
255
255
255
255
255
255
255
255
255
255
255
255
255
255
255
255
255
255
255
255
255
255
255
255
255
255
255
255
255
255
255
255
255
255
255
255
255
255
255
255
255
255
255
255
255
255
255
255
255
255
255
255
255
255
255
255
255
255
255
255
255
255
255
255
255
255
255
255
255
255
255
255
255
255
255
255
255
255
255
255
255
255
255
255
255
255
255
255
255
255
255
255
255
255
255
255
255
255
255
255
255
255
255
255
255
255
255
255
255
255
255
255
255
255
255
255
255
255
255
255
255
255
255
255
255
255
255
255
255
255
255
255
255
255
255
255
255
255
255
255
255
255
255
255
255
255
255
255
255
255
255
255
255
255
255
255
255
255
255
255
255
255
255
255
255
255
255
255
255
255
255
255
255
255
255
255
255
255
255
255
255
255
255
255
255
255
255
255
255
255
255
255
255
255
255
255
255
255
255
255
255
255
255
255
255
255
255
255
255
255
255
255
255
255
255
255
255
255
255
255
255
255
255
255
255
255
255
255
255
255
255
255
255
255
255
255
255
255
255
255
255
255
255
255
255
255
255
255
255
255
255
255
255
255
255
255
255
255
255
255
255
255
255
255
255
255
255
255
255
255
255
255
255
255
255
255
245
229
209
189
155
121
223
208
186
255
253
223
253
238
195
242
219
178
224
201
163
217
196
158
218
199
162
218
199
165
214
197
164
231
215
184
249
235
205
255
246
214
255
247
214
255
243
210
255
246
214
255
253
223
255
253
223
255
253
220
255
254
221
255
251
215
255
247
208
250
232
191
246
225
184
240
217
173
237
212
167
244
217
173
246
218
172
251
228
183
253
233
188
253
237
193
253
236
192
249
229
187
249
233
191
245
225
182
247
224
183
247
226
184
251
237
193
254
247
206
255
253
226
255
255
246
255
255
255
255
255
255
255
255
255
255
255
255
255
255
255
255
255
255
255
255
255
255
255
255
255
255
255
255
255
255
255
255
255
255
255
255
255
255
255
255
255
255
255
255
255
255
255
255
255
255
255
255
255
255
255
255
255
255
255
255
255
255
255
255
255
255
255
255
255
255
255
255
255
255
255
255
255
255
255
255
255
255
255
255
255
255
255
255
255
255
255
255
255
255
255
255
255
255
255
255
255
255
255
255
255
255
255
255
255
255
255
255
255
255
255
255
255
255
255
255
255
255
255
255
255
255
255
255
255
255
255
255
255
255
255
255
255
255
255
255
255
255
255
255
255
255
255
255
255
255
255
255
255
255
255
255
255
255
255
255
255
255
255
255
255
255
255
255
255
255
255
255
255
255
255
255
255
255
255
255
255
255
254
255
255
253
255
255
253
255
255
254
255
255
255
255
255
255
255
255
255
255
255
255
255
255
255
255
255
255
255
255
255
255
255
255
255
255
255
255
255
255
255
255
255
255
255
255
255
255
255
255
255
255
255
255
255
255
255
255
255
255
255
255
255
255
255
255
255
255
255
255
255
255
255
255
255
255
255
255
255
255
255
255
255
255
255
255
255
255
255
255
255
255
255
255
255
255
255
255
255
255
255
255
255
255
255
255
255
255
255
255
255
255
255
255
255
255
255
255
255
255
255
255
255
255
255
255
255
255
255
255
255
255
255
255
255
255
255
255
255
255
255
255
255
255
255
255
255
255
255
255
255
255
255
255
255
255
255
255
255
255
255
255
255
255
255
255
255
255
255
255
255
255
255
255
255
255
255
255
255
255
255
255
255
255
255
255
255
255
255
255
255
255
255
255
255
255
255
255
255
255
255
255
255
255
255
255
255
255
255
255
255
255
255
255
255
255
255
255
255
255
255
255
255
255
255
255
255
255
255
255
255
255
255
255
255
255
255
255
255
255
255
255
255
255
255
255
255
255
255
255
255
255
255
255
255
255
255
255
255
255
255
255
255
255
255
255
255
255
255
255
255
255
255
255
255
255
255
255
255
255
255
255
255
255
255
255
255
255
255
255
255
255
248
241
222
230
200
162
254
251
244
255
255
249
255
253
221
254
238
197
244
222
182
230
209
171
219
201
164
228
209
175
225
208
175
226
211
180
248
233
204
255
246
214
255
248
214
255
247
214
255
253
224
255
254
226
255
255
231
255
255
232
255
255
237
255
255
227
255
252
217
255
249
210
255
241
198
253
233
189
249
227
182
248
223
180
245
220
176
255
238
194
253
235
191
255
247
205
255
254
217
255
255
239
255
255
251
255
255
251
255
255
249
255
255
250
255
255
254
255
255
254
255
255
255
255
255
255
255
255
255
255
255
255
255
255
255
255
255
255
255
255
255
255
255
255
255
255
255
255
255
255
255
255
255
255
255
255
255
255
255
255
255
255
255
255
255
255
255
255
255
255
255
255
255
255
255
255
255
255
255
255
255
255
255
255
255
255
255
255
255
255
255
255
255
255
255
255
255
255
255
255
255
255
255
255
255
255
255
255
255
255
255
255
255
255
255
255
255
255
255
255
255
255
255
255
255
255
255
255
255
255
255
255
255
255
255
255
255
255
255
255
255
255
255
255
255
255
255
255
255
255
255
255
255
255
255
255
255
255
255
255
255
255
255
255
255
255
255
255
255
255
255
255
255
255
255
255
255
255
255
255
255
255
255
255
255
255
255
255
255
255
255
255
255
255
255
255
255
255
255
255
255
255
252
255
255
247
255
255
243
255
255
242
255
255
242
255
255
247
255
255
251
255
255
253
255
255
254
255
255
255
255
255
255
255
255
255
255
255
255
255
255
255
255
255
255
255
255
255
255
255
255
255
255
255
255
255
255
255
255
255
255
255
255
255
255
255
255
255
255
255
255
255
255
255
255
255
255
255
255
255
255
255
255
255
255
255
255
255
255
255
255
255
255
255
255
255
255
255
255
255
255
255
255
255
255
255
255
255
255
255
255
255
255
255
255
255
255
255
255
255
255
255
255
255
255
255
255
255
255
255
255
255
255
255
255
255
255
255
255
255
255
255
255
255
255
255
255
255
255
255
255
255
255
255
255
255
255
255
255
255
255
255
255
255
255
255
255
255
255
255
255
255
255
255
255
255
255
255
255
255
255
255
255
255
255
255
255
255
255
255
255
255
255
255
255
255
255
255
255
255
255
255
255
255
255
255
255
255
255
255
255
255
255
255
255
255
255
255
255
255
255
255
255
255
255
255
255
255
255
255
255
255
255
255
255
255
255
255
255
255
255
255
255
255
255
255
255
255
255
255
255
255
255
255
255
255
255
255
255
255
255
255
255
255
255
255
255
255
255
255
255
255
255
255
255
255
255
255
255
255
255
255
255
255
255
255
255
255
255
255
255
255
255
255
255
255
255
255
255
255
255
254
243
254
246
219
255
255
255
255
255
255
255
255
243
255
252
219
253
236
195
251
229
191
250
233
197
243
224
190
237
220
187
237
221
190
246
230
201
252
240
208
255
243
209
253
239
206
253
239
207
255
247
213
255
255
228
255
255
232
255
255
234
255
255
232
255
255
223
255
254
213
255
250
206
255
247
202
254
242
196
243
220
176
244
222
183
254
236
197
247
225
185
255
250
212
255
254
226
255
255
249
255
255
255
255
255
255
255
255
255
255
255
255
255
255
255
255
255
255
255
255
255
255
255
255
255
255
255
255
255
255
255
255
255
255
255
255
255
255
255
255
255
255
255
255
255
255
255
255
255
255
255
255
255
255
255
255
255
255
255
255
255
255
255
255
255
255
255
255
255
255
255
255
255
255
255
255
255
255
255
255
255
255
255
255
255
255
255
255
255
255
255
255
255
255
255
255
255
255
255
255
255
255
255
255
255
255
255
255
255
255
255
255
255
255
255
255
255
255
255
255
255
255
255
255
255
255
255
255
255
255
255
255
255
255
255
255
255
255
255
255
255
255
255
255
255
255
255
255
255
255
255
255
255
255
255
255
255
255
255
255
255
255
255
255
255
255
255
255
255
255
255
255
255
255
255
255
255
255
255
255
255
255
255
255
255
255
255
255
255
255
255
255
255
255
255
255
255
252
255
255
240
255
255
231
255
255
229
255
255
229
255
255
229
255
255
234
255
255
239
255
255
242
255
255
245
255
255
250
255
255
254
255
255
255
255
255
255
255
255
255
255
255
255
255
255
255
255
255
255
255
255
255
255
255
255
255
255
255
255
255
255
255
255
255
255
255
255
255
255
255
255
255
255
255
255
255
255
255
255
255
255
255
255
255
255
255
255
255
255
255
255
255
255
255
255
255
255
255
255
255
255
255
255
255
255
255
255
255
255
255
255
255
255
255
255
255
255
255
255
255
255
255
255
255
255
255
255
255
255
255
255
255
255
255
255
255
255
255
255
255
255
255
255
255
255
255
255
255
255
255
255
255
255
255
255
255
255
255
255
255
255
255
255
255
255
255
255
255
255
255
255
255
255
255
255
255
255
255
255
255
255
255
255
255
255
255
255
255
255
255
255
255
255
255
255
255
255
255
255
255
255
255
255
255
255
255
255
255
255
255
255
255
255
255
255
255
255
255
255
255
255
255
255
255
255
255
255
255
255
255
255
255
255
255
255
255
255
255
255
255
255
255
255
255
255
255
255
255
255
255
255
255
255
255
255
255
255
255
255
255
255
255
255
255
255
255
255
255
255
255
255
255
255
255
255
255
255
255
255
255
255
255
255
255
255
255
255
255
255
255
255
255
255
255
255
255
255
255
255
255
253
255
255
251
255
255
255
255
255
255
255
255
253
255
255
235
255
249
214
255
241
207
255
245
210
254
247
212
246
231
198
242
225
194
246
229
201
247
230
202
251
235
206
250
234
204
249
232
202
254
245
214
255
251
222
255
255
227
255
255
226
255
254
224
255
254
218
255
254
213
255
253
209
255
244
200
254
239
196
236
217
175
249
235
196
252
233
197
241
218
183
254
248
215
255
255
235
255
255
247
255
255
254
255
255
255
255
255
255
255
255
255
255
255
255
255
255
255
255
255
255
255
255
255
255
255
255
255
255
255
255
255
255
255
255
255
255
255
255
255
255
255
255
255
255
255
255
255
255
255
255
255
255
255
255
255
255
255
255
255
255
255
255
255
255
255
255
255
255
255
255
255
255
255
255
255
255
255
255
255
255
255
255
255
255
255
255
255
255
255
255
255
255
255
255
255
255
255
255
255
255
255
255
255
255
255
255
255
255
255
255
255
255
255
255
255
255
255
255
255
255
255
255
255
255
255
255
255
255
255
255
255
255
255
255
255
255
255
255
255
255
255
255
255
255
255
255
255
255
255
255
255
255
255
255
255
255
255
255
255
255
255
255
255
255
255
255
255
255
255
255
255
255
255
255
255
255
255
255
255
255
255
255
255
255
255
255
255
255
255
255
254
255
255
249
255
255
243
255
255
234
255
255
229
255
255
231
255
255
230
255
255
228
255
255
228
255
255
230
255
255
228
255
255
237
255
255
244
255
255
251
255
255
252
255
255
254
255
255
254
255
255
253
255
255
252
255
255
255
255
255
255
255
255
255
255
255
255
255
255
255
255
255
255
255
255
255
255
255
255
255
255
255
255
255
255
255
255
255
255
255
255
255
255
255
255
255
255
255
255
255
255
255
255
255
255
255
255
255
255
255
255
255
255
255
255
255
255
255
255
255
255
255
255
255
255
255
255
255
255
255
255
255
255
255
255
255
255
255
255
255
255
255
255
255
255
255
255
255
255
255
255
255
255
255
255
255
255
255
255
255
255
255
255
255
255
255
255
255
255
255
255
255
255
255
255
255
255
255
255
255
255
255
255
255
255
255
255
255
255
255
255
255
255
255
255
255
255
255
255
255
255
255
255
255
255
255
255
255
255
255
255
255
255
255
255
255
255
255
255
255
255
255
255
255
255
255
255
255
255
255
255
255
255
255
255
255
255
255
255
255
255
255
255
255
255
255
255
255
255
255
255
255
255
255
255
255
255
255
255
255
255
255
255
255
255
255
255
255
255
255
255
255
255
255
255
255
255
255
255
255
255
255
255
255
255
255
255
255
255
255
255
255
255
255
255
255
255
255
255
255
255
255
255
255
255
255
255
255
255
255
255
255
255
255
255
255
255
255
255
255
255
254
255
255
243
255
254
225
255
247
214
255
254
221
255
252
220
253
241
210
246
230
201
240
223
196
241
224
196
243
226
198
244
227
200
244
227
201
248
232
201
251
238
205
239
227
196
241
228
192
240
226
190
255
244
209
255
249
215
255
248
210
248
232
193
237
217
179
220
200
162
243
234
198
254
242
206
254
241
207
255
253
224
255
255
245
255
255
255
255
255
254
255
255
255
255
255
255
255
255
255
255
255
255
255
255
255
255
255
255
255
255
255
255
255
255
255
255
255
255
255
255
255
255
255
255
255
255
255
255
255
255
255
255
255
255
255
255
255
255
255
255
255
255
255
255
255
255
255
255
255
255
255
255
255
255
255
255
255
255
255
255
255
255
255
255
255
255
255
255
255
255
255
255
255
255
255
255
255
255
255
255
255
255
255
255
255
255
255
255
255
255
255
255
255
255
255
255
255
255
255
255
255
255
255
255
255
255
255
255
255
255
255
255
255
255
255
255
255
255
255
255
255
255
255
255
255
255
255
255
255
255
255
255
255
255
255
255
255
255
255
255
255
255
255
255
255
255
255
255
255
255
255
255
255
255
255
255
255
255
255
255
255
255
255
255
255
255
255
255
255
255
255
255
255
255
255
255
255
255
252
255
255
244
255
255
239
255
255
229
255
255
229
255
255
231
255
255
232
255
255
231
255
255
230
255
255
231
255
255
225
255
255
229
255
255
236
255
255
241
255
255
246
255
255
249
255
255
248
255
255
247
255
255
249
255
255
253
255
255
254
255
255
254
255
255
255
255
255
255
255
255
255
255
255
255
255
255
255
255
255
255
255
255
255
255
255
255
255
255
255
255
255
255
255
255
255
255
255
255
255
255
255
255
255
255
255
255
255
255
255
255
255
255
255
255
255
255
255
255
255
255
255
255
255
255
255
255
255
255
255
255
255
255
255
255
255
255
255
255
255
255
255
255
255
255
255
255
255
255
255
255
255
255
255
255
255
255
255
255
255
255
255
255
255
255
255
255
255
255
255
255
255
255
255
255
255
255
255
255
255
255
255
255
255
255
255
255
255
255
255
255
255
255
255
255
255
255
255
255
255
255
255
255
255
255
255
255
255
255
255
255
255
255
255
255
255
255
255
255
255
255
255
255
255
255
255
255
255
255
255
255
255
255
255
255
255
255
255
255
255
255
255
255
255
255
255
255
255
255
255
255
255
255
255
255
255
255
255
255
255
255
255
255
255
255
255
255
255
255
255
255
255
255
255
255
255
255
255
255
255
255
255
255
255
255
255
255
255
255
255
255
255
255
255
255
255
255
255
255
255
255
255
255
255
255
255
255
255
255
255
255
255
255
255
255
255
255
255
255
255
254
255
255
243
255
254
229
255
248
215
255
242
209
253
241
209
248
233
204
242
226
199
242
225
197
244
226
199
251
234
208
251
239
213
251
235
209
250
233
205
239
222
192
224
207
178
220
204
171
223
207
174
244
227
194
253
242
209
251
238
204
253
242
208
232
212
178
219
199
165
241
228
191
255
252
219
255
254
229
255
255
237
255
255
246
255
255
253
255
255
255
255
255
255
255
255
255
255
255
255
255
255
255
255
255
255
255
255
255
255
255
255
255
255
255
255
255
255
255
255
255
255
255
255
255
255
255
255
255
255
255
255
255
255
255
255
255
255
255
255
255
255
255
255
255
255
255
255
255
255
255
255
255
255
255
255
255
255
255
255
255
255
255
255
255
255
255
255
255
255
255
255
255
255
255
255
255
255
255
255
255
255
255
255
255
255
255
255
255
255
255
255
255
255
255
255
255
255
255
255
255
255
255
255
255
255
255
255
255
255
255
255
255
255
255
255
255
255
255
255
255
255
255
255
255
255
255
255
255
255
255
255
255
255
255
255
255
255
255
255
255
255
255
255
255
255
255
255
255
255
255
255
255
255
255
255
255
255
255
255
255
255
255
255
255
255
255
255
255
255
255
255
255
255
255
255
254
255
255
250
255
255
241
255
255
234
255
255
232
255
255
230
255
255
235
255
255
238
255
255
236
255
255
232
255
255
226
255
255
224
255
255
227
255
255
232
255
255
235
255
255
240
255
255
245
255
255
249
255
255
249
255
255
252
255
255
248
255
255
250
255
255
250
255
255
255
255
255
255
255
255
255
255
255
255
255
255
255
255
255
255
255
255
255
255
255
255
255
255
255
255
255
255
255
255
255
255
255
255
255
255
255
255
255
255
255
255
255
255
255
255
255
255
255
255
255
255
255
255
255
255
255
255
255
255
255
255
255
255
255
255
255
255
255
255
255
255
255
255
255
255
255
255
255
255
255
255
255
255
255
255
255
255
255
255
255
255
255
255
255
255
255
255
255
255
255
255
255
255
255
255
255
255
255
255
255
255
255
255
255
255
255
255
255
255
255
255
255
255
255
255
255
255
255
255
255
255
255
255
255
255
255
255
255
255
255
255
255
255
255
255
255
255
255
255
255
255
255
255
255
255
255
255
255
255
255
255
255
255
255
255
255
255
255
255
255
255
255
255
255
255
255
255
255
255
255
255
255
255
255
255
255
255
255
255
255
255
255
255
255
255
255
255
255
255
255
255
255
255
255
255
255
255
255
255
255
255
255
255
255
255
255
255
255
255
255
255
255
255
255
255
255
255
255
255
255
255
255
255
255
255
255
255
255
255
255
255
255
255
255
255
255
255
255
255
255
255
255
255
255
254
255
255
242
255
255
233
255
254
228
255
253
227
255
252
229
255
252
228
253
244
217
243
225
201
241
223
201
246
228
208
252
239
217
249
234
209
244
227
200
245
228
200
232
215
187
232
215
186
243
226
197
245
227
198
253
234
202
250
232
200
255
246
214
252
235
202
238
218
185
249
233
197
254
239
203
255
253
227
255
255
249
255
255
251
255
255
254
255
255
255
255
255
255
255
255
255
255
255
255
255
255
255
255
255
255
255
255
255
255
255
255
255
255
255
255
255
255
255
255
255
255
255
255
255
255
255
255
255
255
255
255
255
255
255
255
255
255
255
255
255
255
255
255
255
255
255
255
255
255
255
255
255
255
255
255
255
255
255
255
255
255
255
255
255
255
255
255
255
255
255
255
255
255
255
255
255
255
255
255
255
255
255
255
255
255
255
255
255
255
255
255
255
255
255
255
255
255
255
255
255
255
255
255
255
255
255
255
255
255
255
255
255
255
255
255
255
255
255
255
255
255
255
255
255
255
255
255
255
255
255
255
255
255
255
255
255
255
255
255
255
255
255
255
255
255
255
255
255
255
255
255
255
255
255
255
255
255
255
255
255
255
255
255
255
255
255
255
255
255
255
255
255
254
255
255
246
255
255
241
255
255
235
255
255
230
255
255
233
255
255
236
255
255
239
255
255
240
255
255
238
255
255
232
255
255
223
255
255
221
255
255
227
255
255
231
255
255
236
255
255
241
255
255
248
255
255
255
255
255
255
255
255
255
255
255
254
255
255
255
255
255
255
255
255
255
255
255
255
255
255
255
255
255
255
255
255
255
255
255
255
255
255
255
255
255
255
255
255
255
255
255
255
255
255
255
255
255
255
255
255
255
255
255
255
255
255
255
255
255
255
255
255
255
255
255
255
255
255
255
255
255
255
255
255
255
255
255
255
255
255
255
255
255
255
255
255
255
255
255
255
255
255
255
255
255
255
255
255
253
255
255
251
255
255
255
255
255
255
255
255
255
255
255
255
255
255
255
255
255
255
255
255
255
255
255
255
255
255
255
255
255
255
255
255
255
255
255
255
255
255
255
255
255
255
255
255
255
255
255
255
255
255
255
255
255
255
255
255
255
255
255
255
255
255
255
255
255
255
255
255
255
255
255
255
255
255
255
255
255
255
255
255
255
255
255
255
255
255
255
255
255
255
255
255
255
255
255
255
255
255
255
255
255
255
255
255
255
255
255
255
255
255
255
255
255
255
255
255
255
255
255
255
255
255
255
255
255
255
255
255
255
255
255
255
255
255
255
255
255
255
255
255
255
255
255
255
255
255
255
255
255
255
255
255
255
255
255
255
255
255
255
255
255
255
255
255
255
255
255
255
255
255
251
255
255
246
255
255
241
255
255
240
255
255
235
255
251
227
254
246
220
254
242
217
252
242
220
255
251
232
255
251
227
255
248
220
254
242
213
254
243
215
251
235
207
241
224
198
242
225
199
253
236
209
254
242
210
245
226
194
248
230
197
253
239
206
244
224
192
247
231
197
255
249
217
255
253
227
255
255
245
255
255
255
255
255
255
255
255
255
255
255
255
255
255
255
255
255
255
255
255
255
255
255
255
255
255
255
255
255
255
255
255
255
255
255
255
255
255
255
255
255
255
255
255
255
255
255
255
255
255
255
255
255
255
255
255
255
255
255
255
255
255
255
255
255
255
255
255
255
255
255
255
255
255
255
255
255
255
255
255
255
255
255
255
255
255
255
255
255
255
255
255
255
255
255
255
255
255
255
255
255
255
255
255
255
255
255
255
255
255
255
255
255
255
255
255
255
255
255
255
255
255
255
255
255
255
255
255
255
255
255
255
255
255
255
255
255
255
255
255
255
255
255
255
255
255
255
255
255
255
255
255
255
255
255
255
255
255
255
255
255
255
255
255
255
255
255
255
255
255
255
255
255
255
255
255
255
255
255
255
255
255
255
255
255
255
255
255
255
255
255
252
255
255
243
255
255
235
255
255
233
255
255
234
255
255
240
255
255
244
255
255
244
255
255
243
255
255
241
255
255
238
255
255
231
255
255
229
255
255
232
255
255
234
255
255
238
255
255
242
255
255
253
255
255
255
255
255
255
255
255
255
255
255
255
255
255
255
255
255
255
255
255
255
255
255
255
255
255
255
255
255
255
255
255
255
255
255
255
255
255
255
255
255
255
255
255
255
255
255
255
255
255
255
255
255
255
255
255
255
255
255
255
255
255
255
255
255
255
255
255
255
255
255
255
255
255
255
255
255
255
255
255
255
255
255
255
255
255
255
255
255
255
255
255
255
255
255
255
255
255
254
255
255
250
255
255
244
255
255
244
255
255
250
255
255
255
255
255
255
255
255
255
255
255
255
255
255
255
255
255
255
255
255
255
255
255
255
255
255
255
255
255
255
255
255
255
255
255
255
255
255
255
255
255
255
255
255
255
255
255
255
255
255
255
255
255
254
255
255
253
255
255
253
255
255
254
255
255
254
255
255
254
255
255
255
255
255
255
255
255
255
255
255
255
255
255
255
255
255
255
255
255
255
255
255
255
255
255
255
255
255
255
255
255
255
255
255
255
255
255
255
255
255
255
255
255
255
255
255
255
255
255
255
255
255
255
255
255
255
255
255
255
255
255
255
255
255
255
255
255
255
255
255
255
255
255
255
255
255
255
255
255
255
255
255
255
255
255
255
255
255
255
255
255
255
255
255
255
255
255
255
255
255
249
255
255
237
255
255
230
255
253
225
255
253
226
255
251
228
254
248
223
252
241
216
251
240
215
255
251
225
255
254
228
254
245
218
254
242
216
255
242
215
251
233
208
246
228
203
252
236
209
255
249
218
248
228
200
248
227
199
253
235
205
255
239
208
254
248
216
255
253
224
255
255
235
255
255
245
255
255
254
255
255
253
255
255
255
255
255
255
255
255
255
255
255
255
255
255
255
255
255
255
255
255
255
255
255
255
255
255
255
255
255
255
255
255
255
255
255
255
255
255
255
255
255
255
255
255
255
255
255
255
255
255
255
255
255
255
255
255
255
255
255
255
255
255
255
255
255
255
255
255
255
255
255
255
255
255
255
255
255
255
255
255
255
255
255
255
255
255
255
255
255
255
255
255
255
255
255
255
255
255
255
255
255
255
255
255
255
255
255
255
255
255
255
255
255
255
255
255
255
255
255
255
255
255
255
255
255
255
255
255
255
255
255
255
255
255
255
255
255
255
255
255
255
255
255
255
255
255
255
255
255
255
255
255
255
255
255
255
255
255
255
255
255
255
255
255
255
255
255
255
255
255
255
255
255
255
255
255
255
255
255
255
255
255
255
255
255
252
255
255
243
255
255
239
255
255
241
255
255
246
255
255
251
255
255
252
255
255
252
255
255
249
255
255
247
255
255
246
255
255
246
255
255
245
255
255
244
255
255
236
255
255
234
255
255
249
255
255
255
255
255
255
255
255
255
255
255
255
255
255
255
255
255
255
255
255
255
255
255
255
255
255
255
255
255
255
255
255
255
255
255
255
255
255
255
255
255
255
255
255
255
255
255
255
255
255
255
255
255
255
255
255
255
255
255
255
255
255
255
255
255
255
255
255
255
255
255
255
255
255
255
255
255
255
255
255
255
255
255
255
255
255
255
255
255
255
255
255
255
255
255
255
255
255
254
255
255
248
255
255
242
255
255
240
255
255
242
255
255
245
255
255
254
255
255
255
255
255
255
255
255
255
255
255
255
255
255
255
255
255
255
255
255
255
255
255
255
255
255
255
255
255
255
255
255
253
255
255
254
255
255
245
255
255
245
255
255
247
255
255
245
255
255
248
255
255
243
255
255
242
255
255
245
255
255
244
255
255
244
255
255
248
255
255
254
255
255
255
255
255
255
255
255
255
255
255
255
255
255
255
255
255
255
255
255
255
255
255
255
255
255
255
255
255
255
255
255
255
255
255
255
255
255
255
255
255
255
255
255
255
255
255
255
255
255
255
255
255
255
255
255
255
255
255
255
255
255
255
255
255
255
255
255
255
255
255
255
255
255
255
255
255
255
255
255
255
255
255
255
255
255
255
255
255
255
255
255
255
255
255
247
255
255
238
255
255
232
255
255
239
255
254
236
255
250
231
255
252
231
255
251
229
255
254
232
255
254
231
254
249
225
247
233
209
253
238
214
253
241
216
251
235
210
251
235
211
254
245
219
254
240
212
249
230
203
245
224
199
251
234
207
255
247
216
255
254
229
255
255
248
255
255
251
255
255
249
255
254
242
255
255
250
255
255
254
255
255
255
255
255
255
255
255
255
255
255
255
255
255
255
255
255
255
255
255
255
255
255
255
255
255
255
255
255
255
255
255
255
255
255
255
255
255
255
255
255
255
255
255
255
255
255
255
255
255
255
255
255
255
255
255
255
255
255
255
255
255
255
255
255
255
255
255
255
255
255
255
255
255
255
255
255
255
255
255
255
255
255
255
255
255
255
255
255
255
255
255
255
255
255
255
255
255
255
255
255
255
255
255
255
255
255
255
255
255
255
255
255
255
255
255
255
255
255
255
255
255
255
255
255
255
255
255
255
255
255
255
255
255
255
255
255
255
255
255
255
255
255
255
255
255
255
255
255
255
255
255
255
255
255
255
255
255
255
255
255
255
255
255
255
255
255
255
255
255
255
255
255
255
255
255
255
255
255
255
255
255
255
255
255
252
255
255
246
255
255
244
255
255
248
255
255
253
255
255
253
255
255
253
255
255
255
255
255
254
255
255
255
255
255
255
255
255
253
255
255
251
255
255
244
255
255
241
255
255
253
255
255
255
255
255
255
255
255
255
255
255
255
255
255
255
255
255
255
255
255
255
255
255
255
255
255
255
255
255
255
255
255
255
255
255
255
255
255
255
255
255
255
255
255
255
255
255
255
255
255
255
255
255
255
255
255
255
255
255
255
255
255
255
255
255
255
255
255
255
255
255
255
255
255
255
255
255
255
255
255
255
255
255
255
255
255
255
255
255
255
255
255
255
255
255
255
255
255
255
255
255
249
255
255
239
255
255
237
255
255
243
255
255
246
255
255
255
255
255
255
255
255
255
255
255
255
255
255
255
255
255
255
255
255
255
255
255
255
255
255
255
255
255
255
255
255
255
255
255
255
255
255
255
255
255
248
255
255
236
255
255
233
255
255
234
255
255
236
255
255
236
255
255
239
255
255
245
255
255
241
255
255
242
255
255
245
255
255
254
255
255
255
255
255
255
255
255
255
255
255
255
255
255
255
255
255
255
255
255
255
255
255
255
255
255
255
255
255
255
255
255
255
255
255
255
255
255
255
255
255
255
255
255
255
255
255
255
255
255
255
255
255
255
255
255
255
255
255
255
255
255
255
255
255
255
255
255
255
255
255
255
255
255
255
255
255
255
255
255
255
255
255
255
255
255
255
255
255
255
255
255
254
255
255
249
255
255
238
255
255
240
255
255
244
255
255
249
255
255
248
255
255
233
255
254
242
255
255
245
255
253
239
253
245
224
254
248
229
254
245
222
252
240
217
255
241
218
255
244
220
250
235
212
253
238
213
253
238
211
251
235
207
254
242
213
255
251
220
255
255
242
255
255
255
255
255
255
255
255
252
255
250
232
255
253
246
255
255
250
255
255
254
255
255
255
255
255
255
255
255
255
255
255
255
255
255
255
255
255
255
255
255
255
255
255
255
255
255
255
255
255
255
255
255
255
255
255
255
255
255
255
255
255
255
255
255
255
255
255
255
255
255
255
255
255
255
255
255
255
255
255
255
255
255
255
255
255
255
255
255
255
255
255
255
255
255
255
255
255
255
255
255
255
255
255
255
255
255
255
255
255
255
255
255
255
255
255
255
255
255
255
255
255
255
255
255
255
255
255
255
255
255
255
255
255
255
255
255
255
255
255
255
255
255
255
255
255
255
255
255
255
255
255
255
255
255
255
255
255
255
255
255
255
255
255
255
255
255
255
255
255
255
255
255
255
255
255
255
255
255
255
255
255
255
255
255
255
255
255
255
255
255
255
255
255
255
255
255
255
255
255
255
255
255
255
255
255
252
255
255
246
255
255
248
255
255
251
255
255
253
255
255
255
255
255
255
255
255
255
255
255
255
255
255
255
255
255
254
255
255
254
255
255
251
255
255
248
255
255
254
255
255
255
255
255
255
255
255
255
255
255
255
255
255
255
255
255
255
255
255
255
255
255
255
255
255
253
255
255
255
255
255
255
255
255
255
255
255
255
255
255
255
255
255
255
255
255
255
255
255
255
255
255
255
255
255
255
255
255
255
255
255
255
255
255
255
255
255
255
255
255
255
255
255
255
255
255
255
255
255
255
255
255
255
255
255
255
255
255
255
255
255
255
255
255
255
255
255
254
255
255
253
255
255
248
255
255
248
255
255
251
255
255
254
255
255
255
255
255
255
255
255
255
255
255
255
255
255
255
255
255
255
255
255
255
255
255
255
255
255
255
255
255
255
255
255
255
255
255
255
255
255
255
255
255
254
255
255
243
255
255
233
255
255
226
255
255
229
255
255
236
255
255
244
255
255
249
255
255
246
255
255
250
255
255
253
255
255
255
255
255
255
255
255
255
255
255
255
255
255
255
255
255
255
255
255
255
255
255
255
255
255
255
255
255
255
255
255
255
255
255
255
255
255
255
255
255
255
255
255
255
255
255
255
255
255
255
255
255
255
255
255
255
255
255
255
255
255
255
255
255
255
255
255
255
255
255
255
255
255
255
255
255
255
255
255
255
255
255
255
255
255
255
255
255
255
255
255
255
255
255
255
255
255
251
255
255
241
255
255
243
255
255
244
255
255
242
255
255
240
255
255
247
255
254
249
254
251
234
254
248
232
255
255
242
255
250
234
255
252
235
255
250
229
255
249
229
255
252
232
252
236
215
255
242
220
254
245
220
251
236
208
255
250
223
255
252
226
255
255
250
255
255
254
255
255
254
255
255
253
253
251
241
250
238
216
253
250
238
255
255
252
255
255
255
255
255
255
255
255
255
255
255
255
255
255
255
255
255
255
255
255
255
255
255
255
255
255
255
255
255
255
255
255
255
255
255
255
255
255
255
255
255
255
255
255
255
255
255
255
255
255
255
255
255
255
255
255
255
255
255
255
255
255
255
255
255
255
255
255
255
255
255
255
255
255
255
255
255
255
255
255
255
255
255
255
255
255
255
255
255
255
255
255
255
255
255
255
255
255
255
255
255
255
255
255
255
255
255
255
255
255
255
255
255
255
255
255
255
255
255
255
255
255
255
255
255
255
255
255
255
255
255
255
255
255
255
255
255
255
255
255
255
255
255
255
255
255
255
255
255
255
255
255
255
255
255
255
255
255
255
255
255
255
255
255
255
255
255
255
255
255
255
255
255
255
255
255
255
255
255
255
255
255
255
255
255
255
255
255
254
255
255
255
255
255
255
255
255
255
255
255
255
255
255
255
255
255
255
255
255
255
255
255
255
255
255
255
255
255
255
255
255
255
255
255
252
255
255
253
255
255
255
255
255
255
255
255
255
255
255
255
255
255
255
255
255
255
255
255
255
255
255
255
255
255
249
255
255
248
255
255
254
255
255
255
255
255
248
255
255
252
255
255
255
255
255
255
255
255
255
255
255
255
255
255
255
255
255
255
255
255
255
255
255
255
255
255
255
255
255
255
255
255
255
255
255
255
255
255
255
255
255
255
255
255
255
255
255
255
255
255
255
255
255
255
255
255
252
255
255
253
255
255
255
255
255
255
255
255
255
255
255
255
255
255
255
255
255
255
255
255
255
255
255
255
255
255
255
255
255
255
255
255
255
255
255
255
255
255
255
255
255
255
255
255
255
255
255
255
255
255
255
255
255
255
255
255
254
255
255
248
255
255
243
255
255
241
255
255
248
255
255
252
255
255
253
255
255
254
255
255
255
255
255
255
255
255
255
255
255
255
255
255
255
255
255
255
255
255
255
255
255
255
255
255
255
255
255
255
255
255
255
255
255
255
255
255
255
255
255
255
255
255
255
255
255
255
255
255
255
255
255
255
255
255
255
255
255
255
255
255
255
255
255
255
255
255
255
255
255
255
255
255
255
255
255
255
255
255
255
255
255
255
255
255
255
255
255
255
255
255
255
255
255
255
255
255
255
255
255
255
255
255
251
255
255
242
255
255
238
255
255
238
255
255
238
255
255
241
255
254
237
255
248
227
255
251
241
255
254
245
255
254
239
255
255
241
255
254
236
255
253
238
255
253
232
254
244
221
252
243
220
253
242
221
253
241
218
251
235
209
255
253
234
255
255
244
255
255
252
255
255
255
255
255
252
255
255
250
253
246
229
254
244
221
253
245
231
255
255
255
255
255
255
255
255
255
255
255
255
255
255
255
255
255
255
255
255
255
255
255
255
255
255
255
255
255
255
255
255
255
255
255
255
255
255
255
255
255
255
255
255
255
255
255
255
255
255
255
255
255
255
255
255
255
255
255
255
255
255
255
255
255
255
255
255
255
255
255
255
255
255
255
255
255
255
255
255
255
255
255
255
255
255
255
255
255
255
255
255
255
255
255
255
255
255
255
255
255
255
255
255
255
255
255
255
255
255
255
255
255
255
255
255
255
255
255
255
255
255
255
255
255
255
255
255
255
255
255
255
255
255
255
255
255
255
255
255
255
255
255
255
255
255
255
255
255
255
255
255
255
255
255
255
255
255
255
255
255
255
255
255
255
255
255
255
255
255
255
255
255
255
255
255
255
255
255
255
255
255
255
255
255
255
255
255
255
255
255
255
255
255
255
255
255
255
255
255
255
255
255
255
255
255
255
255
255
255
255
255
255
255
255
255
255
255
255
255
255
255
255
255
255
255
255
254
255
255
253
255
255
255
255
255
255
255
255
255
255
255
255
255
255
255
255
255
255
255
255
255
255
255
252
255
255
246
255
255
251
255
255
255
255
255
255
255
255
238
255
255
235
255
255
243
255
255
252
255
255
255
255
255
255
255
255
255
255
255
255
255
255
255
255
255
255
255
255
255
255
255
255
255
255
255
255
255
255
255
255
255
255
255
255
255
255
255
255
255
255
255
255
254
255
255
254
255
255
254
255
255
255
255
255
255
255
255
255
255
255
255
255
255
255
255
255
255
255
255
255
255
255
255
255
255
255
255
255
255
255
255
255
255
255
255
255
255
255
255
255
255
255
255
255
255
255
255
255
255
255
255
255
255
255
255
255
255
255
255
255
255
254
255
255
254
255
255
253
255
255
255
255
255
255
255
255
255
255
255
255
255
255
255
255
255
255
255
255
255
255
255
255
255
255
255
255
255
255
255
255
255
255
255
255
255
255
255
255
255
255
255
255
255
255
255
255
255
255
255
255
255
255
255
255
255
255
255
255
255
255
255
255
255
255
255
255
255
255
255
255
255
255
255
255
255
255
255
255
255
255
255
255
255
255
255
255
255
255
255
255
255
255
255
255
255
255
255
255
255
255
255
255
255
255
255
255
255
255
255
255
255
253
255
255
247
255
255
240
255
254
227
255
255
231
255
250
226
255
254
241
255
252
231
255
254
248
255
255
249
255
255
238
255
252
240
254
251
241
254
249
230
255
255
245
254
246
223
253
243
217
250
239
214
251
236
215
254
249
228
251
240
215
255
254
239
255
255
248
255
255
255
255
255
255
255
251
238
255
251
234
249
233
210
253
249
236
255
255
243
255
248
234
255
255
250
255
255
255
255
255
255
255
255
255
255
255
255
255
255
255
255
255
255
255
255
255
255
255
255
255
255
255
255
255
255
255
255
255
255
255
255
255
255
255
255
255
255
255
255
255
255
255
255
255
255
255
255
255
255
255
255
255
255
255
255
255
255
255
255
255
255
255
255
255
255
255
255
255
255
255
255
255
255
255
255
255
255
255
255
255
255
255
255
255
255
255
255
255
255
255
255
255
255
255
255
255
255
255
255
255
255
255
255
255
255
255
255
255
255
255
255
255
255
255
255
255
255
255
255
255
254
255
255
255
255
255
255
255
255
255
255
255
255
255
255
255
255
255
255
255
255
255
255
255
255
255
255
255
255
255
255
255
255
255
255
255
255
255
255
255
255
255
255
255
255
255
255
255
255
255
255
255
255
255
255
255
255
255
255
255
255
255
255
255
255
255
255
255
255
255
255
255
255
255
255
255
255
255
255
255
255
255
255
255
255
255
255
255
255
255
255
255
255
255
255
255
255
255
255
252
255
255
254
255
255
255
255
255
255
255
255
255
255
255
255
255
255
255
255
255
255
255
255
251
255
255
250
255
255
253
255
255
255
255
255
255
255
255
227
255
255
223
255
255
228
255
255
242
255
255
253
255
255
255
255
255
255
255
255
254
255
255
254
255
255
254
255
255
255
255
255
253
255
255
255
255
255
254
255
255
252
255
255
251
255
255
255
255
255
255
255
255
250
255
255
254
255
255
251
255
255
252
255
255
255
255
255
255
255
255
255
255
255
255
255
255
255
255
255
255
255
255
255
255
255
255
255
255
255
255
255
255
255
255
255
255
255
254
255
255
254
255
255
254
255
255
255
255
255
254
255
255
255
255
255
255
255
255
255
255
255
255
255
255
255
255
255
255
255
255
255
255
255
255
255
255
255
255
255
255
255
255
255
255
255
255
255
255
255
255
255
255
255
255
255
255
255
255
255
255
255
255
255
255
255
255
255
255
255
255
255
255
255
255
255
255
255
255
255
255
255
255
255
255
255
255
255
255
255
255
255
255
255
255
255
255
255
255
255
255
255
255
255
255
255
255
255
255
255
255
255
255
255
255
255
255
255
255
255
255
255
255
255
255
255
255
255
255
255
255
255
255
255
255
255
255
255
255
255
255
255
252
255
255
245
255
255
243
255
255
237
255
255
239
255
255
248
255
255
237
255
255
250
253
250
241
254
250
228
255
255
247
252
247
235
252
245
225
255
255
244
255
254
232
255
246
220
255
246
223
253
244
223
248
234
216
253
249
235
251
244
222
255
253
240
255
255
243
255
255
255
255
255
252
248
235
211
237
220
196
246
231
208
255
254
246
255
255
251
255
254
247
255
249
231
255
255
253
255
255
255
255
255
255
255
255
255
255
255
255
255
255
255
255
255
255
255
255
255
255
255
255
255
255
255
255
255
255
255
255
255
255
255
255
255
255
255
255
255
255
255
255
255
255
255
255
255
255
255
255
255
255
255
255
255
255
255
255
255
255
255
255
255
255
255
255
255
255
255
255
255
255
255
255
255
255
255
255
255
255
255
255
255
255
255
255
255
255
255
255
255
255
255
255
255
255
255
255
255
255
255
255
255
255
255
255
255
255
255
255
255
255
255
255
255
255
255
253
255
255
246
255
255
252
255
255
255
255
255
255
255
255
255
255
255
255
255
255
255
255
255
255
255
255
255
255
255
255
255
255
255
255
255
255
255
255
255
255
255
255
255
255
255
255
255
255
255
255
255
255
255
255
255
255
255
255
255
255
255
255
255
255
255
255
255
255
255
255
255
255
255
255
255
255
255
255
255
255
255
255
255
255
255
255
253
255
255
255
255
255
252
255
255
252
255
255
254
255
255
255
255
255
255
255
255
255
255
255
255
255
255
255
255
255
255
255
255
255
255
255
255
255
255
255
255
255
254
255
255
250
255
255
254
255
255
255
255
255
217
255
255
214
255
255
221
255
255
236
255
255
249
255
255
255
255
255
252
255
255
244
255
255
244
255
255
246
255
255
253
255
255
247
255
255
248
255
255
246
255
255
246
255
255
249
255
255
250
255
255
251
255
255
246
255
255
246
255
255
245
255
255
245
255
255
255
255
255
255
255
255
255
255
255
255
255
255
255
255
255
255
255
255
255
255
255
255
255
255
255
255
255
254
255
255
250
255
255
248
255
255
250
255
255
249
255
255
251
255
255
249
255
255
254
255
255
255
255
255
255
255
255
255
255
255
255
255
255
255
255
255
255
255
255
255
255
255
255
255
255
255
255
255
255
255
255
255
255
255
255
255
255
255
255
255
255
255
255
255
255
255
255
255
255
255
255
255
255
255
255
255
255
255
255
255
255
255
255
255
255
255
255
255
255
255
255
255
255
255
255
255
255
255
255
255
255
255
255
255
255
255
255
255
255
255
255
255
255
255
255
255
255
255
255
255
255
255
255
255
255
255
255
255
255
255
255
255
255
255
255
255
255
255
255
255
255
253
255
255
251
255
255
253
255
255
254
255
255
248
255
255
246
255
255
244
254
246
231
254
250
235
255
255
248
255
250
227
255
255
250
255
255
249
253
245
228
255
255
250
255
254
238
255
255
246
252
243
219
255
253
244
243
230
213
248
238
226
251
240
222
252
249
238
254
249
240
255
255
252
255
255
255
255
255
247
244
229
205
227
209
185
249
240
220
255
254
245
255
255
255
255
255
255
255
254
244
255
255
255
255
255
255
255
255
255
255
255
255
255
255
255
255
255
255
255
255
255
255
255
255
255
255
255
255
255
255
255
255
255
255
255
255
255
255
255
255
255
255
255
255
255
255
255
255
255
255
255
255
255
255
255
255
255
255
255
255
255
255
255
255
255
255
255
255
255
255
255
255
255
255
255
255
255
255
255
255
255
255
255
255
255
255
255
255
255
255
255
255
255
255
255
255
255
255
255
255
255
255
255
255
255
255
255
255
255
255
255
255
255
255
255
255
255
255
255
255
255
255
255
255
255
253
255
255
254
255
255
255
255
255
255
255
255
255
255
255
255
255
255
255
255
255
255
255
255
255
255
255
255
255
255
255
255
255
255
255
255
255
255
255
255
255
255
255
255
255
255
255
255
255
255
255
255
255
255
255
255
255
255
255
255
255
255
255
255
255
255
255
255
255
255
255
255
255
255
255
255
255
255
255
255
255
255
255
255
253
255
255
254
255
255
251
255
255
252
255
255
253
255
255
252
255
255
251
255
255
252
255
255
255
255
255
255
255
255
255
255
255
255
255
255
255
255
255
255
255
255
255
255
255
254
255
255
254
255
255
255
255
254
210
255
253
206
255
255
211
255
255
228
255
255
241
255
255
248
255
255
244
255
255
234
255
255
233
255
255
235
255
255
241
255
255
238
255
255
234
255
255
233
255
255
235
255
255
247
255
255
248
255
255
249
255
255
245
255
255
239
255
255
241
255
255
242
255
255
250
255
255
254
255
255
250
255
255
249
255
255
250
255
255
254
255
255
255
255
255
254
255
255
250
255
255
243
255
255
239
255
255
242
255
255
244
255
255
240
255
255
242
255
255
241
255
255
251
255
255
255
255
255
255
255
255
255
255
255
255
255
255
253
255
255
252
255
255
253
255
255
254
255
255
255
255
255
255
255
255
255
255
255
255
255
255
255
255
255
255
255
255
255
255
255
255
255
255
255
255
255
255
255
255
255
255
255
255
255
255
255
255
255
255
255
255
255
255
255
255
255
255
255
255
255
255
255
255
255
255
255
255
255
255
255
255
255
255
255
255
255
255
255
255
255
255
255
255
255
255
255
255
255
255
255
255
255
255
255
255
255
255
255
255
255
255
255
255
255
255
251
255
255
252
255
255
254
255
255
247
255
255
247
255
255
254
255
255
243
255
250
231
255
255
248
255
255
252
255
255
245
255
255
255
255
255
248
255
255
249
255
255
255
255
253
238
255
255
249
249
237
219
246
237
226
239
221
205
254
250
238
252
240
221
255
252
241
255
252
244
255
255
255
255
255
255
255
253
246
248
236
213
222
204
180
254
250
229
254
240
219
255
253
246
255
255
253
255
255
250
255
255
255
255
255
255
255
255
255
255
255
255
255
255
255
255
255
255
255
255
255
255
255
255
255
255
255
255
255
255
255
255
255
255
255
255
255
255
255
255
255
255
255
255
255
255
255
255
255
255
255
255
255
255
255
255
255
255
255
255
255
255
255
255
255
255
255
255
255
255
255
255
255
255
255
255
255
255
255
255
255
255
255
255
255
255
255
255
255
255
255
255
255
255
255
255
255
255
255
255
255
255
255
255
255
255
255
255
255
255
255
255
255
255
255
255
255
255
255
255
255
255
255
255
255
255
255
255
255
255
255
255
255
255
255
255
255
255
255
255
255
255
255
255
255
255
255
255
255
255
255
255
249
255
255
246
255
255
253
255
255
255
255
255
255
255
255
255
255
255
255
255
255
255
255
255
255
255
255
255
255
255
255
255
255
255
255
255
255
255
255
255
255
255
255
255
255
255
255
255
255
255
255
255
255
255
255
255
255
253
255
255
254
255
255
254
255
255
254
255
255
254
255
255
249
255
255
243
255
255
240
255
255
250
255
255
255
255
255
255
255
255
255
255
255
255
255
255
255
255
255
255
255
255
255
255
255
255
255
255
255
255
254
206
255
251
200
255
254
203
255
255
218
255
255
228
255
255
236
255
255
231
255
255
220
255
255
220
255
255
224
255
255
230
255
255
230
255
255
225
255
255
221
255
255
228
255
255
240
255
255
243
255
255
245
255
255
244
255
255
232
255
255
231
255
255
234
255
255
236
255
255
238
255
255
234
255
255
234
255
255
239
255
255
248
255
255
252
255
255
249
255
255
242
255
255
232
255
255
230
255
255
234
255
255
238
255
255
237
255
255
238
255
255
246
255
255
254
255
255
255
255
255
255
255
255
255
255
255
251
255
255
238
255
255
238
255
255
240
255
255
246
255
255
254
255
255
255
255
255
253
255
255
251
255
255
247
255
255
251
255
255
252
255
255
253
255
255
253
255
255
255
255
255
255
255
255
255
255
255
255
255
255
255
255
255
255
255
255
255
255
255
255
255
255
255
255
255
255
255
255
255
255
255
255
255
255
255
255
255
255
255
255
255
255
255
255
255
255
255
255
255
255
255
255
255
255
255
255
255
255
255
255
255
255
255
255
255
255
255
255
255
255
254
255
255
251
255
255
249
255
255
250
255
255
249
255
255
242
255
255
242
255
255
254
255
255
253
255
255
245
255
255
254
255
255
251
255
255
251
255
255
255
255
255
250
255
251
243
254
249
235
236
221
204
241
224
207
253
243
227
247
239
225
255
255
249
255
255
250
255
255
255
255
255
255
254
251
244
246
236
221
230
212
188
254
251
231
254
243
225
255
250
234
255
255
252
255
255
252
255
255
255
255
255
255
255
255
255
255
255
255
255
255
255
255
255
255
255
255
255
255
255
255
255
255
255
255
255
255
255
255
255
255
255
255
255
255
255
255
255
255
255
255
255
255
255
255
255
255
255
255
255
255
255
255
255
255
255
255
255
255
255
255
255
255
255
255
255
255
255
254
255
255
253
255
255
255
255
255
255
255
255
255
255
255
255
255
255
255
255
255
255
255
255
255
255
255
255
255
255
255
255
255
255
255
255
255
255
255
255
255
255
255
255
255
255
255
255
255
255
255
255
255
255
255
255
255
255
255
255
255
255
255
255
255
255
255
255
255
255
255
255
255
255
255
255
255
255
247
255
255
229
255
255
228
255
255
239
255
255
248
255
255
254
255
255
255
255
255
255
255
255
254
255
255
252
255
255
251
255
255
252
255
255
254
255
255
254
255
255
255
255
255
255
255
255
255
255
255
255
255
255
255
255
255
255
255
255
254
255
255
255
255
255
255
255
255
255
255
255
255
255
255
254
255
255
243
255
255
237
255
255
243
255
255
253
255
255
255
255
255
255
255
255
255
255
255
255
255
255
255
255
255
255
255
255
255
255
255
255
255
255
207
255
254
200
255
255
199
255
255
209
255
255
217
255
255
227
255
255
226
255
255
215
255
255
213
255
255
217
255
255
227
255
255
227
255
255
226
255
255
223
255
255
227
255
255
234
255
255
236
255
255
236
255
255
236
255
255
225
255
255
215
255
255
220
255
255
221
255
255
226
255
255
221
255
255
225
255
255
234
255
255
244
255
255
251
255
255
246
255
255
237
255
255
235
255
255
230
255
255
226
255
255
230
255
255
237
255
255
248
255
255
255
255
255
255
255
255
255
255
255
255
255
255
255
255
255
247
255
255
229
255
255
234
255
255
239
255
255
244
255
255
251
255
255
250
255
255
246
255
255
243
255
255
243
255
255
237
255
255
238
255
255
230
255
255
228
255
255
242
255
255
252
255
255
255
255
255
255
255
255
255
255
255
255
255
255
255
255
255
255
255
255
255
255
255
255
255
255
255
255
255
255
255
255
255
255
255
255
255
255
255
255
255
255
255
255
255
255
255
255
255
255
255
255
255
255
255
255
255
255
255
255
255
255
255
255
255
255
255
255
255
255
255
253
255
255
245
255
255
247
255
255
244
255
255
238
255
255
250
255
255
252
255
255
249
255
255
245
255
255
244
255
255
251
255
255
251
255
255
255
255
255
255
255
255
254
255
255
248
246
237
217
242
227
208
254
245
231
250
237
223
255
255
255
255
255
252
255
255
255
255
255
255
254
250
239
247
241
220
239
221
197
252
245
224
253
248
234
255
250
237
255
255
250
255
255
253
255
255
255
255
255
255
255
255
255
255
255
255
255
255
255
255
255
255
255
255
255
255
255
255
255
255
255
255
255
255
255
255
255
255
255
255
255
255
255
255
255
255
255
255
255
255
255
255
255
255
255
255
255
255
255
255
255
255
255
255
255
255
255
255
255
255
255
255
254
255
255
252
255
255
248
255
255
250
255
255
255
255
255
255
255
255
255
255
255
255
255
255
255
255
255
255
255
255
255
255
255
255
255
255
255
255
255
255
255
255
255
255
255
255
255
255
255
255
255
255
255
255
255
255
255
255
255
255
255
255
255
255
255
255
255
255
255
255
255
255
255
255
255
254
255
255
249
255
255
234
255
255
218
255
255
225
255
255
234
255
255
233
255
255
243
255
255
253
255
255
246
255
255
238
255
255
236
255
255
239
255
255
240
255
255
245
255
255
244
255
255
253
255
255
255
255
255
255
255
255
255
255
255
255
255
255
255
255
255
255
255
255
255
255
255
255
255
255
255
255
255
255
255
255
255
255
255
247
255
255
234
255
255
235
255
255
239
255
255
250
255
255
243
255
255
252
255
255
255
255
255
255
255
255
255
255
255
255
255
255
255
255
255
209
255
255
201
255
255
198
255
255
205
255
255
218
255
255
224
255
255
227
255
255
221
255
255
215
255
255
217
255
255
228
255
255
234
255
255
231
255
255
225
255
255
222
255
255
224
255
255
225
255
255
225
255
255
230
255
255
224
255
255
213
255
255
212
255
255
214
255
255
219
255
255
205
255
255
217
255
255
228
255
255
238
255
255
247
255
255
240
255
255
233
255
255
237
255
255
239
255
255
237
255
255
240
255
255
251
255
255
255
255
255
255
255
255
255
255
255
255
255
255
255
255
255
255
255
255
246
255
255
228
255
255
233
255
255
241
255
255
247
255
255
247
255
255
241
255
255
239
255
255
235
255
255
234
255
255
236
255
255
238
255
255
224
255
255
221
255
255
228
255
255
239
255
255
246
255
255
245
255
255
242
255
255
245
255
255
252
255
255
255
255
255
255
255
255
255
255
255
255
255
255
255
255
255
255
255
255
255
255
255
255
255
255
255
255
255
255
255
255
255
255
255
255
255
255
255
255
255
255
255
255
255
255
255
255
255
255
255
255
255
255
255
255
253
255
255
247
255
255
242
255
255
234
255
255
244
255
255
247
255
255
248
255
255
250
255
255
242
255
255
247
255
255
255
255
255
253
255
255
253
255
255
253
255
255
251
255
255
253
255
253
237
255
253
244
255
253
241
255
250
238
255
255
255
255
255
255
255
255
255
255
255
255
255
250
242
250
234
210
248
231
206
254
243
220
254
249
233
255
254
244
255
255
251
255
255
253
255
255
255
255
255
255
255
255
255
255
255
255
255
255
255
255
255
255
255
255
255
255
255
255
255
255
255
255
255
255
255
255
255
255
255
255
255
255
255
255
255
255
255
255
255
255
255
255
255
255
255
255
255
255
255
255
252
255
255
255
255
255
255
255
255
255
255
255
255
255
255
255
255
255
253
255
255
254
255
255
255
255
255
255
255
255
255
255
255
255
255
255
255
255
255
255
255
255
255
255
255
255
255
255
255
255
255
255
255
255
254
255
255
255
255
255
255
255
255
255
255
255
255
255
255
255
255
255
255
255
255
255
255
255
255
255
255
255
255
255
252
255
255
245
255
255
235
255
255
230
255
255
229
255
255
234
255
255
239
255
255
236
255
255
238
255
255
237
255
255
234
255
255
233
255
255
238
255
255
244
255
255
243
255
255
238
255
255
235
255
255
242
255
255
254
255
255
255
255
255
255
255
255
255
255
255
255
255
255
255
255
255
255
255
255
255
255
255
255
255
255
255
255
255
255
255
255
249
255
255
234
255
255
227
255
255
232
255
255
237
255
255
239
255
255
248
255
255
255
255
255
255
255
255
255
255
255
255
255
255
255
255
255
215
255
255
203
255
255
200
255
255
207
255
255
216
255
255
223
255
255
226
255
255
220
255
255
211
255
255
209
255
255
221
255
255
227
255
255
227
255
255
219
255
255
214
255
255
216
255
255
217
255
255
217
255
255
225
255
255
226
255
255
220
255
255
217
255
255
217
255
255
212
255
255
201
255
255
211
255
255
221
255
255
232
255
255
236
255
255
236
255
255
235
255
255
240
255
255
246
255
255
244
255
255
250
255
255
255
255
255
255
255
255
255
255
255
255
255
255
255
255
255
255
255
255
255
255
255
241
255
255
225
255
255
230
255
255
238
255
255
245
255
255
242
255
255
236
255
255
233
255
255
230
255
255
227
255
255
235
255
255
239
255
255
233
255
255
226
255
255
232
255
255
243
255
255
244
255
255
237
255
255
229
255
255
234
255
255
249
255
255
255
255
255
255
255
255
255
255
255
255
255
255
255
255
255
255
255
255
255
255
255
255
255
255
255
255
255
255
255
255
255
255
255
255
255
255
255
255
255
255
255
255
255
255
255
255
255
255
255
255
255
255
255
255
255
255
255
253
255
255
251
255
255
244
255
255
245
255
255
238
255
255
239
255
255
243
255
255
244
255
253
236
255
255
245
255
255
254
255
255
246
255
255
244
255
255
249
255
255
252
255
255
251
255
255
248
255
255
255
255
254
247
255
255
255
255
255
255
255
255
255
255
255
255
255
255
253
249
244
225
249
236
211
255
252
229
255
253
246
255
255
251
255
255
254
255
255
255
255
255
255
255
255
255
255
255
255
255
255
255
255
255
255
255
255
255
255
255
255
255
255
255
255
255
255
255
255
255
255
255
255
255
255
255
255
255
255
255
255
255
255
255
255
255
255
255
255
255
255
255
255
254
255
255
248
255
255
254
255
255
255
255
255
255
255
255
255
255
255
255
255
255
255
255
255
255
255
255
255
255
255
255
255
255
255
255
255
255
255
255
255
255
255
255
255
255
255
255
255
255
255
255
255
255
255
255
255
255
255
255
255
255
255
255
255
255
255
255
255
255
255
255
255
253
255
255
251
255
255
254
255
255
254
255
255
249
255
255
237
255
255
231
255
255
233
255
255
239
255
255
242
255
255
245
255
255
245
255
255
247
255
255
244
255
255
239
255
255
240
255
255
242
255
255
244
255
255
249
255
255
249
255
255
239
255
255
231
255
255
237
255
255
248
255
255
254
255
255
255
255
255
255
255
255
255
255
255
255
255
255
255
255
255
255
255
255
255
255
255
255
255
255
255
255
255
253
255
255
239
255
255
227
255
255
230
255
255
231
255
255
230
255
255
241
255
255
254
255
255
255
255
255
255
255
255
255
255
255
255
255
255
212
255
255
199
255
255
195
255
255
200
255
255
207
255
255
218
255
255
222
255
255
214
255
255
205
255
255
206
255
255
214
255
255
222
255
255
223
255
255
215
255
255
209
255
255
210
255
255
210
255
255
212
255
255
220
255
255
223
255
255
222
255
255
217
255
255
213
255
255
204
255
254
196
255
254
199
255
255
208
255
255
216
255
255
217
255
255
220
255
255
224
255
255
234
255
255
248
255
255
251
255
255
252
255
255
254
255
255
255
255
255
255
255
255
255
255
255
255
255
255
255
255
255
248
255
255
232
255
255
223
255
255
227
255
255
241
255
255
247
255
255
240
255
255
230
255
255
232
255
255
234
255
255
237
255
255
237
255
255
240
255
255
241
255
255
238
255
255
249
255
255
254
255
255
255
255
255
250
255
255
234
255
255
236
255
255
252
255
255
255
255
255
255
255
255
255
255
255
255
255
255
255
255
255
255
255
255
255
255
255
255
255
255
255
255
255
255
255
255
255
255
255
255
255
255
255
255
255
255
255
255
255
255
255
255
255
255
255
255
255
255
255
255
255
255
255
255
255
255
252
255
255
247
255
255
246
255
255
238
255
255
248
255
255
245
255
255
241
255
251
226
254
245
221
255
255
237
255
255
245
255
255
245
255
255
244
255
255
246
255
255
253
255
255
254
255
255
254
255
255
255
255
255
255
255
255
255
255
255
255
255
255
255
255
255
255
255
251
238
255
255
246
255
255
247
255
255
252
255
255
247
255
255
253
255
255
251
255
255
254
255
255
255
255
255
255
255
255
255
255
255
255
255
255
255
255
255
255
255
255
255
255
255
255
255
255
255
255
255
255
255
255
255
255
255
255
255
255
255
255
255
255
255
255
255
255
255
255
255
255
255
255
255
253
255
255
255
255
255
255
255
255
255
255
255
255
255
255
255
255
255
255
255
255
255
255
255
255
255
255
255
255
255
255
255
255
255
255
255
255
255
255
255
255
255
255
255
255
255
255
255
255
255
255
255
255
255
255
255
255
255
255
255
255
255
255
255
255
255
255
255
255
252
255
255
251
255
255
254
255
255
248
255
255
239
255
255
235
255
255
239
255
255
245
255
255
249
255
255
253
255
255
252
255
255
248
255
255
254
255
255
254
255
255
252
255
255
251
255
255
253
255
255
251
255
255
251
255
255
249
255
255
240
255
255
233
255
255
237
255
255
243
255
255
251
255
255
255
255
255
255
255
255
255
255
255
255
255
255
255
255
255
255
255
255
255
255
255
255
255
255
255
255
255
255
255
255
243
255
255
227
255
255
224
255
255
222
255
255
223
255
255
245
255
255
255
255
255
255
255
255
255
255
255
255
255
255
255
255
255
201
255
255
193
255
255
192
255
255
195
255
255
198
255
255
206
255
255
218
255
255
216
255
255
209
255
255
199
255
255
210
255
255
220
255
255
219
255
255
212
255
255
205
255
255
210
255
255
207
255
255
215
255
255
219
255
255
219
255
255
218
255
255
213
255
255
207
255
255
200
254
250
193
255
247
191
255
253
198
255
255
208
255
255
210
255
255
211
255
255
213
255
255
228
255
255
248
255
255
251
255
255
247
255
255
241
255
255
248
255
255
252
255
255
253
255
255
250
255
255
249
255
255
239
255
255
227
255
255
223
255
255
229
255
255
247
255
255
250
255
255
244
255
255
226
255
255
232
255
255
239
255
255
249
255
255
248
255
255
244
255
255
248
255
255
248
255
255
255
255
255
255
255
255
255
255
255
255
255
255
249
255
255
245
255
255
252
255
255
255
255
255
255
255
255
255
255
255
255
255
255
255
255
255
255
255
255
255
255
255
255
255
255
255
255
255
255
255
255
255
255
255
255
255
255
255
255
255
255
255
255
255
255
255
255
255
255
255
255
255
255
255
255
255
255
255
255
255
255
255
255
255
254
255
255
248
255
255
247
255
255
253
255
255
243
255
255
235
255
252
229
253
244
219
255
246
220
255
251
225
255
254
235
255
255
243
255
254
235
255
255
252
255
255
250
255
255
254
255
255
255
255
255
255
255
255
255
255
255
255
255
255
255
255
255
255
255
254
250
255
255
255
255
255
251
255
255
252
255
255
245
255
255
249
255
255
247
255
255
255
255
255
254
255
255
255
255
255
255
255
255
255
255
255
255
255
255
255
255
255
255
255
255
255
255
255
255
255
255
255
255
255
255
255
255
255
255
255
255
255
255
255
255
255
255
255
255
255
255
255
255
255
255
255
255
255
255
255
255
255
255
255
255
255
255
255
255
255
255
255
255
255
255
255
255
255
255
253
255
255
247
255
255
247
255
255
250
255
255
254
255
255
255
255
255
255
255
255
255
255
255
255
255
255
255
255
255
255
255
255
255
255
255
255
255
255
255
255
255
255
255
255
255
255
255
255
255
255
255
255
255
255
255
255
250
255
255
241
255
255
248
255
255
251
255
255
252
255
255
255
255
255
251
255
255
247
255
255
250
255
255
255
255
255
255
255
255
255
255
255
255
255
255
255
255
255
254
255
255
248
255
255
242
255
255
240
255
255
244
255
255
243
255
255
247
255
255
250
255
255
255
255
255
255
255
255
255
255
255
255
255
255
255
255
255
255
255
255
255
255
255
255
255
255
255
255
255
247
255
255
232
255
255
226
255
255
223
255
255
231
255
255
252
255
255
255
255
255
255
255
255
255
255
255
255
255
255
255
255
255
201
255
255
209
255
255
212
255
255
214
255
255
212
255
255
210
255
255
212
255
255
216
255
255
216
255
255
197
255
255
202
255
255
215
255
255
214
255
255
209
255
255
200
255
255
206
255
255
207
255
255
221
255
255
228
255
255
220
255
255
215
255
255
205
255
255
204
255
255
199
253
252
193
254
248
193
255
252
197
255
255
204
255
255
212
255
255
211
255
255
215
255
255
232
255
255
241
255
255
245
255
255
246
255
255
239
255
255
235
255
255
240
255
255
240
255
255
232
255
255
230
255
255
231
255
255
227
255
255
231
255
255
240
255
255
253
255
255
254
255
255
248
255
255
232
255
255
240
255
255
248
255
255
254
255
255
255
255
255
254
255
255
254
255
255
252
255
255
254
255
255
255
255
255
255
255
255
255
255
255
254
255
255
252
255
255
255
255
255
255
255
255
255
255
255
255
255
255
255
255
255
255
255
255
255
255
255
255
255
255
255
255
255
255
255
255
255
255
255
255
255
255
255
255
255
255
255
255
255
255
255
255
255
255
255
255
255
255
255
255
255
255
255
255
255
255
255
255
255
255
255
255
255
255
255
254
255
255
252
255
255
254
255
255
243
255
255
241
255
255
237
255
253
229
255
247
220
255
247
221
255
247
220
255
253
237
255
255
239
255
255
249
255
255
254
255
255
253
255
255
255
255
255
255
255
255
255
255
255
255
255
255
255
255
255
255
255
255
248
255
255
255
255
255
253
255
255
255
255
255
250
255
254
238
255
255
250
255
255
252
255
255
254
255
255
255
255
255
255
255
255
255
255
255
255
255
255
255
255
255
255
255
255
255
255
255
255
255
255
255
255
255
255
255
255
255
255
255
255
255
255
255
255
255
255
255
255
255
255
255
255
255
255
255
255
255
255
255
255
255
255
255
255
255
255
255
255
255
255
255
255
255
255
255
255
255
255
255
255
255
244
255
255
240
255
255
241
255
255
251
255
255
255
255
255
255
255
255
253
255
255
251
255
255
254
255
255
255
255
255
255
255
255
255
255
255
255
255
255
255
255
255
255
255
255
255
255
255
255
255
255
255
255
255
255
255
255
250
255
255
248
255
255
253
255
255
253
255
255
254
255
255
251
255
255
248
255
255
249
255
255
254
255
255
255
255
255
255
255
255
255
255
255
255
255
255
255
255
255
251
255
255
244
255
255
246
255
255
248
255
255
247
255
255
240
255
255
238
255
255
250
255
255
255
255
255
255
255
255
255
255
255
254
255
255
254
255
255
255
255
255
255
255
255
255
255
255
250
255
255
237
255
255
231
255
255
229
255
255
239
255
255
255
255
255
255
255
255
255
255
255
255
255
255
255
255
255
255
255
255
210
255
255
221
255
255
229
255
255
228
255
255
229
255
255
224
255
255
216
255
255
214
255
255
211
255
255
205
255
255
204
255
255
207
255
255
207
255
255
203
255
255
199
255
255
209
255
255
212
255
255
229
255
255
234
255
255
225
255
255
216
253
255
200
255
255
204
255
255
206
254
255
201
249
252
195
251
253
198
255
255
211
255
255
227
255
255
230
255
255
230
255
255
243
255
255
251
255
255
254
255
255
255
255
255
251
255
255
246
255
255
248
255
255
248
255
255
245
255
255
242
255
255
243
255
255
243
255
255
244
255
255
252
255
255
255
255
255
255
255
255
251
255
255
236
255
255
246
255
255
255
255
255
255
255
255
255
255
255
255
255
255
255
255
255
250
255
255
243
255
255
254
255
255
255
255
255
255
255
255
255
255
255
247
255
255
252
255
255
255
255
255
255
255
255
255
255
255
255
255
255
255
255
255
255
255
255
255
255
255
255
255
255
255
255
255
255
255
255
255
255
255
255
255
255
255
255
255
255
255
255
255
255
255
255
255
255
255
255
255
255
255
255
255
255
255
255
255
255
255
255
255
255
255
255
255
255
255
255
255
255
255
255
255
251
255
255
250
255
253
231
254
242
217
255
251
225
255
252
229
255
252
231
255
250
229
255
254
235
255
255
244
255
255
255
255
255
255
255
255
255
255
255
255
255
255
255
255
255
255
255
255
255
255
255
255
255
255
255
255
255
255
255
255
254
255
255
251
255
252
237
255
253
240
255
255
249
255
255
242
255
255
253
255
255
255
255
255
255
255
255
255
255
255
255
255
255
255
255
255
255
255
255
255
255
255
255
255
255
255
255
255
255
255
255
255
255
255
255
255
255
255
255
255
255
255
255
255
255
255
255
255
255
255
255
255
255
255
255
255
255
255
255
255
255
255
255
255
255
255
255
255
255
255
255
255
255
255
255
255
245
255
255
238
255
255
237
255
255
243
255
255
250
255
255
248
255
255
241
255
255
237
255
255
239
255
255
249
255
255
255
255
255
255
255
255
255
255
255
255
255
255
255
255
255
255
255
255
255
255
255
255
255
255
255
255
255
254
255
255
252
255
255
254
255
255
253
255
255
251
255
255
249
255
255
248
255
255
248
255
255
254
255
255
255
255
255
255
255
255
255
255
255
255
255
255
255
255
255
253
255
255
249
255
255
251
255
255
250
255
255
250
255
255
242
255
255
232
255
255
242
255
255
246
255
255
251
255
255
243
255
255
239
255
255
245
255
255
253
255
255
255
255
255
255
255
255
253
255
255
238
255
255
239
255
255
239
255
255
249
255
255
255
255
255
255
255
255
255
255
255
255
255
255
255
255
255
255
255
255
229
255
255
235
255
255
238
255
255
241
255
255
240
255
255
240
255
255
226
255
255
215
255
255
209
255
255
212
255
255
214
255
255
212
255
255
205
255
255
198
255
255
202
255
255
211
255
255
218
255
255
235
255
255
240
255
255
235
255
255
224
255
255
207
255
255
214
255
255
222
255
255
213
254
255
208
255
255
210
255
255
219
255
255
237
255
255
244
255
255
244
255
255
249
255
255
255
255
255
255
255
255
255
255
255
255
255
255
255
255
255
255
255
255
255
255
255
255
255
255
255
255
255
255
255
255
255
255
255
255
255
255
255
255
255
255
255
255
255
255
255
254
255
255
237
255
255
248
255
255
255
255
255
255
255
255
255
255
255
255
255
255
255
255
255
252
255
255
240
255
255
240
255
255
253
255
255
255
255
255
255
255
255
255
255
255
255
255
255
255
255
255
255
255
255
255
255
255
255
255
255
255
255
255
255
255
255
255
255
255
255
255
255
255
255
255
255
255
255
255
255
255
255
255
255
255
255
255
255
255
255
255
255
255
255
255
255
255
255
255
255
255
255
255
255
255
255
255
255
255
255
255
255
255
255
255
255
255
255
255
255
255
255
255
255
255
255
249
255
254
235
255
252
232
255
245
220
255
253
234
255
253
231
255
254
241
255
254
237
255
255
245
255
255
251
255
255
255
255
255
255
255
255
255
255
255
255
255
255
255
255
255
255
255
255
255
255
255
255
255
255
255
255
255
254
255
255
249
255
255
238
255
255
251
255
255
247
255
255
242
255
255
255
255
255
255
255
255
255
255
255
255
255
255
255
255
255
255
255
255
255
255
255
255
255
255
255
255
255
255
255
255
255
255
255
255
255
255
255
255
255
255
255
255
255
255
255
255
255
255
255
255
255
255
255
255
255
255
255
255
255
255
255
255
255
255
255
255
255
255
255
255
255
255
255
255
255
255
255
255
247
255
255
235
255
255
238
255
255
241
255
255
237
255
255
230
255
255
224
255
255
225
255
255
228
255
255
242
255
255
255
255
255
255
255
255
255
255
255
255
255
255
255
255
255
255
255
255
255
255
255
255
255
255
255
255
255
255
255
255
255
255
255
255
255
255
255
255
255
254
255
255
255
255
255
254
255
255
253
255
255
253
255
255
255
255
255
255
255
255
255
255
255
255
255
255
254
255
255
248
255
255
249
255
255
253
255
255
254
255
255
253
255
255
245
255
255
236
255
255
239
255
255
240
255
255
238
255
255
228
255
255
221
255
255
232
255
255
248
255
255
255
255
255
255
255
255
255
255
255
248
255
255
250
255
255
252
255
255
250
255
255
252
255
255
255
255
255
255
255
255
255
255
255
255
255
255
255
255
255
246
255
255
245
255
255
242
255
255
244
255
255
247
255
255
244
255
255
230
255
255
218
255
255
210
255
255
221
255
255
229
255
255
222
255
255
218
255
255
214
255
255
212
255
255
219
255
255
225
255
255
238
255
255
245
255
255
240
255
255
225
255
255
220
255
255
226
255
255
239
255
255
233
255
255
227
255
255
223
255
255
235
255
255
249
255
255
254
255
255
253
255
255
253
255
255
255
255
255
255
255
255
255
255
255
255
255
255
255
255
255
255
255
255
255
255
255
255
255
255
255
255
255
255
255
255
255
255
255
255
255
255
255
255
255
255
255
255
255
255
255
255
255
255
248
255
255
252
255
255
255
255
255
255
255
255
255
255
255
255
255
255
255
255
255
249
255
255
240
255
255
234
255
255
245
255
255
255
255
255
255
255
255
255
255
255
255
255
255
255
255
255
255
255
255
255
255
255
255
255
255
255
255
255
255
255
255
255
255
255
255
255
255
255
255
255
255
255
255
255
255
255
255
255
255
255
255
255
255
255
255
255
255
255
255
255
255
255
255
255
255
255
255
255
255
255
255
255
255
255
255
255
255
255
255
255
255
255
255
255
255
255
255
255
254
255
255
254
255
255
253
255
255
250
255
255
245
255
255
241
255
252
229
255
254
238
255
255
245
255
254
241
255
255
252
255
255
255
255
255
255
255
255
255
255
255
255
255
255
255
255
255
255
255
255
255
255
255
255
255
255
255
255
255
253
255
255
250
255
255
251
255
255
254
255
255
245
255
255
251
255
255
255
255
255
255
255
255
255
255
255
255
255
255
255
255
255
255
255
255
255
255
255
255
255
255
255
255
255
255
255
255
255
255
255
255
255
255
255
255
255
255
255
255
255
255
255
255
255
255
255
255
255
255
255
255
255
255
255
255
255
255
255
255
255
255
255
255
255
255
255
255
255
255
255
255
255
255
255
255
255
255
255
253
255
255
253
255
255
252
255
255
240
255
255
225
255
255
230
255
255
237
255
255
230
255
255
244
255
255
255
255
255
255
255
255
255
255
255
254
255
255
246
255
255
246
255
255
254
255
255
255
255
255
255
255
255
255
255
255
255
255
255
255
255
255
255
255
255
255
255
255
255
255
255
255
255
255
255
255
255
255
255
255
255
255
255
255
255
255
255
255
255
255
255
255
252
255
255
250
255
255
254
255
255
255
255
255
255
255
255
249
255
255
244
255
255
245
255
255
239
255
255
245
255
255
240
255
255
230
255
255
230
255
255
230
255
255
239
255
255
253
255
255
255
255
255
255
255
255
254
255
255
255
255
255
255
255
255
250
255
255
238
255
255
244
255
255
252
255
255
255
255
255
255
255
255
255
255
255
255
255
255
251
255
255
247
255
255
243
255
255
244
255
255
241
255
255
237
255
255
227
255
255
218
255
255
234
255
255
248
255
255
243
255
255
236
255
255
231
255
255
232
255
255
227
255
255
229
255
255
236
255
255
246
255
255
246
255
255
239
255
255
234
255
255
237
255
255
251
255
255
252
255
255
245
255
255
241
255
255
251
255
255
255
255
255
255
255
255
255
255
255
252
255
255
255
255
255
255
255
255
255
255
255
255
255
255
255
255
255
255
255
255
255
255
255
255
255
255
255
255
255
255
255
255
255
255
255
255
255
255
255
255
255
255
255
255
255
255
255
255
255
255
255
255
255
255
255
255
255
255
255
255
255
255
255
255
255
255
255
255
255
255
255
250
255
255
243
255
255
242
255
255
245
255
255
255
255
255
255
255
255
255
255
255
255
255
255
255
255
255
255
255
255
255
255
255
255
255
255
255
255
255
255
255
255
255
255
255
255
255
255
255
255
255
255
255
255
255
255
255
255
255
255
255
255
255
255
255
255
255
255
255
255
255
255
255
255
255
255
255
255
255
255
255
255
255
255
255
255
255
255
255
255
255
255
255
255
255
255
253
255
255
252
255
255
247
255
251
229
253
247
223
254
252
236
255
255
242
255
254
239
255
252
228
255
255
244
255
253
236
255
255
245
255
255
255
255
255
255
255
255
254
255
255
255
255
255
255
255
255
255
255
255
255
255
255
255
255
255
254
255
254
242
255
255
254
255
255
249
255
255
250
255
255
245
255
255
253
255
255
255
255
255
255
255
255
255
255
255
255
255
255
255
255
255
255
255
255
255
255
255
255
255
255
255
255
255
255
255
255
255
255
255
255
255
255
255
255
255
255
255
255
255
255
255
255
255
255
255
255
255
255
255
255
255
255
255
255
255
255
255
255
255
255
255
255
255
255
255
255
255
255
255
255
255
255
255
255
255
255
255
255
255
255
255
255
255
255
255
255
252
255
255
234
255
255
235
255
255
241
255
255
243
255
255
252
255
255
255
255
255
255
255
255
253
255
255
241
255
255
232
255
255
231
255
255
250
255
255
255
255
255
255
255
255
255
255
255
255
255
255
255
255
255
255
255
255
255
255
255
255
255
255
255
255
255
255
255
255
255
255
255
255
255
255
255
255
255
255
255
255
251
255
255
250
255
255
254
255
255
255
255
255
255
255
255
253
255
255
246
255
255
240
255
255
241
255
255
235
255
255
240
255
255
240
255
255
239
255
255
237
255
255
238
255
255
240
255
255
249
255
255
255
255
255
255
255
255
255
255
255
255
255
255
255
255
255
253
255
255
235
255
255
227
255
255
234
255
255
251
255
255
255
255
255
255
255
255
255
255
255
248
255
255
242
255
255
243
255
255
244
255
255
249
255
255
246
255
255
234
255
255
233
255
255
243
255
255
255
255
255
255
255
255
250
255
255
247
255
255
243
255
255
233
255
255
227
255
255
240
255
255
254
255
255
255
255
255
254
255
255
254
255
255
253
255
255
255
255
255
255
255
255
255
255
255
254
255
255
255
255
255
255
255
255
255
255
255
255
255
255
254
255
255
255
255
255
255
255
255
255
255
255
255
255
255
255
255
255
255
255
255
255
255
255
255
255
255
255
255
255
255
255
255
255
255
255
255
255
255
255
255
255
255
255
255
255
255
255
255
255
255
255
255
255
255
255
255
255
255
255
255
255
255
255
255
255
255
255
255
255
255
255
255
255
255
254
255
255
252
255
255
254
255
255
255
255
255
255
255
255
255
255
255
255
255
255
255
255
255
255
255
255
255
255
255
255
255
255
255
255
255
255
255
255
255
255
255
255
255
255
255
255
255
255
255
255
255
255
255
255
255
255
255
255
255
255
255
255
255
255
255
255
255
255
255
255
255
255
255
255
255
255
255
255
255
255
252
255
255
252
255
255
254
255
255
252
255
255
254
255
255
249
255
255
231
255
245
214
250
232
202
245
227
197
254
246
218
255
250
226
255
249
225
255
255
241
255
255
244
255
255
246
255
255
253
255
255
248
255
255
253
255
255
252
255
255
255
255
255
255
255
255
255
255
255
255
255
255
254
255
255
254
255
255
253
255
255
250
255
255
254
255
255
254
255
255
255
255
255
255
255
255
255
255
255
255
255
255
255
255
255
255
255
255
255
255
255
255
255
255
255
255
255
255
255
255
255
255
255
255
255
255
255
255
255
255
255
255
255
255
255
255
255
255
255
255
255
255
255
255
255
255
255
255
255
255
255
255
255
255
255
255
255
255
255
255
255
255
255
255
255
255
255
255
255
255
255
255
255
255
255
255
255
255
255
255
255
255
255
255
255
255
251
255
255
238
255
255
242
255
255
251
255
255
255
255
255
255
255
255
255
255
255
250
255
255
240
255
255
235
255
255
235
255
255
248
255
255
255
255
255
255
255
255
255
255
255
255
255
255
255
255
255
255
255
255
255
255
255
255
255
255
255
255
255
255
255
255
255
255
255
255
255
255
255
255
255
255
255
255
249
255
255
246
255
255
248
255
255
249
255
255
246
255
255
245
255
255
238
255
255
231
255
255
230
255
255
228
255
255
231
255
255
238
255
255
242
255
255
239
255
255
241
255
255
250
255
255
254
255
255
255
255
255
254
255
255
255
255
255
255
255
255
255
255
255
250
255
255
232
255
255
223
255
255
228
255
255
243
255
255
251
255
255
255
255
255
251
255
255
233
255
255
228
255
255
237
255
255
241
255
255
244
255
255
246
255
255
233
255
255
250
255
255
255
255
255
255
255
255
255
255
255
255
255
255
255
255
255
254
255
255
239
255
255
228
255
255
242
255
255
253
255
255
255
255
255
255
255
255
255
255
255
255
255
255
255
255
255
255
255
255
255
255
255
255
255
255
255
255
255
255
255
255
255
255
255
255
255
255
255
255
255
255
255
255
255
255
255
255
255
255
255
255
255
255
255
255
255
255
255
255
255
255
255
255
255
255
255
255
255
255
255
255
255
255
255
255
255
255
255
255
255
255
255
255
255
255
255
255
255
255
255
255
255
255
255
255
255
255
255
255
255
255
255
255
255
255
255
255
255
255
255
255
255
255
255
255
255
255
255
255
255
255
255
255
255
255
255
255
255
255
255
255
255
255
255
255
255
255
255
255
255
255
255
255
255
255
255
255
255
255
255
255
255
255
255
255
255
255
255
255
255
255
255
255
255
255
255
255
255
255
255
255
255
255
255
255
255
255
255
255
255
255
255
255
255
255
255
255
255
255
255
255
255
255
255
255
255
255
255
255
255
255
255
254
255
255
249
255
255
245
255
255
234
255
252
223
255
244
217
253
236
210
247
230
202
252
236
210
252
242
225
255
253
239
255
255
239
255
253
242
255
255
250
255
254
236
255
255
249
255
255
242
255
255
253
255
255
254
255
255
253
255
255
255
255
255
255
255
255
253
255
255
250
255
255
255
255
255
255
255
255
254
255
255
254
255
255
255
255
255
255
255
255
255
255
255
255
255
255
255
255
255
255
255
255
255
255
255
255
255
255
255
255
255
255
255
255
255
255
255
255
255
255
255
255
255
255
255
255
255
255
255
255
255
255
255
255
255
255
255
255
250
255
255
254
255
255
255
255
255
255
255
255
255
255
255
255
255
255
255
255
255
255
255
255
255
255
255
255
255
255
255
255
255
255
255
255
255
255
255
255
255
255
251
255
255
241
255
255
247
255
255
255
255
255
255
255
255
255
255
255
252
255
255
247
255
255
247
255
255
253
255
255
255
255
255
255
255
255
255
255
255
255
255
255
255
255
255
255
255
255
255
255
255
251
255
255
249
255
255
251
255
255
255
255
255
255
255
255
255
255
255
255
255
255
255
255
255
251
255
255
244
255
255
241
255
255
239
255
255
242
255
255
246
255
255
242
255
255
234
255
255
227
255
255
225
255
255
230
255
255
234
255
255
240
255
255
242
255
255
250
255
255
255
255
255
255
255
255
255
255
255
250
255
255
251
255
255
255
255
255
255
255
255
254
255
255
245
255
255
233
255
255
231
255
255
238
255
255
246
255
255
254
255
255
248
255
255
224
255
255
217
255
255
229
255
255
239
255
255
245
255
255
243
255
255
237
255
255
248
255
255
255
255
255
255
255
255
255
255
255
255
255
255
255
255
255
248
255
255
236
255
255
223
255
255
236
255
255
245
255
255
254
255
255
255
255
255
255
255
255
252
255
255
251
255
255
253
255
255
255
255
255
255
255
255
255
255
255
255
255
255
255
255
255
255
255
255
255
255
255
255
255
255
255
255
255
255
255
255
255
255
255
255
255
255
255
255
255
255
255
255
255
255
255
255
255
255
255
255
255
255
255
255
255
255
255
255
255
255
255
255
255
255
255
255
255
255
255
255
255
255
255
255
255
255
255
255
255
255
255
255
255
255
255
255
255
255
255
255
255
255
255
255
255
255
255
255
255
255
255
255
255
255
255
255
255
255
255
255
255
255
255
255
255
255
255
255
255
255
255
255
255
255
255
255
255
255
255
255
255
255
255
255
255
255
255
255
255
255
255
255
255
255
255
255
255
255
255
255
255
255
255
255
255
255
255
255
255
255
255
255
255
255
255
255
255
255
255
255
255
255
255
255
255
255
255
255
255
255
253
255
255
249
255
255
250
255
255
245
255
255
247
255
255
243
255
251
229
255
243
216
253
237
212
255
239
215
244
220
196
243
223
200
255
251
233
255
244
222
255
251
235
255
254
241
255
251
229
255
255
239
255
255
251
255
254
248
255
255
248
255
255
250
255
255
253
255
255
247
255
255
247
255
250
233
255
253
245
255
251
239
255
255
252
255
255
255
255
255
255
255
255
255
255
255
255
255
255
255
255
255
255
255
255
255
255
255
255
255
255
255
255
255
255
255
255
255
255
255
255
255
255
255
255
255
255
255
255
255
255
255
255
255
255
255
255
255
254
255
255
247
255
255
254
255
255
255
255
255
255
255
255
255
255
255
255
255
255
255
255
255
255
255
255
255
255
255
255
255
255
255
255
255
255
255
255
255
255
255
255
255
255
254
255
255
248
255
255
252
255
255
255
255
255
255
255
255
255
255
255
255
255
255
254
255
255
255
255
255
255
255
255
255
255
255
255
255
255
255
255
255
255
255
255
255
255
255
255
255
255
253
255
255
245
255
255
243
255
255
249
255
255
255
255
255
255
255
255
255
255
255
255
255
255
255
255
255
255
255
255
255
255
255
253
255
255
249
255
255
251
255
255
252
255
255
252
255
255
249
255
255
242
255
255
233
255
255
238
255
255
241
255
255
240
255
255
243
255
255
249
255
255
255
255
255
255
255
255
254
255
255
241
255
255
237
255
255
252
255
255
255
255
255
255
255
255
251
255
255
239
255
255
237
255
255
238
255
255
244
255
255
255
255
255
247
255
255
238
255
255
226
255
255
220
255
255
231
255
255
241
255
255
246
255
255
237
255
255
235
255
255
243
255
255
251
255
255
255
255
255
255
255
255
248
255
255
233
255
255
230
255
255
227
255
255
223
255
255
234
255
255
237
255
255
238
255
255
236
255
255
232
255
255
234
255
255
245
255
255
255
255
255
255
255
255
255
255
255
255
255
255
255
255
255
255
255
255
255
255
255
255
255
255
255
255
255
255
255
255
255
255
255
255
255
255
255
255
255
255
255
255
255
255
255
255
255
255
255
255
255
255
255
255
255
255
255
255
255
255
255
255
255
255
255
255
255
255
255
255
255
255
255
255
255
255
255
255
255
255
255
255
255
255
255
255
255
255
255
255
254
255
255
255
255
255
255
255
255
255
255
255
255
255
255
255
255
255
255
255
255
255
255
255
255
255
255
255
255
255
255
255
255
255
255
255
255
255
255
255
255
255
255
255
255
255
255
255
255
255
255
255
255
255
255
255
255
255
255
255
255
255
255
255
255
255
255
255
255
255
255
255
255
255
255
255
255
255
255
255
255
255
255
255
255
255
255
255
255
255
255
255
255
254
255
255
254
255
255
255
255
255
255
255
255
252
255
255
242
255
253
232
254
247
227
254
239
215
252
230
206
251
233
210
254
245
227
255
251
234
255
252
233
255
252
233
255
250
225
255
254
236
255
255
253
255
255
253
255
254
248
255
252
240
254
251
235
251
246
235
251
241
221
250
232
208
255
251
235
255
246
220
255
254
242
255
255
253
255
255
255
255
255
255
255
255
255
255
255
255
255
255
255
255
255
255
255
255
255
255
255
255
255
255
255
255
255
255
255
255
255
255
255
255
255
255
255
255
255
255
255
255
255
255
255
255
255
255
255
255
255
245
255
255
252
255
255
255
255
255
255
255
255
255
255
255
253
255
255
253
255
255
255
255
255
255
255
255
255
255
255
255
255
255
255
255
255
255
255
255
255
255
255
255
255
255
255
255
255
255
255
255
255
255
255
255
255
255
255
255
255
255
255
255
255
255
255
253
255
255
255
255
255
255
255
255
255
255
255
255
255
255
255
255
255
254
255
255
255
255
255
255
255
255
254
255
255
254
255
255
255
255
255
255
255
255
255
255
255
255
255
255
255
255
255
255
255
255
255
255
255
255
255
255
255
255
255
255
255
255
255
255
255
255
255
255
255
255
255
255
255
255
250
255
255
245
255
255
249
255
255
247
255
255
239
255
255
234
255
255
245
255
255
255
255
255
255
255
255
251
255
255
227
255
255
218
255
255
236
255
255
252
255
255
255
255
255
252
255
255
243
255
255
247
255
255
246
255
255
246
255
255
253
255
255
244
255
255
245
255
255
233
255
255
219
255
255
221
255
255
236
255
255
245
255
255
236
255
255
222
255
255
230
255
255
245
255
255
255
255
255
253
255
255
237
255
255
231
255
255
230
255
255
241
255
255
231
255
255
225
255
255
224
255
255
230
255
255
234
255
255
234
255
255
228
255
255
247
255
255
255
255
255
255
255
255
255
255
255
255
255
255
255
255
255
255
255
255
254
255
255
252
255
255
253
255
255
255
255
255
255
255
255
255
255
255
255
255
255
255
255
255
255
255
255
252
255
255
251
255
255
254
255
255
251
255
255
253
255
255
254
255
255
255
255
255
255
255
255
255
255
255
255
255
255
255
255
255
255
255
255
255
255
255
255
255
255
250
255
255
243
255
255
241
255
255
247
255
255
254
255
255
255
255
255
255
255
255
255
255
255
255
255
255
255
255
255
255
255
255
255
255
255
255
255
255
255
255
255
255
255
255
255
255
255
255
255
255
255
255
255
255
255
255
255
255
255
255
255
255
255
255
255
255
255
255
255
255
255
255
255
255
255
255
255
255
255
255
255
255
255
255
255
255
255
255
255
252
255
255
249
255
255
253
255
255
254
255
255
255
255
255
254
255
255
255
255
255
250
255
255
243
255
254
237
255
251
224
251
233
208
254
240
217
254
237
213
255
254
238
255
251
231
255
254
240
255
248
226
255
247
226
255
255
250
255
255
255
255
255
255
255
255
248
252
239
216
244
225
200
246
231
205
255
252
234
255
254
235
255
251
230
255
255
249
255
255
255
255
255
255
255
255
255
255
255
255
255
255
255
255
255
255
255
255
255
255
255
255
255
255
255
255
255
255
255
255
255
255
255
255
255
255
255
255
255
255
255
255
255
255
255
255
255
255
255
255
255
253
255
255
248
255
255
254
255
255
254
255
255
250
255
255
253
255
255
248
255
255
246
255
255
255
255
255
255
255
255
255
255
255
255
255
255
255
255
255
255
255
255
255
255
255
255
255
255
255
255
255
255
255
255
255
255
255
255
255
255
255
255
255
255
255
255
255
255
255
255
255
255
255
255
255
255
255
255
255
255
255
255
255
255
255
255
255
255
255
255
255
255
255
255
255
255
255
255
255
255
255
255
255
255
255
255
255
255
255
255
255
255
255
255
255
255
255
255
255
255
255
255
255
255
255
255
255
255
255
255
255
255
255
255
255
255
255
255
255
255
255
255
255
255
255
255
255
255
255
255
254
255
255
250
255
255
237
255
255
235
255
255
249
255
255
255
255
255
254
255
255
242
255
255
220
255
255
218
255
255
232
255
255
245
255
255
245
255
255
241
255
255
234
255
255
239
255
255
242
255
255
243
255
255
240
255
255
238
255
255
240
255
255
237
255
255
219
255
255
216
255
255
238
255
255
249
255
255
241
255
255
228
255
255
230
255
255
240
255
255
252
255
255
244
255
255
221
255
255
225
255
255
239
255
255
250
255
255
249
255
255
235
255
255
225
255
255
240
255
255
245
255
255
242
255
255
237
255
255
249
255
255
255
255
255
255
255
255
255
255
255
255
255
255
255
255
255
255
255
255
253
255
255
241
255
255
239
255
255
254
255
255
255
255
255
255
255
255
255
255
255
255
255
255
254
255
255
238
255
255
236
255
255
240
255
255
239
255
255
239
255
255
244
255
255
249
255
255
255
255
255
255
255
255
255
255
255
255
255
255
255
255
255
255
255
255
255
255
255
248
255
255
233
255
255
229
255
255
226
255
255
234
255
255
242
255
255
251
255
255
254
255
255
255
255
255
255
255
255
255
255
255
255
255
255
255
255
255
255
255
255
255
255
255
255
255
255
255
255
255
255
255
255
255
255
255
255
255
255
255
255
255
255
255
255
255
255
255
255
255
255
255
255
255
254
255
255
253
255
255
255
255
255
255
255
255
254
255
255
249
255
255
248
255
255
247
255
255
255
255
255
255
255
255
255
255
255
253
255
255
241
255
255
234
254
247
219
248
236
210
251
231
207
249
232
209
252
234
211
253
240
221
255
251
233
255
242
219
255
252
235
255
243
221
255
253
242
255
253
247
255
255
255
255
253
245
252
239
215
238
219
195
255
250
228
255
254
231
255
253
228
255
255
236
255
255
245
255
255
250
255
255
248
255
255
255
255
255
255
255
255
255
255
255
255
255
255
255
255
255
255
255
255
255
255
255
255
255
255
255
255
255
255
255
255
255
255
255
255
255
255
255
255
255
255
255
255
254
255
255
251
255
255
255
255
255
255
255
255
255
255
255
255
255
255
253
255
255
255
255
255
249
255
255
252
255
255
254
255
255
252
255
255
245
255
255
253
255
255
255
255
255
255
255
255
255
255
255
255
255
255
255
255
255
255
255
255
255
255
255
255
255
255
255
255
255
255
255
255
255
255
255
255
255
255
255
255
255
255
255
255
255
255
255
255
255
255
255
255
255
253
255
255
252
255
255
253
255
255
255
255
255
255
255
255
255
255
255
254
255
255
255
255
255
255
255
255
255
255
255
255
255
255
255
255
255
255
255
255
255
255
255
255
255
255
255
255
255
255
255
255
255
255
255
255
255
255
255
255
255
255
255
255
255
255
255
253
255
255
252
255
255
255
255
255
255
255
255
254
255
255
237
255
255
219
255
255
228
255
255
243
255
255
246
255
255
237
255
255
221
255
255
217
255
255
221
255
255
229
255
255
232
255
255
229
255
255
234
255
255
238
255
255
238
255
255
227
255
255
214
255
255
229
255
255
242
255
255
236
255
255
234
255
255
233
255
255
236
255
255
249
255
255
239
255
255
218
255
255
221
255
255
248
255
255
255
255
255
255
255
255
246
255
255
238
255
255
245
255
255
254
255
255
251
255
255
250
255
255
254
255
255
255
255
255
255
255
255
255
255
255
255
255
255
255
255
255
255
255
255
250
255
255
232
255
255
229
255
255
252
255
255
255
255
255
255
255
255
255
255
255
255
255
255
253
255
255
233
255
255
224
255
255
230
255
255
234
255
255
244
255
255
243
255
255
250
255
255
255
255
255
255
255
255
255
255
255
255
255
255
255
255
255
255
255
255
255
255
255
252
255
255
235
255
255
228
255
255
221
255
255
221
255
255
221
255
255
245
255
255
253
255
255
255
255
255
255
255
255
255
255
255
255
255
255
255
255
255
255
255
255
255
255
255
255
255
255
255
255
255
255
255
255
255
255
255
255
255
255
255
255
255
255
255
255
255
255
255
255
255
255
255
255
255
254
255
255
254
255
255
254
255
255
254
255
255
254
255
255
252
255
255
254
255
255
255
255
255
255
255
255
248
255
255
254
255
255
251
255
255
250
254
248
223
245
227
198
237
216
189
244
220
197
253
236
213
255
240
219
250
226
205
253
243
226
255
248
227
255
249
225
255
250
227
255
254
246
255
253
248
255
252
242
253
242
219
245
229
204
239
222
197
249
242
217
255
249
219
255
250
217
255
252
230
255
255
240
255
255
240
255
246
217
255
255
247
255
255
255
255
255
255
255
255
255
255
255
255
255
255
255
255
255
255
255
255
255
255
255
255
255
255
255
255
255
255
255
255
255
255
255
255
255
255
255
255
255
255
255
255
255
255
255
255
255
255
255
255
255
255
255
255
255
255
255
255
255
255
255
255
255
252
255
255
245
255
255
243
255
255
240
255
255
239
255
255
248
255
255
255
255
255
255
255
255
255
255
255
255
255
255
255
255
255
255
255
255
255
255
255
255
255
255
255
255
255
255
255
255
255
255
255
255
255
255
255
255
255
255
255
255
255
255
255
255
255
255
251
255
255
247
255
255
247
255
255
243
255
255
253
255
255
255
255
255
255
255
255
246
255
255
240
255
255
244
255
255
253
255
255
255
255
255
255
255
255
255
255
255
255
255
255
255
255
255
255
255
255
255
255
255
255
255
255
255
255
255
255
255
255
255
255
255
255
255
255
255
255
255
255
255
255
255
255
255
255
255
255
255
255
255
240
255
255
232
255
255
246
255
255
255
255
255
251
255
255
237
255
255
220
255
255
208
255
255
217
255
255
229
255
255
228
255
255
227
255
255
234
255
255
237
255
255
237
255
255
234
255
255
223
255
255
216
255
255
215
255
255
221
255
255
236
255
255
231
255
255
235
255
255
250
255
255
246
255
255
231
255
255
230
255
255
247
255
255
255
255
255
255
255
255
254
255
255
246
255
255
245
255
255
254
255
255
254
255
255
255
255
255
255
255
255
255
255
255
249
255
255
255
255
255
255
255
255
255
255
255
255
255
255
251
255
255
238
255
255
238
255
255
253
255
255
255
255
255
255
255
255
255
255
255
255
255
255
252
255
255
238
255
255
233
255
255
237
255
255
240
255
255
247
255
255
247
255
255
247
255
255
254
255
255
255
255
255
255
255
255
255
255
255
255
255
255
255
255
255
255
255
255
255
255
255
253
255
255
251
255
255
244
255
255
236
255
255
224
255
255
252
255
255
255
255
255
255
255
255
255
255
255
255
255
255
255
255
255
255
255
255
255
255
255
255
255
255
255
255
255
255
255
255
255
255
255
255
255
255
255
255
255
255
255
255
255
255
255
255
255
255
255
255
255
255
255
255
255
255
255
255
255
255
255
255
255
255
255
255
255
255
255
255
255
255
255
255
255
255
255
255
250
255
255
247
255
255
248
255
255
245
255
255
248
251
244
227
220
201
175
225
205
181
245
227
202
244
224
200
254
249
229
244
228
206
244
221
199
255
246
223
255
248
224
255
252
230
255
255
254
255
255
252
255
254
240
252
248
226
241
224
200
230
214
184
236
220
187
251
237
203
255
245
212
255
250
220
255
253
236
255
255
244
255
253
236
255
255
252
255
255
255
255
255
255
255
255
255
255
255
255
255
255
255
255
255
255
255
255
255
255
255
255
255
255
255
255
255
255
255
255
255
255
255
255
255
255
255
255
255
255
255
255
255
255
255
255
255
255
255
255
255
255
255
255
255
255
255
255
255
255
255
255
255
255
255
255
253
255
255
246
255
255
244
255
255
249
255
255
252
255
255
255
255
255
255
255
255
255
255
255
255
255
255
255
255
255
255
255
255
255
255
255
255
255
255
255
255
255
255
255
255
255
255
255
255
255
255
255
255
255
255
255
255
255
255
255
253
255
255
241
255
255
235
255
255
240
255
255
237
255
255
236
255
255
243
255
255
244
255
255
236
255
255
231
255
255
233
255
255
245
255
255
250
255
255
250
255
255
255
255
255
255
255
255
255
255
255
255
255
255
255
255
255
255
255
255
255
255
255
255
255
255
255
255
255
255
255
255
255
255
255
254
255
255
251
255
255
254
255
255
255
255
255
251
255
255
249
255
255
255
255
255
255
255
255
255
255
255
251
255
255
231
255
255
215
255
255
226
255
255
238
255
255
234
255
255
231
255
255
235
255
255
244
255
255
246
255
255
238
255
255
227
255
255
225
255
255
212
255
255
219
255
255
239
255
255
238
255
255
233
255
255
253
255
255
255
255
255
247
255
255
240
255
255
253
255
255
255
255
255
255
255
255
253
255
255
245
255
255
249
255
255
254
255
255
255
255
255
255
255
255
255
255
255
252
255
255
246
255
255
254
255
255
255
255
255
255
255
255
247
255
255
236
255
255
233
255
255
245
255
255
255
255
255
255
255
255
255
255
255
255
255
255
255
255
255
255
255
255
244
255
255
240
255
255
248
255
255
254
255
255
253
255
255
245
255
255
241
255
255
253
255
255
255
255
255
255
255
255
255
255
255
255
255
255
255
255
255
255
255
255
255
255
255
255
255
255
255
255
255
255
255
255
253
255
255
226
255
255
249
255
255
255
255
255
255
255
255
255
255
255
255
255
255
254
255
255
254
255
255
255
255
255
255
255
255
255
255
255
255
255
255
255
255
255
255
255
255
255
255
255
255
255
255
255
255
255
255
255
255
255
255
255
255
255
255
255
255
255
255
255
255
255
255
255
255
255
255
255
255
255
253
255
255
247
255
255
254
255
255
242
255
255
249
255
255
239
255
255
240
255
254
244
254
250
224
252
238
213
245
226
201
240
220
195
237
216
193
245
228
206
236
212
190
243
219
197
254
237
214
253
245
221
255
254
237
255
255
255
253
249
242
250
232
211
243
220
199
230
212
188
217
200
170
228
211
180
241
224
194
252
238
208
255
253
225
255
254
233
255
255
235
255
253
229
255
255
242
255
255
252
255
255
255
255
255
255
255
255
255
255
255
255
255
255
255
255
255
255
255
255
255
255
255
255
255
255
255
255
255
255
255
255
255
255
255
255
255
255
255
255
255
255
255
255
255
255
255
255
255
255
255
255
255
255
255
255
255
255
255
255
255
255
255
255
255
255
255
255
255
255
255
255
255
255
255
255
255
255
255
255
255
255
255
255
255
255
255
255
255
255
255
255
255
255
255
255
255
255
255
255
255
255
255
255
255
255
255
255
255
255
255
255
255
255
255
255
255
255
255
255
255
255
255
255
255
255
255
255
247
255
255
245
255
255
251
255
255
250
255
255
238
255
255
242
255
255
249
255
255
248
255
255
246
255
255
247
255
255
253
255
255
252
255
255
251
255
255
255
255
255
255
255
255
255
255
255
255
255
255
255
255
255
255
255
255
254
255
255
252
255
255
236
255
255
241
255
255
255
255
255
253
255
255
234
255
255
239
255
255
253
255
255
255
255
255
255
255
255
255
255
255
255
255
255
255
255
255
255
255
255
241
255
255
227
255
255
237
255
255
242
255
255
238
255
255
244
255
255
225
255
255
239
255
255
243
255
255
238
255
255
230
255
255
226
255
255
217
255
255
217
255
255
236
255
255
238
255
255
228
255
255
251
255
255
255
255
255
250
255
255
248
255
255
255
255
255
255
255
255
255
255
255
254
255
255
248
255
255
252
255
255
255
255
255
255
255
255
255
255
255
255
255
255
252
255
255
248
255
255
254
255
255
255
255
255
246
255
255
240
255
255
234
255
255
232
255
255
248
255
255
255
255
255
255
255
255
255
255
255
255
255
255
255
255
255
255
255
255
253
255
255
250
255
255
252
255
255
255
255
255
253
255
255
253
255
255
252
255
255
255
255
255
255
255
255
255
255
255
255
255
255
255
255
255
255
255
255
255
255
255
255
255
255
255
255
255
255
255
255
255
255
255
255
255
255
246
255
254
238
255
255
255
255
255
255
255
255
255
255
255
254
255
255
248
255
255
249
255
255
255
255
255
255
255
255
255
255
255
255
255
255
255
255
255
255
255
255
255
255
255
255
255
255
255
255
255
255
255
255
255
255
255
252
255
255
246
255
255
250
255
255
253
255
255
254
255
255
254
255
254
241
255
254
249
255
255
249
255
248
223
253
245
223
254
247
224
255
252
234
255
253
234
255
249
224
244
229
203
218
199
174
230
209
185
222
198
175
225
201
178
231
206
184
239
215
193
249
229
205
254
245
221
252
246
224
255
255
254
254
246
227
255
244
222
249
236
212
243
227
203
214
197
169
221
205
176
231
214
187
250
237
209
255
249
221
255
254
231
255
255
243
255
255
246
255
255
238
255
255
247
255
255
254
255
255
255
255
255
255
255
255
255
255
255
255
255
255
255
255
255
255
255
255
255
255
255
255
255
255
255
255
255
255
255
255
255
255
255
255
255
255
255
255
255
255
255
255
255
255
255
255
255
255
255
255
255
255
255
255
255
255
255
255
255
255
255
255
255
255
255
255
255
255
255
255
255
255
255
255
255
255
255
255
255
255
255
255
255
255
255
255
255
255
255
255
255
255
255
255
255
255
255
255
255
255
255
255
255
255
255
255
255
255
255
255
255
255
255
255
255
255
255
255
255
255
255
255
255
255
255
255
255
255
255
255
255
255
255
255
255
255
255
255
255
255
255
255
255
255
255
255
255
255
255
255
255
255
255
255
255
255
255
255
255
255
255
255
255
255
255
255
255
255
255
255
255
255
255
255
255
255
255
254
255
255
253
255
255
245
255
254
225
255
255
238
255
255
254
255
255
250
255
255
228
255
255
229
255
255
250
255
255
255
255
255
255
255
255
255
255
255
255
255
255
255
255
255
253
255
255
246
255
255
237
255
255
243
255
255
253
255
255
255
255
255
255
255
255
221
255
255
225
255
255
233
255
255
227
255
255
222
255
255
223
255
255
235
255
255
240
255
255
231
255
255
223
255
255
219
255
255
242
255
255
251
255
255
240
255
255
246
255
255
255
255
255
255
255
255
255
255
255
255
255
255
255
255
255
255
255
255
255
255
255
255
255
255
255
255
255
255
255
255
250
255
255
250
255
255
255
255
255
250
255
255
240
255
255
248
255
255
246
255
255
240
255
255
231
255
255
250
255
255
255
255
255
255
255
255
253
255
255
255
255
255
255
255
255
255
255
255
255
255
255
254
255
255
244
255
255
241
255
255
254
255
255
255
255
255
255
255
255
255
255
255
255
255
255
255
255
255
255
255
255
255
255
255
255
255
255
255
255
255
255
255
255
255
255
255
255
255
255
255
255
255
254
255
254
237
255
255
255
255
255
255
255
255
255
255
255
254
255
255
247
255
255
251
255
255
254
255
255
255
255
255
255
255
255
255
255
255
255
255
255
255
255
255
255
255
255
255
255
255
251
255
255
249
255
255
242
253
244
219
255
249
221
255
255
239
255
255
236
255
255
239
255
255
250
255
255
254
255
255
255
255
253
237
253
242
217
244
223
199
244
222
198
251
232
208
254
243
217
255
248
222
234
219
192
215
197
172
213
193
168
213
191
167
217
195
171
230
207
183
251
237
213
248
231
206
254
240
211
253
242
215
255
255
250
255
255
250
253
247
227
239
220
196
223
205
181
190
172
149
213
196
171
230
213
188
247
232
207
255
250
224
255
254
237
255
255
241
255
255
248
255
255
254
255
255
255
255
255
247
255
255
255
255
255
255
255
255
255
255
255
255
255
255
255
255
255
255
255
255
255
255
255
255
255
255
255
255
255
255
255
255
255
255
255
255
255
255
255
255
255
255
255
255
255
255
255
255
255
255
255
255
255
255
255
255
255
255
255
255
255
255
255
255
255
255
255
255
255
255
255
255
255
255
255
255
255
255
255
255
255
255
255
255
255
255
255
255
255
248
255
255
253
255
255
255
255
255
255
255
255
255
255
255
255
255
255
255
255
255
255
255
255
255
255
255
255
255
255
255
255
255
255
255
255
255
255
255
255
255
255
255
255
255
255
255
255
255
255
255
255
255
255
255
255
255
255
255
255
255
255
255
255
255
255
255
255
255
255
255
255
255
255
255
255
255
255
255
255
255
255
255
255
255
255
255
255
255
255
248
255
255
248
255
255
254
255
255
253
255
255
255
255
255
255
255
255
252
255
255
237
255
255
246
255
255
254
255
255
255
255
255
255
255
255
251
255
255
255
255
255
255
255
255
253
255
255
244
255
255
235
255
255
253
255
255
255
255
255
255
255
255
255
255
255
224
255
255
224
255
255
227
255
255
218
255
255
223
255
255
232
255
255
240
255
255
248
255
255
240
255
255
232
255
255
230
255
255
222
255
255
229
255
255
232
255
255
238
255
255
255
255
255
255
255
255
255
255
255
255
255
255
255
255
255
255
255
255
255
255
255
255
255
255
255
255
255
242
255
255
236
255
255
245
255
255
250
255
255
243
255
255
235
255
255
250
255
255
251
255
255
239
255
255
225
255
255
242
255
255
255
255
255
253
255
255
241
255
255
241
255
255
252
255
255
252
255
255
250
255
255
251
255
255
231
255
255
238
255
255
254
255
255
255
255
255
255
255
255
255
255
255
255
255
255
255
255
255
255
255
255
255
255
255
255
255
255
255
255
255
255
255
255
255
255
255
255
255
255
255
255
255
242
255
255
240
255
255
255
255
255
255
255
255
255
255
255
252
255
255
240
255
255
250
255
255
255
255
255
254
255
255
255
255
255
255
255
255
255
255
255
255
255
255
255
255
255
255
255
255
252
255
255
242
255
252
229
255
251
231
255
255
251
255
255
254
255
255
255
255
255
255
255
255
254
255
255
246
255
255
247
255
252
231
255
251
230
249
232
208
237
215
191
236
215
190
241
223
197
249
235
209
238
223
197
214
196
171
201
181
156
205
183
159
219
197
173
228
206
182
250
239
215
253
245
221
251
238
209
255
252
229
255
255
249
254
250
238
252
242
218
239
222
197
228
210
186
215
197
173
212
194
171
225
207
184
244
227
204
252
240
214
255
253
229
255
255
236
255
255
247
255
255
255
255
254
252
255
255
245
255
255
252
255
255
255
255
255
255
255
255
255
255
255
255
255
255
255
255
255
255
255
255
255
255
255
255
255
255
255
255
255
255
255
255
255
255
255
255
255
255
255
255
255
255
255
255
255
255
255
255
255
255
255
255
255
255
255
255
255
255
255
255
255
255
255
255
255
255
255
255
255
255
255
255
255
255
255
255
255
255
255
255
255
255
255
255
255
255
241
255
255
246
255
255
255
255
255
255
255
255
255
255
255
255
255
255
255
255
255
255
255
255
255
255
255
255
255
255
255
255
255
255
255
255
255
255
255
255
255
255
255
255
255
255
255
255
255
255
255
255
255
255
255
255
255
255
255
255
255
255
255
255
255
255
255
255
255
255
255
255
255
255
255
255
255
255
254
255
255
248
255
255
255
255
255
250
255
255
251
255
255
250
255
255
254
255
255
255
255
255
255
255
255
255
255
255
255
255
255
255
255
255
255
255
255
255
255
255
255
255
255
254
255
255
237
255
255
239
255
255
252
255
255
255
255
255
254
255
255
242
255
255
253
255
255
255
255
255
255
255
255
255
255
255
236
255
255
236
255
255
229
255
255
225
255
255
246
255
255
252
255
255
238
255
255
233
255
255
223
255
255
244
255
255
249
255
255
238
255
255
238
255
255
245
255
255
253
255
255
255
255
255
255
255
255
255
255
255
255
255
255
255
255
255
255
255
255
255
255
255
255
255
255
253
255
255
235
255
255
235
255
255
243
255
255
239
255
255
226
255
255
216
255
255
233
255
255
246
255
255
240
255
255
235
255
255
242
255
255
246
255
255
241
255
255
231
255
255
238
255
255
241
255
255
240
255
255
244
255
255
239
255
255
231
255
255
240
255
255
254
255
255
254
255
255
253
255
255
255
255
255
255
255
255
255
255
255
255
255
255
255
255
255
255
255
255
255
255
255
255
255
255
255
255
255
255
255
255
255
255
255
249
255
255
253
255
255
255
255
255
255
255
255
255
255
255
250
255
255
239
255
255
251
255
255
255
255
255
254
255
255
254
255
255
255
255
255
255
255
255
255
255
255
255
255
255
255
255
255
255
255
255
255
255
255
252
255
255
252
255
255
255
255
255
255
255
255
255
255
255
248
255
254
238
255
250
238
255
250
232
252
244
221
255
254
242
255
253
237
246
229
206
232
213
189
228
211
185
218
202
176
214
198
174
208
190
166
208
190
165
228
206
182
220
199
174
227
207
182
239
223
197
250
235
209
239
222
192
250
240
214
255
254
247
255
252
233
254
250
229
225
207
183
208
191
166
214
196
173
178
162
140
197
181
160
225
209
188
248
234
210
255
251
227
255
255
245
255
255
247
255
250
233
255
253
234
255
249
224
255
255
248
255
255
255
255
255
255
255
255
255
255
255
255
255
255
255
255
255
255
255
255
255
255
255
255
255
255
255
255
255
255
255
255
255
255
255
255
255
255
255
255
255
255
255
255
255
255
255
255
255
255
255
255
255
255
255
255
255
255
255
255
255
255
255
255
255
255
255
255
255
255
255
255
255
255
255
255
255
255
255
255
255
255
255
255
255
255
250
255
255
245
255
255
255
255
255
254
255
255
251
255
255
255
255
255
255
255
255
255
255
255
255
255
255
255
255
255
255
255
255
255
255
255
255
255
255
255
255
255
255
255
255
255
255
255
254
255
255
249
255
255
253
255
255
255
255
255
255
255
255
255
255
255
255
255
255
255
255
255
255
255
255
254
255
255
241
255
255
234
255
255
254
255
255
252
255
255
254
255
255
252
255
255
255
255
255
255
255
255
255
255
255
255
255
255
255
255
255
255
255
255
255
255
255
255
255
255
255
255
255
255
255
255
241
255
255
218
255
255
232
255
255
252
255
255
255
255
255
250
255
255
240
255
255
253
255
255
255
255
255
255
255
255
239
255
255
244
255
255
235
255
255
239
255
255
254
255
255
251
255
255
225
255
255
221
255
255
225
255
255
229
255
255
226
255
255
232
255
255
250
255
255
255
255
255
255
255
255
255
255
255
255
255
255
255
255
255
254
255
255
255
255
255
255
255
255
255
255
255
254
255
255
248
255
255
245
255
255
246
255
255
247
255
255
248
255
255
226
255
255
211
255
255
210
255
255
236
255
255
241
255
255
243
255
255
242
255
255
240
255
255
240
255
255
240
255
255
243
255
255
237
255
255
231
255
255
239
255
255
247
255
255
240
255
255
244
255
255
250
255
255
242
255
255
246
255
255
255
255
255
255
255
255
255
255
255
255
255
255
255
255
255
255
255
255
255
255
255
255
255
255
255
255
255
255
255
255
255
255
255
241
255
255
255
255
255
255
255
255
255
255
255
255
255
255
251
255
255
248
255
255
253
255
255
254
255
255
253
255
255
254
255
255
255
255
255
255
255
255
255
255
255
255
255
255
255
255
255
255
255
255
255
255
255
255
255
255
255
255
255
255
255
255
255
255
255
252
255
255
241
255
249
227
254
240
215
241
220
195
243
228
206
255
254
249
255
255
248
255
252
236
248
234
210
226
211
185
200
184
159
189
172
149
205
187
164
217
199
174
211
191
166
217
198
173
243
228
203
255
247
221
244
229
203
244
228
200
254
244
215
249
235
209
248
229
205
246
225
202
221
202
178
207
191
166
216
199
177
193
178
157
201
186
166
229
214
193
238
222
199
248
236
212
255
251
234
255
254
235
253
238
215
254
246
222
255
245
219
255
255
252
255
255
255
255
255
255
255
255
255
255
255
255
255
255
255
255
255
255
255
255
255
255
255
255
255
255
255
255
255
255
255
255
255
255
255
255
255
255
255
255
255
255
255
255
255
255
255
255
255
255
255
255
255
255
255
255
255
255
255
255
255
255
255
255
255
255
255
255
255
255
255
255
255
255
255
255
255
255
255
255
255
255
255
255
255
255
255
255
255
255
255
255
255
255
255
252
255
255
243
255
255
253
255
255
255
255
255
255
255
255
255
255
255
255
255
255
255
255
255
255
255
255
255
255
255
251
255
255
252
255
255
251
255
255
241
255
255
237
255
255
251
255
255
255
255
255
251
255
255
254
255
255
255
255
255
252
255
255
254
255
255
253
251
254
215
255
255
246
255
255
255
255
255
255
255
255
255
255
255
255
255
255
255
255
255
255
255
255
255
255
255
255
255
255
255
255
255
255
255
255
255
255
255
255
255
255
255
255
255
255
255
255
253
255
255
228
255
255
225
255
255
239
255
255
254
255
255
249
255
255
228
255
255
240
255
255
252
255
255
252
255
255
236
255
255
240
255
255
236
255
255
241
255
255
255
255
255
252
255
255
228
255
255
220
255
255
239
255
255
241
255
255
218
255
255
212
255
255
240
255
255
254
255
255
255
255
255
255
255
255
250
255
255
252
255
255
243
255
255
254
255
255
255
255
255
255
255
255
250
255
255
244
255
255
255
255
255
255
255
255
254
255
255
255
255
255
247
255
255
220
255
255
216
255
255
235
255
255
235
255
255
237
255
255
237
255
255
224
255
255
228
255
255
233
255
255
235
255
255
231
255
255
224
255
255
228
255
255
250
255
255
253
255
255
245
255
255
247
255
255
250
255
255
250
255
255
255
255
255
255
255
255
255
255
255
255
255
255
255
255
255
255
255
255
255
255
255
253
255
255
247
255
255
253
255
255
254
255
255
249
255
255
255
255
255
255
255
255
255
255
255
255
255
255
251
255
255
242
255
255
246
255
255
253
255
255
252
255
255
248
255
255
252
255
255
255
255
255
255
255
255
255
255
255
255
255
255
255
255
255
255
255
255
252
255
255
247
255
255
249
255
255
249
255
255
244
255
255
243
255
253
231
255
240
215
244
225
202
252
245
229
255
248
232
255
255
249
255
255
251
254
246
224
237
224
200
206
192
169
194
177
154
199
181
157
218
201
175
215
199
173
231
214
188
249
239
214
255
248
222
239
222
196
238
221
194
247
231
205
244
226
203
233
215
191
239
221
197
243
227
203
228
214
191
224
210
190
184
170
150
199
184
163
220
205
185
235
223
203
255
253
237
255
254
241
255
253
243
255
252
238
255
244
220
255
254
239
255
255
255
255
255
255
255
255
255
255
255
255
255
255
255
255
255
255
255
255
255
255
255
255
255
255
255
255
255
255
255
255
255
255
255
255
255
255
255
255
255
255
255
255
255
255
255
255
255
255
255
255
255
255
255
255
255
255
255
255
255
255
255
255
255
255
255
255
255
255
255
255
255
255
255
255
255
255
255
255
255
255
255
255
255
255
255
255
255
255
255
255
255
255
255
255
255
255
255
255
255
251
255
255
249
255
255
253
255
255
255
255
255
255
255
255
255
255
255
255
255
255
250
255
255
250
255
255
232
255
255
236
255
255
250
255
255
253
255
255
252
255
255
254
255
255
255
255
255
254
255
255
253
255
255
255
255
255
247
255
255
252
255
255
241
253
254
229
255
255
254
255
255
255
255
255
255
255
255
255
255
255
255
255
255
255
255
255
255
255
255
255
255
255
255
255
255
244
255
255
251
255
255
255
255
255
255
255
255
255
255
255
255
255
255
255
255
255
252
255
255
245
255
255
246
255
255
249
255
255
236
255
255
231
255
255
239
255
255
245
255
255
247
255
255
247
255
255
235
255
255
229
255
255
221
255
255
254
255
255
255
255
255
253
255
255
249
255
255
252
255
255
254
255
255
243
255
255
229
255
255
233
255
255
238
255
255
247
255
255
244
255
255
246
253
255
230
255
255
236
255
255
254
255
255
255
255
255
255
255
255
255
255
255
250
255
255
255
255
255
255
255
255
255
255
255
255
255
255
255
255
255
244
255
255
237
255
255
234
255
255
229
255
255
244
255
255
229
255
255
217
255
255
222
255
255
221
255
255
226
255
255
226
255
255
222
255
255
225
255
255
242
255
255
255
255
255
255
255
255
255
255
255
255
255
255
255
255
255
255
255
255
255
255
255
255
255
255
255
255
255
255
255
255
255
255
255
255
255
255
255
255
255
250
255
255
253
255
255
244
255
255
248
255
255
255
255
255
255
255
255
255
255
255
255
255
255
246
255
255
233
255
255
232
255
255
237
255
255
249
255
255
254
255
255
255
255
255
255
255
255
255
255
255
255
255
255
255
255
255
251
255
254
235
255
249
218
255
252
224
255
254
230
255
255
249
255
255
249
255
255
251
255
255
247
255
253
240
254
246
228
255
252
232
255
252
232
255
255
248
255
255
252
253
248
227
249
239
215
217
202
179
192
174
151
197
178
154
206
187
163
214
198
172
235
219
193
249
234
209
249
232
208
242
223
199
234
215
191
243
224
199
251
236
212
245
226
202
241
224
200
247
234
209
250
237
215
233
219
199
173
158
139
193
178
159
232
217
198
253
248
229
255
249
232
255
255
244
255
254
240
249
235
212
255
249
225
255
255
241
255
255
253
255
255
255
255
255
255
255
255
255
255
255
255
255
255
255
255
255
255
255
255
255
255
255
255
255
255
255
255
255
255
255
255
255
255
255
255
255
255
255
255
255
255
255
255
255
255
255
255
255
255
255
255
255
255
255
255
255
255
255
255
255
255
255
255
255
255
255
255
255
255
255
255
255
255
255
255
255
255
255
255
255
255
255
255
255
255
254
255
255
254
255
255
255
255
255
255
255
255
254
255
255
246
255
255
243
255
255
254
255
255
255
255
255
249
255
255
245
255
255
241
255
255
235
255
255
241
255
255
253
255
255
255
255
255
255
255
255
255
255
255
255
255
255
255
255
255
249
255
255
245
255
255
254
255
255
253
255
255
246
254
255
225
255
255
246
255
255
253
255
255
251
255
255
244
255
255
251
255
255
253
255
255
253
255
255
255
255
255
255
255
255
254
255
255
223
255
255
239
255
255
255
255
255
255
255
255
255
255
255
255
255
255
255
255
255
254
255
255
245
255
255
247
255
255
245
255
255
232
255
255
249
255
255
246
255
255
247
255
255
247
255
255
249
255
255
233
255
255
227
254
251
206
255
255
250
255
255
254
255
255
255
255
255
251
255
255
239
255
255
230
255
255
226
255
255
237
255
255
252
255
255
237
255
255
217
255
255
239
255
255
251
255
255
232
255
255
238
255
255
253
255
255
255
255
255
255
255
255
255
255
255
252
255
255
253
255
255
255
255
255
255
255
255
255
255
255
255
255
255
254
255
255
250
255
255
229
255
255
228
255
255
247
255
255
242
255
255
249
255
255
251
255
255
243
255
255
239
255
255
244
255
255
236
255
255
233
255
255
251
255
255
253
255
255
254
255
255
255
255
255
255
255
255
255
255
255
255
255
255
255
255
255
255
255
255
254
255
255
246
255
255
253
255
255
255
255
255
255
255
255
255
255
255
255
255
255
239
255
255
253
255
255
255
255
255
255
255
255
255
255
255
255
255
255
249
255
255
235
255
255
232
255
255
239
255
255
253
255
255
254
255
255
255
255
255
255
255
255
255
255
255
255
255
255
255
255
255
254
255
255
248
255
255
240
255
252
223
255
255
236
255
255
246
255
255
253
255
255
255
255
255
255
255
255
251
255
253
244
255
253
241
254
251
234
255
255
241
255
255
248
255
254
238
248
238
214
227
212
189
189
173
149
199
182
158
213
196
172
225
209
183
240
224
198
250
235
210
247
231
207
254
241
216
248
234
209
244
228
203
252
236
212
249
233
209
250
237
211
232
219
194
248
239
216
247
238
218
179
165
146
205
190
171
237
222
203
246
234
215
255
251
236
255
254
241
252
241
223
252
242
222
255
254
236
255
255
254
255
255
255
255
255
255
255
255
255
255
255
255
255
255
255
255
255
255
255
255
255
255
255
255
255
255
255
255
255
255
255
255
255
255
255
255
255
255
255
255
255
255
255
255
255
255
255
255
255
255
255
255
255
255
255
255
255
255
255
255
255
255
255
255
255
255
255
255
255
255
255
255
255
255
255
255
255
255
255
255
255
255
255
255
255
255
255
255
255
255
255
255
255
255
255
248
255
255
252
255
255
255
255
255
254
255
255
241
255
255
253
255
255
255
255
255
254
255
255
255
255
255
247
255
255
240
255
255
252
255
255
255
255
255
255
255
255
255
255
255
255
255
255
255
255
255
255
255
255
249
255
255
244
255
255
250
255
255
252
249
255
222
254
255
223
255
255
241
255
255
254
255
255
241
255
247
193
255
252
206
255
254
217
255
255
235
255
255
245
255
255
251
255
255
249
255
255
203
255
254
208
255
255
243
255
255
244
255
255
255
255
255
255
255
255
252
255
255
236
255
255
234
255
255
237
255
255
240
255
255
240
255
255
254
255
255
251
255
255
254
255
255
255
255
255
239
255
255
229
255
255
232
255
255
233
255
255
250
255
255
231
255
255
253
255
255
245
255
255
233
255
255
229
255
255
223
255
255
235
255
255
251
255
255
249
255
255
240
255
255
232
255
255
250
255
255
241
255
255
236
255
255
243
255
255
245
255
255
252
255
255
253
255
255
255
255
255
255
255
255
255
255
255
255
255
255
255
255
255
255
255
255
255
255
255
255
255
255
255
255
255
252
255
255
253
255
255
253
255
255
255
255
255
255
255
255
255
255
255
255
255
255
255
255
255
255
255
255
253
255
255
255
255
255
255
255
255
255
255
255
255
255
255
255
255
255
255
255
255
255
255
255
255
255
255
255
255
255
254
255
255
232
255
255
236
255
255
250
255
255
255
255
255
255
255
255
255
255
255
240
255
255
255
255
255
255
255
255
255
255
255
255
255
255
255
255
255
252
255
255
233
255
255
233
255
255
245
255
255
254
255
255
255
255
255
255
255
255
255
255
255
255
255
255
255
255
255
255
255
255
255
255
255
255
255
255
254
255
255
249
255
255
248
255
255
254
255
255
255
255
255
255
255
255
255
255
255
254
255
255
255
255
255
252
255
255
241
254
244
222
255
255
245
254
252
241
234
222
198
231
216
193
195
180
156
217
203
177
224
210
184
230
214
188
241
227
201
247
231
206
249
235
209
255
246
220
255
248
222
254
247
223
253
240
215
254
241
215
255
247
221
245
235
209
233
222
199
247
238
218
205
192
173
194
179
160
220
206
187
245
233
214
255
251
236
245
237
220
235
220
203
255
254
243
255
255
249
255
255
255
255
255
255
255
255
255
255
255
255
255
255
255
255
255
255
255
255
255
255
255
255
255
255
255
255
255
255
255
255
255
255
255
255
255
255
255
255
255
255
255
255
255
255
255
255
255
255
255
255
255
255
255
255
255
255
255
255
255
255
255
255
255
255
255
255
255
255
255
255
255
255
255
255
255
255
255
255
255
255
255
255
255
255
255
255
255
255
255
255
255
255
255
249
255
255
241
255
255
251
255
255
255
255
255
255
255
255
242
255
255
252
255
255
255
255
255
251
255
255
255
255
255
255
255
255
252
255
255
255
255
255
255
255
255
255
255
255
255
255
255
255
255
255
255
255
255
255
255
255
255
255
255
246
255
255
232
246
249
211
232
248
196
255
255
225
255
255
245
255
255
255
255
255
248
255
255
212
255
248
201
252
234
179
255
252
205
255
237
191
255
246
207
255
253
221
255
255
218
255
255
202
255
255
210
255
255
214
255
255
248
255
255
245
249
237
198
249
245
201
255
255
240
255
255
242
255
255
246
255
255
248
255
255
252
255
255
254
255
255
255
255
255
252
243
254
198
255
255
232
255
255
226
255
255
244
255
255
239
246
255
205
255
255
238
255
255
250
255
255
224
255
255
243
255
255
241
255
255
241
255
255
236
255
255
220
255
255
248
255
255
250
255
255
246
255
255
251
255
255
236
255
255
242
255
255
221
255
255
232
255
255
225
255
255
241
255
255
255
255
255
255
255
255
255
255
255
255
255
255
255
255
255
255
255
255
255
255
255
255
255
255
255
255
255
254
255
255
241
255
255
251
255
255
255
255
255
255
255
255
255
255
255
252
255
255
248
255
255
248
255
255
243
255
255
255
255
255
255
255
255
255
255
255
255
255
255
255
255
255
255
255
255
255
255
255
255
255
255
255
255
255
241
255
255
234
255
255
239
255
255
243
255
255
246
255
255
254
255
255
251
255
255
255
255
255
255
255
255
255
255
255
255
255
255
255
255
255
248
255
255
235
255
255
233
255
255
242
255
255
254
255
255
255
255
255
255
255
255
255
255
255
255
255
255
255
255
255
255
255
255
255
255
255
255
255
255
255
255
255
255
255
255
255
255
255
255
255
255
255
255
255
255
255
255
255
255
255
255
255
255
255
255
255
255
255
255
241
254
248
225
255
252
237
253
251
241
222
210
186
211
196
173
198
183
160
226
212
187
228
214
187
228
214
188
236
222
196
237
223
197
247
233
207
254
243
217
255
247
221
253
244
219
255
248
222
250
242
216
254
244
218
249
240
215
233
221
199
224
215
196
193
182
164
186
173
154
206
193
174
245
234
215
253
249
236
221
207
189
241
228
210
255
255
249
255
255
254
255
255
255
255
255
255
255
255
255
255
255
255
255
255
255
255
255
255
255
255
255
255
255
255
255
255
255
255
255
255
255
255
255
255
255
255
255
255
255
255
255
255
255
255
255
255
255
255
255
255
255
255
255
255
255
255
255
255
255
255
255
255
255
255
255
255
255
255
255
255
255
255
255
255
255
255
255
255
255
255
255
255
255
255
255
255
255
255
255
255
255
255
255
255
255
255
255
255
255
255
255
255
255
255
254
255
255
245
255
255
244
255
255
254
255
255
250
255
255
242
255
255
254
255
255
253
255
255
250
255
255
255
255
255
255
255
255
255
255
255
255
255
255
255
255
255
255
255
255
255
255
255
254
252
254
236
235
243
197
241
251
202
243
254
202
253
255
212
255
255
241
255
255
255
255
255
248
255
255
232
255
255
235
255
255
220
255
254
215
249
233
184
255
235
186
252
226
180
246
227
186
255
255
225
255
255
212
255
255
208
255
255
240
255
254
211
245
235
181
236
240
181
255
255
244
255
255
241
255
255
233
255
255
241
255
255
231
255
255
247
255
255
255
255
255
238
221
254
165
253
255
232
255
255
247
255
255
239
254
255
216
243
255
200
253
255
223
255
255
237
255
255
223
255
255
224
255
255
252
255
255
251
255
255
239
255
255
220
255
255
218
255
255
240
255
255
244
255
255
247
254
255
221
255
255
238
255
255
213
255
255
215
252
255
211
252
255
200
255
255
253
255
255
255
255
255
255
255
255
255
255
255
255
255
255
252
255
255
255
255
255
255
255
255
254
255
255
255
255
255
245
255
255
253
255
255
255
255
255
255
255
255
252
255
255
246
255
255
255
255
255
254
255
255
225
255
255
253
255
255
250
255
255
250
255
255
254
255
255
251
255
255
255
255
255
255
255
255
255
255
255
255
255
255
255
255
255
253
255
255
237
255
255
231
255
255
230
255
255
240
255
255
254
255
255
255
255
255
255
255
255
255
255
255
255
255
255
255
255
255
253
255
255
246
255
255
239
255
255
243
255
255
251
255
255
255
255
255
255
255
255
255
255
255
255
255
255
255
255
255
255
255
255
255
255
255
254
255
255
251
255
255
254
255
255
255
255
255
255
255
255
255
255
255
255
255
255
255
255
255
255
255
255
255
255
255
255
255
255
242
255
254
237
255
252
231
255
255
243
222
212
191
177
162
139
196
181
158
228
214
189
223
209
183
229
215
188
234
220
194
227
213
188
237
223
197
245
231
205
252
240
214
251
237
211
253
242
216
250
238
212
248
236
210
241
229
204
226
215
193
212
203
183
179
168
150
166
153
134
202
189
171
251
243
224
237
225
207
220
206
189
253
245
229
255
255
253
255
255
255
255
255
255
255
255
255
255
255
255
255
255
255
255
255
255
255
255
255
255
255
255
255
255
255
255
255
255
255
255
255
255
255
255
255
255
255
255
255
255
255
255
255
255
255
255
255
255
255
255
255
255
255
255
255
255
255
255
255
255
255
255
255
255
255
255
255
255
255
255
255
255
255
255
255
255
255
255
255
255
255
255
255
255
255
255
255
255
255
255
255
255
255
255
255
255
255
255
255
255
255
255
255
255
255
255
255
255
255
255
255
255
255
255
255
255
255
239
255
255
218
255
255
251
255
255
251
255
254
246
255
255
255
255
255
255
255
255
255
255
255
254
255
255
255
255
255
255
255
255
255
255
255
253
253
253
226
252
254
220
251
255
216
255
255
224
255
255
227
255
255
249
255
254
248
255
255
251
255
255
247
255
255
213
255
255
210
252
255
207
247
255
211
255
255
236
249
245
199
234
224
175
255
255
211
255
255
214
255
255
222
255
255
243
255
255
222
255
255
226
251
255
205
255
255
229
248
255
217
252
255
210
255
255
223
255
255
214
255
255
242
255
255
251
255
255
252
214
254
152
246
255
200
255
255
248
255
255
249
253
255
222
249
255
204
255
255
224
255
255
221
254
255
223
255
255
231
255
255
233
255
255
238
255
255
236
255
255
242
255
255
226
255
255
232
255
255
228
252
255
216
254
255
215
255
255
215
255
255
210
255
255
208
255
255
228
255
255
225
255
255
247
255
255
253
255
255
254
255
255
249
255
255
251
255
255
252
255
255
246
255
255
231
255
255
227
255
255
255
255
255
255
255
255
255
255
255
255
255
255
255
255
255
233
255
255
241
255
255
251
255
255
255
255
255
241
255
255
244
255
255
246
255
255
244
255
255
255
255
255
255
255
255
255
255
255
252
255
255
241
255
255
248
255
255
255
255
255
255
255
255
255
255
255
252
255
255
255
255
255
252
255
255
255
255
255
255
255
255
255
255
255
255
255
255
255
255
255
255
255
255
255
255
255
250
255
255
242
255
255
239
255
255
248
255
255
252
255
255
255
255
255
255
255
255
255
255
255
250
255
255
251
255
255
253
255
255
254
255
255
253
255
255
255
255
255
255
255
255
255
255
255
255
255
255
255
255
255
255
255
255
255
255
255
255
255
255
255
255
255
250
255
254
236
255
255
233
255
255
236
247
240
220
173
160
138
189
176
155
222
209
186
219
207
182
231
217
191
227
214
188
229
217
191
221
208
182
228
215
189
235
221
195
241
227
200
252
239
213
253
243
217
242
231
206
236
226
203
197
186
165
190
182
163
163
152
135
140
128
110
212
200
180
249
238
220
218
205
187
238
225
207
255
252
239
255
255
254
255
255
255
255
255
255
255
255
255
255
255
255
255
255
255
255
255
255
255
255
255
255
255
255
255
255
255
255
255
255
255
255
255
255
255
255
255
255
255
255
255
255
255
255
255
255
255
255
255
255
255
255
255
255
255
255
255
255
255
255
255
255
255
255
255
255
255
255
255
255
255
255
255
255
255
255
255
255
255
255
255
255
255
255
255
255
255
255
255
255
255
255
255
255
255
255
255
255
255
255
255
247
255
255
234
255
255
246
255
255
234
255
255
253
255
255
255
255
255
247
255
255
224
255
255
249
255
249
219
255
254
225
255
255
254
255
255
255
255
255
253
255
255
237
255
255
251
255
255
255
255
255
251
255
255
253
255
255
255
255
255
234
253
255
210
255
255
231
255
252
221
254
230
197
248
213
179
247
229
186
248
246
194
254
255
221
255
255
233
254
255
214
255
255
244
255
255
250
255
255
214
254
255
223
254
255
206
255
255
223
255
255
233
255
255
244
255
255
247
255
255
241
255
255
235
252
255
219
238
255
197
250
255
211
255
255
218
253
253
204
255
255
231
255
255
237
255
255
249
225
247
148
234
255
186
254
255
224
252
255
223
255
255
228
247
255
208
255
255
223
255
255
222
255
255
248
255
255
246
254
255
223
255
255
250
255
255
247
255
255
249
255
255
241
255
255
242
255
255
205
242
252
190
254
255
216
254
255
219
252
255
211
255
255
207
255
255
224
255
255
233
255
255
242
255
255
240
255
255
221
255
255
231
255
255
215
255
255
247
255
255
234
255
255
210
255
255
217
255
255
252
255
255
242
255
255
254
255
255
255
255
255
244
255
255
213
255
255
249
255
255
255
255
255
255
255
255
238
255
255
223
255
255
254
255
255
215
255
255
253
255
255
253
255
255
248
255
253
210
255
254
179
255
254
203
255
255
230
255
255
254
255
255
254
255
255
251
255
255
254
255
255
255
255
255
255
255
255
255
255
255
255
255
255
255
255
255
255
255
255
255
255
255
255
255
255
254
255
255
253
255
255
242
255
255
245
255
255
250
255
255
255
255
255
255
255
255
255
255
255
255
255
255
255
255
255
255
255
255
254
255
255
255
255
255
255
255
255
255
255
255
255
255
255
255
255
255
255
255
255
255
255
255
255
255
255
255
255
255
255
255
255
252
255
254
239
255
254
234
255
252
229
240
232
209
195
184
162
193
180
161
214
202
181
220
208
184
229
216
191
227
217
190
226
217
189
219
207
181
220
208
182
226
213
187
230
216
190
238
224
198
249
240
215
247
239
216
226
217
195
181
171
150
171
164
145
137
127
111
136
125
108
214
203
183
249
239
222
217
205
188
244
233
215
255
254
246
255
255
255
255
255
255
255
255
255
255
255
255
255
255
255
255
255
255
255
255
255
255
255
255
255
255
255
255
255
255
255
255
255
255
255
255
255
255
255
255
255
255
255
255
255
255
255
255
255
255
255
255
255
255
255
255
255
255
255
255
255
255
255
255
255
255
255
255
255
255
255
255
255
255
255
255
255
255
255
255
255
255
255
255
255
255
255
255
255
255
255
255
255
255
255
255
255
255
255
255
255
255
255
255
253
255
255
228
255
254
219
255
238
186
255
254
231
255
255
255
255
255
248
255
255
248
255
251
221
255
254
217
255
255
211
255
255
230
255
255
242
255
255
244
255
255
218
255
254
213
255
255
233
255
255
250
255
255
255
255
255
255
255
255
237
255
255
236
255
253
230
244
218
179
254
234
192
246
230
179
249
247
198
248
254
201
253
255
217
254
255
231
253
255
213
255
255
251
255
255
245
255
255
235
251
255
231
251
255
210
255
255
232
255
255
244
255
255
245
255
255
248
255
255
219
255
255
224
254
255
232
233
254
204
237
255
198
255
255
221
255
254
216
254
255
224
255
255
232
255
255
238
252
255
211
231
255
173
251
255
207
239
253
210
239
255
185
243
255
208
249
255
215
255
255
243
255
255
255
255
255
246
253
255
212
255
255
242
255
255
225
255
254
210
251
252
212
255
255
234
255
255
203
252
254
190
255
255
221
255
255
234
248
255
212
255
255
233
255
255
245
255
255
248
255
255
251
255
255
250
255
255
197
255
255
191
255
255
200
255
255
231
255
255
226
255
255
236
255
255
238
255
255
228
252
253
222
255
255
241
255
255
252
255
255
219
255
255
249
255
255
254
255
255
255
255
255
255
255
255
243
255
255
214
255
255
247
255
255
218
255
255
232
255
255
240
255
255
229
255
253
210
253
251
192
253
243
182
255
255
233
255
255
253
255
255
243
255
255
238
255
255
250
255
255
255
255
255
255
255
255
255
255
255
255
255
255
255
255
255
255
255
255
255
255
255
254
255
255
252
255
255
249
255
255
243
255
255
240
255
255
251
255
255
255
255
255
255
255
255
255
255
255
255
255
255
253
255
255
250
255
255
243
255
255
244
255
255
255
255
255
255
255
255
255
255
255
255
255
255
255
255
255
255
255
255
255
255
255
255
255
255
255
255
255
255
255
255
253
255
255
241
251
247
226
223
214
191
190
178
156
189
176
156
201
189
168
212
200
176
220
209
187
216
209
181
228
221
190
220
208
182
220
208
182
225
212
187
226
211
187
235
220
197
235
223
201
248
238
218
214
206
186
165
155
135
147
140
121
115
105
89
141
130
113
224
213
192
238
229
210
228
220
201
253
247
229
255
255
253
255
255
255
255
255
255
255
255
255
255
255
255
255
255
255
255
255
255
255
255
255
255
255
255
255
255
255
255
255
255
255
255
255
255
255
255
255
255
255
255
255
255
255
255
255
255
255
255
255
255
255
255
255
255
255
255
255
255
255
255
255
255
255
255
255
255
255
255
255
255
255
255
255
255
255
255
255
255
255
255
255
255
255
255
255
255
255
255
255
255
255
255
255
255
255
255
255
255
255
255
255
255
255
255
254
253
254
216
245
241
180
255
255
206
255
255
216
255
255
253
255
255
245
255
255
220
255
254
212
247
254
203
243
254
192
251
252
205
255
255
238
255
255
231
254
253
213
252
250
199
255
255
216
255
255
252
255
255
254
255
255
248
255
255
237
255
255
241
255
252
202
252
239
190
255
254
233
255
255
243
255
255
250
255
255
242
247
254
191
243
252
184
254
255
210
255
255
250
255
255
251
255
255
247
241
253
215
248
254
211
255
255
251
255
255
253
255
255
239
255
255
242
255
255
204
255
255
203
255
255
252
249
255
216
250
254
214
255
255
232
252
255
220
255
255
235
255
255
238
255
255
244
255
255
245
245
255
192
247
255
205
241
252
215
233
254
194
235
255
199
246
255
209
255
255
240
255
255
244
255
255
231
245
255
192
255
255
226
255
255
235
255
255
238
239
248
186
252
255
217
254
255
215
251
250
196
255
255
217
255
255
226
253
255
222
253
255
217
255
255
248
255
255
247
254
255
220
254
255
214
255
255
217
255
255
225
255
255
223
255
255
224
255
255
226
255
255
226
255
255
231
255
255
222
251
253
227
254
254
247
254
255
234
254
255
239
255
255
246
255
255
253
255
255
255
255
255
252
255
255
238
255
255
198
255
255
214
255
255
221
255
255
204
255
255
215
255
255
210
255
252
213
255
255
231
255
255
240
255
255
246
255
255
244
255
255
238
255
255
232
255
255
252
255
255
255
255
255
255
255
255
255
255
255
255
255
255
255
255
255
255
255
255
255
255
255
251
255
255
244
255
255
243
255
255
251
255
255
248
255
255
254
255
255
255
255
255
255
255
255
248
255
255
241
255
255
243
255
255
245
255
255
242
255
255
253
255
255
255
255
255
255
255
255
255
255
255
255
255
255
255
255
255
255
255
255
255
255
255
255
255
255
255
255
255
255
255
255
255
255
255
251
253
248
229
192
184
162
175
166
143
185
174
154
188
177
156
190
179
159
207
199
178
212
205
178
221
214
184
212
203
175
218
207
181
218
205
180
222
208
182
225
211
185
220
209
186
237
229
207
209
202
183
154
145
128
116
107
90
99
90
75
143
134
117
221
212
192
235
224
207
249
238
222
255
251
237
255
255
253
255
255
254
255
255
255
255
255
255
255
255
255
255
255
255
255
255
255
255
255
255
255
255
255
255
255
255
255
255
255
255
255
255
255
255
255
255
255
255
255
255
255
255
255
255
255
255
255
255
255
255
255
255
255
255
255
255
255
255
255
255
255
255
255
255
255
255
255
255
255
255
255
255
255
255
255
255
255
255
255
255
255
255
255
255
255
255
255
255
255
255
255
255
255
255
255
255
255
255
255
255
255
255
255
246
255
255
240
232
243
196
255
255
218
255
255
232
255
255
242
255
255
232
255
255
251
255
255
219
250
252
194
246
250
201
246
242
220
255
255
252
255
254
214
255
255
222
255
255
232
255
255
244
255
255
255
255
255
249
255
255
236
255
255
235
255
255
252
255
255
209
255
255
241
255
255
253
255
255
255
255
255
252
247
254
224
240
253
193
254
255
239
255
255
222
255
255
248
255
255
233
255
255
233
236
246
199
247
250
221
255
255
255
255
255
249
255
255
232
251
254
216
254
255
198
254
255
198
255
255
237
255
255
238
255
255
240
255
255
230
248
255
205
255
255
243
255
255
223
255
255
223
255
255
247
247
255
209
250
255
205
237
252
202
236
255
198
242
255
194
238
255
197
254
255
234
255
255
232
255
255
236
244
255
193
254
255
207
255
255
229
248
254
214
210
224
158
251
255
225
255
255
238
246
254
227
255
255
226
255
255
236
253
255
224
253
255
194
255
255
242
255
255
229
255
255
229
255
255
214
255
255
206
255
255
214
255
255
234
255
255
241
255
255
251
255
255
248
252
252
227
255
255
250
255
251
245
255
251
235
254
255
236
255
255
247
255
255
242
255
255
253
255
255
251
247
232
207
255
250
215
247
250
176
255
255
216
255
255
235
253
255
188
255
255
211
255
255
217
255
255
242
255
255
254
255
255
232
255
255
215
255
255
252
255
255
234
255
255
219
255
255
228
255
255
254
255
255
255
255
255
255
255
255
255
255
255
255
255
255
255
255
255
255
255
255
252
255
255
245
255
255
247
255
255
251
255
255
253
255
255
255
255
255
255
255
255
251
255
255
244
255
255
242
255
255
244
255
255
246
255
255
241
255
255
250
255
255
255
255
255
255
255
255
255
255
255
255
255
255
255
255
255
255
255
255
255
255
255
255
255
255
255
255
255
255
255
255
255
255
255
255
250
248
238
187
179
159
165
157
136
179
169
148
178
167
147
186
175
155
188
180
159
201
193
170
202
194
168
203
195
167
205
194
169
208
196
173
211
200
176
214
203
179
210
201
180
219
212
192
196
190
172
148
139
122
108
99
82
90
81
65
148
139
122
214
206
186
245
236
219
255
251
234
255
253
237
255
255
248
255
255
255
255
255
255
255
255
255
255
255
255
255
255
255
255
255
255
255
255
255
255
255
255
255
255
255
255
255
255
255
255
255
255
255
255
255
255
255
255
255
255
255
255
255
255
255
255
255
255
255
255
255
255
255
255
255
255
255
255
255
255
255
255
255
255
255
255
255
255
255
255
255
255
255
255
255
255
255
255
255
255
255
255
255
255
255
255
255
255
255
255
255
255
255
255
255
255
255
255
255
255
255
255
254
255
255
254
253
254
241
255
255
228
255
255
233
255
255
250
255
255
240
255
255
250
255
255
240
254
255
194
255
255
230
255
255
249
255
255
255
255
255
253
255
255
246
255
255
243
255
255
254
255
255
255
255
255
255
255
249
227
255
249
218
255
255
249
255
255
209
255
255
246
255
255
248
255
255
251
250
254
234
239
253
198
255
255
234
255
255
250
255
255
219
255
255
240
255
255
241
250
254
217
238
251
188
250
252
227
255
255
255
255
255
254
255
255
251
227
235
188
245
252
195
244
250
184
255
255
212
249
255
220
247
255
211
254
255
228
251
252
201
255
254
227
255
255
221
255
255
239
255
255
249
249
255
211
255
255
253
252
255
231
244
255
202
248
255
200
246
255
206
254
255
236
255
255
240
255
255
248
239
249
211
230
245
178
249
252
199
229
246
180
201
224
161
244
254
198
252
255
238
251
255
232
255
255
223
254
255
219
254
255
219
255
255
198
255
255
213
255
255
238
255
255
246
252
255
201
255
255
229
255
255
205
255
255
235
255
255
230
255
255
252
255
255
227
247
249
202
254
255
228
251
251
231
250
251
223
253
255
225
255
255
241
255
255
228
255
255
250
252
243
193
243
217
167
255
255
232
253
255
222
255
255
229
255
255
250
249
255
185
255
255
207
252
254
219
255
255
238
255
255
251
255
255
235
255
255
223
255
255
246
255
255
226
255
255
197
255
255
225
255
255
243
255
255
255
255
255
255
255
255
255
255
255
252
255
255
248
255
255
255
255
255
254
255
255
248
255
255
245
255
255
250
255
255
252
255
255
252
255
255
255
255
255
254
255
255
242
255
255
234
255
255
228
255
255
230
255
255
240
255
255
253
255
255
255
255
255
255
255
255
255
255
255
255
255
255
255
255
255
255
255
255
255
255
255
255
255
255
255
255
255
255
255
255
255
255
255
255
254
253
249
198
190
171
155
147
128
161
152
132
167
156
137
173
163
143
166
158
137
180
172
152
189
182
160
200
194
166
193
183
158
193
181
160
205
195
173
210
200
179
210
203
184
202
197
178
183
178
161
144
135
118
110
100
84
91
81
65
154
145
128
221
214
194
251
247
230
255
255
240
255
254
239
255
255
248
255
255
255
255
255
255
255
255
255
255
255
255
255
255
255
255
255
255
255
255
255
255
255
255
255
255
255
255
255
255
255
255
255
255
255
255
255
255
255
255
255
255
255
255
255
255
255
255
255
255
255
255
255
255
255
255
255
255
255
255
255
255
255
255
255
255
255
255
255
255
255
255
255
255
255
255
255
255
255
255
255
255
255
255
255
255
255
255
255
255
255
255
255
255
255
255
255
255
255
255
255
255
255
255
255
255
255
255
255
255
254
255
255
242
255
255
209
255
255
246
255
255
227
255
254
226
254
255
246
249
254
188
255
255
234
255
255
237
255
255
245
255
255
252
255
255
254
255
255
237
255
255
246
255
255
255
255
255
255
249
242
225
247
233
190
255
255
227
255
255
212
255
255
247
255
255
250
255
255
235
245
252
203
251
252
223
254
254
227
255
255
232
253
254
205
255
255
223
255
255
255
254
255
238
227
246
185
255
255
236
255
255
252
254
255
237
242
251
206
242
245
194
248
250
207
234
238
175
250
255
197
243
253
214
252
255
230
253
255
216
238
236
178
244
235
185
255
255
236
255
255
235
255
255
232
243
255
192
252
255
238
255
255
248
255
255
240
255
255
237
255
255
245
255
255
253
255
255
249
255
255
238
236
243
207
222
232
173
221
230
171
185
198
150
244
253
224
239
255
199
244
253
207
237
253
206
254
255
240
252
255
213
253
255
229
254
255
209
249
253
192
251
254
222
255
255
235
242
255
192
248
254
209
255
255
212
255
255
220
255
255
214
254
255
218
243
254
212
253
255
229
251
254
209
254
255
212
246
251
198
252
255
197
255
248
214
255
242
211
250
244
223
248
241
190
255
250
202
253
255
222
253
255
235
255
255
233
255
255
243
236
255
181
250
255
221
245
252
210
249
253
212
255
255
250
255
255
251
249
255
226
255
255
233
255
254
205
255
254
200
255
255
234
255
255
238
255
255
255
255
255
255
255
255
251
255
255
255
255
255
253
255
253
243
255
255
255
255
255
249
255
255
240
255
255
242
255
255
253
255
255
255
255
255
255
255
255
255
255
255
243
255
255
231
255
255
235
255
255
246
255
255
255
255
255
251
255
255
246
255
255
249
255
255
255
255
255
255
255
255
255
255
255
255
255
255
255
255
255
255
255
255
255
255
255
255
255
255
255
255
255
255
255
254
251
205
198
179
144
136
118
143
135
116
149
141
122
165
157
138
158
150
131
167
159
140
174
167
147
183
180
152
181
174
151
185
176
158
185
177
158
205
197
178
198
191
173
200
193
175
168
161
143
137
130
112
118
107
91
104
92
76
165
155
139
230
223
205
253
251
237
255
255
245
255
255
246
255
255
249
255
255
255
255
255
255
255
255
255
255
255
255
255
255
255
255
255
255
255
255
255
255
255
255
255
255
255
255
255
255
255
255
255
255
255
255
255
255
255
255
255
255
255
255
255
255
255
255
255
255
255
255
255
255
255
255
255
255
255
255
255
255
255
255
255
255
255
255
255
255
255
255
255
255
255
255
255
255
255
255
255
255
255
255
255
255
255
255
255
255
255
255
255
255
255
255
255
255
255
255
255
255
255
255
255
255
255
255
255
255
255
255
255
243
255
255
228
255
255
218
255
255
240
255
255
233
255
255
252
255
255
213
255
255
218
255
255
213
255
255
214
255
255
232
255
255
238
255
255
226
255
254
210
255
255
252
255
255
255
255
248
227
247
239
187
252
254
201
255
255
222
255
255
218
255
255
247
255
255
251
255
255
243
250
251
230
255
255
239
255
255
243
252
251
217
255
255
247
255
255
246
254
255
242
228
238
193
255
255
219
253
255
218
245
255
196
251
255
218
252
252
223
255
255
223
255
255
220
254
255
227
247
251
221
218
233
176
248
252
213
246
245
187
249
248
195
255
252
213
255
254
240
252
255
225
248
255
199
247
255
226
255
255
247
255
255
236
255
255
232
255
255
242
255
255
250
253
255
250
255
255
250
232
239
206
222
225
184
183
188
146
164
176
132
220
233
202
252
255
236
235
249
196
233
254
195
247
255
230
244
253
210
227
241
200
252
255
218
234
249
197
238
255
201
254
255
226
226
251
184
247
254
204
253
255
209
255
255
213
255
255
233
255
255
242
237
246
205
245
254
210
255
255
210
251
254
213
220
237
171
244
252
173
244
206
156
241
179
144
254
242
220
255
255
251
246
254
219
221
239
187
251
255
214
252
255
219
255
255
222
227
253
168
247
254
225
241
251
207
245
253
214
254
255
241
255
255
253
245
254
216
254
255
243
252
252
222
252
252
223
255
255
246
255
255
246
255
255
255
255
255
255
255
255
254
255
255
255
255
255
255
250
248
242
253
250
240
255
255
249
255
255
237
255
255
234
255
255
249
255
255
255
255
255
254
255
255
246
255
255
236
255
255
233
255
255
242
255
255
252
255
255
255
255
255
252
255
255
252
255
255
255
255
255
255
255
255
255
255
255
255
255
255
255
255
255
255
255
255
255
255
255
255
255
255
255
255
255
255
255
255
255
255
255
254
222
216
200
131
123
105
140
133
114
133
126
107
158
150
132
142
134
116
154
146
127
161
152
134
157
150
126
185
181
155
176
168
149
174
166
147
183
175
156
195
188
170
177
170
153
158
151
133
129
121
104
120
109
93
120
108
92
181
171
155
239
231
214
255
255
242
255
255
246
255
255
245
255
255
251
255
255
255
255
255
255
255
255
255
255
255
255
255
255
255
255
255
255
255
255
255
255
255
255
255
255
255
255
255
255
255
255
255
255
255
255
255
255
255
255
255
255
255
255
255
255
255
255
255
255
255
255
255
255
255
255
255
255
255
255
255
255
255
255
255
255
255
255
255
255
255
255
255
255
255
255
255
255
255
255
255
255
255
255
255
255
255
255
255
255
255
255
255
255
255
255
255
255
255
255
255
255
255
255
255
255
255
255
255
255
248
255
255
227
255
255
246
255
255
241
255
255
237
255
255
243
255
255
254
255
255
238
255
255
240
255
255
247
255
255
230
255
255
226
252
250
203
252
251
198
255
255
213
255
255
247
255
255
255
255
255
255
255
255
251
254
255
236
255
255
243
255
255
217
255
255
248
255
255
244
255
255
255
255
255
255
255
255
255
255
255
254
255
255
251
255
255
253
255
255
245
255
255
252
253
255
222
255
255
248
255
255
246
250
255
227
251
255
238
255
255
255
255
255
240
255
255
230
255
255
250
255
255
244
253
253
227
254
255
219
249
248
203
245
246
188
233
212
163
253
227
203
250
255
225
224
250
178
229
247
199
252
255
238
253
255
229
255
255
250
255
255
238
255
255
240
239
253
220
253
255
244
242
247
219
217
220
167
170
179
140
222
231
184
209
233
183
247
251
233
228
233
185
250
253
211
247
253
224
252
254
232
234
246
193
253
255
215
234
249
195
230
251
186
242
254
210
216
244
178
232
246
192
246
255
204
240
254
184
254
255
218
254
255
225
241
248
210
227
246
176
246
255
197
239
253
192
219
238
189
242
253
195
249
232
172
220
169
126
242
214
170
245
248
216
250
254
226
237
244
203
246
255
208
237
252
201
249
254
207
216
248
153
244
252
206
240
252
202
247
252
210
254
255
228
244
253
215
243
253
205
252
255
221
255
255
253
255
255
252
255
255
235
255
255
244
255
255
253
255
255
255
255
255
255
255
255
255
249
249
241
251
251
240
255
254
237
255
251
230
255
253
225
255
254
226
255
251
226
255
255
253
255
255
254
255
255
239
255
254
225
255
254
223
255
255
237
255
255
245
255
255
250
255
255
253
255
255
255
255
255
255
255
255
255
255
255
255
255
255
255
255
255
255
255
255
255
255
255
255
255
255
255
255
255
255
255
255
255
255
255
255
255
255
255
238
233
218
129
120
102
141
131
113
136
126
107
142
132
113
132
122
104
142
132
114
143
132
114
141
133
111
172
171
143
162
157
135
160
152
134
157
150
132
175
168
150
156
149
131
137
130
112
131
122
104
127
116
99
140
131
113
194
186
168
241
234
215
255
252
235
255
255
240
255
255
250
255
255
255
255
255
255
255
255
255
255
255
255
255
255
255
255
255
255
255
255
255
255
255
255
255
255
255
255
255
255
255
255
255
255
255
255
255
255
255
255
255
255
255
255
255
255
255
255
255
255
255
255
255
255
255
255
255
255
255
255
255
255
255
255
255
255
255
255
255
255
255
255
255
255
255
255
255
255
255
255
255
255
255
255
255
255
255
255
255
255
255
255
255
255
255
255
255
255
255
255
255
255
255
255
255
255
255
255
255
255
255
255
255
234
255
255
218
255
255
230
255
255
218
255
255
229
255
255
254
255
255
255
255
255
253
255
255
255
255
255
238
255
255
217
255
255
234
251
250
214
251
251
191
251
251
211
255
255
252
255
255
234
255
255
244
255
255
240
255
255
253
255
255
240
255
255
229
253
255
227
255
255
255
255
255
252
252
252
245
255
255
255
255
255
255
255
255
253
255
255
234
255
255
249
255
255
235
253
255
206
254
253
225
253
250
220
255
255
228
255
255
253
255
255
243
255
255
239
255
255
252
255
255
239
255
255
254
254
253
213
254
255
201
244
253
202
246
254
199
245
240
190
255
235
212
255
255
247
233
242
209
215
233
171
252
255
245
253
255
237
254
255
228
255
255
233
255
255
219
254
255
230
243
252
214
255
255
243
252
252
237
236
236
209
250
249
223
246
246
221
252
251
210
245
249
203
249
251
238
255
255
252
255
255
252
255
255
242
255
255
211
249
255
226
229
241
188
231
247
197
222
246
185
235
244
204
245
251
204
248
254
207
246
253
208
247
251
210
252
254
228
224
239
174
237
250
189
236
245
208
193
221
167
241
248
211
242
250
180
241
238
170
221
214
154
228
237
179
203
226
171
251
254
212
223
240
187
196
220
162
208
231
166
206
241
154
247
254
201
228
251
197
251
255
227
255
255
243
246
254
226
208
243
156
233
249
176
251
253
219
255
255
254
254
255
231
254
255
235
254
255
246
255
255
255
255
255
254
255
255
251
254
253
248
214
212
181
229
232
201
242
233
201
246
238
204
253
241
207
255
250
225
255
255
250
255
255
255
255
255
249
255
255
241
255
255
237
255
255
230
255
254
231
255
255
248
255
255
254
255
255
255
255
255
255
255
255
255
255
255
255
255
255
255
255
255
255
255
255
255
255
255
255
255
255
255
255
255
255
255
255
255
255
255
255
255
255
254
239
233
217
155
146
128
131
120
102
138
127
109
135
124
106
130
119
101
122
112
94
129
118
100
125
117
97
149
148
120
147
143
118
145
137
119
143
135
119
157
150
132
154
147
130
110
101
85
133
122
104
147
136
114
167
158
137
198
190
171
237
229
210
251
244
225
255
254
245
255
255
251
255
255
253
255
255
255
255
255
255
255
255
255
255
255
255
255
255
255
255
255
255
255
255
255
255
255
255
255
255
255
255
255
255
255
255
255
255
255
255
255
255
255
255
255
255
255
255
255
255
255
255
255
255
255
255
255
255
255
255
255
255
255
255
255
255
255
255
255
255
255
255
255
255
255
255
255
255
255
255
255
255
255
255
255
255
255
255
255
255
255
255
255
255
255
255
255
255
255
255
255
255
255
255
255
255
255
255
255
255
255
255
255
255
247
255
255
238
255
255
223
255
255
239
255
255
249
255
255
255
255
255
250
255
255
255
255
255
255
255
255
253
254
255
225
255
255
239
255
255
244
255
255
211
252
253
224
255
255
255
255
255
251
255
255
215
255
255
236
255
255
244
255
255
246
254
255
233
252
255
214
255
255
250
255
255
249
255
255
248
254
255
231
255
255
246
255
255
244
253
255
210
255
255
238
255
255
246
255
255
225
255
255
253
255
255
251
255
255
249
255
255
241
255
255
214
255
255
229
254
255
226
254
255
232
254
255
244
246
242
188
251
254
198
245
250
194
254
255
206
253
252
218
247
216
185
249
255
222
247
249
221
244
254
196
254
255
217
254
255
242
250
255
207
254
255
221
246
254
199
244
255
217
250
255
236
255
255
223
255
255
245
255
255
255
255
255
255
255
255
240
255
255
235
254
252
240
252
251
225
255
255
251
255
255
243
255
255
254
255
255
226
237
251
206
232
246
203
254
255
227
251
254
220
242
244
207
248
248
202
242
249
201
196
215
160
180
194
141
236
244
188
245
252
198
219
238
181
246
249
236
230
242
191
244
250
206
243
254
200
211
216
145
211
195
134
213
223
163
219
247
187
249
253
194
215
231
178
239
252
203
216
247
171
213
238
167
253
254
217
254
255
235
252
255
234
249
255
220
247
252
229
177
193
125
212
232
164
231
247
177
234
241
213
223
251
193
226
249
197
244
252
222
255
255
255
255
255
251
255
255
244
255
255
244
251
251
235
182
187
149
213
214
178
230
219
189
255
242
208
252
237
205
255
252
236
255
255
251
255
255
250
255
255
242
255
255
229
255
255
225
255
255
245
255
255
250
255
255
251
255
255
254
255
255
255
255
255
255
255
255
255
255
255
255
255
255
255
255
255
255
255
255
255
255
255
255
255
255
255
255
255
255
255
255
255
255
255
254
223
217
201
162
153
135
126
115
98
135
124
106
132
121
103
127
116
98
112
101
84
113
104
85
108
97
82
129
128
99
149
147
118
141
131
113
130
119
104
134
127
109
145
138
120
123
114
98
135
124
106
170
160
133
168
160
137
200
192
173
233
225
206
253
247
232
255
255
249
255
255
248
255
255
249
255
255
255
255
255
255
255
255
255
255
255
255
255
255
255
255
255
255
255
255
255
255
255
255
255
255
255
255
255
255
255
255
255
255
255
255
255
255
255
255
255
255
255
255
255
255
255
255
255
255
255
255
255
255
255
255
255
255
255
255
255
255
255
255
255
255
255
255
255
255
255
255
255
255
255
255
255
255
255
255
255
255
255
255
255
255
255
255
255
255
255
255
255
255
255
255
255
255
255
255
255
255
255
255
255
255
255
255
255
255
254
255
255
253
255
255
248
254
255
241
255
255
254
255
255
255
255
255
243
255
255
255
255
255
235
255
255
253
255
255
242
255
255
242
255
255
253
255
255
232
255
255
249
255
255
243
255
255
248
255
255
229
255
255
215
255
255
253
255
255
234
255
255
244
255
255
225
255
255
238
255
255
250
255
255
245
253
255
236
254
255
239
255
255
226
255
255
248
255
255
244
255
255
246
255
255
244
255
255
241
255
255
252
255
255
242
255
255
248
255
255
246
255
255
246
253
255
237
255
255
237
255
255
244
252
253
239
248
250
209
252
252
185
255
255
220
251
250
226
243
241
197
252
255
232
250
253
202
250
254
207
254
255
199
255
255
227
240
255
211
251
255
212
238
249
193
242
246
193
252
252
223
249
251
235
250
251
209
255
255
247
255
255
252
255
254
220
255
255
234
249
252
236
241
244
205
255
255
247
255
255
227
255
255
249
255
255
242
242
249
204
242
250
228
247
253
231
254
254
212
253
253
223
250
248
207
248
251
210
235
244
219
202
215
176
239
243
202
251
255
219
251
255
228
250
254
236
254
255
225
255
255
221
254
255
238
250
253
218
221
217
165
201
217
157
221
238
183
250
253
199
239
246
196
245
254
220
218
244
175
222
244
183
252
254
234
255
255
244
255
255
238
255
255
221
232
240
199
175
174
128
231
235
184
242
251
200
203
230
173
221
240
187
217
239
177
242
251
209
255
255
255
255
255
247
255
255
241
255
255
240
255
255
246
251
251
236
182
184
154
188
193
161
234
229
194
255
249
217
255
253
233
255
255
253
255
255
253
255
255
245
255
255
246
255
255
242
255
255
253
255
255
244
255
255
238
255
255
253
255
255
254
255
255
255
255
255
255
255
255
255
255
255
255
255
255
255
255
255
255
255
255
255
255
255
255
255
255
255
255
255
255
255
255
253
222
216
197
155
147
128
132
121
104
125
113
96
120
108
92
121
110
93
115
103
86
110
99
80
116
104
89
113
105
82
151
149
118
127
116
97
135
122
103
131
121
100
156
143
124
152
138
119
134
124
107
179
171
140
179
167
149
204
193
175
229
219
200
249
242
221
255
250
229
255
255
238
255
255
247
255
255
255
255
255
255
255
255
255
255
255
255
255
255
255
255
255
255
255
255
255
255
255
255
255
255
255
255
255
255
255
255
255
255
255
255
255
255
255
255
255
255
255
255
255
255
255
255
255
255
255
255
255
255
255
255
255
255
255
255
255
255
255
255
255
255
255
255
255
255
255
255
255
255
255
255
255
255
255
255
255
255
255
255
255
255
255
255
255
255
255
255
255
255
255
255
255
255
255
255
255
255
255
255
254
255
255
255
255
255
252
255
255
255
255
255
252
255
255
239
255
255
252
255
255
253
255
255
254
255
255
241
255
255
240
255
255
248
255
255
240
255
255
232
255
255
236
255
255
254
255
255
233
255
255
253
255
255
244
255
255
248
255
255
235
255
255
233
255
255
238
255
255
228
254
255
228
254
255
233
255
255
247
254
255
241
254
255
242
253
255
237
255
255
238
254
255
249
255
255
234
255
255
242
251
254
225
255
255
254
255
255
248
255
255
251
255
255
229
255
255
253
255
255
255
255
255
246
251
254
223
254
255
235
253
253
246
243
245
187
255
255
241
255
255
233
254
254
213
251
255
209
246
250
213
239
247
192
254
255
230
253
255
211
254
255
210
239
253
208
251
255
196
254
255
208
246
253
191
246
246
197
248
250
205
242
243
205
252
249
224
255
255
241
248
251
179
253
253
221
247
248
227
247
248
207
254
254
238
255
255
228
255
255
236
255
255
236
250
253
221
224
235
195
241
246
233
232
245
188
243
247
187
254
253
217
249
252
217
247
252
218
253
254
223
244
253
225
255
255
241
255
255
247
255
255
239
255
255
246
243
248
189
242
242
199
255
255
255
254
251
242
236
237
209
249
255
226
243
250
200
254
254
230
251
252
213
225
241
178
227
243
190
255
255
232
255
255
232
251
253
213
253
255
221
203
219
168
167
175
131
228
240
188
236
251
207
241
253
229
249
250
230
230
230
191
251
250
227
255
255
250
255
255
254
255
255
250
255
255
249
255
255
249
255
255
236
249
248
220
166
173
138
163
173
138
245
240
212
253
243
218
255
255
244
255
255
253
255
255
249
255
255
251
255
255
251
255
255
255
255
255
255
255
255
255
255
255
255
255
255
252
255
255
255
255
255
255
255
255
255
255
255
255
255
255
255
255
255
255
255
255
255
255
255
255
255
255
255
255
255
255
255
255
248
231
225
205
156
148
130
132
121
105
118
106
90
118
106
90
119
108
87
112
101
83
109
97
81
114
101
85
112
103
84
151
152
120
115
107
85
133
123
105
130
120
100
195
190
164
170
156
134
177
170
141
167
160
136
187
175
157
193
182
164
215
204
186
230
218
197
252
245
223
255
253
234
255
255
249
255
255
255
255
255
255
255
255
255
255
255
255
255
255
255
255
255
255
255
255
255
255
255
255
255
255
255
255
255
255
255
255
255
255
255
255
255
255
255
255
255
255
255
255
255
255
255
255
255
255
255
255
255
255
255
255
255
255
255
255
255
255
255
255
255
255
255
255
255
255
255
255
255
255
255
255
255
255
255
255
255
255
255
255
255
255
255
255
255
255
255
255
255
255
255
255
255
255
255
255
255
255
255
255
254
255
255
255
255
255
248
255
255
255
255
255
252
255
255
244
255
255
255
255
255
255
255
255
253
254
255
234
255
255
249
255
255
248
255
255
221
255
255
220
255
255
228
255
255
251
255
255
252
255
255
254
255
255
255
255
255
228
255
255
246
255
255
246
255
255
235
255
255
239
255
255
236
251
255
227
250
255
219
254
255
218
255
254
213
252
254
236
252
253
229
253
255
244
255
255
253
255
255
234
251
254
197
253
254
236
255
255
252
255
255
252
255
255
252
255
255
248
255
255
255
255
255
236
246
250
228
254
255
220
255
255
233
253
251
208
255
255
222
255
255
251
250
247
202
253
255
234
247
252
200
248
252
208
248
254
204
253
254
208
251
255
205
245
252
218
251
254
228
248
253
194
228
245
184
211
210
169
248
246
213
252
253
246
255
255
247
255
254
226
248
252
185
253
251
208
248
251
222
246
241
190
255
255
237
255
255
244
255
255
222
255
255
249
246
250
212
230
235
206
215
227
188
253
255
240
248
250
195
250
250
216
255
255
236
255
255
219
252
255
226
255
255
234
255
255
253
255
255
245
255
255
228
255
255
240
231
244
180
249
248
215
255
255
250
255
255
255
255
255
251
253
254
216
247
247
215
255
255
245
255
255
236
238
251
194
227
246
197
255
255
244
227
242
178
235
246
194
251
255
227
243
254
215
248
252
234
246
254
225
249
254
237
247
253
236
251
254
246
254
255
247
250
249
234
234
235
196
248
249
232
255
255
252
255
255
245
255
255
252
255
255
242
255
252
218
245
238
204
148
151
122
194
195
167
251
244
218
255
255
250
255
255
255
255
255
253
255
255
244
255
255
253
255
255
254
255
255
255
255
255
255
255
255
254
255
255
254
255
255
255
255
255
255
255
255
255
255
255
255
255
255
255
255
255
255
255
255
255
255
255
255
255
255
255
255
255
255
255
255
252
232
226
207
172
164
147
131
120
104
113
102
86
115
104
87
144
136
108
119
108
87
112
100
84
99
87
71
99
89
73
131
132
103
121
119
93
116
108
92
133
123
104
223
222
208
210
198
173
190
187
148
148
141
121
186
175
157
191
180
162
199
187
170
219
207
187
245
234
211
248
238
219
255
255
253
255
255
255
255
255
255
255
255
255
255
255
255
255
255
255
255
255
255
255
255
255
255
255
255
255
255
255
255
255
255
255
255
255
255
255
255
255
255
255
255
255
255
255
255
255
255
255
255
255
255
255
255
255
255
255
255
255
255
255
255
255
255
255
255
255
255
255
255
255
255
255
255
255
255
255
255
255
255
255
255
255
255
255
255
255
255
255
255
255
255
255
255
255
255
255
255
255
255
255
255
255
255
255
255
255
255
255
255
255
255
255
255
255
255
255
255
255
255
255
255
255
255
255
255
255
255
255
255
252
255
255
248
255
255
242
255
255
249
255
255
249
255
255
243
255
255
247
255
255
245
255
255
246
255
255
250
255
255
227
255
255
250
254
255
231
254
255
245
255
255
254
255
255
255
255
255
255
250
254
228
255
255
231
253
250
226
246
243
188
249
248
212
253
255
220
240
246
209
255
255
250
255
255
252
255
255
245
246
252
212
255
255
243
255
255
255
255
255
241
255
255
251
251
252
239
249
252
223
252
255
235
252
255
205
250
253
220
230
240
183
252
255
244
246
254
231
239
243
220
254
254
238
242
248
190
245
248
205
251
255
228
254
255
222
251
255
203
249
253
217
235
246
184
255
255
219
238
254
191
243
246
205
238
243
198
255
255
253
254
255
232
230
220
169
232
245
181
254
249
207
247
249
210
224
228
181
253
253
228
255
255
239
255
255
244
255
255
241
250
251
220
254
255
239
252
253
234
252
253
235
246
251
204
254
255
239
255
255
242
255
255
226
255
255
253
255
255
240
251
252
221
255
255
252
255
255
243
255
255
242
247
252
203
241
247
203
254
255
254
255
255
255
254
255
234
254
254
229
255
254
236
255
255
238
255
255
236
242
253
195
238
255
201
248
252
201
227
245
177
246
252
216
253
255
226
251
255
238
247
255
228
239
252
199
229
251
186
223
244
182
235
250
197
249
255
210
229
232
195
252
252
243
242
243
226
251
253
234
249
253
221
254
254
243
255
255
234
244
237
202
253
242
207
222
216
184
163
171
140
206
205
174
254
253
235
255
255
253
255
255
253
255
255
238
255
255
237
255
255
252
255
255
255
255
255
255
255
255
253
255
255
255
255
255
255
255
255
254
255
255
255
255
255
255
255
255
255
255
255
255
255
255
255
255
255
255
255
255
255
255
255
255
255
255
249
224
217
191
151
142
126
127
117
101
104
95
78
100
91
74
170
172
133
115
106
83
100
91
75
88
79
65
87
78
63
94
91
68
146
148
113
103
93
74
150
143
117
244
244
239
181
176
145
194
187
157
198
188
169
154
143
126
178
166
149
182
171
153
214
201
183
222
210
186
243
232
211
255
254
244
255
255
255
255
255
255
255
255
255
255
255
255
255
255
255
255
255
255
255
255
255
255
255
255
255
255
255
255
255
255
255
255
255
255
255
255
255
255
255
255
255
255
255
255
255
255
255
255
255
255
255
255
255
255
255
255
255
255
255
255
255
255
255
255
255
255
255
255
255
255
255
255
255
255
255
255
255
255
255
255
255
255
255
255
255
255
255
255
255
255
255
255
255
255
255
255
255
255
255
255
255
255
255
255
255
255
255
255
255
255
255
255
255
255
255
255
255
255
255
255
255
255
255
255
255
255
255
255
231
255
255
233
255
255
246
254
255
231
255
255
246
255
255
235
255
255
251
255
255
243
255
255
232
253
250
222
255
255
252
255
255
253
255
255
255
255
255
247
255
255
255
255
255
255
255
255
255
255
255
255
255
255
253
254
252
244
252
252
212
252
252
238
255
255
236
245
248
221
251
253
226
255
255
250
255
255
243
253
254
248
255
255
233
255
255
250
255
255
239
248
249
228
227
226
192
253
253
225
253
255
206
254
255
214
251
255
229
254
255
228
255
255
247
237
242
218
244
243
232
242
241
217
246
252
185
253
254
219
255
255
226
255
255
232
255
255
243
255
255
251
246
248
220
255
255
238
245
254
196
250
254
220
233
250
220
246
255
236
254
255
211
224
231
174
253
254
192
255
255
200
253
255
209
241
242
228
238
240
195
255
255
244
252
255
232
254
252
210
255
255
243
255
255
234
255
255
234
242
251
203
236
245
197
251
255
215
255
255
246
255
255
242
255
255
226
255
255
241
253
255
220
255
255
235
255
255
253
254
255
243
255
255
245
249
255
233
255
255
246
255
255
251
255
255
250
255
255
221
255
255
230
255
255
215
254
254
219
239
253
194
247
253
206
253
255
209
255
255
225
255
255
243
255
255
233
242
255
204
231
246
186
209
230
166
241
254
203
231
240
190
214
232
182
217
227
181
223
230
184
249
248
232
255
255
251
251
254
234
208
221
181
229
233
192
251
246
212
234
226
182
230
222
185
225
213
179
211
203
171
182
187
154
232
229
204
255
255
251
255
255
247
255
255
236
255
255
236
255
255
249
255
255
255
255
255
254
255
255
254
255
255
255
255
255
250
255
255
250
255
255
252
255
255
255
255
255
253
255
255
253
255
255
255
255
255
255
255
255
255
255
255
255
254
253
239
233
228
194
143
138
115
121
112
96
107
98
81
100
92
74
196
204
160
116
108
85
90
80
67
82
75
58
99
93
74
104
98
78
171
172
136
202
202
169
232
238
196
249
250
244
202
206
173
197
190
164
231
224
215
208
198
182
181
170
151
193
182
159
212
197
179
226
217
201
235
221
198
255
253
247
255
255
255
255
255
255
255
255
255
255
255
255
255
255
255
255
255
255
255
255
255
255
255
255
255
255
255
255
255
255
255
255
255
255
255
255
255
255
255
255
255
255
255
255
255
255
255
255
255
255
255
255
255
255
255
255
255
255
255
255
255
255
255
255
255
255
255
255
255
255
255
255
255
255
255
255
255
255
255
255
255
255
255
255
255
255
255
255
255
255
255
255
255
255
255
255
255
255
255
255
255
255
255
255
255
255
255
255
255
255
255
255
255
255
255
255
255
255
255
255
255
255
255
255
255
255
255
255
254
255
255
255
255
255
255
255
255
246
253
255
233
255
255
236
255
255
254
255
255
243
255
255
246
246
246
210
252
249
238
255
255
255
255
255
253
255
255
239
255
255
248
255
255
245
255
255
255
255
254
244
255
251
237
255
254
247
247
247
242
246
246
233
249
251
233
255
255
244
247
251
206
255
255
236
255
255
238
255
255
255
255
255
254
255
255
254
255
255
252
255
254
243
218
214
167
250
248
224
251
255
235
255
255
253
253
255
212
255
255
229
245
255
229
255
255
253
243
245
225
238
242
215
246
255
194
254
255
231
249
255
222
252
255
203
255
255
230
255
255
249
255
255
254
255
255
215
245
253
186
250
253
192
194
228
180
229
248
208
250
255
211
230
248
180
252
255
200
255
255
203
255
255
216
253
255
213
255
255
253
255
255
248
253
255
214
255
255
233
255
255
249
255
255
231
255
255
229
251
255
213
252
255
225
250
255
220
254
255
208
255
255
238
255
255
239
255
255
245
255
255
244
255
255
226
255
255
254
255
255
243
255
255
246
252
255
236
255
255
240
255
255
251
255
255
254
253
254
236
255
255
254
255
255
245
255
255
253
252
254
244
253
254
236
255
255
224
255
255
243
255
255
244
253
254
238
231
248
185
232
251
180
223
247
183
241
252
201
218
233
173
219
228
194
187
203
139
200
219
154
226
230
189
251
251
230
255
253
234
245
247
232
210
220
173
187
195
156
234
238
191
239
236
196
240
225
195
245
235
204
248
250
235
239
241
203
255
255
223
255
255
248
255
255
235
255
255
230
255
255
247
255
255
255
255
255
252
255
255
254
255
255
254
255
255
246
255
255
250
255
255
252
255
255
254
255
255
254
255
255
254
255
255
255
255
255
255
255
255
255
255
255
255
253
252
240
223
218
185
176
172
137
145
135
115
127
119
96
104
98
77
199
213
164
111
106
80
76
69
57
83
77
59
153
155
116
125
115
95
182
189
145
236
245
204
204
214
167
248
248
243
220
227
205
152
145
123
166
155
137
182
168
155
171
162
143
214
210
181
223
211
192
231
221
203
242
234
209
255
255
251
255
255
255
255
255
255
255
255
255
255
255
255
255
255
255
255
255
255
255
255
255
255
255
255
255
255
255
255
255
255
255
255
255
255
255
255
255
255
255
255
255
255
255
255
255
255
255
255
255
255
255
255
255
255
255
255
255
255
255
255
255
255
255
255
255
255
255
255
255
255
255
255
255
255
255
255
255
255
255
255
255
255
255
255
255
255
255
255
255
255
255
255
255
255
254
248
255
253
239
255
255
255
255
255
255
255
255
255
255
255
255
255
255
255
255
255
255
255
255
255
255
255
255
255
255
252
255
255
241
255
255
247
255
255
249
255
255
254
255
255
250
255
255
229
253
253
248
253
253
237
255
255
251
253
253
219
254
249
214
255
255
246
255
254
245
255
254
238
255
255
247
255
255
226
255
255
248
255
253
237
255
255
234
255
254
231
255
253
246
255
255
251
254
255
251
246
246
229
251
254
221
255
255
222
255
255
238
255
255
246
255
255
248
254
255
244
255
255
251
252
252
232
233
222
169
253
252
229
244
252
211
255
255
253
255
255
211
229
240
183
231
248
210
255
255
255
245
247
223
251
252
239
242
249
196
254
255
222
244
249
211
244
248
201
254
254
231
252
255
214
255
255
245
255
255
233
253
255
215
241
251
184
221
237
190
248
252
209
251
255
221
223
242
178
253
255
200
255
255
203
255
255
207
255
255
241
255
255
250
255
255
244
254
254
209
255
255
244
255
255
219
255
255
248
255
255
226
255
255
214
255
255
232
255
255
232
245
251
196
255
255
220
255
255
222
255
255
233
255
255
232
255
255
222
255
255
244
255
255
244
255
255
244
255
255
255
255
255
242
255
255
255
255
255
250
253
253
223
254
254
214
255
255
247
255
255
239
255
255
226
255
255
244
255
255
238
253
255
243
245
249
221
245
251
197
248
254
214
242
252
202
247
253
216
220
228
175
192
207
148
234
239
186
228
238
171
207
226
154
189
200
140
226
229
174
235
235
211
253
254
233
245
247
206
192
210
165
231
241
193
251
251
220
255
250
226
254
248
218
255
255
247
255
255
232
254
253
209
255
255
248
255
255
223
253
255
215
252
255
222
255
255
251
255
255
243
255
255
240
255
255
245
255
255
244
255
255
251
255
255
249
255
255
250
255
255
228
255
255
253
255
255
255
255
255
255
255
255
255
255
255
255
253
253
241
193
192
160
204
206
167
202
195
160
192
182
148
137
135
109
199
217
167
158
158
123
69
63
52
100
99
75
219
230
176
171
178
128
240
244
208
196
198
162
198
189
158
249
251
226
242
250
232
150
148
121
145
137
121
160
146
134
181
174
152
220
221
197
203
195
163
184
172
152
230
221
197
255
255
251
255
255
255
255
255
255
255
255
247
255
255
247
255
255
251
255
255
254
255
255
255
255
255
255
255
255
255
255
255
255
255
255
255
255
255
255
255
255
255
255
255
255
255
255
255
255
255
255
255
255
255
255
255
255
255
255
255
255
255
255
255
255
255
255
255
255
255
255
255
255
255
255
255
255
255
255
255
255
255
255
255
255
255
255
255
255
255
255
255
255
255
255
255
252
240
223
253
246
219
255
255
254
255
255
255
255
255
255
255
255
253
255
255
248
255
255
241
255
255
246
255
255
243
255
254
224
245
231
188
255
238
205
255
255
239
255
255
246
255
255
249
255
255
228
255
255
247
255
255
234
255
255
226
255
255
248
255
255
228
255
255
247
255
255
249
255
254
215
255
255
242
255
251
235
255
241
218
255
254
238
255
253
212
246
243
199
249
239
222
255
255
252
255
255
255
255
255
247
247
254
202
255
251
217
251
248
226
252
252
232
250
250
234
248
250
219
255
254
228
253
251
228
233
220
183
245
242
207
245
249
207
253
254
227
253
254
202
237
241
186
244
251
234
250
251
242
250
250
222
243
246
210
246
254
205
253
255
215
244
247
211
246
250
209
251
252
210
247
255
204
254
255
235
255
255
249
254
255
236
252
255
218
254
255
237
253
253
230
253
255
233
247
253
209
255
255
227
255
255
220
255
255
201
255
255
246
255
255
241
249
248
211
254
255
238
255
255
252
251
254
208
254
255
227
255
255
246
255
255
235
252
254
220
254
254
226
252
253
234
255
255
244
255
255
242
255
255
245
242
251
201
255
255
230
255
255
225
255
255
248
255
255
231
255
255
241
255
255
234
255
255
243
255
255
247
255
255
218
254
254
222
255
255
234
255
255
239
255
255
250
255
255
253
255
255
247
252
255
233
251
253
230
251
253
236
237
239
207
251
254
220
248
251
200
233
235
183
225
229
175
233
240
194
255
255
243
242
246
213
186
193
141
241
240
190
246
247
211
255
255
236
247
246
196
206
221
168
237
250
191
219
228
181
223
223
191
247
244
220
255
255
251
254
255
240
254
255
220
255
255
238
255
255
221
250
255
204
249
255
208
255
255
238
255
255
246
255
255
244
255
255
253
255
255
255
255
255
253
255
255
244
255
255
248
255
255
245
255
255
254
255
255
254
255
255
254
255
255
255
255
255
255
255
255
248
210
204
183
169
169
143
230
232
191
249
244
204
196
192
154
224
243
184
226
228
179
129
124
104
131
133
102
253
254
234
252
254
229
240
243
200
196
193
156
173
167
154
254
255
247
252
254
245
201
202
161
235
234
204
203
203
172
228
232
199
238
244
217
195
195
153
189
180
153
247
240
202
255
254
246
255
255
244
255
255
242
253
253
233
253
253
230
255
255
248
255
255
251
255
255
252
255
255
255
255
255
255
255
255
255
255
255
249
255
255
252
255
255
255
255
255
255
255
255
255
255
255
255
255
255
255
255
255
255
255
255
255
255
255
255
255
255
255
255
255
255
255
255
255
255
255
255
255
255
255
255
255
255
255
255
255
255
255
255
255
255
255
255
255
255
254
251
242
240
228
207
253
240
214
255
255
235
255
255
248
255
255
245
255
255
244
255
253
235
255
255
234
255
245
218
250
238
189
248
221
173
215
186
145
236
215
164
255
255
243
255
255
239
255
255
245
254
255
230
255
255
235
255
252
226
255
255
210
241
232
179
252
248
238
254
255
246
255
255
251
249
250
217
252
253
228
255
253
233
255
249
211
252
242
198
246
246
194
249
248
202
253
244
213
255
253
245
255
255
247
254
255
246
240
245
216
249
241
203
251
245
231
255
255
247
247
246
217
254
253
237
246
247
209
236
221
183
237
216
177
208
208
157
249
253
206
244
245
182
233
234
172
227
237
178
247
249
223
231
237
214
234
236
203
203
214
169
247
251
200
254
255
216
255
255
235
255
255
246
254
254
219
253
254
204
255
255
243
255
255
238
255
255
250
253
254
238
253
254
225
255
255
219
254
255
222
253
254
214
255
255
238
255
255
239
255
255
219
255
255
229
254
254
217
255
255
245
255
255
245
253
254
208
243
251
205
238
246
194
254
255
232
253
254
238
250
255
222
254
255
230
255
255
255
255
255
248
255
255
255
255
255
245
229
246
189
250
252
229
254
255
220
255
255
225
255
255
221
255
255
214
255
255
234
255
255
238
255
255
237
255
255
216
255
255
254
255
255
234
255
255
252
255
255
253
255
255
255
255
255
242
255
255
248
255
255
251
255
255
238
255
255
214
254
254
240
254
254
221
254
255
205
242
246
208
255
255
229
255
255
230
255
255
244
228
232
186
243
244
196
255
255
237
255
255
232
255
253
205
246
253
202
237
252
194
255
255
221
227
232
188
253
253
222
255
255
240
253
255
224
255
255
245
255
255
230
255
255
238
249
255
201
254
255
216
252
255
229
255
255
255
255
255
223
255
255
247
255
255
255
255
255
255
255
255
253
255
255
246
255
255
250
255
255
233
255
255
251
255
255
247
255
255
255
255
255
255
255
255
250
212
203
182
205
197
170
250
248
210
255
255
248
255
255
238
255
255
239
254
254
246
152
151
124
230
235
216
255
255
249
255
255
248
233
236
191
236
238
206
211
202
176
255
255
252
255
255
254
226
225
198
248
247
230
243
246
228
232
243
205
248
251
239
235
237
194
223
214
175
255
254
221
254
253
227
255
255
227
255
255
241
255
254
232
255
254
227
255
255
255
255
255
255
255
255
254
255
255
255
255
255
255
255
255
255
255
255
245
255
255
254
255
255
255
255
255
255
255
255
255
255
255
255
255
255
255
255
255
255
255
255
255
255
255
255
255
255
255
255
255
255
255
255
255
255
255
255
255
255
255
255
255
255
255
255
255
255
255
255
255
254
248
255
255
252
255
253
244
231
225
211
244
229
206
246
244
217
252
251
224
255
255
230
250
250
230
242
242
225
254
255
234
254
254
228
251
249
201
243
235
166
221
206
155
246
242
186
254
255
227
255
255
241
253
254
242
246
255
197
252
255
219
252
251
233
255
255
226
254
254
208
238
227
189
252
255
236
255
255
255
253
253
238
255
255
240
255
255
230
251
248
231
251
246
210
242
237
185
253
254
231
255
255
252
255
255
243
255
255
243
255
255
246
247
246
221
255
255
237
247
237
213
251
249
227
255
255
234
252
252
230
238
238
194
235
228
192
229
214
167
238
232
177
251
252
219
233
240
166
231
239
175
245
248
218
248
253
216
240
242
210
244
245
207
239
243
223
255
255
221
255
255
215
255
255
229
255
255
248
255
255
254
255
255
210
255
255
234
255
255
238
255
255
250
255
255
254
255
255
236
255
255
216
255
255
219
254
255
220
255
255
224
255
255
233
255
255
243
255
255
231
254
253
213
253
254
213
255
255
220
255
255
207
252
254
229
243
253
194
250
254
202
248
254
228
255
255
250
255
255
244
255
255
244
251
254
223
255
255
251
255
255
251
236
252
204
252
255
241
252
255
215
250
255
208
255
255
232
244
247
191
251
252
195
255
255
218
254
255
214
252
254
200
255
255
235
255
255
223
255
255
254
255
255
251
255
255
238
255
255
253
255
255
250
255
255
244
255
255
238
255
255
232
255
255
246
255
255
230
255
255
221
255
255
245
255
255
249
255
255
221
255
255
236
255
255
219
252
253
198
255
255
247
255
255
242
255
255
215
252
255
214
252
255
215
255
255
220
255
255
242
255
255
240
252
255
220
250
255
204
255
255
248
255
255
227
255
255
227
245
255
199
242
250
195
242
255
218
255
255
255
255
255
245
255
255
244
255
255
254
255
255
255
255
255
246
253
254
224
255
255
248
255
255
230
255
255
242
255
255
255
255
255
255
255
255
255
255
255
250
247
243
228
228
225
183
255
255
222
255
255
255
255
255
238
255
255
247
255
255
255
247
248
244
255
255
249
255
255
242
255
255
253
253
254
236
255
255
252
242
241
215
255
255
249
255
255
255
255
255
244
255
255
242
255
255
255
234
239
207
250
251
237
248
251
202
243
240
198
249
248
201
255
255
239
255
255
227
255
255
223
255
255
232
255
255
233
255
255
252
255
255
253
255
255
253
255
255
253
255
255
255
255
255
252
255
255
252
255
255
255
255
255
255
255
255
255
255
255
255
255
255
255
255
255
255
255
255
255
255
255
255
255
255
255
255
255
255
255
255
255
255
255
255
255
255
255
255
255
255
255
255
255
255
255
255
255
255
255
255
255
254
252
250
235
255
255
250
251
247
238
246
242
232
255
255
245
255
255
251
236
235
213
227
215
182
169
151
112
228
228
205
252
255
230
254
254
239
252
252
197
218
214
152
248
254
209
255
255
221
255
255
245
253
254
224
251
255
211
250
255
209
233
232
199
255
255
234
247
241
192
252
254
224
253
255
231
255
255
242
246
247
230
255
255
235
254
251
204
244
242
193
248
244
205
232
228
178
251
253
238
255
255
254
250
250
241
255
255
246
255
255
241
255
255
235
255
255
249
253
252
240
253
253
227
252
251
203
226
221
176
239
236
186
233
232
212
203
187
145
242
241
204
243
250
220
225
232
169
241
241
197
252
255
227
248
251
213
223
233
189
229
240
195
234
234
222
251
255
223
255
255
233
255
255
219
254
255
221
255
255
242
248
255
198
235
251
200
250
255
211
255
255
240
255
255
244
255
255
214
255
255
198
254
255
208
249
254
208
255
255
210
255
255
218
255
255
239
255
255
230
249
251
191
252
252
197
254
255
205
255
255
214
234
243
198
218
233
173
251
254
209
242
252
203
250
253
237
255
255
228
249
253
208
252
255
206
252
255
227
249
255
230
236
255
196
248
255
214
234
249
194
228
247
188
253
255
213
237
245
191
227
234
169
252
254
207
255
255
225
255
255
221
255
254
201
255
255
242
255
255
253
255
255
245
255
255
239
255
255
254
255
255
239
255
255
223
255
255
213
255
255
238
255
255
220
255
255
237
255
255
242
255
255
233
255
255
253
255
255
221
255
255
237
254
255
224
253
255
212
255
255
224
255
255
231
255
255
220
255
255
228
255
255
228
255
255
237
255
255
232
255
255
248
255
255
219
251
255
209
255
255
251
255
255
251
255
255
229
249
255
201
233
245
183
232
254
201
255
255
245
255
255
244
255
255
243
255
255
244
255
255
255
255
255
250
255
255
245
243
246
216
237
239
186
255
255
242
255
255
255
255
255
255
255
255
252
255
255
255
255
255
252
248
246
224
255
255
238
255
255
252
255
255
254
255
255
255
255
255
255
255
255
239
255
255
248
255
255
233
255
255
244
255
255
246
255
255
251
244
246
222
255
255
254
255
255
252
255
255
236
255
255
240
255
255
255
254
255
241
255
255
242
255
255
238
255
255
248
255
255
238
255
255
240
255
255
243
255
255
236
255
255
227
255
255
247
255
255
251
255
255
241
255
255
251
255
255
250
255
255
252
255
255
249
255
255
255
255
255
255
255
255
255
255
255
255
255
255
255
255
255
255
255
255
255
255
255
255
255
255
255
255
255
255
255
255
255
255
255
255
255
255
254
255
255
252
255
255
255
255
255
255
255
255
255
255
255
255
255
255
255
255
255
247
236
236
221
242
241
226
255
255
245
255
255
246
252
253
240
222
221
184
254
254
236
234
238
197
241
242
220
255
255
249
254
255
235
255
255
227
252
254
216
250
255
210
255
255
237
255
255
248
255
255
253
255
255
253
255
255
236
252
250
218
255
255
235
255
255
231
254
254
201
247
248
202
255
255
235
255
255
229
255
255
227
253
253
229
251
255
210
250
248
209
235
238
194
254
255
241
255
255
239
255
255
247
255
255
247
255
255
237
255
255
227
255
255
252
253
245
200
255
254
236
252
253
239
243
243
216
246
247
212
253
254
244
230
221
188
250
249
241
224
241
187
234
246
180
251
252
229
255
255
232
250
254
206
245
250
212
208
216
184
197
198
175
254
255
250
255
255
229
254
255
214
244
250
198
238
249
184
248
254
214
233
247
213
220
241
183
241
253
210
254
255
233
246
254
188
250
255
187
255
255
200
255
255
227
255
255
235
255
255
248
255
255
230
255
255
228
244
247
185
243
252
184
235
249
189
255
255
213
237
243
202
240
249
205
254
255
225
253
254
225
241
246
197
255
255
221
241
247
196
250
252
218
255
255
210
249
255
207
240
255
194
243
255
210
224
247
190
201
219
165
237
250
196
240
250
192
234
237
179
249
253
201
255
255
246
255
255
225
255
255
214
255
255
242
255
255
241
255
255
226
255
255
229
255
255
255
255
255
243
255
255
219
255
255
209
255
255
231
255
255
235
255
255
223
255
255
232
255
255
233
255
255
242
255
255
248
255
255
229
254
255
214
245
251
195
255
255
225
255
255
209
255
255
210
255
255
234
255
255
237
255
255
232
255
255
229
255
255
251
255
255
220
255
255
234
255
255
254
255
255
255
255
255
241
255
255
226
253
255
214
234
255
189
251
255
221
255
255
226
255
255
245
255
255
246
255
255
255
255
255
248
255
255
250
251
253
221
248
250
216
255
255
232
255
255
246
255
255
249
255
255
239
255
255
255
255
255
255
255
255
253
255
255
252
255
255
251
255
255
255
255
255
255
255
255
255
255
255
245
255
255
229
254
255
210
254
255
215
255
255
230
255
255
227
253
255
229
255
255
250
255
255
240
255
255
238
255
255
218
255
255
253
255
255
246
255
255
230
253
255
220
255
255
254
254
255
249
254
255
229
255
255
246
255
255
248
255
255
239
255
255
252
255
255
232
255
255
248
255
255
241
255
255
249
255
255
250
255
255
255
255
255
255
255
255
255
255
255
255
255
255
247
255
255
255
255
255
255
255
255
254
255
255
254
255
255
252
255
255
253
255
255
248
255
255
255
255
255
254
255
255
248
255
255
255
255
255
255
255
255
255
255
255
255
255
255
255
255
255
251
243
245
234
253
254
248
255
255
249
255
255
242
255
255
243
248
247
223
254
254
242
248
251
221
245
249
216
255
255
253
255
255
231
255
255
235
255
255
231
255
255
222
255
255
245
255
255
249
255
255
248
255
255
236
255
255
235
255
255
248
255
255
242
255
255
252
255
255
244
255
255
222
255
255
230
255
255
240
254
253
204
254
253
226
255
255
244
255
255
241
247
254
219
255
255
231
252
253
221
255
255
244
254
255
230
254
255
244
255
255
225
255
255
253
255
255
241
255
255
247
249
249
232
255
255
247
255
255
242
253
254
236
253
253
251
255
255
255
252
254
244
232
250
193
255
255
240
255
255
248
250
255
211
255
255
245
251
252
242
251
251
245
255
255
255
255
255
250
242
254
206
250
255
215
213
230
165
225
242
193
235
251
220
227
241
188
216
228
170
204
219
163
238
241
185
247
250
195
255
255
225
255
255
254
255
255
255
255
255
255
255
255
255
255
255
255
255
255
242
247
255
189
224
236
172
253
255
209
252
254
203
250
255
203
255
255
236
251
255
213
251
252
203
253
255
209
245
253
207
248
254
210
255
255
201
255
255
204
254
255
213
245
253
202
238
254
194
225
242
184
241
253
193
253
255
206
255
255
211
254
255
203
253
255
217
255
255
221
255
255
235
255
255
243
255
255
232
255
255
248
255
255
229
255
255
255
255
255
236
255
255
225
254
255
214
255
255
227
255
255
249
255
255
242
255
255
232
255
255
217
255
255
220
255
255
234
255
255
238
255
255
223
248
248
193
250
248
193
253
255
195
255
255
240
255
255
234
255
255
209
255
255
217
255
255
221
255
255
231
255
255
222
255
255
238
255
255
238
255
255
253
255
255
231
255
255
248
255
255
227
241
255
185
252
255
212
255
255
221
255
255
250
255
255
254
255
255
255
255
255
241
255
255
229
255
255
239
255
255
244
255
255
222
255
255
231
255
255
238
255
255
249
255
255
254
255
255
244
255
255
231
255
255
251
255
255
254
255
255
254
255
255
251
255
255
251
255
255
249
255
255
224
255
255
232
255
255
228
255
255
242
255
255
243
255
255
243
255
255
254
255
255
243
255
255
251
255
255
232
255
255
253
254
255
232
253
255
219
255
255
233
255
255
240
255
255
249
255
255
243
255
255
241
255
255
255
255
255
255
255
255
240
255
255
229
255
255
233
255
255
244
255
255
236
255
255
252
255
255
255
255
255
254
255
255
250
255
255
250
255
255
251
255
255
254
255
255
254
255
255
245
255
255
250
255
255
245
255
255
250
255
255
245
255
255
255
255
255
250
255
255
252
255
255
255
255
255
255
255
255
255
255
255
254
255
255
255
255
255
255
255
255
253
255
255
246
255
255
225
255
255
239
255
255
230
255
255
253
255
255
255
255
255
246
255
255
243
255
255
245
254
255
228
255
255
241
255
255
219
255
255
214
255
255
240
255
255
251
255
255
243
255
255
231
255
255
213
255
255
247
255
255
244
255
255
253
254
254
218
255
255
218
255
254
250
255
255
253
255
255
254
255
255
255
255
255
249
255
255
245
254
255
236
254
255
223
255
255
235
255
255
231
255
255
227
255
255
241
254
255
242
255
255
255
255
255
252
255
255
250
249
251
227
255
255
252
255
255
254
251
250
213
255
255
253
254
255
250
255
255
247
250
255
235
254
255
232
255
255
246
255
255
249
255
255
245
255
255
255
255
255
248
255
255
247
255
255
236
253
255
227
254
255
229
225
236
190
227
242
187
240
252
197
247
252
200
215
222
172
185
187
136
254
254
242
255
255
255
255
255
255
255
255
255
255
255
255
255
255
255
255
255
255
255
255
255
255
255
254
255
255
233
247
247
197
253
255
222
250
254
205
243
254
202
254
255
227
231
250
192
251
255
222
247
254
211
241
255
198
245
255
200
255
255
214
255
255
214
254
255
217
245
250
196
247
253
194
254
255
209
255
255
204
254
255
212
255
255
223
255
255
224
251
255
203
255
255
204
255
255
241
255
255
246
255
255
227
255
255
243
255
255
239
255
255
255
255
255
235
255
255
232
255
255
223
255
255
226
255
255
251
255
255
240
255
255
231
255
255
220
255
255
212
255
255
224
255
255
227
255
255
228
255
254
229
253
253
186
255
255
223
255
255
253
255
255
251
255
255
223
254
255
206
255
255
220
255
255
248
255
255
239
254
255
225
254
255
219
255
255
248
255
255
239
255
255
254
255
255
243
255
255
196
255
255
225
255
255
238
255
255
253
255
255
250
255
255
255
255
255
249
255
255
223
255
255
224
255
255
228
255
255
249
255
255
230
255
255
247
255
255
254
255
255
253
255
255
251
255
255
229
255
255
226
255
255
238
255
255
255
255
255
239
255
255
250
255
255
248
255
255
234
255
255
254
255
255
242
255
255
251
255
255
253
255
255
250
255
255
253
255
255
247
255
255
247
255
255
249
255
255
245
255
255
212
252
255
210
255
255
253
255
255
226
255
255
209
255
255
217
255
255
243
255
255
255
255
255
254
255
255
230
255
255
225
255
255
230
255
255
246
255
255
246
255
255
254
255
255
255
255
255
255
255
255
236
255
255
251
255
255
255
255
255
249
255
255
252
255
255
249
255
255
238
255
255
235
255
255
241
255
255
247
255
255
248
255
255
251
255
255
254
255
255
250
255
255
252
255
255
255
255
255
254
255
255
254
255
255
255
255
255
240
255
255
255
255
255
249
255
255
239
255
255
230
255
255
255
255
255
255
255
255
255
255
255
255
255
255
252
253
255
219
255
255
225
255
255
207
255
255
233
255
255
234
255
255
253
255
255
229
255
255
229
255
255
219
254
255
214
255
255
241
255
255
243
255
255
221
255
255
222
254
252
236
255
255
250
255
255
248
255
255
255
255
255
254
255
255
247
255
255
248
254
255
226
252
255
217
255
255
231
255
255
231
252
251
203
255
255
250
255
255
252
255
255
255
255
255
253
255
255
228
255
255
234
255
255
254
255
255
241
255
255
234
254
255
240
255
255
247
255
255
255
255
255
243
252
255
222
255
255
253
255
255
252
255
255
247
255
255
252
255
255
223
251
255
205
246
255
210
255
255
245
254
255
248
242
253
206
218
237
171
247
252
222
206
218
174
200
201
151
254
254
221
255
255
252
255
255
249
255
255
253
255
255
232
255
255
253
255
255
255
255
255
255
255
255
253
255
255
255
255
255
252
255
255
244
254
255
211
255
255
221
247
254
212
228
252
188
232
250
197
254
255
232
240
255
196
251
255
205
255
255
228
254
255
223
239
247
196
225
230
184
238
236
195
248
247
202
254
255
212
255
255
225
255
255
226
255
255
247
255
255
247
255
255
223
255
255
219
255
255
239
254
255
221
255
255
241
255
255
251
255
255
254
255
255
232
255
255
246
255
255
235
255
255
229
255
255
248
255
255
246
255
255
240
255
255
218
254
255
200
255
255
239
255
255
226
255
255
240
255
255
240
255
255
216
255
255
239
255
255
255
255
255
255
255
255
246
255
255
229
252
255
215
255
255
255
255
255
248
255
255
234
255
255
219
254
255
222
255
255
243
255
255
254
255
255
250
255
255
232
255
255
229
255
255
233
255
255
254
255
255
247
255
255
245
255
255
241
255
255
224
255
255
229
255
255
228
255
255
244
255
255
230
255
255
255
255
255
246
255
255
254
255
255
251
255
255
236
255
255
236
255
255
240
255
255
252
255
255
247
255
255
254
255
255
246
255
255
230
255
255
255
255
255
255
255
255
254
255
255
243
255
255
243
255
255
238
255
255
236
255
255
252
255
255
249
255
255
221
255
255
205
255
255
225
255
255
240
255
255
237
255
255
222
255
255
216
255
255
230
255
255
253
255
255
251
255
255
220
255
255
229
255
255
250
255
255
238
255
255
255
255
255
252
255
255
248
255
255
254
255
255
255
255
255
252
255
255
254
255
255
253
255
255
255
255
255
255
255
255
232
255
255
228
255
255
219
255
255
230
255
255
229
255
255
248
255
255
254
255
255
253
255
255
252
255
255
250
255
255
253
255
255
255
255
255
255
255
255
235
255
255
255
255
255
254
255
255
242
255
255
232
255
255
245
255
255
252
255
255
255
255
255
254
255
255
255
255
255
243
255
255
229
255
255
220
255
255
226
255
255
212
255
255
222
255
255
243
254
255
231
251
255
211
227
245
187
242
253
200
255
255
241
255
255
245
255
255
230
255
255
229
255
255
231
255
255
252
255
255
247
255
255
255
255
255
247
255
255
251
255
255
221
254
255
207
255
255
250
255
255
240
255
255
217
255
255
254
255
255
249
255
255
242
252
255
231
255
255
225
255
255
251
255
255
239
255
255
229
255
255
217
255
255
246
255
255
251
253
255
235
255
255
237
254
255
241
254
255
247
255
255
252
249
255
233
255
255
254
255
255
221
254
255
207
247
255
205
254
255
241
255
255
255
255
255
239
247
252
212
240
250
212
184
186
145
192
192
145
251
251
219
255
255
246
255
255
233
255
255
224
255
255
209
255
255
237
255
255
238
255
255
230
255
255
220
255
255
234
255
255
237
255
255
232
247
255
201
254
255
212
235
253
195
245
255
203
243
254
203
252
255
220
254
255
221
253
255
200
255
255
237
237
241
198
202
212
161
171
175
137
202
202
165
221
222
175
254
255
230
255
255
239
255
255
247
255
255
255
255
255
255
255
255
248
255
255
230
255
255
248
255
255
234
255
255
239
255
255
252
255
255
254
255
255
233
255
255
247
255
255
238
255
255
219
255
255
217
255
255
232
255
255
227
255
255
202
251
253
189
255
255
227
255
255
232
255
255
246
255
255
234
255
255
230
255
255
254
255
255
255
255
255
255
255
255
255
255
255
248
255
255
232
255
255
251
255
255
255
255
255
250
254
255
220
253
255
212
255
255
247
255
255
240
255
255
229
255
255
245
255
255
254
255
255
254
255
255
243
255
255
252
255
255
237
255
255
228
255
255
240
255
255
220
255
255
241
255
255
249
255
255
236
255
255
237
255
255
245
255
255
242
255
255
235
255
255
224
255
255
233
255
255
229
255
255
231
255
255
238
255
255
233
255
255
212
255
255
233
255
255
255
255
255
255
255
255
240
255
255
242
255
255
251
255
255
243
255
255
232
254
255
213
255
255
218
255
255
218
255
255
214
255
255
252
255
255
244
255
255
252
255
255
236
255
255
229
255
255
212
255
255
246
255
255
254
255
255
251
255
255
253
255
255
245
255
255
225
255
255
230
255
255
226
255
255
234
255
255
253
255
255
254
255
255
242
255
255
244
255
255
239
255
255
255
255
255
252
255
255
224
255
255
233
255
255
221
255
255
238
255
255
246
255
255
238
255
255
243
255
255
255
255
255
255
255
255
245
255
255
242
255
255
252
255
255
252
254
255
217
255
255
246
255
255
255
255
255
254
255
255
236
255
255
242
255
255
246
255
255
252
255
255
255
255
255
254
255
255
252
255
255
231
255
255
228
255
255
230
255
255
235
255
255
249
255
255
255
255
255
254
252
255
227
222
242
184
241
252
200
255
255
238
255
255
255
255
255
238
255
255
229
255
255
227
255
255
234
255
255
242
255
255
251
255
255
225
255
255
247
255
255
242
255
255
238
255
255
240
255
255
239
255
255
253
255
255
255
255
255
255
255
255
251
255
255
243
255
255
238
255
255
231
255
255
241
255
255
253
255
255
240
255
255
247
255
255
246
254
255
243
255
255
232
255
255
251
255
255
254
255
255
255
254
254
247
254
254
247
255
255
229
255
255
218
255
255
226
255
255
241
255
255
247
255
255
253
255
255
235
253
255
225
214
216
166
225
224
178
250
254
206
254
255
206
255
255
205
255
255
215
254
253
199
255
255
235
255
255
218
255
255
226
255
255
222
255
255
217
255
255
235
255
255
243
254
255
193
252
255
208
243
255
205
254
255
236
255
255
238
255
255
231
255
255
233
242
252
184
247
253
202
213
226
171
208
222
175
199
212
164
223
236
190
247
253
223
255
255
231
254
255
224
254
255
233
255
255
254
255
255
255
255
255
251
255
255
242
255
255
242
255
255
226
255
255
220
255
255
247
255
255
255
255
255
235
255
255
238
255
255
252
255
255
232
255
255
218
255
255
227
255
255
231
255
255
227
255
255
237
255
255
232
255
255
254
255
255
254
255
255
239
255
255
221
255
255
246
255
255
255
255
255
255
255
255
252
255
255
244
255
255
223
255
255
232
255
255
242
255
255
253
255
255
251
255
255
218
255
255
239
255
255
242
255
255
250
255
255
247
255
255
252
255
255
254
255
255
228
255
255
235
255
255
232
255
255
238
255
255
250
255
255
225
255
255
251
255
255
252
255
255
227
255
255
226
255
255
245
255
255
251
255
255
237
255
255
216
255
255
235
255
255
219
255
255
211
255
255
214
255
255
212
255
255
215
255
255
240
255
255
254
255
255
250
255
255
254
255
255
255
255
255
255
255
255
241
255
255
228
255
255
222
255
255
228
255
255
235
255
255
241
255
255
248
255
255
242
255
255
249
255
255
241
255
255
232
255
255
215
255
255
228
255
255
234
255
255
249
255
255
255
255
255
240
255
255
219
253
255
204
255
255
230
255
255
241
255
255
247
255
255
254
255
255
226
255
255
219
255
255
225
255
255
247
255
255
246
255
255
242
255
255
247
255
255
233
255
255
246
255
255
249
255
255
254
255
255
235
253
255
237
255
255
246
255
255
254
255
255
243
255
255
252
255
255
246
253
255
223
255
255
218
255
255
247
255
255
254
255
255
251
255
255
255
255
255
255
255
255
254
255
255
255
255
255
248
255
255
236
255
255
239
255
255
233
255
255
238
255
255
221
255
255
245
255
255
254
255
255
251
253
255
237
244
254
206
254
255
239
255
255
253
255
255
255
255
255
255
255
255
255
255
255
249
255
255
234
255
255
255
255
255
247
254
255
220
255
255
232
255
255
254
255
255
255
255
255
234
255
255
238
255
255
251
255
255
255
255
255
255
255
255
254
255
255
237
255
255
240
255
255
225
255
255
236
255
255
240
255
255
248
255
255
250
255
255
253
255
255
252
254
255
238
238
254
199
252
255
240
255
255
254
255
255
242
255
255
247
255
255
236
255
255
216
255
255
229
255
255
224
255
255
239
255
255
255
255
255
254
255
255
248
253
253
215
254
254
212
253
255
211
252
255
203
255
255
205
255
255
246
255
255
253
255
255
251
255
255
234
255
255
235
255
255
241
255
255
225
255
255
253
255
255
243
255
255
205
255
255
216
255
255
229
255
255
255
255
255
242
255
255
229
255
255
235
241
246
195
217
230
168
219
240
179
239
251
202
250
254
218
251
254
217
255
255
253
255
255
252
255
255
249
255
255
251
255
255
255
255
255
255
255
255
243
255
255
248
255
255
246
255
255
219
255
255
213
255
255
229
255
255
249
255
255
242
255
255
241
255
255
245
255
255
220
255
255
218
255
255
225
255
255
251
255
255
253
255
255
248
255
255
251
255
255
255
255
255
252
255
255
229
255
255
238
255
255
250
255
255
254
255
255
255
255
255
253
255
255
240
255
255
222
255
255
235
255
255
234
255
255
239
255
255
255
255
255
240
255
255
242
255
255
255
255
255
255
255
255
255
255
255
255
255
255
254
255
255
224
255
255
231
255
255
254
255
255
254
255
255
246
255
255
238
255
255
255
255
255
236
255
255
217
255
255
218
255
255
233
255
255
255
255
255
232
255
255
225
255
255
251
255
255
225
255
255
211
255
255
199
248
255
180
255
255
220
255
255
246
255
255
254
255
255
243
255
255
243
255
255
254
255
255
249
255
255
228
255
255
235
255
255
237
255
255
220
255
255
240
255
255
253
255
255
227
255
255
225
255
255
254
255
255
245
255
255
240
255
255
241
255
255
221
253
255
198
255
255
217
255
255
216
255
255
228
255
255
216
255
255
205
255
255
224
255
255
226
255
255
221
255
255
235
255
255
210
255
255
208
255
255
213
255
255
221
255
255
245
249
252
218
255
255
239
255
255
240
255
255
238
255
255
244
255
255
254
255
255
244
248
255
206
255
255
230
255
255
254
255
255
255
255
255
255
255
255
253
255
255
246
255
255
226
255
255
242
255
255
255
255
255
248
255
255
255
255
255
255
255
255
254
255
255
249
255
255
253
255
255
244
255
255
221
255
255
231
255
255
241
255
255
219
255
255
236
255
255
252
255
255
255
255
255
230
255
255
238
255
255
246
255
255
237
255
255
255
255
255
254
253
255
231
255
255
252
254
255
226
255
255
230
255
255
221
255
255
229
255
255
242
255
255
253
255
255
255
255
255
248
255
255
237
255
255
243
255
255
255
255
255
255
255
255
249
255
255
230
255
255
228
255
255
223
255
255
223
255
255
227
255
255
244
255
255
252
255
255
255
255
255
255
254
255
233
249
255
210
251
255
219
255
255
252
255
255
252
255
255
254
255
255
252
255
255
238
255
255
232
255
255
235
255
255
227
255
255
235
255
255
253
255
255
255
255
255
241
255
255
233
255
255
223
254
255
206
255
255
201
255
255
228
255
255
253
255
255
237
255
255
208
255
255
235
255
255
254
255
255
238
255
255
243
255
255
240
255
255
218
250
255
210
250
255
217
255
255
240
255
255
249
255
255
242
255
255
233
253
255
230
214
236
174
230
251
192
254
255
224
255
255
237
255
255
235
255
255
248
255
255
255
255
255
253
255
255
248
255
255
254
255
255
253
255
255
243
255
255
255
255
255
246
255
255
226
255
255
215
254
255
198
254
255
217
255
255
238
255
255
244
255
255
243
255
255
213
255
255
213
255
255
212
255
255
232
255
255
239
255
255
248
255
255
251
255
255
243
254
255
213
252
254
206
255
255
223
255
255
238
255
255
244
255
255
253
255
255
255
255
255
255
255
255
244
255
255
240
255
255
248
255
255
248
255
255
248
255
255
249
255
255
251
255
255
254
255
255
251
255
255
250
255
255
255
255
255
253
255
255
231
255
255
250
255
255
255
255
255
255
255
255
252
255
255
247
255
255
255
255
255
251
255
255
243
255
255
229
255
255
212
255
255
238
255
255
230
255
255
234
255
255
255
255
255
241
255
255
219
255
255
214
255
255
205
255
255
215
255
255
237
255
255
255
255
255
254
255
255
246
255
255
252
255
255
225
255
255
216
255
255
228
255
255
237
255
255
225
255
255
221
252
255
216
255
255
221
255
255
224
255
255
254
255
255
251
255
255
254
255
255
253
255
255
224
254
255
204
255
255
215
255
255
214
255
255
214
255
255
205
254
255
195
252
255
199
248
255
200
253
255
204
255
255
227
255
255
209
255
255
214
255
255
218
255
255
219
255
255
227
250
251
202
255
255
230
255
255
234
255
255
233
255
255
253
255
255
253
255
255
242
255
255
216
255
255
216
253
255
208
255
255
249
255
255
255
255
255
249
255
255
238
255
255
244
255
255
249
255
255
252
255
255
255
255
255
255
255
255
254
255
255
238
255
255
215
255
255
232
255
255
254
255
255
254
255
255
243
255
255
244
255
255
249
255
255
248
255
255
255
255
255
255
255
255
251
255
255
255
255
255
250
255
255
251
255
255
254
255
255
236
252
255
214
252
254
226
246
255
206
255
255
216
255
255
211
254
255
207
255
255
237
255
255
250
255
255
250
255
255
237
255
255
230
255
255
234
255
255
255
255
255
251
255
255
241
255
255
244
255
255
231
251
255
214
252
255
221
255
255
249
255
255
247
255
255
239
255
255
245
255
255
255
253
255
236
249
255
209
254
255
215
255
255
240
255
255
254
255
255
255
255
255
250
255
255
233
255
255
217
255
255
249
255
255
240
255
255
226
255
255
251
255
255
255
255
255
238
255
255
246
255
255
248
255
255
228
255
255
220
255
255
227
255
255
235
255
255
223
255
255
205
255
255
229
255
255
252
255
255
228
255
255
221
255
255
234
254
255
224
244
254
205
244
255
209
255
255
238
255
255
252
255
255
244
254
255
230
255
255
236
236
255
199
241
255
203
251
255
215
255
255
230
255
255
237
255
255
221
255
255
248
255
255
254
255
255
251
255
255
246
255
255
244
255
255
238
255
255
254
255
255
240
255
255
230
253
255
210
250
255
195
255
255
232
255
255
235
255
255
226
255
255
254
255
255
248
255
255
227
255
255
206
255
255
216
255
255
227
255
255
229
255
255
224
255
255
220
252
253
196
255
255
207
255
255
208
255
255
223
255
255
234
255
255
251
255
255
255
255
255
255
255
255
253
255
255
250
255
255
254
255
255
255
255
255
241
255
255
228
255
255
236
255
255
243
255
255
246
255
255
247
255
255
255
255
255
248
255
255
248
255
255
255
255
255
255
255
255
250
255
255
255
255
255
255
255
255
255
255
255
255
255
255
255
255
255
251
255
255
228
255
255
231
255
255
246
255
255
249
255
255
255
255
255
249
255
255
214
255
255
223
255
255
227
255
255
227
255
255
221
255
255
255
255
255
241
255
255
210
255
255
233
255
255
222
255
255
227
255
255
215
251
255
196
255
255
204
255
255
204
254
255
212
255
255
218
255
255
232
255
255
251
255
255
255
255
255
255
255
255
252
255
255
233
255
255
217
255
255
227
255
255
231
255
255
222
255
255
208
251
255
199
252
255
207
245
255
193
251
255
200
255
255
217
255
255
208
255
255
215
255
255
210
255
255
217
255
255
222
255
255
223
255
255
233
255
255
234
255
255
234
255
255
255
255
255
249
255
255
237
255
255
224
255
255
237
255
255
240
255
255
254
255
255
252
255
255
231
252
245
196
254
254
217
255
255
227
255
255
222
255
255
239
255
255
255
255
255
252
255
255
229
255
255
203
255
255
212
255
255
252
255
255
255
255
255
240
255
255
223
255
255
241
255
255
253
255
255
254
255
255
253
255
255
250
255
255
254
255
255
241
255
255
249
255
255
255
255
255
247
254
255
232
254
255
228
243
255
203
254
255
218
254
255
204
253
255
202
255
255
225
255
255
238
255
255
220
255
255
218
255
255
212
255
255
220
255
255
244
255
255
246
255
255
253
255
255
253
255
255
230
242
252
190
250
254
212
255
255
241
255
255
235
253
255
214
252
255
223
255
255
254
255
255
251
251
255
218
249
255
202
255
255
241
255
255
255
255
255
248
255
255
239
255
255
219
255
255
216
255
255
228
255
255
221
255
255
223
255
255
238
255
255
252
255
255
254
255
255
254
255
255
254
255
255
244
255
255
230
255
255
219
255
255
228
255
255
226
255
255
222
255
255
238
255
255
250
255
255
235
255
255
245
255
255
245
255
255
225
250
254
208
249
255
205
255
255
230
255
255
229
255
255
221
254
255
223
255
255
236
251
255
214
246
255
209
243
255
208
255
255
236
255
255
247
255
255
232
255
255
241
255
255
255
255
255
255
255
255
236
255
255
239
255
255
242
255
255
243
255
255
231
255
255
226
245
253
197
249
254
197
255
255
238
255
255
232
255
255
213
255
255
242
255
255
250
255
255
232
255
255
215
255
255
240
255
255
240
255
255
232
255
255
220
255
255
214
255
255
201
255
255
202
255
255
203
255
255
210
255
255
214
255
255
240
255
255
254
255
255
253
255
255
255
255
255
255
255
255
253
255
255
254
255
255
252
255
255
243
255
255
237
255
255
251
255
255
245
255
255
251
255
255
255
255
255
241
255
255
249
255
255
253
255
255
246
255
255
232
255
255
253
255
255
255
255
255
255
255
255
255
255
255
255
255
255
254
255
255
255
255
255
250
255
255
247
255
255
250
255
255
255
255
255
242
255
255
208
255
255
212
255
255
224
255
255
242
255
255
211
255
255
248
255
255
245
255
255
224
255
255
228
255
255
212
255
255
214
254
255
204
249
255
184
255
255
200
255
255
209
255
255
228
255
255
213
255
255
226
255
255
250
255
255
247
255
255
244
255
255
244
255
255
224
255
255
208
255
255
213
254
255
209
253
255
210
252
255
206
255
255
230
255
255
246
253
255
204
253
255
202
255
255
223
255
255
223
255
255
214
255
255
225
255
255
229
255
255
222
255
255
218
255
255
238
255
255
225
255
255
227
255
255
247
255
255
225
255
255
213
252
253
207
255
255
230
255
255
247
255
255
253
255
255
233
255
255
220
253
252
216
249
254
202
251
255
213
255
255
221
255
255
204
255
255
246
255
255
255
255
255
235
255
255
210
255
255
222
255
255
246
255
255
255
255
255
233
255
255
217
255
255
232
255
255
237
255
255
253
255
255
255
255
255
245
255
255
238
255
255
240
255
255
242
255
255
251
255
255
255
255
255
253
255
255
234
246
255
208
254
255
211
255
255
210
255
255
211
255
255
228
255
255
228
255
255
215
255
255
208
255
255
214
255
255
232
255
255
241
254
255
217
255
255
232
255
255
249
255
255
243
252
254
198
254
254
223
255
255
241
255
255
239
255
255
212
253
255
216
255
255
254
255
255
253
255
255
230
255
255
219
255
255
252
255
255
253
244
254
222
255
255
230
254
255
215
255
255
222
255
255
225
255
255
216
255
255
213
255
255
229
255
255
240
255
255
252
255
255
255
255
255
253
255
255
237
255
255
227
255
255
218
255
255
227
255
255
238
255
255
231
255
255
241
255
255
255
255
255
253
255
255
255
255
255
247
255
255
221
255
255
209
255
255
210
255
255
222
255
255
220
255
255
216
255
255
234
255
255
250
255
255
229
247
255
205
237
253
197
255
255
231
255
255
246
255
255
248
255
255
241
255
255
253
255
255
255
255
255
239
255
255
244
255
255
248
255
255
248
255
255
241
255
255
227
248
254
199
250
253
193
255
255
222
255
255
215
255
255
209
255
255
235
255
255
242
255
255
222
255
255
227
255
255
255
255
255
253
255
255
248
255
255
231
255
255
221
255
255
210
255
255
206
255
255
210
255
255
208
255
255
223
255
255
232
255
255
243
255
255
253
255
255
255
255
255
255
255
255
243
255
255
238
255
255
254
255
255
255
255
255
252
255
255
255
255
255
250
255
255
241
255
255
254
255
255
244
255
255
228
255
255
233
255
255
232
255
255
227
255
255
251
255
255
255
255
255
255
255
255
255
255
255
251
255
255
235
255
255
251
255
255
255
255
255
255
255
255
255
255
255
255
255
255
231
252
255
196
255
255
213
255
255
225
255
255
240
255
255
219
255
255
230
255
255
241
255
255
224
255
255
242
255
255
226
255
255
207
255
255
212
255
255
212
255
255
217
255
255
221
255
255
240
255
255
220
255
255
231
255
255
253
255
255
217
255
255
216
255
255
227
255
255
220
255
255
214
255
255
213
247
254
195
241
254
193
252
255
204
255
255
223
255
255
237
255
255
223
255
255
221
255
255
237
255
255
237
255
255
221
255
255
251
255
255
254
255
255
214
255
255
206
255
255
218
255
255
210
255
255
218
255
255
222
255
255
223
252
255
199
241
247
182
255
255
213
255
255
222
255
255
232
255
255
219
255
255
220
255
255
244
255
255
243
255
255
248
255
255
235
255
255
227
255
255
238
255
255
240
255
255
239
255
255
245
255
255
246
255
255
239
255
255
244
251
255
202
255
255
228
255
255
237
255
255
221
255
255
226
255
255
245
254
255
215
255
255
225
255
255
235
255
255
241
255
255
250
255
255
255
255
255
238
255
255
223
255
255
233
255
255
215
255
255
209
255
255
212
255
255
236
255
255
238
255
255
203
255
255
202
254
255
205
255
255
244
255
255
248
255
255
231
255
255
213
254
255
208
255
255
239
252
254
229
237
235
186
251
251
203
255
255
233
255
255
211
255
255
231
255
255
252
255
255
243
255
255
231
255
255
230
255
255
248
255
255
239
236
248
209
255
255
239
254
255
216
252
255
207
255
255
228
255
255
248
255
255
228
255
255
220
255
255
232
255
255
254
255
255
255
255
255
252
255
255
232
255
255
244
255
255
232
250
255
218
255
255
230
255
255
229
255
255
233
255
255
254
255
255
252
255
255
251
255
255
235
255
255
219
255
255
206
255
255
199
255
255
212
255
255
232
255
255
226
255
255
237
255
255
248
255
255
231
255
255
224
254
255
218
255
255
219
255
255
226
255
255
231
255
255
223
255
255
235
255
255
255
255
255
255
255
255
249
255
255
251
255
255
250
255
255
242
255
255
228
255
255
212
255
255
213
255
255
236
255
255
231
255
255
224
255
255
234
255
255
230
255
255
212
255
255
216
255
255
246
255
255
252
255
255
250
255
255
232
255
255
225
255
255
221
255
255
215
255
255
214
255
255
216
255
255
231
255
255
231
255
255
225
255
255
251
255
255
255
255
255
254
255
255
235
255
255
230
255
255
246
255
255
255
255
255
255
255
255
255
255
255
255
255
255
253
255
255
252
255
255
247
255
255
230
255
255
231
255
255
236
255
255
236
255
255
248
255
255
248
255
255
255
255
255
255
255
255
247
255
255
216
255
255
230
255
255
254
255
255
253
255
255
255
255
255
253
255
255
228
255
255
218
255
255
214
255
255
226
255
255
239
255
255
252
255
255
237
255
255
231
255
255
215
255
255
236
255
255
226
255
255
215
255
255
212
255
255
219
255
255
232
255
255
229
255
255
240
255
255
230
255
255
243
255
255
251
255
255
222
255
255
223
255
255
225
255
255
214
255
255
230
255
255
238
252
255
217
253
255
214
255
255
219
255
255
204
255
255
217
255
255
223
255
255
217
255
255
234
255
255
221
255
255
211
255
255
242
255
255
255
253
255
206
254
255
206
255
255
220
255
255
214
255
255
206
255
255
226
255
255
245
254
255
223
254
255
214
255
255
231
255
255
224
255
255
211
255
255
219
255
255
229
255
255
220
254
255
224
255
255
248
255
255
241
255
255
247
255
255
252
255
255
234
255
255
225
255
255
255
255
255
253
255
255
233
255
255
220
254
255
200
255
255
230
255
255
246
255
255
233
255
255
213
255
255
209
252
252
196
255
255
227
255
255
239
255
255
249
255
255
254
255
255
255
255
255
255
255
255
252
255
255
255
255
255
237
255
255
224
255
255
222
255
255
248
255
255
249
254
255
205
254
255
194
251
255
194
255
255
218
255
255
240
255
255
245
255
255
229
255
255
217
255
255
246
255
255
249
238
235
189
244
248
191
246
252
198
255
255
213
255
255
244
255
255
242
245
255
210
253
255
225
255
255
251
254
255
243
252
255
220
248
253
205
255
255
246
254
255
220
254
255
213
255
255
219
255
255
248
255
255
233
255
255
214
255
255
226
255
255
255
255
255
255
255
255
252
255
255
227
255
255
250
255
255
245
255
255
229
255
255
234
255
255
220
255
255
225
255
255
243
255
255
237
255
255
227
255
255
232
255
255
245
255
255
235
255
255
209
255
255
209
255
255
220
255
255
224
255
255
222
255
255
241
255
255
242
255
255
239
255
255
243
255
255
224
255
255
203
251
255
199
254
255
209
255
255
220
255
255
250
255
255
255
255
255
240
255
255
243
255
255
251
255
255
242
255
255
225
255
255
222
255
255
230
255
255
248
255
255
242
255
255
244
255
255
240
255
255
226
255
255
215
255
255
214
255
255
219
255
255
244
255
255
247
255
255
229
255
255
220
255
255
216
255
255
221
255
255
218
255
255
218
255
255
225
255
255
215
255
255
222
255
255
249
255
255
255
255
255
248
255
255
237
255
255
240
255
255
249
255
255
255
255
255
255
255
255
255
255
255
255
255
255
255
255
255
254
255
255
254
255
255
240
255
255
239
255
255
252
255
255
248
255
255
238
255
255
235
255
255
248
255
255
253
255
255
252
255
255
248
255
255
242
255
255
247
255
255
242
255
255
237
255
255
229
255
255
222
255
255
226
255
255
213
255
255
225
255
255
247
255
255
253
255
255
229
255
255
210
255
255
224
255
255
248
255
255
243
255
255
233
255
255
213
255
255
216
255
255
226
255
255
222
255
255
220
255
255
224
255
255
251
255
255
251
255
255
224
255
255
231
255
255
231
255
255
216
255
255
238
255
255
254
255
255
234
255
255
230
255
255
232
255
255
205
250
251
189
255
253
199
255
255
213
255
255
225
255
255
212
255
255
212
255
255
232
255
255
245
253
255
206
255
255
212
255
255
225
255
255
208
255
255
201
255
255
217
255
255
242
255
255
228
255
255
215
255
255
228
255
255
229
255
255
223
255
255
235
255
255
231
255
255
230
255
255
222
255
255
238
255
255
248
255
255
246
255
255
255
255
255
237
255
255
224
255
255
242
255
255
239
255
255
230
255
255
216
255
255
205
255
255
212
255
255
231
255
255
220
255
253
191
255
254
191
255
255
206
255
255
226
255
255
239
255
255
230
255
255
236
255
255
241
255
255
244
255
255
250
255
255
244
255
255
228
255
255
247
255
255
251
255
255
248
255
255
246
255
255
228
255
255
212
253
255
198
254
255
199
255
255
220
255
255
234
255
255
234
255
255
228
255
255
235
253
254
213
241
241
187
253
254
213
247
253
198
252
255
207
255
255
244
255
255
241
229
252
201
250
255
229
255
255
251
251
255
232
242
254
211
245
251
197
255
255
242
255
255
229
255
255
229
255
255
219
255
255
221
255
255
219
255
255
210
255
255
233
255
255
255
255
255
255
255
255
253
255
255
223
255
255
229
255
255
230
255
255
225
255
255
230
255
255
216
255
255
210
255
255
221
255
255
219
255
255
215
255
255
224
255
255
252
255
255
249
255
255
234
255
255
224
249
255
198
247
255
203
255
255
213
255
255
243
255
255
252
255
255
235
255
255
229
255
255
225
255
255
205
248
255
191
249
254
197
255
255
213
255
255
237
255
255
247
255
255
227
255
255
220
255
255
230
255
255
227
255
255
233
255
255
237
255
255
238
255
255
242
255
255
244
255
255
236
255
255
246
255
255
249
255
255
246
255
255
237
255
255
221
255
255
237
255
255
243
255
255
229
255
255
227
255
255
226
255
255
238
255
255
235
255
255
232
255
255
228
255
255
228
255
255
239
255
255
250
255
255
255
255
255
248
255
255
246
255
255
255
255
255
247
255
255
255
255
255
255
255
255
255
255
255
255
255
255
255
255
255
255
255
255
255
255
255
251
255
255
248
255
255
253
255
255
246
255
255
228
255
255
225
255
255
227
255
255
233
255
255
235
255
255
252
255
255
255
255
255
254
255
255
254
255
255
227
255
255
211
255
255
222
255
255
231
255
255
219
255
255
232
255
255
249
255
255
255
255
255
251
255
255
234
255
255
230
255
255
242
255
255
247
255
255
232
255
255
227
255
255
227
255
255
219
255
255
215
255
255
219
255
255
224
255
255
246
255
255
242
255
255
240
255
255
247
255
255
234
255
255
221
255
255
237
255
255
255
255
255
235
255
255
224
255
255
227
254
255
196
252
255
188
255
255
204
255
255
215
255
255
222
255
255
216
255
255
218
255
255
223
255
255
230
255
255
221
255
255
223
255
255
226
253
255
210
246
254
193
252
254
193
255
255
212
255
255
211
255
255
217
254
255
212
254
255
213
255
255
230
255
255
237
255
255
243
255
255
250
255
255
238
255
255
251
255
255
238
255
255
239
255
255
242
255
255
229
255
255
217
255
255
219
255
255
235
255
255
236
255
255
216
255
255
217
255
255
220
255
255
233
255
255
210
255
232
167
255
230
151
255
253
178
255
255
216
255
255
242
255
255
225
255
255
233
255
255
234
255
255
233
255
255
231
255
255
223
255
255
232
255
255
253
255
255
249
255
255
227
255
255
229
255
255
239
255
255
208
255
255
203
255
255
208
255
255
212
255
255
226
255
255
238
255
255
228
255
255
214
250
254
194
251
253
203
255
255
225
249
242
195
252
251
211
255
255
239
255
255
237
242
254
214
250
255
223
255
255
243
255
255
246
250
254
226
242
251
191
254
255
220
255
255
226
255
255
235
255
255
222
255
255
207
255
255
209
255
255
221
255
255
247
255
255
255
255
255
255
255
255
253
255
255
226
255
255
217
255
255
216
255
255
209
255
255
212
255
255
210
253
255
205
252
255
212
248
255
215
246
255
210
255
255
218
255
255
226
255
255
222
255
255
228
255
255
233
245
255
197
241
255
202
255
255
221
255
255
240
255
255
250
255
255
234
255
255
230
255
255
222
255
255
207
254
255
199
250
253
197
254
254
203
255
255
222
255
255
232
255
255
218
255
255
209
255
255
211
255
255
218
255
255
230
255
255
232
255
255
233
255
255
244
255
255
247
255
255
241
255
255
241
255
255
252
255
255
254
255
255
255
255
255
251
255
255
252
255
255
244
255
255
222
255
255
217
255
255
225
255
255
236
255
255
242
255
255
237
255
255
234
255
255
246
255
255
252
255
255
254
255
255
255
255
255
251
255
255
249
255
255
255
255
255
242
255
255
237
255
255
251
255
255
251
255
255
249
255
255
254
255
255
255
255
255
255
255
255
255
255
255
250
255
255
243
255
255
233
255
255
218
255
255
218
255
255
222
255
255
216
255
255
216
255
255
237
255
255
250
255
255
255
255
255
255
255
255
230
255
255
225
255
255
232
255
255
236
255
255
231
255
255
227
255
255
241
255
255
254
255
255
248
255
255
234
255
255
243
255
255
252
255
255
254
255
255
238
255
255
250
255
255
253
255
255
242
255
255
219
255
255
214
255
255
218
255
255
232
255
255
238
255
255
245
255
255
245
255
255
236
255
255
231
255
255
238
255
255
253
255
255
237
255
255
218
255
255
213
255
255
202
255
255
201
255
255
214
255
255
218
255
255
218
255
255
218
255
255
212
255
255
215
255
255
225
255
255
232
255
255
231
255
255
225
254
255
211
252
255
203
255
255
203
255
255
208
255
255
216
251
255
212
247
255
200
248
255
201
255
255
228
255
255
235
255
255
240
255
255
245
255
255
234
255
255
233
254
255
218
254
255
212
255
255
220
255
255
213
255
255
213
255
255
223
255
255
233
255
255
229
255
255
212
255
255
221
255
255
230
255
255
229
254
254
210
252
230
172
247
210
146
251
232
158
255
255
199
255
255
217
253
253
196
252
249
197
255
255
227
255
255
252
255
255
250
255
255
251
255
255
255
255
255
240
255
255
221
255
255
215
255
255
228
255
255
239
255
255
209
255
255
204
255
255
218
255
255
211
255
255
212
255
255
234
255
255
245
255
255
226
250
255
205
252
255
209
255
255
230
255
254
221
255
255
221
255
255
237
255
255
254
254
255
238
247
255
212
252
255
216
255
255
228
251
255
211
253
255
222
248
255
212
250
255
211
254
255
213
247
255
200
244
255
196
254
255
218
255
255
235
255
255
252
255
255
255
255
255
254
255
255
250
255
255
236
255
255
220
255
255
210
255
255
202
255
255
207
255
255
218
255
255
212
246
255
209
244
255
212
247
255
214
255
255
226
255
255
211
253
252
193
255
252
200
251
254
200
243
254
193
245
255
205
255
255
221
254
255
210
255
255
230
255
255
245
255
255
240
255
255
232
255
255
214
255
255
207
255
255
211
255
255
218
255
255
223
255
255
223
255
255
217
255
255
226
255
255
213
255
255
216
255
255
218
255
255
211
255
255
229
255
255
246
255
255
251
255
255
250
255
255
234
255
255
223
255
255
233
255
255
251
255
255
254
255
255
253
255
255
237
255
255
216
255
255
212
255
255
217
255
255
228
255
255
240
255
255
243
255
255
246
255
255
253
255
255
253
255
255
255
255
255
255
255
255
245
255
255
234
255
255
238
255
255
234
255
255
227
255
255
236
255
255
238
255
255
233
255
255
241
255
255
253
255
255
255
255
255
255
255
255
248
255
255
241
255
255
229
255
255
219
255
255
220
255
255
216
255
255
214
255
255
215
255
255
219
255
255
230
255
255
251
255
255
253
255
255
230
255
255
225
255
255
232
255
255
239
255
255
240
255
255
231
255
255
237
255
255
232
255
255
211
255
255
211
255
255
245
255
255
255
255
255
255
255
255
251
255
255
251
255
255
255
255
255
249
255
255
224
255
255
219
255
255
222
255
255
233
255
255
235
255
255
236
255
255
228
255
255
234
255
255
239
255
255
238
255
255
252
255
255
249
255
255
225
255
255
210
255
255
216
255
255
213
255
255
217
251
255
214
254
255
221
255
255
220
255
255
215
255
255
212
255
255
221
255
255
237
255
255
237
255
255
226
255
255
224
255
255
234
255
255
227
255
255
221
255
255
221
248
255
209
247
255
200
253
255
210
253
255
224
255
255
232
255
255
226
255
255
221
254
255
217
247
255
208
250
255
206
255
255
212
255
255
212
255
255
201
255
255
208
255
255
217
255
255
231
255
255
223
255
255
208
255
255
226
255
255
234
255
255
220
246
253
205
240
238
183
239
227
175
241
231
174
251
248
180
254
251
184
255
253
191
255
254
197
255
255
237
255
255
255
255
255
255
255
255
250
247
243
222
226
216
179
242
237
188
251
249
196
254
254
207
255
255
219
255
255
202
255
255
205
255
255
216
255
255
208
255
255
220
255
255
249
255
255
255
255
255
239
252
255
211
250
254
206
255
255
241
255
255
243
255
255
224
255
255
220
255
255
243
255
255
244
253
255
214
255
255
205
253
255
199
253
255
203
255
255
226
254
255
217
247
255
199
245
255
188
239
255
183
240
255
194
254
255
224
255
255
249
255
255
253
255
255
243
254
255
231
254
255
226
255
255
234
255
255
224
255
255
211
255
255
204
255
255
213
255
255
225
254
255
212
253
255
217
255
255
240
255
255
240
255
255
229
255
255
206
255
255
203
255
255
219
254
255
222
252
255
216
253
255
214
254
255
215
253
255
204
255
255
217
255
255
237
255
255
239
255
255
232
255
255
218
255
255
209
255
255
222
255
255
232
255
255
235
255
255
236
255
255
235
255
255
236
255
255
229
255
255
221
255
255
213
252
251
198
255
255
219
255
255
236
255
255
239
255
255
232
255
255
224
255
255
222
255
255
238
255
255
241
255
255
227
254
254
213
252
255
210
254
255
213
255
255
219
255
255
221
255
255
223
255
255
233
255
255
241
255
255
249
255
255
249
255
255
246
255
255
249
255
255
245
255
255
232
255
255
218
255
255
225
255
255
243
255
255
247
255
255
250
255
255
252
255
255
240
255
255
234
255
255
241
255
255
253
255
255
255
255
255
254
255
255
249
255
255
235
255
255
218
255
255
214
255
255
214
255
255
214
255
255
216
255
255
212
255
255
213
255
255
232
255
255
236
255
255
214
255
255
213
255
255
219
255
255
229
255
255
230
255
255
226
255
255
227
255
255
216
255
255
195
255
255
202
255
255
240
255
255
251
255
255
248
255
255
235
255
255
232
255
255
244
255
255
245
255
255
222
255
255
224
255
255
229
255
255
239
255
255
232
255
255
240
255
255
243
255
255
237
255
255
234
255
255
232
255
255
250
255
255
255
255
255
239
255
255
223
255
255
222
255
255
221
255
255
227
252
255
217
254
255
220
255
255
224
255
255
219
255
255
218
254
255
216
255
255
229
255
255
230
255
255
226
255
255
231
255
255
248
255
255
235
255
255
215
250
255
209
248
255
208
245
255
203
249
255
209
251
255
213
254
255
222
255
255
217
255
255
218
251
255
212
246
255
205
244
254
200
252
255
208
255
255
208
255
255
204
255
255
213
252
255
207
249
255
208
252
255
211
254
255
212
255
255
227
255
255
234
255
255
219
245
252
203
244
251
203
249
252
210
248
251
202
246
242
184
249
241
178
251
253
190
254
255
208
255
255
234
255
255
247
255
255
246
250
246
209
207
201
156
194
184
144
205
202
154
225
221
175
252
251
207
255
255
224
255
255
210
255
255
212
255
255
211
255
255
210
255
255
252
255
255
255
255
255
254
255
255
241
255
255
226
255
255
227
255
255
226
255
255
219
255
255
214
255
255
209
255
255
217
255
255
234
255
255
225
254
255
204
253
255
198
249
255
198
255
255
219
255
255
217
253
255
203
242
255
182
244
255
186
248
255
201
255
255
235
255
255
255
255
255
251
254
255
219
244
252
200
244
251
201
255
255
221
255
255
230
255
255
221
255
255
215
255
255
215
255
255
213
251
255
201
251
255
210
255
255
247
255
255
248
255
255
221
255
255
208
255
255
208
255
255
226
255
255
247
255
255
244
253
255
223
250
255
206
254
255
207
255
255
218
255
255
225
255
255
226
255
255
228
255
255
219
255
255
217
255
255
232
255
255
248
255
255
251
255
255
245
255
255
236
255
255
235
255
255
232
255
255
220
254
254
210
252
252
200
255
255
220
255
255
238
255
255
238
255
255
229
255
255
228
255
255
234
255
255
252
255
255
247
255
255
223
252
252
197
248
254
200
255
255
212
255
255
222
255
255
227
255
255
225
255
255
227
255
255
235
255
255
244
255
255
241
255
255
233
255
255
231
255
255
228
255
255
216
255
255
212
255
255
230
255
255
248
255
255
255
255
255
255
255
255
253
255
255
245
255
255
244
255
255
246
255
255
248
255
255
253
255
255
255
255
255
253
255
255
239
255
255
222
255
255
214
255
255
214
255
255
211
255
255
207
255
255
210
255
255
217
255
255
226
255
255
223
255
255
211
255
255
213
255
255
218
255
255
228
255
255
234
255
255
233
255
255
231
255
255
220
255
255
203
255
255
197
255
255
216
255
255
209
255
255
210
255
255
213
255
255
220
255
255
231
255
255
236
254
255
221
253
255
216
255
255
228
255
255
239
255
255
236
255
255
251
255
255
250
255
255
235
255
255
223
255
255
225
255
255
248
255
255
255
255
255
249
255
255
230
255
255
211
255
255
219
255
255
233
255
255
225
255
255
220
252
255
219
254
255
220
255
255
222
255
255
216
255
255
222
255
255
229
255
255
238
255
255
241
255
255
243
255
255
223
254
255
207
245
254
203
250
255
212
245
255
208
241
253
202
236
245
193
237
245
193
254
255
210
255
255
223
251
255
213
248
255
203
247
254
199
254
255
213
255
255
215
255
255
210
255
255
210
251
255
208
246
255
205
251
255
211
254
255
220
255
255
231
255
255
232
250
254
211
244
254
205
252
255
217
255
255
229
255
255
218
246
249
195
234
238
175
239
253
192
248
255
208
255
255
216
255
255
224
255
255
223
251
250
198
221
221
166
196
192
144
200
203
152
211
217
167
238
238
192
249
251
206
253
254
208
255
255
216
254
255
209
249
254
195
255
255
235
255
255
253
255
255
255
255
255
255
255
255
254
255
255
231
254
255
207
255
255
213
255
255
221
255
255
208
250
255
193
252
255
212
255
255
227
254
255
212
252
255
202
254
255
218
255
255
232
239
249
192
248
254
194
252
255
194
254
255
201
255
255
213
255
255
225
255
255
239
255
255
221
247
253
193
233
244
184
235
247
187
252
255
208
255
255
229
255
255
237
255
255
230
255
255
217
255
255
199
246
255
189
237
254
185
252
255
219
255
255
233
255
255
219
252
255
204
252
255
203
255
255
209
255
255
232
255
255
238
255
255
220
253
255
201
254
255
200
255
255
213
255
255
225
255
255
231
255
255
234
255
255
225
255
255
228
255
255
242
255
255
254
255
255
253
255
255
241
255
255
217
255
255
221
255
255
221
254
255
213
252
255
208
254
255
209
255
255
225
255
255
248
255
255
252
255
255
242
255
255
235
255
255
240
255
255
248
255
255
242
255
255
225
254
255
206
248
254
198
255
255
210
255
255
217
255
255
223
255
255
223
255
255
228
255
255
236
255
255
241
255
255
231
255
255
229
255
255
223
255
255
218
255
255
210
255
255
215
255
255
231
255
255
244
255
255
253
255
255
252
255
255
241
255
255
242
255
255
253
255
255
252
255
255
238
255
255
238
255
255
241
255
255
243
255
255
234
255
255
228
255
255
220
255
255
209
255
255
204
255
255
200
255
255
209
255
255
217
255
255
220
255
255
224
255
255
230
255
255
235
255
255
232
255
255
237
255
255
236
255
255
236
255
255
239
255
255
227
255
255
210
255
255
198
255
255
203
255
255
201
255
255
208
255
255
218
255
255
222
255
255
225
255
255
226
252
255
211
248
255
206
255
255
219
255
255
234
255
255
238
255
255
238
255
255
227
253
255
215
252
255
213
255
255
223
255
255
239
255
255
253
255
255
247
255
255
224
254
255
205
255
255
217
255
255
232
255
255
228
254
255
213
251
255
216
255
255
221
255
255
221
255
255
220
255
255
221
255
255
223
255
255
241
255
255
242
255
255
231
255
255
217
254
255
209
250
255
208
254
255
218
253
255
218
241
253
203
226
234
183
232
236
186
254
255
209
255
255
223
253
255
214
249
255
203
252
255
205
255
255
218
253
255
213
250
254
205
250
255
204
250
255
204
246
255
205
253
255
212
252
255
215
255
255
224
254
255
220
233
250
197
237
253
202
253
255
218
254
255
222
247
255
212
237
247
192
230
235
177
233
245
186
244
254
199
255
255
223
255
255
237
255
255
220
255
255
204
248
249
192
235
233
179
223
227
173
218
227
172
225
230
178
226
231
179
242
248
190
255
255
208
254
255
206
240
251
178
253
255
197
255
255
232
255
255
251
255
255
255
255
255
247
252
255
212
249
255
199
255
255
212
255
255
216
253
255
201
240
255
187
247
254
200
255
255
226
255
255
217
254
255
211
255
255
227
255
255
230
209
215
157
235
244
178
254
255
195
255
255
205
255
255
205
255
255
199
255
255
202
255
255
192
253
255
195
250
254
205
252
255
212
254
255
210
255
255
226
255
255
239
255
255
233
255
255
222
254
255
202
253
255
199
243
255
191
251
255
204
255
255
227
255
255
224
254
255
208
253
255
204
255
255
212
255
255
216
255
255
222
255
255
216
255
255
205
255
255
205
255
255
214
255
255
230
255
255
238
255
255
240
255
255
224
255
255
233
255
255
242
255
255
253
255
255
243
255
255
227
255
255
208
255
255
218
255
255
216
253
255
209
249
255
204
254
255
211
255
255
227
255
255
244
255
255
242
255
255
237
255
255
230
255
255
231
255
255
236
255
255
240
255
255
228
255
255
212
249
253
199
254
255
208
255
255
218
255
255
219
255
255
219
255
255
223
255
255
228
255
255
232
255
255
219
255
255
227
255
255
230
255
255
226
255
255
220
255
255
221
255
255
227
255
255
232
255
255
239
255
255
233
255
255
231
255
255
245
255
255
253
255
255
246
255
255
233
255
255
228
255
255
231
255
255
226
255
255
223
255
255
228
255
255
224
255
255
211
255
255
203
255
255
198
255
255
205
255
255
210
255
255
215
255
255
224
255
255
239
255
255
252
255
255
247
255
255
240
255
255
232
255
255
229
255
255
239
255
255
235
255
255
223
255
255
212
255
255
206
255
255
205
255
255
210
255
255
218
255
255
222
255
255
219
255
255
218
250
255
206
246
255
202
255
255
220
255
255
232
255
255
238
255
255
222
252
254
203
245
254
199
247
255
204
255
255
217
255
255
225
255
255
237
255
255
229
255
255
216
255
255
211
255
255
219
255
255
222
255
255
217
251
255
211
255
255
220
255
255
217
255
255
218
255
255
222
255
255
227
255
255
227
255
255
231
255
255
233
255
255
225
255
255
218
251
255
208
253
255
212
255
255
221
254
255
218
242
255
204
234
243
190
244
249
197
255
255
209
254
255
216
253
255
213
251
255
208
251
255
208
252
255
213
245
252
206
236
245
193
243
252
197
240
250
194
235
250
191
243
254
197
243
255
199
247
255
212
241
255
210
223
249
192
228
249
194
242
255
206
243
254
207
236
249
199
235
243
189
231
235
179
224
236
178
234
248
187
252
255
205
255
255
212
251
255
199
254
254
197
255
255
201
255
255
200
249
247
189
237
244
187
239
245
191
236
242
189
238
248
189
252
255
204
255
255
203
250
254
185
242
249
182
247
253
202
251
255
224
254
255
243
251
255
222
239
250
195
241
251
194
254
255
204
250
253
197
246
255
192
238
253
186
237
252
182
248
255
193
248
255
201
254
255
221
255
255
228
254
255
219
227
231
176
241
248
188
253
255
201
253
255
202
249
255
196
242
252
185
252
255
195
255
255
207
255
255
218
255
255
234
255
255
236
255
255
224
255
255
228
255
255
236
255
255
234
255
255
236
255
255
223
255
255
219
255
255
212
255
255
210
255
255
217
255
255
218
255
255
218
255
255
223
255
255
223
255
255
207
252
253
197
254
254
202
255
255
209
255
255
213
255
255
220
255
255
237
255
255
240
255
255
237
255
255
221
255
255
231
255
255
231
255
255
236
255
255
225
255
255
214
255
255
214
255
255
225
255
255
221
255
255
220
255
255
218
255
255
221
255
255
222
255
255
232
255
255
233
255
255
222
255
255
218
255
255
221
255
255
233
255
255
234
255
255
230
255
255
221
255
255
217
255
255
211
255
255
219
255
255
214
255
255
214
254
255
212
254
255
213
255
255
217
255
255
221
255
255
227
255
255
233
255
255
229
255
255
225
255
255
224
255
255
226
255
255
219
255
255
218
255
255
216
255
255
227
255
255
245
255
255
254
255
255
242
255
255
228
255
255
223
254
255
218
251
255
214
253
255
216
255
255
225
255
255
222
255
255
216
255
255
205
254
255
200
255
255
206
255
255
205
255
255
207
255
255
218
255
255
236
255
255
247
255
255
241
255
255
241
255
255
234
255
255
231
255
255
237
255
255
241
255
255
231
255
255
223
255
255
213
255
255
209
255
255
213
255
255
219
255
255
220
255
255
213
254
255
208
251
255
205
245
254
200
253
255
214
255
255
223
255
255
223
254
254
207
238
240
186
231
236
180
241
248
191
248
252
197
255
255
210
255
255
216
251
254
209
252
255
207
255
255
218
255
255
217
255
255
212
254
255
214
252
255
218
255
255
222
255
255
218
255
255
214
255
255
231
255
255
240
255
255
234
254
255
217
253
255
212
249
254
207
246
253
204
245
253
202
248
254
205
254
255
214
251
255
211
244
255
204
244
252
198
247
254
198
252
255
201
249
255
209
252
255
215
250
254
208
246
254
207
247
255
212
243
253
209
237
245
195
236
245
192
229
239
184
227
238
179
238
249
188
238
254
193
238
255
204
230
255
200
220
249
190
219
243
186
232
251
197
238
253
202
237
246
197
240
244
191
233
236
181
228
243
183
239
252
192
252
255
199
249
255
194
241
255
188
250
247
185
255
246
190
255
245
190
250
244
187
240
244
188
239
243
189
230
234
183
229
240
186
242
250
194
247
247
192
242
244
183
231
235
178
233
245
190
237
252
199
235
250
199
231
245
191
237
247
191
245
253
197
249
254
197
243
251
191
246
253
190
249
252
194
235
243
181
233
244
179
239
253
192
253
255
217
253
255
214
248
255
203
251
255
199
255
255
212
255
255
213
246
255
205
239
253
194
236
251
187
249
255
195
255
255
207
255
255
223
255
255
241
255
255
241
255
255
239
255
255
233
255
255
234
255
255
232
255
255
244
255
255
247
255
255
237
255
255
227
255
255
224
255
255
208
255
255
202
255
255
211
255
255
226
255
255
228
255
255
214
245
249
191
246
251
193
252
254
202
254
254
207
255
254
215
255
255
226
255
255
233
255
255
232
255
255
227
255
255
231
255
255
226
255
255
221
255
255
220
255
255
219
255
255
226
255
255
227
255
255
224
255
255
222
255
255
223
255
255
220
255
255
218
255
255
219
255
255
221
255
255
216
255
255
213
255
255
219
255
255
236
255
255
231
255
255
225
255
255
218
255
255
230
255
255
226
255
255
215
253
255
203
252
255
205
248
255
207
251
255
211
254
255
217
255
255
225
255
255
227
255
255
227
255
255
217
255
255
210
255
255
215
255
255
225
255
255
220
252
255
207
245
255
204
253
255
219
255
255
241
255
255
249
255
255
236
255
255
229
255
255
217
252
255
210
247
255
205
251
255
208
255
255
216
255
255
219
255
255
216
255
255
211
255
255
209
255
255
212
255
255
211
255
255
205
255
255
211
255
255
225
255
255
234
255
255
234
255
255
231
255
255
235
255
255
239
255
255
241
255
255
240
255
255
235
255
255
226
255
255
215
255
255
208
255
255
220
255
255
218
253
255
210
245
251
198
244
250
199
250
255
207
245
254
202
243
253
198
250
253
208
254
255
209
246
250
197
235
242
185
228
236
179
230
237
179
240
245
187
251
254
199
247
253
198
238
247
192
240
247
195
252
255
206
253
255
203
255
255
204
255
255
212
255
255
220
255
255
220
255
255
216
255
255
221
255
255
244
255
255
248
255
255
227
247
255
207
244
253
198
237
251
197
232
244
191
238
247
195
240
248
195
246
254
203
246
255
204
250
255
209
252
255
209
248
255
200
244
255
201
242
255
204
246
255
206
240
250
199
243
251
205
246
255
212
241
254
209
238
252
203
237
250
197
236
246
192
234
244
187
238
252
193
235
255
196
227
252
194
219
247
190
218
245
188
224
247
190
239
254
204
250
255
217
253
255
217
252
254
208
248
253
200
241
254
199
244
255
203
254
255
205
243
255
195
232
251
187
238
240
179
249
233
176
249
233
178
243
239
183
237
244
190
225
229
178
223
228
178
226
236
182
233
237
187
237
235
188
234
234
185
227
230
180
226
236
181
233
244
189
233
243
190
238
245
194
244
251
197
245
253
196
246
255
194
246
252
188
254
254
194
253
252
198
231
233
180
227
232
180
234
243
191
252
255
211
247
255
207
238
251
193
248
248
187
254
255
209
255
255
222
252
255
215
245
255
202
245
255
196
250
255
196
255
255
202
255
255
221
255
255
236
255
255
232
255
255
240
255
255
238
255
255
234
255
255
231
255
255
246
255
255
251
255
255
244
255
255
244
255
255
234
254
255
209
247
250
194
251
251
196
254
255
212
255
255
228
255
255
226
253
255
210
248
253
202
249
254
202
246
249
197
244
244
195
254
253
210
255
255
226
255
255
230
255
255
237
255
255
245
255
255
236
255
255
228
255
255
232
255
255
230
255
255
228
255
255
218
254
255
211
254
255
211
255
255
215
255
255
212
255
255
209
255
255
214
255
255
218
255
255
217
255
255
213
255
255
218
255
255
241
255
255
245
255
255
230
255
255
220
255
255
230
255
255
231
255
255
217
253
255
206
252
255
208
254
255
216
255
255
219
255
255
219
255
255
222
255
255
220
255
255
217
255
255
207
253
255
201
255
255
211
255
255
218
255
255
222
254
255
210
246
255
204
252
255
216
255
255
231
255
255
235
255
255
233
255
255
225
255
255
218
253
255
204
250
255
201
250
255
203
254
255
211
255
255
220
255
255
220
255
255
220
255
255
222
255
255
218
255
255
211
255
255
210
255
255
213
255
255
226
255
255
230
255
255
230
255
255
230
255
255
230
255
255
230
255
255
229
255
255
228
255
255
221
255
255
216
255
255
211
255
255
211
255
255
215
255
255
213
250
254
204
240
248
194
244
250
199
254
255
212
251
255
208
243
253
198
237
244
189
244
249
195
241
246
191
233
243
183
232
243
183
234
243
183
239
247
188
250
255
199
249
254
201
241
250
193
242
251
193
246
253
193
250
254
196
255
255
201
255
255
210
255
255
220
255
255
219
255
255
213
255
255
220
255
255
238
255
255
235
250
255
212
245
255
203
246
255
200
243
253
201
235
245
191
236
244
191
235
243
191
239
252
198
246
255
209
255
255
219
255
255
220
250
255
210
243
255
205
243
255
208
239
254
204
240
253
203
240
252
203
243
254
207
239
254
205
236
254
203
239
254
200
243
254
201
239
251
194
238
254
194
236
255
199
223
248
190
216
241
185
217
242
185
232
251
197
249
255
215
255
255
237
255
255
230
254
255
217
253
255
210
252
255
213
253
255
216
255
255
211
253
255
204
242
254
198
232
244
184
234
232
174
239
232
177
238
239
183
238
245
192
230
234
184
231
235
185
228
235
180
226
230
179
230
231
182
229
232
182
223
228
178
224
232
180
229
238
186
236
243
192
241
246
195
241
246
192
238
245
188
237
249
186
248
253
189
253
253
195
253
248
196
240
235
185
229
229
179
231
239
188
248
254
207
244
251
203
228
237
182
245
240
185
247
248
194
255
255
215
255
255
222
252
255
209
251
255
201
252
255
199
255
255
202
255
255
224
255
255
247
255
255
251
255
255
239
255
255
236
255
255
222
255
255
225
255
255
244
255
255
252
255
255
251
255
255
247
255
255
239
254
255
218
245
250
198
240
242
187
248
252
197
255
255
216
255
255
231
255
255
235
255
255
226
252
255
212
246
253
201
246
249
199
251
249
203
255
255
217
255
255
230
255
255
236
255
255
245
255
255
242
255
255
242
255
255
244
255
255
243
255
255
236
255
255
219
247
255
199
250
255
200
255
255
201
255
254
200
255
253
201
255
255
207
255
255
225
255
255
220
255
255
210
255
255
211
255
255
229
255
255
237
255
255
226
255
255
214
255
255
223
255
255
229
255
255
219
255
255
217
254
255
216
255
255
222
255
255
223
255
255
218
255
255
219
255
255
218
255
255
214
255
255
214
255
255
214
255
255
218
255
255
221
255
255
216
255
255
208
250
255
205
254
255
216
255
255
225
255
255
225
255
255
220
255
255
221
255
255
219
255
255
207
254
255
202
254
255
201
255
255
209
255
255
220
255
255
232
255
255
240
255
255
232
255
255
227
255
255
216
255
255
209
255
255
213
255
255
229
255
255
234
255
255
232
255
255
231
255
255
224
255
255
218
255
255
211
254
254
205
254
254
204
254
255
204
255
255
209
255
255
214
255
255
214
254
255
208
243
252
195
246
252
199
253
255
210
255
255
215
253
255
212
244
254
198
239
247
189
234
239
183
231
236
179
235
245
183
241
252
190
243
253
193
248
255
199
254
255
207
255
255
212
255
255
208
254
255
204
253
255
198
253
255
197
255
255
203
255
255
211
255
255
218
255
255
218
255
255
217
255
255
221
255
255
230
255
255
225
252
255
209
250
255
205
254
255
212
252
255
206
246
253
198
244
250
197
238
247
194
237
253
199
250
255
216
255
255
222
254
255
219
246
255
210
242
255
207
244
255
211
241
255
210
248
255
216
244
254
208
242
254
204
235
249
197
230
247
195
233
249
195
238
252
197
235
249
191
235
253
193
235
255
200
225
250
193
220
241
188
220
241
185
238
254
202
253
255
221
255
255
238
255
255
227
255
255
221
255
255
222
255
255
223
255
255
224
255
255
220
255
255
209
246
255
200
238
251
186
236
236
177
245
238
184
245
243
191
241
248
196
242
247
196
239
241
190
229
233
178
226
231
177
225
229
178
225
230
180
225
232
181
228
234
185
232
238
189
233
238
189
229
231
181
223
227
174
227
233
176
228
239
176
243
247
182
255
255
199
255
252
201
252
242
191
234
231
181
230
238
187
237
249
199
227
239
191
219
232
179
249
245
190
253
252
197
254
255
211
255
255
220
255
255
215
255
255
212
255
255
212
255
255
208
255
255
227
255
255
248
255
255
255
255
255
253
255
255
238
255
255
222
255
255
220
255
255
238
255
255
247
255
255
255
255
255
247
255
255
243
255
255
224
253
255
206
243
251
190
247
254
192
255
255
214
255
255
237
255
255
247
255
255
240
255
255
220
254
255
214
254
255
211
254
255
209
253
255
208
255
255
227
255
255
241
255
255
247
255
255
250
255
255
254
255
255
255
255
255
255
255
255
247
255
255
217
251
255
197
251
255
193
255
255
195
255
255
202
255
251
201
255
254
207
255
255
237
255
255
235
255
255
221
253
255
206
250
255
206
249
255
208
248
255
204
254
255
210
255
255
214
255
255
219
255
255
220
255
255
218
255
255
223
255
255
228
255
255
231
255
255
227
255
255
222
255
255
219
255
255
221
255
255
228
255
255
241
255
255
249
255
255
246
255
255
226
253
255
203
250
255
200
253
255
207
252
255
210
247
252
203
251
254
203
255
255
209
255
255
214
255
255
212
255
255
210
255
255
206
255
255
209
255
255
221
255
255
233
255
255
243
255
255
242
255
255
227
255
255
213
254
255
205
255
255
209
255
255
218
255
255
229
255
255
226
255
255
228
255
255
222
255
255
216
255
255
208
255
251
200
249
247
194
246
252
195
250
255
200
255
255
207
255
255
209
252
255
202
249
254
198
253
255
207
255
255
221
255
255
221
254
255
216
250
255
201
242
250
188
224
228
169
222
223
166
234
239
178
245
252
191
249
255
199
253
255
206
255
255
218
255
255
220
255
255
213
255
255
209
255
255
209
255
255
207
255
255
211
255
255
213
255
255
219
255
255
220
255
255
219
255
255
220
255
255
226
255
255
226
255
255
214
254
255
212
255
255
219
255
255
215
254
255
207
248
252
201
242
250
197
237
252
199
247
255
213
255
255
221
254
255
215
251
255
209
243
255
205
246
255
212
245
255
214
249
255
217
251
255
215
245
255
204
236
249
192
229
242
183
226
238
181
229
240
185
229
241
185
238
254
199
242
255
208
232
254
201
225
245
196
229
245
193
236
253
200
247
254
208
251
254
211
253
255
211
255
255
220
255
255
232
255
255
230
255
255
229
255
255
227
255
255
221
250
255
205
244
255
190
244
248
185
245
242
186
248
250
197
240
250
198
240
249
198
239
246
194
232
241
184
229
238
181
222
230
175
227
234
182
232
238
189
234
241
190
234
241
190
228
234
184
223
225
176
220
223
172
221
226
168
237
240
177
255
254
202
255
255
222
255
255
223
255
252
203
240
236
183
227
236
183
225
237
187
214
227
178
214
227
178
252
254
195
254
255
203
255
255
208
255
255
215
255
255
221
255
255
224
255
255
223
255
255
213
255
255
221
255
255
244
255
255
254
255
255
255
255
255
245
255
255
229
255
255
225
255
255
238
255
255
240
255
255
251
255
255
245
255
255
242
255
255
227
255
255
216
254
255
201
253
255
195
255
255
216
255
255
236
255
255
246
255
255
239
255
255
221
255
255
217
255
255
216
255
255
208
252
255
201
254
255
215
255
255
248
255
255
255
255
255
255
255
255
255
255
255
255
255
255
255
255
255
247
255
255
214
253
255
195
251
254
192
255
255
208
255
255
214
255
255
211
255
255
222
255
255
241
255
255
244
255
255
231
249
251
201
241
244
187
237
246
184
239
251
188
249
255
202
255
255
214
255
255
220
255
255
230
255
255
232
255
255
244
255
255
249
255
255
241
255
255
229
255
255
225
255
254
217
255
253
217
255
255
236
255
255
253
255
255
255
255
255
254
255
255
239
253
253
204
249
252
197
248
253
197
245
250
197
241
243
191
245
245
193
253
253
201
255
255
209
255
255
209
255
255
210
255
255
214
255
255
216
255
255
220
255
255
228
255
255
234
255
255
236
255
255
224
254
255
208
251
254
199
252
254
200
255
255
203
255
255
210
255
255
211
255
255
218
255
255
220
255
255
213
255
255
211
255
255
206
253
252
200
245
244
192
246
250
194
253
255
203
255
255
207
251
255
201
255
255
211
255
255
229
255
255
234
255
255
234
255
255
220
255
255
206
249
255
192
226
233
171
213
214
158
230
231
173
240
244
186
249
254
200
254
255
209
255
255
220
255
255
213
255
255
209
255
255
204
255
255
210
255
255
216
255
255
216
255
255
216
255
255
220
255
255
217
255
255
215
255
255
212
255
255
223
255
255
224
255
255
215
255
255
211
255
255
214
255
255
222
255
255
213
252
252
200
244
246
196
243
252
201
249
255
214
255
255
223
255
255
220
253
255
211
246
255
206
247
255
211
249
255
217
253
255
220
255
255
220
249
255
209
237
252
192
233
248
184
231
240
181
228
236
180
232
244
190
242
254
206
250
255
218
238
255
207
229
249
197
232
253
202
230
249
198
231
240
191
238
241
191
253
252
203
255
255
211
254
255
215
255
255
222
255
255
238
255
255
229
255
255
222
250
255
204
242
254
191
241
251
190
245
252
194
244
255
198
235
251
197
234
248
194
237
249
194
238
247
190
232
242
184
226
234
179
227
234
182
227
233
184
227
233
183
227
234
183
226
233
182
228
234
182
226
227
173
235
229
172
254
251
192
255
255
219
255
255
232
255
255
230
255
254
211
246
238
188
219
223
172
209
219
169
210
222
171
219
231
180
254
255
206
249
255
200
250
255
199
254
255
206
255
255
218
255
255
227
255
255
231
255
255
223
255
255
223
255
255
233
255
255
243
255
255
252
255
255
242
255
255
234
255
255
226
255
255
233
255
255
241
255
255
247
255
255
244
255
255
234
255
255
232
255
255
236
255
255
229
255
255
212
255
255
215
255
255
227
255
255
241
255
255
241
255
255
231
255
255
219
255
255
218
255
255
214
253
255
202
251
255
204
255
255
241
255
255
255
255
255
255
255
255
255
255
255
255
255
255
255
255
255
246
254
254
210
253
251
192
253
253
196
255
255
215
255
255
227
255
255
228
255
255
235
255
255
242
255
255
244
255
255
227
252
253
199
250
249
194
246
249
191
248
253
198
253
255
217
255
255
237
255
255
248
255
255
254
255
255
254
255
255
255
255
255
255
255
255
253
255
255
247
255
255
241
255
253
224
250
237
206
251
241
213
255
251
237
255
255
248
255
255
249
255
255
232
253
251
205
246
247
194
245
249
192
247
249
194
249
248
195
254
253
201
255
254
201
255
255
205
255
255
207
255
255
207
255
255
215
255
255
219
255
255
220
255
255
214
255
255
219
255
255
222
255
255
216
254
255
205
248
251
194
246
250
191
248
250
188
253
254
191
255
255
196
255
255
206
255
255
210
255
255
208
255
255
209
255
255
205
253
250
196
244
241
189
244
247
194
251
255
205
255
255
213
255
255
217
255
255
232
255
255
241
255
255
244
255
255
237
255
255
220
255
255
208
251
255
195
231
240
177
216
220
165
228
231
178
232
234
180
241
248
192
253
255
209
255
255
221
255
255
209
255
255
203
255
255
205
255
255
224
255
255
229
255
255
227
252
255
218
252
255
218
255
255
213
255
255
210
255
255
209
255
255
221
255
255
218
255
255
212
255
255
205
255
255
207
255
255
212
255
255
207
254
252
201
249
247
198
249
254
206
253
255
218
255
255
223
255
255
221
255
255
216
251
255
210
248
255
210
252
255
216
254
255
221
255
255
220
251
255
208
242
255
199
240
253
194
244
250
195
243
243
193
245
252
202
247
255
210
252
255
218
240
254
207
229
250
197
231
254
204
234
250
202
235
243
195
246
247
198
255
254
209
255
254
206
246
249
199
251
255
210
255
255
225
255
255
226
255
255
217
247
254
197
234
245
183
232
243
186
239
250
192
238
254
195
232
250
191
230
248
191
235
250
194
236
250
192
236
246
190
231
238
184
227
233
182
224
230
180
216
223
172
219
228
174
224
233
178
229
237
180
236
233
177
252
243
187
255
255
208
255
255
229
255
255
235
255
255
224
255
253
209
254
239
194
229
219
171
206
210
157
210
218
166
227
233
181
255
255
207
248
255
200
242
251
193
249
254
199
252
254
208
255
255
223
255
255
235
255
255
231
255
255
224
255
255
222
255
255
224
255
255
234
255
255
232
255
255
231
255
255
223
255
255
227
255
255
241
255
255
242
255
255
242
253
255
219
255
255
236
255
255
248
255
255
250
255
255
238
255
255
219
255
255
223
255
255
237
255
255
243
255
255
235
255
255
227
255
255
224
255
255
221
255
255
209
253
255
204
255
255
223
255
255
253
255
255
255
255
255
255
255
255
255
255
255
254
255
255
236
254
254
206
255
254
199
255
255
205
255
255
216
255
255
227
255
255
230
255
255
231
255
255
235
255
255
233
255
255
226
255
255
222
255
255
232
255
255
232
255
255
230
255
255
239
255
255
247
255
255
254
255
255
255
255
255
255
255
255
255
255
255
255
255
255
255
255
255
255
255
255
248
255
251
224
251
237
208
238
222
197
228
212
190
236
222
199
241
233
205
245
236
202
244
238
192
238
237
188
240
244
190
252
254
200
255
255
207
255
255
212
255
255
204
255
255
203
255
255
209
255
255
210
255
255
215
255
255
220
255
255
222
255
255
212
251
255
206
255
255
214
255
255
211
254
255
203
246
250
192
233
237
178
237
238
177
245
247
179
250
255
188
248
255
194
250
255
198
255
253
199
255
248
197
255
249
196
250
244
190
240
238
184
243
248
195
250
255
209
255
255
218
255
255
226
255
255
241
255
255
242
255
255
239
255
255
225
255
255
212
255
255
206
251
255
196
239
245
187
230
235
182
232
235
184
236
239
186
241
248
192
249
255
202
253
255
213
255
255
210
255
255
209
255
255
215
255
255
234
255
255
235
255
255
230
252
255
216
252
255
212
255
255
213
255
255
211
255
255
210
255
255
213
255
255
213
255
255
211
255
255
204
255
255
206
255
255
202
254
255
198
253
252
199
254
253
204
254
255
213
254
255
218
255
255
221
255
255
217
255
255
213
251
255
208
246
255
206
248
255
209
255
255
218
254
255
214
248
255
205
251
255
209
250
255
203
254
255
207
255
254
209
255
255
217
255
255
219
253
255
213
241
255
204
235
252
200
242
255
211
249
255
214
252
255
217
255
255
220
255
255
213
255
252
202
252
247
198
254
253
207
255
255
217
255
255
220
252
254
206
236
241
184
228
229
176
231
235
184
238
249
194
237
253
192
232
250
187
233
251
190
234
252
193
233
248
191
234
243
188
233
236
183
231
232
179
231
233
178
224
232
175
224
234
175
221
233
172
224
233
173
245
236
181
255
246
195
255
255
208
255
255
216
255
255
216
255
254
213
255
249
207
255
237
198
250
228
182
228
217
168
226
224
170
234
236
183
255
255
207
248
255
202
235
244
189
243
249
195
249
254
205
255
255
219
255
255
231
255
255
237
255
255
229
255
255
221
255
255
213
255
255
213
255
255
219
255
255
222
255
255
218
255
255
221
255
255
235
255
255
240
255
255
237
245
254
209
253
255
225
255
255
246
255
255
254
255
255
246
255
255
225
255
255
220
255
255
226
255
255
234
255
255
235
255
255
223
255
255
219
255
255
220
255
255
212
255
255
208
255
255
214
255
255
245
255
255
255
255
255
255
255
255
255
255
255
246
255
255
220
255
255
209
255
255
209
255
255
214
255
255
214
255
255
214
255
255
222
255
255
234
255
255
237
255
255
234
255
255
233
255
255
240
255
255
245
255
255
248
255
255
242
255
255
241
255
255
242
255
255
248
255
255
253
255
255
255
255
255
254
255
255
249
255
254
241
255
252
231
255
251
223
255
252
221
255
253
223
252
241
211
237
222
195
218
201
177
198
184
155
222
214
179
236
236
191
240
245
196
246
253
201
250
255
198
255
255
202
255
255
205
255
255
206
254
255
200
254
255
203
255
255
211
255
255
214
255
255
219
255
255
217
255
255
214
254
255
209
255
255
207
255
255
210
253
255
201
243
249
188
228
233
173
229
230
169
236
240
172
247
254
187
245
255
192
247
254
194
254
252
198
255
245
195
250
243
189
239
240
184
233
236
181
235
242
189
245
254
205
253
255
217
255
255
230
255
255
241
255
255
236
255
255
226
255
255
217
255
252
206
254
250
202
245
246
191
240
244
190
235
239
188
234
235
186
236
241
187
240
249
192
246
255
200
245
255
203
254
255
206
255
255
212
255
255
217
255
255
225
255
255
226
255
255
221
254
255
210
253
255
205
255
255
209
255
255
209
255
255
210
255
255
211
255
255
215
255
255
218
255
255
206
255
255
200
251
255
194
249
254
191
249
250
197
254
255
209
255
255
219
255
255
223
255
255
226
255
255
220
255
255
213
248
255
203
242
255
200
246
255
203
253
255
212
254
255
213
250
255
209
254
255
214
255
255
211
255
255
216
255
255
217
255
255
221
255
255
220
254
255
210
249
255
205
250
255
211
254
255
226
255
255
232
255
255
234
255
255
231
255
255
214
255
254
203
255
252
203
255
255
216
255
255
227
255
255
217
247
251
200
230
231
180
229
227
179
229
230
184
237
244
191
246
254
197
244
255
197
241
255
196
238
254
195
234
246
190
233
239
185
239
244
190
245
248
191
248
251
191
244
251
186
231
243
176
227
238
175
230
230
173
254
241
192
255
242
198
255
243
196
255
244
197
255
243
198
255
241
201
255
242
204
255
244
206
255
246
203
254
244
192
253
247
183
245
245
182
255
255
206
249
255
198
236
246
188
241
251
195
250
255
205
255
255
218
255
255
229
255
255
238
255
255
233
255
255
219
255
255
210
255
255
204
254
255
207
254
255
207
255
255
211
255
255
216
255
255
229
255
255
232
252
255
222
239
253
201
243
254
201
255
255
225
255
255
238
255
255
233
255
255
225
255
255
219
255
255
219
255
255
216
255
255
217
254
255
207
254
255
205
255
255
210
255
255
211
255
255
206
254
255
206
255
255
237
255
255
255
255
255
254
255
255
249
255
255
237
255
255
214
255
255
217
255
255
220
255
255
228
255
255
229
255
255
225
255
255
231
255
255
238
255
255
234
255
255
228
254
255
219
254
255
221
255
255
236
255
255
246
255
255
237
253
254
220
246
245
210
237
235
201
233
229
196
232
226
197
234
228
199
233
223
191
228
216
186
231
218
191
231
221
188
246
241
207
255
255
224
255
251
217
246
230
197
223
208
177
204
192
159
219
222
181
243
250
205
247
254
208
252
255
212
250
255
202
251
255
196
254
255
195
254
255
196
252
255
195
249
255
192
249
254
200
250
255
207
252
255
208
255
255
209
255
255
211
255
255
211
255
255
207
255
255
205
252
255
196
244
251
187
235
239
178
236
241
176
237
243
176
244
252
187
248
255
197
250
255
199
255
255
199
255
254
199
248
248
190
240
248
189
237
247
189
237
249
192
242
254
202
249
255
214
255
255
226
255
255
232
255
255
229
255
255
222
255
255
213
255
245
200
250
238
195
231
231
180
228
228
177
228
228
178
230
229
181
238
240
190
241
248
192
249
254
199
253
255
207
255
255
213
255
255
218
255
255
222
255
255
222
255
255
216
255
255
212
255
255
207
255
255
202
255
255
209
255
255
214
255
255
218
255
255
222
255
255
223
255
255
218
255
255
203
255
255
194
251
255
195
248
252
193
251
252
199
255
255
211
255
255
222
255
255
228
255
255
228
255
255
220
254
255
213
248
255
202
249
255
201
253
255
204
254
255
212
255
255
215
255
255
214
255
255
217
255
255
222
255
255
219
255
255
217
255
255
214
255
255
208
254
255
207
255
255
214
255
255
223
255
255
240
255
255
244
255
255
237
255
255
223
255
255
210
255
255
206
255
255
217
255
255
228
255
255
226
254
255
213
242
247
194
232
235
182
233
232
181
238
240
189
242
251
194
251
255
203
254
255
206
253
255
203
249
255
199
245
254
198
248
252
201
254
255
212
255
255
213
255
255
209
252
255
198
248
254
188
250
251
189
254
251
199
255
247
202
255
227
189
255
218
182
255
220
179
255
223
179
255
224
187
255
236
203
255
247
214
255
255
215
255
255
208
255
255
205
255
254
196
254
255
206
242
253
193
230
243
181
234
246
185
248
255
199
255
255
218
255
255
232
255
255
237
255
255
232
255
255
224
255
255
212
255
255
207
253
255
204
251
255
205
255
255
215
255
255
227
255
255
226
253
255
223
242
255
206
242
255
203
246
255
203
255
255
214
255
255
227
255
255
232
255
255
226
255
255
223
255
255
221
255
255
218
255
255
212
248
254
200
244
253
197
250
255
205
251
255
204
253
255
203
252
255
202
255
255
232
255
255
251
255
255
247
255
255
240
255
255
232
255
255
218
255
255
229
255
255
241
255
255
239
255
255
236
255
255
230
255
255
223
255
255
226
254
255
221
244
250
206
231
238
194
226
231
189
234
236
197
236
240
202
226
231
190
220
225
178
205
207
162
185
184
143
175
172
135
162
157
123
152
147
113
153
148
115
155
150
117
152
147
114
160
160
120
187
187
146
237
238
194
254
253
208
248
243
200
232
226
185
222
217
176
230
235
192
254
255
226
255
255
232
255
255
225
253
255
211
245
254
193
250
255
195
251
255
196
250
255
197
245
254
190
237
248
185
243
252
193
251
255
199
255
255
206
255
255
211
255
255
213
255
255
211
255
255
203
254
255
200
248
254
194
239
246
185
239
246
184
239
248
182
243
253
190
250
255
202
252
255
203
255
255
203
255
255
201
253
255
198
249
255
198
251
255
203
250
255
202
250
255
205
254
255
216
255
255
220
255
255
221
255
255
219
255
255
218
255
255
211
254
246
201
241
230
186
217
216
167
215
215
166
222
221
173
223
221
174
238
241
190
250
254
200
255
255
210
255
255
215
255
255
221
255
255
223
255
255
234
255
255
237
255
255
235
255
255
230
255
255
224
255
255
217
255
255
226
255
255
233
255
255
240
255
255
240
255
255
231
255
255
215
255
255
197
255
255
194
255
255
199
254
255
201
254
255
204
254
255
210
255
255
219
255
255
227
255
255
233
255
255
222
255
255
209
253
255
204
255
255
209
255
255
217
255
255
223
255
255
223
255
255
223
255
255
224
255
255
222
255
255
216
255
255
211
255
255
210
255
255
206
255
255
210
255
255
219
255
255
232
255
255
241
255
255
239
255
255
228
255
255
215
255
255
212
255
255
213
255
255
219
255
255
220
255
255
215
248
253
203
240
249
194
239
247
190
238
243
187
244
250
194
253
255
205
255
255
210
255
255
212
255
255
208
255
255
210
255
255
214
255
255
223
255
255
233
255
255
230
255
255
219
255
255
206
255
255
213
255
255
220
255
255
221
255
247
206
255
215
180
253
202
166
253
209
167
255
216
173
255
216
180
255
229
191
255
245
207
255
255
220
255
255
219
255
255
216
255
255
207
251
255
206
238
252
192
223
238
175
228
240
176
248
254
196
255
255
212
255
255
226
255
255
230
255
255
227
255
255
220
255
255
213
255
255
210
255
255
208
251
255
205
255
255
220
255
255
238
255
255
234
255
255
228
245
255
206
242
255
202
250
255
207
255
255
217
255
255
225
255
255
233
255
255
230
255
255
230
255
255
226
255
255
219
255
255
212
247
254
202
236
246
193
241
252
199
250
255
203
254
255
208
255
255
212
255
255
228
255
255
243
255
255
240
255
255
233
255
255
226
255
255
225
255
255
232
255
255
248
255
255
243
255
255
233
255
255
222
254
253
209
253
253
212
240
246
200
204
211
167
182
188
148
169
175
138
176
183
142
191
201
156
199
210
162
205
216
166
200
208
158
183
188
141
170
174
131
167
170
131
175
178
140
178
183
142
176
180
135
170
175
127
181
191
136
205
217
159
222
234
175
239
248
191
241
246
193
229
233
182
231
233
185
237
245
199
255
255
233
255
255
241
255
255
231
255
255
219
251
255
204
254
255
205
255
255
209
255
255
210
253
255
204
246
252
192
243
250
186
253
255
197
255
255
205
255
255
213
255
255
215
255
255
214
255
255
204
253
255
200
247
253
196
241
249
191
241
250
189
240
250
187
247
255
197
250
255
205
252
255
204
253
255
203
252
255
199
255
255
201
254
255
205
255
255
213
255
255
210
255
255
210
255
255
214
255
255
216
255
255
218
255
255
219
255
255
216
255
255
208
255
250
204
242
234
189
221
219
172
227
226
179
231
230
184
230
229
181
238
240
190
254
255
205
255
255
217
255
255
217
255
255
221
255
255
234
255
255
250
255
255
254
255
255
255
255
255
254
255
255
252
255
255
249
255
255
251
255
255
254
255
255
255
255
255
255
255
255
247
255
255
221
255
255
195
252
255
190
253
255
194
254
255
201
252
255
202
251
255
205
250
255
210
254
255
218
255
255
222
255
255
217
255
255
213
255
255
209
255
255
216
255
255
225
255
255
227
255
255
234
255
255
236
255
255
234
255
255
223
255
255
211
254
255
207
255
255
210
255
255
214
255
255
221
255
255
229
255
255
242
255
255
243
255
255
233
255
255
217
255
255
217
255
255
221
255
255
225
255
255
222
255
254
209
254
252
205
252
254
208
247
255
204
247
255
199
246
253
197
248
254
199
255
255
210
255
255
213
255
255
217
255
255
212
255
255
212
255
255
222
255
255
231
255
255
237
255
255
228
255
255
222
255
255
217
255
255
229
255
255
226
255
255
220
255
246
202
254
214
180
246
205
168
242
211
167
244
209
165
249
209
169
246
222
177
252
238
190
255
253
208
255
255
219
255
255
219
255
250
202
250
255
211
232
250
192
219
238
176
228
240
178
246
254
192
255
255
205
255
255
216
255
255
222
255
255
220
255
255
218
255
255
215
255
255
214
254
255
210
252
255
205
255
255
216
255
255
230
255
255
235
255
255
226
254
255
211
253
255
210
254
255
209
255
255
214
255
255
222
255
255
232
255
255
236
255
255
233
255
255
225
255
255
221
255
255
212
249
255
204
238
249
195
238
248
194
250
255
202
255
255
215
255
255
225
255
255
232
255
255
236
255
255
232
255
255
226
255
255
222
255
255
227
255
255
233
255
255
239
255
255
236
255
255
226
253
253
209
241
238
191
227
229
183
206
211
165
175
183
138
168
176
133
166
175
130
181
194
145
197
211
159
206
220
168
206
220
168
208
221
167
195
205
152
193
202
150
207
217
168
223
232
186
222
235
186
219
231
180
214
224
171
214
230
167
231
248
183
238
253
190
236
252
188
236
250
192
234
244
191
240
249
199
251
255
210
255
255
224
255
255
233
255
255
231
255
255
221
255
255
214
255
255
217
255
255
223
255
255
227
255
255
222
255
255
210
253
255
198
254
255
197
255
255
205
255
255
211
255
255
214
255
255
214
255
255
214
254
255
209
247
253
200
245
252
197
244
254
195
239
250
191
246
254
199
250
255
206
252
255
204
252
255
204
250
255
201
253
255
204
253
255
206
255
255
213
255
255
217
255
255
213
255
255
213
255
255
213
255
255
216
255
255
219
255
255
214
255
255
210
255
255
212
253
251
201
245
245
193
245
247
195
245
248
195
241
242
191
244
246
195
254
255
207
255
255
221
255
255
218
255
255
222
255
255
239
255
255
253
255
255
255
255
255
255
255
255
255
255
255
255
255
255
255
255
255
255
255
255
255
255
255
255
255
255
255
255
255
252
255
255
229
255
255
201
255
255
189
252
255
193
252
255
200
250
255
201
246
255
202
245
255
205
247
255
207
254
255
211
255
255
214
255
255
214
255
255
214
255
255
216
255
255
220
255
255
227
255
255
237
255
255
237
255
255
233
255
255
219
251
255
205
254
255
209
255
255
219
255
255
226
255
255
233
255
255
240
255
255
245
255
255
247
255
255
240
255
255
227
255
255
228
255
255
226
255
255
229
255
255
224
255
255
214
255
255
215
255
255
225
255
255
220
254
255
211
255
255
209
255
255
209
255
255
213
255
255
216
255
255
221
255
255
213
255
255
205
255
255
210
255
255
220
255
255
224
255
255
219
255
255
218
255
255
214
255
255
221
255
255
217
255
254
207
255
243
196
254
227
187
248
223
182
238
220
173
233
214
166
224
209
160
228
222
170
242
238
185
253
247
196
255
253
205
255
250
207
255
242
198
244
255
208
229
250
193
221
245
184
226
245
183
244
254
194
254
255
205
255
255
214
255
255
218
255
255
212
255
255
211
254
255
213
251
255
210
250
255
204
250
255
201
252
255
203
255
255
217
255
255
223
255
255
223
255
255
219
255
255
221
255
255
217
255
255
216
255
255
219
255
255
224
255
255
232
255
255
227
255
255
217
255
255
213
254
255
206
253
255
207
249
255
204
247
254
201
254
255
211
255
255
225
255
255
233
255
255
237
255
255
233
255
255
223
255
255
217
255
255
215
255
255
215
255
255
224
255
255
229
255
255
225
255
255
218
251
252
202
234
232
179
220
219
169
205
209
158
191
197
148
188
197
147
189
200
147
205
219
163
213
228
170
221
236
178
228
243
185
228
243
187
218
232
176
219
231
176
233
245
191
249
255
211
250
255
215
250
255
211
242
252
200
239
253
191
245
255
194
251
255
198
243
255
194
235
250
192
240
254
197
249
255
203
255
255
210
255
255
212
255
255
223
255
255
225
255
255
219
255
255
216
255
255
222
255
255
230
255
255
234
255
255
228
255
255
218
255
255
206
255
255
198
255
255
200
255
255
206
255
255
211
255
255
213
255
255
220
255
255
221
255
255
217
255
255
212
252
255
203
249
255
199
251
255
203
253
255
206
255
255
209
255
255
211
251
255
204
254
255
206
255
255
213
255
255
214
255
255
216
255
255
217
255
255
217
255
255
214
255
255
216
255
255
218
255
255
214
255
255
214
255
255
212
255
255
215
255
255
217
255
255
212
253
255
205
248
253
196
247
250
198
254
255
214
255
255
229
255
255
234
255
255
230
255
255
241
255
255
251
255
255
255
255
255
255
255
255
255
255
255
255
255
255
255
255
255
255
255
255
255
255
255
255
255
255
255
255
255
255
255
255
244
255
255
221
255
255
205
255
255
199
255
255
199
253
255
202
247
255
200
238
254
194
239
253
194
250
255
202
255
255
209
255
255
214
255
255
213
255
255
211
255
255
212
255
255
218
255
255
233
255
255
234
255
255
224
252
255
211
245
255
200
254
255
211
255
255
226
255
255
234
255
255
239
255
255
246
255
255
250
255
255
254
255
255
248
255
255
236
255
255
234
255
255
227
255
255
234
255
255
239
255
255
238
255
255
240
255
255
243
255
255
231
255
255
217
255
255
216
255
255
216
255
255
218
255
255
215
255
255
211
254
254
202
249
251
194
252
254
200
254
255
207
255
255
219
255
255
218
255
255
215
255
255
209
255
255
200
255
255
198
255
252
196
255
249
198
255
244
196
253
244
197
233
230
182
219
219
168
215
215
164
229
236
183
246
249
196
254
254
202
254
246
194
252
234
184
253
230
183
228
248
193
226
248
189
229
253
193
235
254
197
249
255
205
255
255
206
255
255
212
255
255
213
255
255
211
251
255
206
254
255
213
247
255
209
245
255
203
244
255
199
247
255
197
254
255
202
255
255
211
255
255
222
255
255
226
255
255
226
255
255
222
255
255
219
255
255
216
255
255
220
255
255
222
255
255
220
255
255
216
255
255
214
255
255
210
255
255
214
255
255
218
255
255
213
255
255
216
255
255
226
255
255
235
255
255
243
255
255
235
255
255
223
255
255
212
255
255
209
255
255
208
255
255
213
255
255
220
255
255
225
255
255
224
255
255
211
250
251
193
236
237
178
222
223
168
213
216
163
211
218
161
213
225
165
229
243
180
235
249
187
246
254
199
247
255
203
247
255
203
242
253
198
242
253
197
249
255
205
255
255
220
255
255
227
255
255
220
253
255
212
253
255
207
253
255
203
255
255
203
248
255
198
243
254
198
247
255
200
253
255
202
255
255
203
255
255
208
255
255
215
255
255
218
255
255
217
255
255
223
255
255
230
255
255
239
255
255
242
255
255
241
255
255
234
255
255
218
255
255
204
254
255
197
255
255
206
255
255
213
255
255
216
255
255
225
255
255
228
255
255
229
255
255
223
255
255
215
255
255
211
255
255
207
255
255
208
255
255
212
255
255
216
255
255
214
255
255
214
255
255
215
255
255
220
255
255
218
255
255
220
255
255
221
255
255
216
255
255
213
255
255
217
255
255
220
255
255
222
255
255
220
255
255
226
255
255
230
255
255
221
255
255
210
253
255
202
254
255
212
255
255
225
255
255
241
255
255
237
255
255
230
255
255
237
255
255
244
255
255
253
255
255
255
255
255
255
255
255
255
255
255
255
255
255
255
255
255
255
255
255
255
255
255
255
255
255
255
255
255
252
255
255
240
255
255
228
255
255
215
255
255
204
254
255
196
246
255
193
237
250
188
238
250
189
247
255
199
254
255
209
255
255
219
255
255
216
255
255
208
255
255
207
255
255
216
255
255
224
255
255
222
255
255
212
243
255
201
246
255
201
255
255
219
255
255
230
255
255
238
255
255
240
255
255
238
255
255
247
255
255
253
255
255
249
255
255
237
255
255
231
255
255
232
255
255
240
255
255
250
255
255
255
255
255
255
255
255
247
255
255
232
255
255
225
255
255
225
255
255
226
255
255
223
255
255
221
255
255
215
248
245
194
240
241
189
252
254
204
255
255
217
255
255
221
255
255
220
255
255
215
255
255
211
253
255
200
252
252
193
255
251
196
255
254
202
255
254
204
252
253
204
238
244
194
231
236
185
231
235
184
243
249
197
254
254
207
255
255
213
250
252
199
239
238
184
237
229
177
221
243
181
224
246
185
235
255
197
240
255
202
253
255
214
255
255
215
255
255
214
255
255
212
254
255
208
252
255
209
253
255
215
248
255
214
242
255
208
239
255
200
244
255
196
254
255
202
255
255
207
255
255
224
255
255
230
255
255
232
255
255
235
255
255
229
255
255
222
255
255
219
255
255
217
255
255
217
255
255
216
255
255
213
255
255
210
255
255
213
255
255
219
255
255
218
255
255
221
255
255
223
255
255
236
255
255
241
255
255
232
255
255
222
255
255
217
255
255
209
255
255
209
255
255
213
255
255
218
255
255
227
255
255
227
255
255
217
255
255
204
248
251
187
235
236
174
229
233
173
232
240
175
238
248
185
249
255
196
253
255
205
255
255
217
255
255
219
255
255
215
254
255
217
255
255
216
255
255
216
255
255
225
255
255
232
255
255
227
255
255
219
255
255
218
255
255
216
255
255
212
254
255
207
254
255
207
255
255
206
255
255
204
255
255
200
255
255
206
255
255
214
255
255
221
255
255
227
255
255
237
255
255
243
255
255
251
255
255
250
255
255
253
255
255
250
255
255
238
255
255
222
255
255
207
255
255
211
255
255
218
255
255
218
255
255
225
255
255
229
255
255
233
255
255
230
255
255
224
255
255
217
255
255
214
255
255
213
255
255
214
255
255
219
255
255
222
255
255
220
255
255
219
255
255
217
255
255
215
255
255
217
255
255
220
255
255
220
255
255
213
255
255
216
255
255
223
255
255
225
255
255
225
255
255
226
255
255
229
255
255
221
255
255
210
255
255
208
255
255
221
255
255
231
255
255
239
255
255
236
255
255
229
255
255
235
255
255
243
255
255
250
255
255
253
255
255
255
255
255
255
255
255
255
255
255
255
255
255
255
255
255
255
255
255
255
255
255
255
255
255
255
255
255
253
255
255
245
255
255
233
255
255
220
255
255
206
252
255
191
243
252
188
245
254
195
249
255
201
254
255
212
255
255
223
255
255
217
255
255
215
255
255
219
255
255
220
255
255
214
255
255
210
252
255
201
240
254
194
250
255
205
255
255
224
255
255
230
255
255
240
255
255
235
255
255
230
255
255
237
255
255
243
255
255
239
255
255
234
255
255
233
255
255
239
255
255
251
255
255
254
255
255
255
255
255
255
255
255
242
255
255
228
255
255
224
255
255
224
255
255
224
255
255
225
255
255
225
255
255
216
252
250
202
251
250
203
255
255
224
255
255
231
255
255
227
255
255
223
255
255
217
255
255
211
254
255
204
250
254
196
254
254
201
255
255
206
254
254
206
250
252
203
246
252
201
242
246
193
244
248
195
250
253
200
255
255
208
255
255
210
252
255
205
246
252
197
241
243
189
174
192
138
176
193
143
184
201
154
190
202
159
200
202
172
202
202
173
202
202
170
202
202
167
199
202
162
198
202
164
200
202
169
199
202
172
195
202
168
195
202
165
195
202
158
200
202
158
202
202
164
202
202
174
202
202
183
202
202
187
202
202
190
202
202
186
202
202
178
202
202
176
202
202
172
202
202
172
202
202
172
202
202
169
202
202
165
202
202
167
202
202
170
202
202
172
202
202
175
202
202
175
202
202
182
202
202
187
202
202
185
202
202
178
202
202
175
202
202
167
202
202
165
202
202
169
202
202
172
202
202
180
202
202
180
202
202
173
202
202
163
200
202
149
194
196
141
191
194
141
194
200
144
200
202
154
202
202
163
202
202
169
202
202
176
202
202
182
202
202
178
202
202
180
202
202
180
202
202
178
202
202
181
202
202
183
202
202
182
202
202
177
202
202
174
202
202
175
202
202
173
202
202
168
202
202
166
202
202
165
202
202
161
202
202
158
202
202
165
202
202
171
202
202
176
202
202
181
202
202
184
202
202
190
202
202
198
202
202
201
202
202
202
202
202
202
202
202
199
202
202
187
202
202
174
202
202
167
202
202
175
202
202
177
202
202
179
202
202
179
202
202
181
202
202
180
202
202
177
202
202
177
202
202
174
202
202
171
202
202
168
202
202
173
202
202
176
202
202
177
202
202
177
202
202
169
202
202
168
202
202
169
202
202
172
202
202
174
202
202
169
202
202
168
202
202
175
202
202
180
202
202
180
202
202
181
202
202
179
202
202
172
202
202
165
202
202
169
202
202
176
202
202
177
202
202
184
202
202
182
202
202
182
202
202
189
202
202
195
202
202
200
202
202
202
202
202
202
202
202
202
202
202
202
202
202
202
202
202
202
202
202
202
202
202
202
202
202
202
202
202
202
202
202
202
202
202
201
202
202
198
202
202
185
202
202
175
202
202
162
201
202
158
201
202
163
201
202
164
202
202
168
202
202
175
202
202
174
202
202
174
202
202
173
202
202
171
202
202
164
202
202
159
199
202
155
197
202
156
200
202
164
202
202
176
202
202
180
202
202
189
202
202
183
202
202
178
202
202
181
202
202
184
202
202
181
202
202
179
202
202
185
202
202
193
202
202
201
202
202
202
202
202
202
202
202
198
202
202
186
202
202
176
202
202
175
202
202
174
202
202
174
202
202
178
202
202
178
202
202
171
202
202
170
202
202
173
202
202
185
202
202
186
202
202
186
202
202
181
202
202
171
202
202
167
202
202
163
201
202
160
202
202
166
202
202
165
199
200
161
196
198
159
195
197
157
195
197
154
196
198
154
197
199
157
201
202
164
199
202
163
198
202
164
195
201
160
194
200
157
