P3
# Created by GIMP version 2.10.34 PNM plug-in
100 100
255
174
180
152
174
180
152
173
179
151
173
179
151
173
179
151
173
179
151
173
179
151
173
179
151
173
179
151
173
179
151
173
179
151
172
178
150
173
179
151
173
179
150
171
179
148
171
180
150
172
179
150
172
180
150
171
180
149
171
180
149
171
180
151
171
180
151
171
180
151
171
180
151
171
180
151
171
180
151
171
180
151
171
180
151
171
180
151
171
180
151
171
180
151
173
180
151
171
180
151
171
180
151
171
180
151
171
180
151
171
180
151
171
180
151
172
180
150
173
181
150
171
180
151
171
180
151
172
181
152
171
180
151
171
180
151
172
181
152
172
181
152
172
181
152
172
181
152
172
181
150
174
180
152
172
181
152
172
181
152
173
180
152
172
180
152
172
181
152
174
180
152
174
180
152
173
180
152
173
180
151
255
255
255
255
255
255
255
255
255
255
255
255
255
255
255
255
255
255
255
255
255
255
255
255
255
255
255
255
255
255
255
255
255
255
255
255
255
255
255
255
255
255
255
255
255
255
255
255
255
255
255
255
255
255
255
255
255
255
255
255
255
255
255
255
255
255
255
255
255
255
255
255
255
255
255
255
255
255
255
255
255
255
255
255
255
255
255
255
255
255
255
255
255
255
255
255
255
255
255
255
255
255
255
255
255
255
255
255
255
255
255
255
255
255
255
255
255
255
255
255
174
180
151
174
180
152
174
180
152
173
179
151
173
179
151
173
179
151
173
179
151
173
179
151
173
179
151
173
179
151
173
179
151
173
179
151
172
179
150
172
179
149
172
179
149
171
179
150
171
180
151
172
179
150
171
180
150
170
179
149
171
180
151
170
179
150
170
179
150
171
180
151
171
180
151
171
180
151
171
180
151
171
180
151
171
180
151
171
180
151
171
180
151
171
180
151
171
180
151
171
180
151
171
180
151
171
180
150
171
180
151
171
180
151
171
180
151
171
180
151
171
180
151
171
180
151
171
180
151
171
180
151
171
180
151
171
180
151
171
180
151
172
181
151
172
181
151
172
181
150
172
181
152
172
180
152
172
181
151
173
180
149
172
180
151
173
180
152
174
180
152
174
180
152
174
180
152
174
180
152
255
255
255
255
255
255
255
255
255
255
255
255
255
255
255
255
255
255
255
255
255
255
255
255
255
255
255
255
255
255
255
255
255
255
255
255
255
255
255
255
255
255
255
255
255
255
255
255
255
255
255
255
255
255
255
255
255
255
255
255
255
255
255
255
255
255
255
255
255
255
255
255
255
255
255
255
255
255
255
255
255
255
255
255
255
255
255
255
255
255
255
255
255
255
255
255
255
255
255
255
255
255
255
255
255
255
255
255
255
255
255
255
255
255
255
255
255
255
255
255
172
179
149
173
179
151
173
179
151
173
179
151
173
179
151
173
179
151
173
179
151
172
178
150
173
179
151
172
178
150
173
179
151
172
178
150
170
179
150
172
179
149
173
179
151
171
179
149
170
179
150
173
179
151
171
179
151
171
180
149
170
179
150
171
180
150
170
179
150
170
179
150
171
180
151
171
180
151
171
180
151
171
180
151
171
180
151
171
180
151
171
180
151
171
180
151
171
180
150
170
179
150
170
179
150
171
180
149
171
180
151
171
180
151
171
180
151
171
180
151
171
180
151
171
180
151
171
180
151
171
180
151
171
180
151
171
180
151
171
180
151
171
180
150
172
181
150
172
181
150
172
180
151
173
180
152
173
180
152
173
179
151
172
179
151
173
180
152
171
180
151
171
180
151
174
180
152
172
180
151
255
255
255
255
255
255
255
255
255
255
255
255
255
255
255
255
255
255
255
255
255
255
255
255
255
255
255
255
255
255
255
255
255
255
255
255
255
255
255
255
255
255
255
255
255
255
255
255
255
255
255
255
255
255
255
255
255
255
255
255
255
255
255
255
255
255
255
255
255
255
255
255
255
255
255
255
255
255
255
255
255
255
255
255
255
255
255
255
255
255
255
255
255
255
255
255
255
255
255
255
255
255
255
255
255
255
255
255
255
255
255
255
255
255
255
255
255
255
255
255
172
178
149
173
179
150
174
180
152
173
179
151
173
179
151
173
179
151
172
178
150
172
178
150
172
178
150
172
178
150
171
178
150
172
178
150
172
179
150
172
178
150
172
179
151
171
179
149
170
179
150
171
179
149
171
179
150
170
179
150
170
179
150
170
179
149
170
179
150
171
180
151
170
179
150
171
180
151
171
180
151
171
180
151
171
180
149
170
179
150
171
180
149
170
179
150
170
179
150
170
179
150
171
180
151
170
179
150
170
179
150
170
179
150
171
180
151
171
180
150
171
180
151
171
180
151
171
180
150
171
180
151
171
180
151
171
180
151
171
180
151
171
180
150
171
180
149
171
180
150
171
180
151
173
179
151
173
179
151
173
180
151
171
180
152
171
180
151
171
180
151
173
180
152
174
180
152
173
179
151
255
255
255
255
255
255
255
255
255
255
255
255
255
255
255
255
255
255
255
255
255
255
255
255
255
255
255
255
255
255
255
255
255
255
255
255
255
255
255
255
255
255
255
255
255
255
255
255
255
255
255
255
255
255
255
255
255
255
255
255
255
255
255
255
255
255
255
255
255
255
255
255
255
255
255
255
255
255
255
255
255
255
255
255
255
255
255
255
255
255
255
255
255
255
255
255
255
255
255
255
255
255
255
255
255
255
255
255
255
255
255
255
255
255
255
255
255
255
255
255
172
178
150
173
179
151
173
179
151
173
179
151
173
179
151
173
179
151
172
178
150
172
178
150
172
178
150
172
178
150
171
178
149
169
178
149
170
179
150
170
179
150
170
179
149
170
179
150
170
179
150
171
179
150
170
179
150
170
179
150
170
179
150
170
179
150
170
179
150
170
179
150
170
179
150
170
179
150
170
179
150
170
179
149
170
179
150
170
179
150
170
179
150
170
179
149
170
179
148
170
179
149
170
179
150
170
179
150
170
179
150
170
179
150
170
179
150
171
180
149
171
180
149
171
180
150
171
180
150
171
180
149
171
180
149
171
180
150
171
180
150
171
180
149
171
180
149
171
180
150
171
180
150
172
179
151
173
179
151
172
179
151
171
180
151
171
180
149
171
180
150
173
179
151
174
180
152
173
179
150
255
255
255
255
255
255
255
255
255
255
255
255
255
255
255
255
255
255
255
255
255
255
255
255
255
255
255
255
255
255
255
255
255
255
255
255
255
255
255
255
255
255
255
255
255
255
255
255
255
255
255
255
255
255
255
255
255
255
255
255
255
255
255
255
255
255
255
255
255
255
255
255
255
255
255
255
255
255
255
255
255
255
255
255
255
255
255
255
255
255
255
255
255
255
255
255
255
255
255
255
255
255
255
255
255
255
255
255
255
255
255
255
255
255
255
255
255
255
255
255
172
178
150
173
179
151
173
179
151
172
178
150
172
178
150
172
178
150
172
178
150
172
178
150
172
178
150
172
178
150
172
178
150
172
178
150
171
178
150
171
178
150
169
178
149
169
178
149
170
179
150
170
179
150
170
179
150
170
179
150
170
179
150
170
179
150
169
178
149
170
179
150
169
178
149
169
178
149
170
179
149
170
179
149
170
179
149
169
178
148
169
178
149
170
179
150
169
178
147
170
179
148
170
179
149
170
179
150
170
179
150
170
179
150
170
179
150
170
179
149
170
179
150
170
179
150
170
179
150
171
180
149
171
180
149
170
179
148
171
180
149
171
180
149
171
180
149
171
179
150
172
179
151
171
179
151
172
179
151
171
179
151
171
180
151
172
179
151
173
179
151
173
179
151
173
179
151
173
179
150
255
255
255
255
255
255
255
255
255
255
255
255
255
255
255
255
255
255
255
255
255
255
255
255
255
255
255
255
255
255
255
255
255
255
255
255
255
255
255
255
255
255
255
255
255
255
255
255
255
255
255
255
255
255
255
255
255
255
255
255
255
255
255
255
255
255
255
255
255
255
255
255
255
255
255
255
255
255
255
255
255
255
255
255
255
255
255
255
255
255
255
255
255
255
255
255
255
255
255
255
255
255
255
255
255
255
255
255
255
255
255
255
255
255
255
255
255
255
255
255
172
178
150
172
178
150
172
178
150
172
178
150
172
178
150
172
178
150
172
178
150
172
178
150
172
178
150
172
178
150
172
178
150
172
178
150
171
178
149
171
178
148
169
178
148
169
178
149
169
178
149
170
179
149
170
179
150
170
179
149
169
178
148
169
178
149
169
178
149
170
179
149
169
178
148
169
178
148
169
178
149
169
178
148
169
178
148
169
178
149
169
178
149
169
178
149
169
178
149
169
178
149
170
179
149
170
179
150
169
178
149
169
178
149
169
178
149
170
179
149
170
179
150
170
179
150
170
179
150
170
179
148
170
179
148
171
179
148
171
179
148
170
179
148
170
179
150
170
179
150
171
179
149
172
179
149
171
180
150
170
179
150
170
180
150
172
179
151
173
179
151
173
179
151
172
179
151
172
179
150
255
255
255
255
255
255
255
255
255
255
255
255
255
255
255
255
255
255
255
255
255
255
255
255
255
255
255
255
255
255
255
255
255
255
255
255
255
255
255
255
255
255
255
255
255
255
255
255
255
255
255
255
255
255
255
255
255
255
255
255
255
255
255
255
255
255
255
255
255
255
255
255
255
255
255
255
255
255
255
255
255
255
255
255
255
255
255
255
255
255
255
255
255
255
255
255
255
255
255
255
255
255
255
255
255
255
255
255
255
255
255
255
255
255
255
255
255
255
255
255
172
178
150
172
178
150
172
178
150
171
177
149
172
178
150
172
178
150
172
178
150
172
178
150
172
178
150
172
178
150
171
177
149
170
178
149
169
178
149
169
178
148
169
178
148
169
178
149
169
178
148
169
178
148
169
178
149
169
178
148
169
178
147
169
178
147
169
178
147
169
178
148
169
178
149
169
178
149
169
178
149
169
178
149
169
178
148
168
177
148
168
177
148
169
178
149
169
178
149
169
178
149
169
179
149
169
178
149
169
178
149
169
178
149
169
178
149
170
179
150
169
178
149
170
179
150
170
179
149
170
179
148
170
179
148
172
179
148
171
179
148
170
179
148
170
179
149
170
179
149
170
179
149
172
179
150
171
179
150
172
178
150
172
179
151
171
179
150
173
179
151
173
179
151
173
179
151
173
179
150
255
255
255
255
255
255
255
255
255
255
255
255
255
255
255
255
255
255
255
255
255
255
255
255
255
255
255
255
255
255
255
255
255
255
255
255
255
255
255
255
255
255
255
255
255
255
255
255
255
255
255
255
255
255
255
255
255
255
255
255
255
255
255
255
255
255
255
255
255
255
255
255
255
255
255
255
255
255
255
255
255
255
255
255
255
255
255
255
255
255
255
255
255
255
255
255
255
255
255
255
255
255
255
255
255
255
255
255
255
255
255
255
255
255
255
255
255
255
255
255
172
178
150
172
178
150
171
177
149
171
177
149
171
177
149
171
177
149
172
178
150
172
178
150
171
177
149
171
177
149
171
177
149
169
177
149
169
178
149
169
178
148
169
178
148
169
178
147
169
178
147
170
178
147
169
178
147
169
178
148
169
178
147
169
178
147
168
177
147
168
177
148
168
177
148
168
177
148
168
177
148
168
177
148
168
177
148
168
177
148
168
177
148
168
177
148
169
178
149
169
178
149
168
177
148
168
177
148
168
177
148
169
178
148
169
178
149
169
178
148
169
178
149
169
178
149
169
178
149
170
179
148
170
179
148
170
179
148
171
179
148
171
179
148
170
179
150
170
179
149
171
179
148
172
178
149
172
178
150
173
179
151
172
179
150
172
179
150
173
179
151
173
179
151
173
179
151
172
178
150
255
255
255
255
255
255
255
255
255
255
255
255
255
255
255
255
255
255
255
255
255
255
255
255
255
255
255
255
255
255
255
255
255
255
255
255
255
255
255
255
255
255
255
255
255
255
255
255
255
255
255
255
255
255
255
255
255
255
255
255
255
255
255
255
255
255
255
255
255
255
255
255
255
255
255
255
255
255
255
255
255
255
255
255
255
255
255
255
255
255
255
255
255
255
255
255
255
255
255
255
255
255
255
255
255
255
255
255
255
255
255
255
255
255
255
255
255
255
255
255
171
177
149
172
178
150
171
177
149
171
177
149
171
177
149
172
178
150
171
177
149
171
177
149
171
177
149
171
177
149
171
177
149
169
177
148
168
177
148
169
178
149
169
178
148
169
178
148
169
178
147
169
178
147
169
178
147
169
178
148
168
177
148
168
177
148
168
177
148
167
176
147
168
177
148
167
176
147
167
176
147
167
176
147
168
177
148
168
177
148
168
177
148
168
177
147
168
177
148
169
178
149
168
177
148
167
176
147
168
177
147
168
177
147
168
177
148
168
177
148
169
178
147
169
178
148
170
178
147
170
179
148
169
178
148
170
179
149
170
179
149
170
179
148
170
179
148
170
179
148
170
179
149
171
179
150
170
178
150
172
179
150
172
178
150
172
178
150
173
179
151
173
179
151
173
179
151
172
178
150
255
255
255
255
255
255
255
255
255
255
255
255
255
255
255
255
255
255
255
255
255
255
255
255
255
255
255
255
255
255
255
255
255
255
255
255
255
255
255
255
255
255
255
255
255
255
255
255
255
255
255
255
255
255
255
255
255
255
255
255
255
255
255
255
255
255
255
255
255
255
255
255
255
255
255
255
255
255
255
255
255
255
255
255
255
255
255
255
255
255
255
255
255
255
255
255
255
255
255
255
255
255
255
255
255
255
255
255
255
255
255
255
255
255
255
255
255
255
255
255
171
177
149
171
177
149
171
177
149
171
177
149
171
177
149
171
177
149
171
177
149
171
177
149
171
177
149
170
177
149
167
176
147
171
176
151
178
180
157
171
176
150
168
177
148
169
178
149
169
178
149
169
178
147
168
177
148
168
177
148
167
176
147
167
176
147
167
176
147
167
176
147
166
175
146
166
175
146
166
175
146
166
175
146
167
176
147
166
175
146
167
176
147
167
176
146
167
176
147
167
176
147
167
176
147
167
176
147
167
176
147
166
176
147
167
176
147
167
176
147
168
177
148
168
177
148
170
178
147
170
178
147
169
178
149
170
179
150
170
179
150
171
179
148
171
179
148
170
179
149
170
179
150
170
179
150
170
179
150
172
178
150
172
178
150
171
177
149
172
178
150
172
178
150
171
177
149
171
177
149
255
255
255
255
255
255
255
255
255
255
255
255
255
255
255
255
255
255
255
255
255
255
255
255
255
255
255
255
255
255
255
255
255
255
255
255
255
255
255
255
255
255
255
255
255
255
255
255
255
255
255
255
255
255
255
255
255
255
255
255
255
255
255
255
255
255
255
255
255
255
255
255
255
255
255
255
255
255
255
255
255
255
255
255
255
255
255
255
255
255
255
255
255
255
255
255
255
255
255
255
255
255
255
255
255
255
255
255
255
255
255
255
255
255
255
255
255
255
255
255
170
176
148
170
176
148
171
177
149
171
177
149
171
177
149
171
177
149
171
177
149
171
177
149
170
176
148
167
175
147
190
181
166
208
188
183
204
182
182
198
177
176
170
156
150
176
175
156
168
177
148
168
177
148
168
177
148
167
176
147
166
174
145
164
173
143
163
171
141
163
171
142
163
172
142
163
172
143
163
172
143
164
173
144
164
173
144
164
173
143
164
172
143
164
173
143
164
173
144
165
173
144
164
172
143
164
172
142
162
171
141
162
171
140
162
170
140
164
172
141
164
172
141
165
174
144
168
177
147
169
178
147
169
178
148
169
178
149
170
179
149
171
178
147
171
178
147
170
179
149
170
179
149
170
178
148
170
179
148
171
178
149
172
178
150
172
178
150
172
178
150
172
178
150
172
178
150
171
177
149
255
255
255
255
255
255
255
255
255
255
255
255
255
255
255
255
255
255
255
255
255
255
255
255
255
255
255
255
255
255
255
255
255
255
255
255
255
255
255
255
255
255
255
255
255
255
255
255
255
255
255
255
255
255
255
255
255
255
255
255
255
255
255
255
255
255
255
255
255
255
255
255
255
255
255
255
255
255
255
255
255
255
255
255
255
255
255
255
255
255
255
255
255
255
255
255
255
255
255
255
255
255
255
255
255
255
255
255
255
255
255
255
255
255
255
255
255
255
255
255
171
177
149
171
177
149
171
177
149
171
177
149
171
177
149
171
177
149
171
177
149
170
176
148
167
176
146
191
179
167
205
182
179
199
175
176
184
159
164
146
122
135
128
107
119
175
156
155
169
176
149
168
177
148
167
176
147
165
174
144
186
187
140
228
222
144
240
231
148
240
230
143
236
227
141
227
221
140
211
209
142
201
202
142
201
202
142
201
201
139
208
206
132
227
222
131
233
226
131
235
227
133
238
231
134
242
234
134
246
235
132
247
236
135
245
235
140
239
229
139
246
236
147
233
225
145
178
182
141
168
176
146
169
178
148
169
178
149
169
179
148
170
178
147
170
178
147
169
178
149
169
178
148
169
178
147
169
178
147
171
178
149
172
178
150
171
178
150
172
178
150
172
178
150
171
177
149
171
177
149
255
255
255
255
255
255
255
255
255
255
255
255
255
255
255
255
255
255
255
255
255
255
255
255
255
255
255
255
255
255
255
255
255
255
255
255
255
255
255
255
255
255
255
255
255
255
255
255
255
255
255
255
255
255
255
255
255
255
255
255
255
255
255
255
255
255
255
255
255
255
255
255
255
255
255
255
255
255
255
255
255
255
255
255
255
255
255
255
255
255
255
255
255
255
255
255
255
255
255
255
255
255
255
255
255
255
255
255
255
255
255
255
255
255
255
255
255
255
255
255
171
177
150
171
177
149
172
178
150
171
177
149
172
178
150
171
177
149
171
177
149
171
178
150
180
178
158
203
180
177
195
171
172
162
138
145
129
106
118
128
104
118
160
137
145
163
140
142
170
174
149
168
177
148
167
176
147
173
178
139
247
232
130
251
235
121
248
233
128
235
216
120
231
209
117
220
202
129
207
193
133
206
194
133
215
201
120
216
198
112
212
196
119
206
191
128
202
187
125
206
191
129
214
200
126
235
217
116
246
225
99
247
227
104
250
232
113
250
232
115
250
231
116
246
227
120
212
203
136
167
176
145
169
178
149
169
178
148
169
178
147
169
178
148
169
178
149
169
178
149
169
178
149
169
178
147
170
178
147
170
177
148
172
178
150
170
178
149
171
177
149
172
178
150
171
177
149
171
177
149
255
255
255
255
255
255
255
255
255
255
255
255
255
255
255
255
255
255
255
255
255
255
255
255
255
255
255
255
255
255
255
255
255
255
255
255
255
255
255
255
255
255
255
255
255
255
255
255
255
255
255
255
255
255
255
255
255
255
255
255
255
255
255
255
255
255
255
255
255
255
255
255
255
255
255
255
255
255
255
255
255
255
255
255
255
255
255
255
255
255
255
255
255
255
255
255
255
255
255
255
255
255
255
255
255
255
255
255
255
255
255
255
255
255
255
255
255
255
255
255
170
176
149
171
177
149
171
177
149
171
177
149
171
177
149
171
177
149
171
177
149
171
176
150
197
178
172
186
162
163
169
145
148
169
144
150
177
153
159
117
94
108
174
150
158
177
155
158
166
162
145
169
177
147
168
177
147
180
179
140
245
222
114
245
222
100
249
227
107
251
230
108
246
228
113
241
224
115
242
225
113
244
228
112
248
232
117
252
236
115
250
234
108
252
234
102
252
231
94
250
226
82
250
225
84
248
223
83
245
219
77
242
214
78
240
213
79
238
212
83
230
205
91
218
195
97
185
178
132
167
177
146
169
178
149
170
179
148
170
179
149
173
178
152
171
178
151
169
179
149
169
178
149
170
178
147
170
178
147
171
178
148
171
178
149
169
178
149
171
177
149
171
178
149
171
177
149
171
177
148
255
255
255
255
255
255
255
255
255
255
255
255
255
255
255
255
255
255
255
255
255
255
255
255
255
255
255
255
255
255
255
255
255
255
255
255
255
255
255
255
255
255
255
255
255
255
255
255
255
255
255
255
255
255
255
255
255
255
255
255
255
255
255
255
255
255
255
255
255
255
255
255
255
255
255
255
255
255
255
255
255
255
255
255
255
255
255
255
255
255
255
255
255
255
255
255
255
255
255
255
255
255
255
255
255
255
255
255
255
255
255
255
255
255
255
255
255
255
255
255
171
177
149
170
176
148
171
177
149
171
177
149
171
177
149
171
177
149
171
177
149
177
175
154
196
173
172
185
161
162
182
158
163
155
132
141
141
117
128
140
116
129
155
130
139
144
119
130
157
134
140
173
165
152
170
162
151
150
132
127
200
175
99
222
194
81
227
199
72
232
204
77
238
211
82
238
210
77
243
215
80
246
219
81
246
219
82
244
216
79
241
210
74
231
199
63
229
194
57
225
190
58
214
179
56
214
179
55
214
180
60
212
180
63
213
182
65
203
175
74
167
146
78
122
102
71
139
121
118
174
167
154
172
177
152
155
149
138
149
136
134
148
126
136
161
144
149
169
157
155
171
172
153
171
178
148
170
178
147
170
178
148
171
177
149
171
177
149
169
178
149
169
178
149
171
177
148
171
177
147
255
255
255
255
255
255
255
255
255
255
255
255
255
255
255
255
255
255
255
255
255
255
255
255
255
255
255
255
255
255
255
255
255
255
255
255
255
255
255
255
255
255
255
255
255
255
255
255
255
255
255
255
255
255
255
255
255
255
255
255
255
255
255
255
255
255
255
255
255
255
255
255
255
255
255
255
255
255
255
255
255
255
255
255
255
255
255
255
255
255
255
255
255
255
255
255
255
255
255
255
255
255
255
255
255
255
255
255
255
255
255
255
255
255
255
255
255
255
255
255
170
177
150
169
177
148
168
177
148
170
177
149
170
177
149
168
177
148
168
177
149
174
171
152
190
166
166
156
131
138
133
110
120
100
79
91
67
49
63
110
94
102
131
110
119
145
123
134
158
136
145
154
130
141
139
116
128
136
113
122
98
74
69
148
127
76
177
153
75
192
163
70
195
165
64
197
165
62
197
166
59
199
166
59
201
169
57
202
168
56
197
165
57
192
163
66
178
151
66
150
124
58
129
103
50
129
105
51
123
100
50
115
93
48
109
90
52
82
65
55
74
55
62
91
69
78
143
122
129
143
121
132
116
97
105
115
94
106
113
91
106
117
94
111
136
113
128
164
143
153
175
155
163
173
164
158
172
179
150
170
178
148
169
178
149
168
177
148
169
178
148
169
178
149
171
177
149
171
177
148
255
255
255
255
255
255
255
255
255
255
255
255
255
255
255
255
255
255
255
255
255
255
255
255
255
255
255
255
255
255
255
255
255
255
255
255
255
255
255
255
255
255
255
255
255
255
255
255
255
255
255
255
255
255
255
255
255
255
255
255
255
255
255
255
255
255
255
255
255
255
255
255
255
255
255
255
255
255
255
255
255
255
255
255
255
255
255
255
255
255
255
255
255
255
255
255
255
255
255
255
255
255
255
255
255
255
255
255
255
255
255
255
255
255
255
255
255
255
255
255
169
177
151
168
177
149
168
177
148
168
177
148
168
177
148
168
177
148
168
177
148
165
164
144
165
142
145
118
95
109
100
78
92
122
102
109
160
137
144
177
153
161
169
145
156
167
144
154
152
129
141
142
118
132
142
118
131
150
127
137
140
115
124
106
81
92
78
56
65
77
61
52
89
72
47
103
84
46
103
84
44
99
80
44
100
81
45
101
82
47
83
67
45
61
46
40
57
40
44
61
43
48
63
45
50
64
46
53
68
48
56
74
53
64
83
61
73
89
68
81
103
79
96
119
95
112
142
120
133
128
105
119
126
104
118
98
76
92
77
59
73
117
93
110
123
99
115
138
115
129
126
103
119
140
118
133
145
134
134
170
178
152
168
178
148
169
178
149
168
177
148
168
177
148
169
178
149
168
177
148
255
255
255
255
255
255
255
255
255
255
255
255
255
255
255
255
255
255
255
255
255
255
255
255
255
255
255
255
255
255
255
255
255
255
255
255
255
255
255
255
255
255
255
255
255
255
255
255
255
255
255
255
255
255
255
255
255
255
255
255
255
255
255
255
255
255
255
255
255
255
255
255
255
255
255
255
255
255
255
255
255
255
255
255
255
255
255
255
255
255
255
255
255
255
255
255
255
255
255
255
255
255
255
255
255
255
255
255
255
255
255
255
255
255
255
255
255
255
255
255
168
177
149
168
177
148
168
177
148
168
177
148
169
178
149
169
178
149
169
178
149
168
173
147
147
125
129
153
130
139
183
158
165
162
138
145
172
148
156
172
149
156
171
149
156
165
142
151
159
136
147
150
127
139
153
129
143
142
117
131
150
126
138
131
105
121
116
90
109
102
80
94
94
72
84
83
62
74
77
57
68
73
55
65
75
57
67
77
57
69
83
63
75
95
72
87
100
77
93
106
83
98
105
82
98
109
85
102
114
90
107
119
95
112
125
101
118
128
103
121
132
107
126
133
109
127
140
117
131
135
113
126
114
92
107
81
61
75
69
52
66
83
63
75
98
77
89
126
106
114
143
121
131
131
108
122
124
102
116
144
138
131
169
180
150
169
178
149
168
177
148
168
178
149
168
178
148
168
177
147
255
255
255
255
255
255
255
255
255
255
255
255
255
255
255
255
255
255
255
255
255
255
255
255
255
255
255
255
255
255
255
255
255
255
255
255
255
255
255
255
255
255
255
255
255
255
255
255
255
255
255
255
255
255
255
255
255
255
255
255
255
255
255
255
255
255
255
255
255
255
255
255
255
255
255
255
255
255
255
255
255
255
255
255
255
255
255
255
255
255
255
255
255
255
255
255
255
255
255
255
255
255
255
255
255
255
255
255
255
255
255
255
255
255
255
255
255
255
255
255
169
178
150
170
179
150
170
179
150
170
179
150
170
179
150
170
179
150
170
180
150
171
181
151
162
156
141
172
147
152
140
118
127
182
158
164
174
149
156
164
141
151
168
146
155
170
147
155
160
136
147
164
141
151
138
114
129
130
105
124
137
113
130
137
114
129
135
111
126
137
113
129
135
110
127
130
105
123
131
106
126
128
104
124
127
103
123
128
104
124
130
105
126
132
107
129
126
100
122
130
104
126
129
103
125
124
100
120
122
98
119
126
101
122
126
101
122
134
110
128
141
117
131
138
114
129
143
119
133
132
109
123
114
92
108
51
39
47
63
48
60
71
53
66
67
50
61
66
48
58
80
60
71
106
84
93
118
97
106
129
111
117
173
181
153
170
181
149
170
181
150
170
180
150
170
181
150
170
181
150
255
255
255
255
255
255
255
255
255
255
255
255
255
255
255
255
255
255
255
255
255
255
255
255
255
255
255
255
255
255
255
255
255
255
255
255
255
255
255
255
255
255
255
255
255
255
255
255
255
255
255
255
255
255
255
255
255
255
255
255
255
255
255
255
255
255
255
255
255
255
255
255
255
255
255
255
255
255
255
255
255
255
255
255
255
255
255
255
255
255
255
255
255
255
255
255
255
255
255
255
255
255
255
255
255
255
255
255
255
255
255
255
255
255
255
255
255
255
255
255
185
192
162
186
193
162
186
193
162
185
194
163
185
194
163
185
194
162
183
194
161
184
194
161
186
195
162
166
162
145
181
159
160
185
161
165
173
148
153
177
153
159
167
144
153
161
138
148
161
138
149
144
120
135
135
112
127
141
118
133
146
124
138
137
115
130
138
113
130
139
113
129
141
117
133
139
115
132
143
120
137
132
108
128
126
101
122
129
104
125
129
105
125
130
106
126
126
101
122
125
100
121
126
101
122
124
100
121
124
102
121
128
105
125
132
107
126
135
111
127
142
119
132
141
117
132
139
115
129
137
114
128
130
107
122
109
90
102
36
26
32
50
37
46
55
38
50
59
42
52
64
47
56
68
48
57
96
75
80
111
92
95
180
188
157
180
190
157
181
189
158
180
189
158
181
189
158
181
189
159
255
255
255
255
255
255
255
255
255
255
255
255
255
255
255
255
255
255
255
255
255
255
255
255
255
255
255
255
255
255
255
255
255
255
255
255
255
255
255
255
255
255
255
255
255
255
255
255
255
255
255
255
255
255
255
255
255
255
255
255
255
255
255
255
255
255
255
255
255
255
255
255
255
255
255
255
255
255
255
255
255
255
255
255
255
255
255
255
255
255
255
255
255
255
255
255
255
255
255
255
255
255
255
255
255
255
255
255
255
255
255
255
255
255
255
255
255
255
255
255
174
184
154
175
184
155
176
184
155
176
185
155
177
185
155
177
186
155
177
186
155
177
187
154
178
187
157
180
174
159
185
162
165
172
147
153
172
147
153
164
141
148
156
133
142
155
132
143
137
113
127
127
104
120
140
117
131
145
124
136
144
121
135
136
114
129
135
112
128
143
120
134
137
115
129
144
121
136
147
126
139
141
119
133
130
107
124
132
107
126
132
108
126
135
110
129
123
98
118
117
92
113
119
95
116
118
95
115
126
103
122
127
104
122
133
109
128
138
114
130
142
118
132
143
120
134
135
112
125
126
102
117
128
105
120
136
113
126
91
74
84
31
22
27
29
20
25
46
31
41
52
37
46
59
40
49
72
56
59
142
141
124
184
192
161
183
191
159
184
191
159
183
191
160
183
191
160
182
190
161
255
255
255
255
255
255
255
255
255
255
255
255
255
255
255
255
255
255
255
255
255
255
255
255
255
255
255
255
255
255
255
255
255
255
255
255
255
255
255
255
255
255
255
255
255
255
255
255
255
255
255
255
255
255
255
255
255
255
255
255
255
255
255
255
255
255
255
255
255
255
255
255
255
255
255
255
255
255
255
255
255
255
255
255
255
255
255
255
255
255
255
255
255
255
255
255
255
255
255
255
255
255
255
255
255
255
255
255
255
255
255
255
255
255
255
255
255
255
255
255
182
191
161
182
191
161
180
190
160
181
190
160
179
188
159
176
185
156
173
182
153
171
181
151
179
174
158
182
158
160
176
151
155
170
146
152
160
136
144
159
136
144
158
136
143
150
127
139
127
103
119
132
108
124
143
120
133
144
121
134
138
115
129
143
120
135
141
119
131
145
124
136
141
120
132
145
123
137
139
118
130
139
117
129
146
124
136
142
120
134
124
101
117
127
103
120
115
91
110
114
90
111
115
92
112
120
96
115
122
99
118
127
103
122
125
100
119
128
104
122
138
115
129
143
120
133
136
114
128
122
99
116
120
98
113
131
108
121
126
105
115
65
50
59
41
30
38
28
19
26
119
118
106
167
173
149
179
188
159
181
190
160
179
189
159
180
190
159
179
189
158
177
187
157
177
186
157
176
185
156
255
255
255
255
255
255
255
255
255
255
255
255
255
255
255
255
255
255
255
255
255
255
255
255
255
255
255
255
255
255
255
255
255
255
255
255
255
255
255
255
255
255
255
255
255
255
255
255
255
255
255
255
255
255
255
255
255
255
255
255
255
255
255
255
255
255
255
255
255
255
255
255
255
255
255
255
255
255
255
255
255
255
255
255
255
255
255
255
255
255
255
255
255
255
255
255
255
255
255
255
255
255
255
255
255
255
255
255
255
255
255
255
255
255
255
255
255
255
255
255
99
110
99
91
102
93
88
98
90
85
96
90
85
95
90
84
94
89
85
95
91
99
104
100
175
155
156
160
137
140
161
139
143
164
141
147
161
138
147
161
138
147
158
135
145
134
111
124
136
114
126
147
124
136
148
125
136
145
121
134
147
124
136
142
119
131
142
120
132
149
127
139
141
119
132
136
115
127
134
112
124
141
121
131
154
134
141
139
120
130
136
114
128
126
103
120
113
90
108
111
88
106
116
92
110
124
101
117
117
96
113
120
96
115
123
98
117
120
95
114
128
104
119
147
123
136
143
121
134
135
112
127
121
97
115
131
109
123
134
113
121
93
75
86
62
47
58
58
44
55
93
80
85
133
125
121
91
99
91
89
100
92
88
99
92
88
97
91
87
97
92
87
97
92
88
97
93
85
94
92
255
255
255
255
255
255
255
255
255
255
255
255
255
255
255
255
255
255
255
255
255
255
255
255
255
255
255
255
255
255
255
255
255
255
255
255
255
255
255
255
255
255
255
255
255
255
255
255
255
255
255
255
255
255
255
255
255
255
255
255
255
255
255
255
255
255
255
255
255
255
255
255
255
255
255
255
255
255
255
255
255
255
255
255
255
255
255
255
255
255
255
255
255
255
255
255
255
255
255
255
255
255
255
255
255
255
255
255
255
255
255
255
255
255
255
255
255
255
255
255
81
91
92
82
92
92
82
92
92
83
94
93
83
94
94
84
95
93
84
95
94
115
114
112
182
157
161
177
152
156
172
147
152
170
147
153
165
143
150
158
136
144
145
122
133
141
118
129
152
131
138
151
128
136
154
132
140
151
131
139
148
125
136
147
124
135
146
124
136
151
130
139
147
127
137
134
113
124
139
119
127
146
126
133
141
123
130
139
119
130
130
109
122
130
108
123
127
105
120
119
97
111
116
94
109
118
96
112
115
92
111
114
91
111
117
94
113
121
96
115
126
103
118
150
127
139
147
124
136
146
123
135
136
113
128
138
115
129
152
129
138
126
105
114
80
62
73
75
58
72
94
76
88
77
61
71
104
103
103
86
93
94
87
93
95
88
94
95
90
95
96
90
95
96
90
96
97
88
94
95
255
255
255
255
255
255
255
255
255
255
255
255
255
255
255
255
255
255
255
255
255
255
255
255
255
255
255
255
255
255
255
255
255
255
255
255
255
255
255
255
255
255
255
255
255
255
255
255
255
255
255
255
255
255
255
255
255
255
255
255
255
255
255
255
255
255
255
255
255
255
255
255
255
255
255
255
255
255
255
255
255
255
255
255
255
255
255
255
255
255
255
255
255
255
255
255
255
255
255
255
255
255
255
255
255
255
255
255
255
255
255
255
255
255
255
255
255
255
255
255
84
90
92
84
91
93
83
90
93
83
90
93
83
90
93
82
89
92
83
88
90
159
145
145
169
146
148
172
148
151
179
155
158
172
149
153
158
136
144
148
126
136
155
133
142
149
126
135
147
125
134
148
127
135
148
127
135
152
131
139
146
124
133
146
125
133
152
130
140
144
122
132
147
127
135
142
120
130
145
123
131
148
128
133
144
124
131
150
130
137
125
106
117
127
107
118
136
115
128
120
99
112
112
92
106
130
109
122
125
103
118
120
98
113
111
87
105
118
95
112
125
102
118
144
122
133
150
128
139
147
125
137
137
115
128
135
112
126
153
132
140
147
125
133
113
92
103
101
81
94
89
70
85
94
76
88
116
105
109
106
106
104
106
109
106
108
110
108
108
110
108
109
111
109
110
112
109
107
109
106
255
255
255
255
255
255
255
255
255
255
255
255
255
255
255
255
255
255
255
255
255
255
255
255
255
255
255
255
255
255
255
255
255
255
255
255
255
255
255
255
255
255
255
255
255
255
255
255
255
255
255
255
255
255
255
255
255
255
255
255
255
255
255
255
255
255
255
255
255
255
255
255
255
255
255
255
255
255
255
255
255
255
255
255
255
255
255
255
255
255
255
255
255
255
255
255
255
255
255
255
255
255
255
255
255
255
255
255
255
255
255
255
255
255
255
255
255
255
255
255
85
91
92
85
90
93
85
90
93
85
90
93
85
90
93
84
89
92
129
124
123
176
155
158
180
158
160
180
158
160
176
154
157
169
147
150
149
127
135
151
128
136
152
130
137
158
135
143
154
133
139
152
131
140
144
122
133
148
128
136
150
130
138
149
129
136
147
127
135
143
123
132
142
123
132
136
116
126
142
121
129
149
130
135
141
122
129
140
119
126
117
98
107
117
98
108
131
110
121
121
99
112
122
102
114
125
106
116
132
111
122
133
112
122
128
107
119
128
107
120
125
103
117
134
113
125
149
128
137
146
125
134
144
123
134
141
119
130
148
126
136
152
131
139
134
114
123
98
78
90
93
73
86
86
68
81
103
88
96
108
108
107
102
104
103
104
106
104
104
106
103
104
106
103
105
107
104
102
106
103
255
255
255
255
255
255
255
255
255
255
255
255
255
255
255
255
255
255
255
255
255
255
255
255
255
255
255
255
255
255
255
255
255
255
255
255
255
255
255
255
255
255
255
255
255
255
255
255
255
255
255
255
255
255
255
255
255
255
255
255
255
255
255
255
255
255
255
255
255
255
255
255
255
255
255
255
255
255
255
255
255
255
255
255
255
255
255
255
255
255
255
255
255
255
255
255
255
255
255
255
255
255
255
255
255
255
255
255
255
255
255
255
255
255
255
255
255
255
255
255
85
90
93
84
89
92
83
88
91
83
88
91
82
87
91
80
86
88
155
141
139
169
147
148
170
147
150
162
139
144
171
150
152
163
141
144
154
132
138
142
119
129
137
114
125
153
130
138
141
119
129
156
133
142
143
121
131
146
124
135
150
128
136
140
120
127
139
118
126
141
121
128
140
120
126
133
114
122
141
122
130
143
124
131
140
122
129
128
108
116
119
100
111
123
104
115
127
108
116
132
111
122
125
104
116
131
111
121
139
119
126
137
117
126
129
110
120
125
105
117
124
102
116
133
111
124
136
113
125
146
125
134
145
123
133
144
123
133
149
128
137
140
119
128
141
120
130
119
98
110
104
84
95
94
75
88
91
73
85
124
117
119
97
101
99
98
101
98
100
102
100
101
103
100
102
104
101
101
103
100
255
255
255
255
255
255
255
255
255
255
255
255
255
255
255
255
255
255
255
255
255
255
255
255
255
255
255
255
255
255
255
255
255
255
255
255
255
255
255
255
255
255
255
255
255
255
255
255
255
255
255
255
255
255
255
255
255
255
255
255
255
255
255
255
255
255
255
255
255
255
255
255
255
255
255
255
255
255
255
255
255
255
255
255
255
255
255
255
255
255
255
255
255
255
255
255
255
255
255
255
255
255
255
255
255
255
255
255
255
255
255
255
255
255
255
255
255
255
255
255
85
90
92
84
90
92
84
89
92
83
88
91
82
87
90
96
96
97
172
152
152
156
136
135
152
131
132
157
135
139
166
144
146
170
148
150
158
136
141
141
118
127
146
124
133
140
117
127
151
128
136
148
125
133
154
133
141
152
132
139
141
120
128
145
125
131
150
129
134
147
127
134
142
123
132
140
119
127
134
114
121
130
109
116
126
105
112
128
108
114
120
102
112
128
109
117
130
110
116
136
116
123
134
114
123
130
112
119
135
116
124
140
121
127
135
115
124
122
102
114
126
105
117
128
106
118
139
116
128
137
115
127
136
115
127
143
121
133
149
126
136
145
124
133
140
120
129
130
109
119
124
104
113
112
92
102
93
73
86
133
119
125
97
99
97
96
99
96
98
101
98
101
103
100
102
104
101
101
103
100
255
255
255
255
255
255
255
255
255
255
255
255
255
255
255
255
255
255
255
255
255
255
255
255
255
255
255
255
255
255
255
255
255
255
255
255
255
255
255
255
255
255
255
255
255
255
255
255
255
255
255
255
255
255
255
255
255
255
255
255
255
255
255
255
255
255
255
255
255
255
255
255
255
255
255
255
255
255
255
255
255
255
255
255
255
255
255
255
255
255
255
255
255
255
255
255
255
255
255
255
255
255
255
255
255
255
255
255
255
255
255
255
255
255
255
255
255
255
255
255
86
92
92
85
91
91
85
90
92
84
89
92
84
88
91
132
123
124
175
153
154
167
145
147
164
142
144
158
136
140
167
145
148
163
141
144
158
136
140
146
124
131
142
119
128
150
128
133
154
131
136
149
127
134
143
123
130
139
118
126
142
122
130
143
123
129
149
128
133
140
120
128
137
119
129
139
122
131
134
114
122
139
118
124
130
108
115
132
111
116
131
111
116
129
110
116
135
115
120
143
123
128
138
117
123
133
113
120
138
119
126
139
120
127
128
108
118
126
107
118
135
115
125
130
108
120
130
109
121
138
117
128
136
116
128
138
117
129
149
127
136
151
130
139
143
122
130
141
120
128
134
113
122
130
110
118
108
88
99
131
113
121
118
113
114
93
98
95
96
99
96
98
100
97
100
102
99
99
101
98
255
255
255
255
255
255
255
255
255
255
255
255
255
255
255
255
255
255
255
255
255
255
255
255
255
255
255
255
255
255
255
255
255
255
255
255
255
255
255
255
255
255
255
255
255
255
255
255
255
255
255
255
255
255
255
255
255
255
255
255
255
255
255
255
255
255
255
255
255
255
255
255
255
255
255
255
255
255
255
255
255
255
255
255
255
255
255
255
255
255
255
255
255
255
255
255
255
255
255
255
255
255
255
255
255
255
255
255
255
255
255
255
255
255
255
255
255
255
255
255
86
92
92
85
91
92
85
90
92
84
90
93
83
88
91
146
133
133
177
153
155
179
154
158
163
140
145
164
141
145
155
133
137
150
128
133
151
130
135
146
124
128
155
132
137
158
136
140
155
134
138
152
131
137
149
129
134
143
122
128
135
114
122
131
112
121
129
109
119
133
114
120
139
119
127
136
119
126
137
118
125
137
117
123
136
115
119
131
112
118
131
112
118
132
114
120
134
115
121
138
120
126
135
117
125
138
119
126
136
117
125
138
118
127
130
109
121
131
111
121
141
121
129
140
119
128
133
112
122
137
115
125
139
118
128
140
118
128
152
130
138
154
131
141
156
133
141
156
134
142
143
122
129
141
120
127
130
109
118
130
110
120
121
112
115
90
93
92
93
96
95
96
98
97
98
100
98
97
99
97
255
255
255
255
255
255
255
255
255
255
255
255
255
255
255
255
255
255
255
255
255
255
255
255
255
255
255
255
255
255
255
255
255
255
255
255
255
255
255
255
255
255
255
255
255
255
255
255
255
255
255
255
255
255
255
255
255
255
255
255
255
255
255
255
255
255
255
255
255
255
255
255
255
255
255
255
255
255
255
255
255
255
255
255
255
255
255
255
255
255
255
255
255
255
255
255
255
255
255
255
255
255
255
255
255
255
255
255
255
255
255
255
255
255
255
255
255
255
255
255
84
90
91
83
89
91
83
88
91
83
88
91
81
88
88
153
137
134
162
141
140
156
134
137
155
133
137
160
135
140
152
129
134
146
123
128
141
119
126
147
125
129
150
128
132
159
138
143
156
136
139
148
127
133
146
125
132
146
125
131
141
121
128
139
120
128
134
115
123
135
115
121
138
118
124
129
112
123
133
115
124
136
116
123
141
121
125
131
113
120
136
116
122
131
113
117
134
116
121
135
118
124
140
120
125
139
118
123
134
115
121
137
118
124
138
118
125
141
120
127
130
110
117
139
119
125
139
119
126
144
123
131
141
120
129
149
127
136
156
133
141
154
131
138
162
139
145
155
133
138
150
127
133
147
126
131
135
114
123
125
104
115
129
116
120
87
91
90
90
94
93
94
96
95
95
98
97
95
97
95
255
255
255
255
255
255
255
255
255
255
255
255
255
255
255
255
255
255
255
255
255
255
255
255
255
255
255
255
255
255
255
255
255
255
255
255
255
255
255
255
255
255
255
255
255
255
255
255
255
255
255
255
255
255
255
255
255
255
255
255
255
255
255
255
255
255
255
255
255
255
255
255
255
255
255
255
255
255
255
255
255
255
255
255
255
255
255
255
255
255
255
255
255
255
255
255
255
255
255
255
255
255
255
255
255
255
255
255
255
255
255
255
255
255
255
255
255
255
255
255
83
88
91
82
88
90
82
88
89
81
87
89
81
85
87
159
142
139
155
134
132
156
135
136
118
97
103
136
114
119
137
116
121
135
114
119
135
112
119
122
101
109
125
105
112
146
125
128
153
132
137
130
113
116
95
82
84
68
60
60
113
99
103
137
117
126
137
118
124
140
119
124
137
117
125
134
117
127
135
116
125
131
111
118
131
112
118
133
114
119
129
111
117
132
112
118
130
112
121
134
113
120
137
117
122
136
117
124
133
114
120
137
117
121
140
119
123
143
123
129
115
99
104
80
69
70
104
90
92
136
118
123
151
129
136
155
134
140
155
133
139
150
127
134
162
139
145
155
133
138
156
133
139
142
119
126
130
107
117
120
98
109
146
129
132
84
88
87
88
92
91
90
94
93
92
95
94
93
95
94
255
255
255
255
255
255
255
255
255
255
255
255
255
255
255
255
255
255
255
255
255
255
255
255
255
255
255
255
255
255
255
255
255
255
255
255
255
255
255
255
255
255
255
255
255
255
255
255
255
255
255
255
255
255
255
255
255
255
255
255
255
255
255
255
255
255
255
255
255
255
255
255
255
255
255
255
255
255
255
255
255
255
255
255
255
255
255
255
255
255
255
255
255
255
255
255
255
255
255
255
255
255
255
255
255
255
255
255
255
255
255
255
255
255
255
255
255
255
255
255
82
88
88
82
87
88
81
87
89
81
86
88
104
102
103
156
137
133
145
124
127
139
118
121
155
134
137
142
119
127
137
115
123
130
107
116
141
119
125
138
117
125
140
120
125
118
104
104
62
53
53
29
27
23
35
32
28
41
37
33
94
83
86
138
118
125
137
119
125
136
116
123
135
116
125
134
116
124
139
119
124
137
117
121
131
111
118
130
110
114
132
114
119
133
114
121
131
112
119
140
119
125
134
114
122
136
117
124
140
120
125
132
112
119
135
115
121
139
117
124
90
79
81
40
37
34
38
36
34
37
35
33
73
64
64
121
105
108
156
135
140
152
130
137
155
133
138
154
132
137
156
133
138
147
125
130
137
115
120
137
115
120
152
133
135
87
89
89
86
90
89
88
92
91
89
93
92
91
93
92
255
255
255
255
255
255
255
255
255
255
255
255
255
255
255
255
255
255
255
255
255
255
255
255
255
255
255
255
255
255
255
255
255
255
255
255
255
255
255
255
255
255
255
255
255
255
255
255
255
255
255
255
255
255
255
255
255
255
255
255
255
255
255
255
255
255
255
255
255
255
255
255
255
255
255
255
255
255
255
255
255
255
255
255
255
255
255
255
255
255
255
255
255
255
255
255
255
255
255
255
255
255
255
255
255
255
255
255
255
255
255
255
255
255
255
255
255
255
255
255
81
86
89
81
86
89
81
86
89
79
85
86
116
111
110
163
143
141
135
115
119
143
121
128
130
107
114
144
120
127
130
107
118
138
116
126
123
106
110
93
82
84
40
35
32
36
34
30
38
36
33
36
33
29
49
44
43
97
86
89
133
117
123
134
117
125
136
117
124
126
107
116
127
107
116
132
113
122
135
115
121
135
115
121
128
110
116
124
105
113
133
113
118
130
111
117
133
113
119
130
111
118
134
113
120
137
118
123
134
115
121
126
107
115
130
110
117
133
113
119
132
116
119
84
75
75
39
36
33
45
42
39
46
44
40
40
38
34
45
41
38
105
91
93
148
128
132
152
130
136
157
135
139
147
126
130
132
112
118
131
110
116
154
134
135
101
100
100
84
88
88
86
90
90
87
90
89
86
90
89
255
255
255
255
255
255
255
255
255
255
255
255
255
255
255
255
255
255
255
255
255
255
255
255
255
255
255
255
255
255
255
255
255
255
255
255
255
255
255
255
255
255
255
255
255
255
255
255
255
255
255
255
255
255
255
255
255
255
255
255
255
255
255
255
255
255
255
255
255
255
255
255
255
255
255
255
255
255
255
255
255
255
255
255
255
255
255
255
255
255
255
255
255
255
255
255
255
255
255
255
255
255
255
255
255
255
255
255
255
255
255
255
255
255
255
255
255
255
255
255
80
85
88
80
85
88
79
84
87
78
83
87
136
127
125
165
144
144
142
120
125
143
121
124
127
104
112
115
93
99
137
114
121
120
102
109
37
34
31
40
38
34
44
41
38
46
42
41
93
84
85
121
105
109
140
121
127
135
115
121
137
115
123
136
115
122
127
107
113
125
106
115
129
110
119
126
106
116
126
107
114
128
110
117
133
115
119
132
114
119
129
110
116
130
113
121
134
115
122
130
111
119
131
110
117
133
114
121
123
104
113
123
102
111
131
111
119
130
112
117
132
111
117
142
121
126
143
125
128
126
110
113
92
84
84
46
44
40
46
45
40
45
44
39
53
48
45
136
117
122
148
126
132
156
134
137
140
119
125
131
111
116
155
136
135
122
116
116
82
86
88
85
89
90
86
90
89
86
89
88
255
255
255
255
255
255
255
255
255
255
255
255
255
255
255
255
255
255
255
255
255
255
255
255
255
255
255
255
255
255
255
255
255
255
255
255
255
255
255
255
255
255
255
255
255
255
255
255
255
255
255
255
255
255
255
255
255
255
255
255
255
255
255
255
255
255
255
255
255
255
255
255
255
255
255
255
255
255
255
255
255
255
255
255
255
255
255
255
255
255
255
255
255
255
255
255
255
255
255
255
255
255
255
255
255
255
255
255
255
255
255
255
255
255
255
255
255
255
255
255
79
84
87
80
85
88
79
84
87
77
83
85
145
131
129
164
144
144
152
131
134
156
134
138
140
118
124
120
98
107
128
105
112
130
112
116
46
41
39
92
82
83
125
108
112
148
128
133
135
114
121
130
110
116
125
105
112
126
106
113
127
104
112
129
108
115
127
107
114
123
102
109
124
105
113
126
108
117
128
109
116
131
113
118
141
121
128
136
116
124
137
117
125
132
112
121
131
111
120
128
108
115
130
111
120
124
104
114
108
89
100
115
95
107
122
102
112
122
103
110
132
113
120
133
112
118
138
118
123
141
120
126
150
128
135
147
129
133
121
108
109
71
64
62
51
49
44
125
108
112
154
132
138
159
138
141
149
128
133
141
121
125
155
136
136
147
133
133
80
85
85
83
87
87
85
89
88
85
88
87
255
255
255
255
255
255
255
255
255
255
255
255
255
255
255
255
255
255
255
255
255
255
255
255
255
255
255
255
255
255
255
255
255
255
255
255
255
255
255
255
255
255
255
255
255
255
255
255
255
255
255
255
255
255
255
255
255
255
255
255
255
255
255
255
255
255
255
255
255
255
255
255
255
255
255
255
255
255
255
255
255
255
255
255
255
255
255
255
255
255
255
255
255
255
255
255
255
255
255
255
255
255
255
255
255
255
255
255
255
255
255
255
255
255
255
255
255
255
255
255
80
84
87
79
84
87
79
84
87
76
82
85
148
134
131
157
137
137
134
113
115
137
115
118
138
115
121
141
118
125
138
116
123
146
125
132
147
127
132
143
121
127
138
115
123
130
109
116
133
111
120
132
112
118
123
102
108
122
102
107
118
96
101
111
93
97
111
93
98
123
102
108
125
105
114
129
110
117
129
111
117
130
110
117
130
111
118
142
122
128
122
108
112
142
123
131
146
125
131
145
124
130
139
119
127
127
107
117
120
100
111
118
97
107
100
85
91
106
88
97
135
115
120
137
116
121
141
120
127
144
123
130
155
133
138
154
133
138
157
136
141
158
136
141
140
121
125
147
127
133
135
114
121
162
140
144
150
130
133
157
137
139
159
139
140
160
143
143
78
82
83
82
86
87
84
88
87
83
86
85
255
255
255
255
255
255
255
255
255
255
255
255
255
255
255
255
255
255
255
255
255
255
255
255
255
255
255
255
255
255
255
255
255
255
255
255
255
255
255
255
255
255
255
255
255
255
255
255
255
255
255
255
255
255
255
255
255
255
255
255
255
255
255
255
255
255
255
255
255
255
255
255
255
255
255
255
255
255
255
255
255
255
255
255
255
255
255
255
255
255
255
255
255
255
255
255
255
255
255
255
255
255
255
255
255
255
255
255
255
255
255
255
255
255
255
255
255
255
255
255
78
83
86
79
84
87
78
83
86
76
82
84
140
125
124
130
110
112
142
120
122
129
107
111
136
113
117
144
122
126
130
108
116
143
121
125
147
127
130
131
111
118
132
111
118
122
101
110
124
103
112
134
113
119
130
109
114
122
103
107
118
99
103
98
82
85
41
37
36
109
94
97
125
106
113
130
111
118
131
112
118
132
113
120
122
104
111
85
76
77
35
32
31
93
83
83
138
120
125
140
121
127
133
113
120
124
104
113
113
95
104
94
81
86
30
27
25
114
96
104
133
113
121
134
113
120
140
118
125
144
123
128
145
123
128
152
130
134
149
126
132
153
131
136
152
129
135
148
126
131
137
115
122
154
132
136
154
133
135
150
129
132
157
136
137
152
133
135
97
95
96
82
87
87
84
88
88
82
86
85
255
255
255
255
255
255
255
255
255
255
255
255
255
255
255
255
255
255
255
255
255
255
255
255
255
255
255
255
255
255
255
255
255
255
255
255
255
255
255
255
255
255
255
255
255
255
255
255
255
255
255
255
255
255
255
255
255
255
255
255
255
255
255
255
255
255
255
255
255
255
255
255
255
255
255
255
255
255
255
255
255
255
255
255
255
255
255
255
255
255
255
255
255
255
255
255
255
255
255
255
255
255
255
255
255
255
255
255
255
255
255
255
255
255
255
255
255
255
255
255
78
83
86
78
83
86
78
83
86
75
81
83
144
129
128
132
114
115
162
141
142
144
122
126
139
117
120
135
113
117
127
106
113
142
122
124
142
122
124
134
114
119
133
113
119
117
97
107
125
103
114
137
116
122
130
110
116
131
112
116
123
104
109
128
108
115
99
87
91
35
31
31
62
55
56
82
72
75
89
78
80
72
64
65
42
36
34
105
81
73
174
128
116
104
80
74
45
39
37
67
59
58
81
72
72
72
63
63
41
37
35
37
32
32
112
98
100
127
106
113
128
108
116
133
112
121
136
113
120
140
118
124
141
119
125
147
126
129
145
124
126
151
128
135
155
133
137
154
133
136
150
128
133
149
127
131
158
137
139
133
112
118
148
126
129
145
125
129
106
103
103
81
85
86
82
86
87
82
85
85
255
255
255
255
255
255
255
255
255
255
255
255
255
255
255
255
255
255
255
255
255
255
255
255
255
255
255
255
255
255
255
255
255
255
255
255
255
255
255
255
255
255
255
255
255
255
255
255
255
255
255
255
255
255
255
255
255
255
255
255
255
255
255
255
255
255
255
255
255
255
255
255
255
255
255
255
255
255
255
255
255
255
255
255
255
255
255
255
255
255
255
255
255
255
255
255
255
255
255
255
255
255
255
255
255
255
255
255
255
255
255
255
255
255
255
255
255
255
255
255
77
82
85
77
82
85
77
82
85
74
80
82
121
107
109
147
128
128
158
136
137
145
123
126
152
130
133
144
121
126
135
112
118
140
118
123
136
115
119
118
98
106
124
103
110
115
93
103
116
94
105
136
116
122
135
115
121
128
108
113
128
108
113
125
105
111
125
106
113
102
89
91
117
90
83
163
118
106
167
121
109
183
133
121
203
149
135
213
150
134
208
144
130
212
151
136
205
150
136
175
139
124
157
142
124
166
123
111
125
97
89
105
91
95
126
106
114
126
105
112
81
87
62
84
89
65
87
92
67
90
96
70
92
98
71
93
99
72
96
102
74
98
104
76
100
106
77
102
109
79
100
106
77
99
105
77
101
107
78
102
109
79
100
109
77
96
106
76
75
80
58
56
61
43
57
63
44
57
62
43
171
179
150
170
179
150
170
179
150
170
179
150
171
180
150
170
179
150
170
179
150
171
180
150
170
179
150
171
180
150
171
180
150
172
179
151
171
180
151
170
180
150
171
180
150
171
180
150
171
180
150
170
179
150
171
180
150
172
180
149
171
180
151
171
180
151
171
180
151
171
180
151
171
180
151
171
180
151
171
180
151
171
180
151
171
180
151
172
180
149
173
180
151
172
180
151
171
180
151
172
180
151
172
180
151
171
180
151
174
180
152
173
180
152
173
180
151
173
180
151
76
81
84
76
81
84
76
81
84
73
77
80
150
135
133
160
140
139
146
124
126
155
133
136
161
139
141
142
120
124
139
117
122
146
124
127
119
97
105
97
75
88
128
107
116
115
93
104
117
95
106
121
100
110
141
121
129
140
119
124
135
113
118
136
116
122
134
117
123
119
102
106
147
109
99
208
144
129
210
145
130
215
151
136
214
150
135
213
150
136
213
148
133
212
149
133
212
149
133
216
160
142
213
179
159
211
146
131
146
107
96
108
93
98
122
102
110
126
105
112
83
88
64
85
90
65
85
90
66
87
93
68
90
96
70
92
98
72
94
100
73
96
101
74
98
104
76
100
106
78
100
106
77
98
104
76
93
100
73
107
114
82
106
113
81
101
110
79
76
83
60
55
60
43
56
61
44
55
61
43
171
180
151
170
179
150
170
179
150
171
180
151
171
180
151
171
180
151
171
180
151
171
180
151
171
180
151
171
180
151
171
180
151
171
180
151
171
180
151
171
180
151
171
180
151
171
180
150
171
180
151
171
180
151
171
180
151
171
180
151
171
180
151
171
180
151
171
180
151
171
180
151
171
180
151
171
180
151
171
180
151
172
181
151
172
181
151
172
181
150
172
181
152
172
180
152
172
181
151
173
180
149
172
180
151
173
180
152
174
180
152
174
180
152
174
180
152
174
180
152
74
79
82
74
79
82
75
80
83
73
77
79
169
152
149
163
143
142
148
127
128
162
141
142
155
134
136
139
119
122
143
123
125
153
132
134
110
89
98
99
77
90
122
101
111
124
101
112
135
112
122
133
112
120
120
99
109
135
113
119
137
114
120
133
113
118
135
117
120
129
110
115
117
90
83
210
148
132
209
146
130
209
145
129
210
146
130
209
147
132
211
148
132
211
149
132
211
149
132
217
152
136
221
156
141
213
148
133
117
89
82
120
102
111
123
102
111
126
105
113
80
85
61
82
87
64
89
95
69
90
95
69
86
92
67
93
99
72
94
100
73
94
100
73
96
102
75
96
102
75
98
104
76
94
100
73
96
105
76
100
107
77
111
117
86
105
114
81
75
82
59
54
58
42
54
59
43
53
58
41
171
180
151
171
180
150
170
179
150
170
179
150
171
180
151
171
180
151
171
180
151
171
180
151
171
180
151
171
180
151
171
180
151
171
180
151
171
180
150
170
179
150
170
179
150
171
180
149
171
180
151
171
180
151
171
180
151
171
180
151
171
180
151
171
180
151
171
180
151
171
180
151
171
180
151
171
180
151
171
180
151
171
180
150
172
181
150
172
181
150
172
180
151
173
180
152
173
180
152
173
179
151
172
179
151
173
180
152
171
180
151
171
180
151
174
180
152
172
180
152
73
78
81
73
78
81
73
78
81
86
87
89
172
154
150
154
134
135
152
131
133
155
133
134
138
117
119
142
121
125
142
120
124
146
124
128
132
110
118
131
110
117
115
93
104
106
83
97
115
93
106
124
102
112
112
91
102
139
117
123
143
121
126
137
117
122
132
114
118
137
116
122
83
71
70
205
147
130
208
144
128
203
138
122
200
135
119
197
135
120
198
135
120
203
139
123
205
143
126
205
142
125
205
140
124
200
142
128
67
56
57
123
104
112
113
93
102
122
101
111
77
82
59
81
86
62
87
92
67
91
96
70
88
94
68
93
98
72
93
98
72
94
99
73
94
100
73
95
101
74
97
105
76
101
107
78
96
103
75
101
108
79
109
117
85
107
115
83
80
87
63
53
57
41
53
58
41
52
57
41
170
179
150
170
179
149
170
179
150
171
180
151
170
179
150
171
180
151
171
180
151
171
180
151
171
180
149
170
179
150
171
180
149
170
179
150
170
179
150
170
179
150
171
180
151
170
179
150
170
179
150
170
179
150
171
180
151
171
180
150
171
180
151
171
180
151
171
180
150
171
180
151
171
180
151
171
180
151
171
180
151
171
180
150
171
180
149
171
180
150
171
180
151
173
179
151
173
179
151
173
180
151
171
180
152
171
180
151
171
180
151
173
180
152
174
180
152
174
180
152
72
77
80
72
77
80
72
77
80
94
94
95
153
135
135
144
124
127
155
133
135
148
126
129
143
121
124
142
120
124
143
120
126
148
125
131
152
130
135
157
135
139
119
97
108
103
81
95
103
82
95
110
88
99
120
99
108
136
116
121
142
121
127
136
114
120
132
112
118
131
111
116
111
97
97
153
114
102
209
147
130
211
147
130
211
148
131
212
149
134
212
150
133
210
147
130
212
149
133
213
151
134
211
148
131
150
112
101
103
87
94
119
99
108
121
101
110
123
103
111
76
80
59
85
90
66
88
93
68
92
97
71
94
99
73
90
96
70
90
96
70
89
94
69
93
99
72
93
98
72
95
102
74
97
106
77
96
105
76
100
108
78
106
115
83
107
117
85
83
91
65
51
56
40
52
57
41
50
55
40
170
179
150
170
179
150
170
179
150
170
179
150
170
179
150
170
179
150
170
179
150
170
179
149
170
179
150
170
179
150
170
179
150
170
179
149
170
179
148
170
179
149
170
179
150
170
179
150
170
179
150
170
179
150
170
179
150
171
180
149
171
180
149
171
180
150
171
180
150
171
180
149
171
180
149
171
180
150
171
180
150
171
180
149
171
180
149
171
180
150
171
180
150
172
179
151
173
179
151
172
179
151
171
180
151
171
180
149
171
180
150
173
179
151
174
180
152
173
180
150
71
76
79
71
76
79
71
76
79
102
99
100
130
112
115
135
114
118
160
139
140
155
133
135
146
124
126
148
126
129
144
122
125
147
124
130
153
131
137
140
118
125
123
102
112
113
92
103
138
116
123
134
113
120
132
112
118
136
116
122
136
115
122
138
117
124
132
111
118
133
113
119
134
113
117
82
70
71
172
127
114
209
146
130
212
148
131
210
148
131
210
146
129
210
145
129
208
145
129
207
145
129
164
119
106
77
67
69
122
103
111
121
101
109
125
105
113
129
109
117
77
82
59
78
82
60
88
93
68
87
92
67
92
97
71
89
95
69
91
97
71
86
92
67
94
100
73
95
101
74
95
101
74
98
104
76
100
106
78
95
102
74
102
112
81
103
113
82
86
95
68
50
55
40
51
56
40
49
54
39
170
179
150
170
179
150
169
178
149
170
179
150
169
178
149
169
178
149
170
179
149
170
179
149
170
179
149
169
178
148
169
178
149
170
179
150
169
178
147
170
179
148
170
179
149
170
179
150
170
179
150
170
179
150
170
179
150
170
179
149
170
179
150
170
179
150
170
179
150
171
180
149
171
180
149
170
179
148
171
180
149
171
180
149
171
180
149
171
179
150
172
179
151
171
179
151
172
179
151
171
179
151
171
180
151
172
179
151
173
179
151
173
179
151
173
179
151
173
179
151
70
75
79
70
75
79
69
74
78
125
116
116
116
95
100
143
122
124
158
136
138
155
134
136
150
129
132
152
131
134
154
133
135
154
132
136
150
128
133
143
122
129
124
102
112
135
113
121
146
123
130
139
117
122
135
115
121
136
114
122
135
115
121
134
114
120
134
114
120
126
105
113
136
115
121
129
110
116
73
62
64
117
87
79
170
120
105
190
137
122
190
136
121
194
139
124
176
128
114
124
93
84
87
77
81
130
111
119
122
102
110
128
107
115
132
112
121
115
94
104
83
88
64
68
72
52
77
82
60
84
90
66
87
92
67
88
94
69
88
94
69
91
96
71
90
96
70
94
99
73
97
103
75
97
103
76
94
100
73
96
104
75
95
103
74
93
102
74
85
93
67
49
54
39
49
54
39
47
52
37
170
179
148
169
178
149
169
178
149
170
179
149
169
178
148
169
178
148
169
178
149
169
178
148
169
178
148
169
178
149
169
178
149
169
178
149
169
178
149
169
178
149
170
179
149
170
179
150
169
178
149
169
178
149
169
178
149
170
179
149
170
179
150
170
179
150
170
179
150
170
179
148
170
179
148
171
179
148
171
179
148
170
179
148
170
179
150
170
179
150
171
179
149
172
179
149
171
180
150
170
179
150
170
180
150
172
179
151
173
179
151
173
179
151
172
179
151
173
179
151
69
74
78
69
74
78
68
73
77
136
124
124
127
107
110
156
135
135
137
115
119
152
131
132
150
129
132
151
130
132
151
129
131
157
136
137
147
125
130
140
120
124
136
115
120
130
110
116
130
107
114
136
114
119
139
117
124
137
115
122
133
112
118
134
113
120
133
113
120
133
113
120
133
112
118
127
107
115
123
104
113
120
103
111
108
94
98
91
78
82
83
71
73
90
78
81
104
90
94
120
103
110
123
104
113
135
115
124
125
104
114
120
99
108
129
110
117
126
106
114
86
91
66
80
85
62
80
85
62
86
91
67
83
88
64
86
91
67
86
91
67
89
94
69
87
92
68
92
97
71
95
101
74
90
98
71
91
99
72
89
97
70
83
91
65
87
96
69
79
86
62
47
52
37
48
52
38
47
51
36
169
178
147
169
178
147
169
178
147
169
178
148
169
178
149
169
178
149
169
178
149
169
178
149
169
178
148
168
177
148
168
177
148
169
178
149
169
178
149
169
178
149
169
179
149
169
178
149
169
178
149
169
178
149
169
178
149
170
179
150
169
178
149
170
179
150
170
179
149
170
179
148
170
179
148
172
179
148
171
179
148
170
179
148
170
179
149
170
179
149
170
179
149
172
179
150
171
179
150
172
178
150
172
179
151
171
179
150
173
179
151
173
179
151
173
179
151
173
179
151
68
73
77
68
73
77
67
71
75
137
122
124
152
131
132
158
136
137
106
84
92
157
136
138
158
137
139
158
136
138
153
131
133
150
129
131
143
121
124
137
115
119
128
106
113
123
103
110
131
109
116
134
112
118
135
115
120
137
117
123
140
119
124
137
117
123
136
115
122
136
116
122
140
119
124
134
114
120
117
97
107
123
103
112
128
108
114
131
111
118
127
108
114
131
111
118
122
102
110
124
104
112
125
104
113
133
113
120
131
110
117
124
104
110
123
102
109
124
104
110
85
91
66
88
94
69
87
92
68
86
91
67
92
97
72
87
92
68
80
84
62
84
90
66
85
90
66
86
91
67
90
95
70
88
95
69
89
98
71
83
91
66
81
88
63
85
92
66
76
83
59
47
51
36
47
52
37
46
50
36
169
178
148
169
178
147
168
177
147
168
177
148
168
177
148
168
177
148
168
177
148
168
177
148
168
177
148
168
177
148
168
177
148
168
177
148
169
178
149
169
178
149
168
177
148
168
177
148
168
177
148
169
178
148
169
178
149
169
178
148
169
178
149
169
178
149
169
178
149
170
179
148
170
179
148
170
179
148
171
179
148
171
179
148
170
179
150
170
179
149
171
179
148
172
178
149
172
178
150
173
179
151
172
179
150
172
179
150
173
179
151
173
179
151
173
179
151
172
178
150
66
71
75
66
71
75
63
69
72
135
120
121
162
142
140
143
122
125
148
126
130
165
144
143
160
138
138
152
131
133
151
129
131
140
118
121
133
110
115
133
111
116
129
107
112
125
104
111
131
108
116
129
108
114
134
113
120
140
119
126
148
127
131
141
120
125
142
120
126
137
117
123
136
116
122
139
118
122
128
108
114
125
105
113
129
109
115
125
104
111
132
114
119
128
109
116
118
98
106
125
104
112
118
97
105
127
105
112
126
105
112
121
101
108
114
94
101
124
104
111
81
86
63
80
85
62
86
91
67
90
96
70
91
97
71
94
100
73
84
89
65
81
86
63
86
92
67
87
93
68
88
94
69
86
93
68
84
92
67
79
86
63
84
92
66
88
96
69
72
79
56
46
50
35
46
50
36
44
48
35
168
177
148
168
177
148
168
177
148
167
176
147
168
177
148
167
176
147
167
176
147
167
176
147
168
177
148
168
177
148
168
177
148
168
177
147
168
177
148
169
178
149
168
177
148
167
176
147
168
177
147
168
177
147
168
177
148
168
177
148
169
178
147
169
178
148
170
178
147
170
179
148
169
178
148
170
179
149
170
179
149
170
179
148
170
179
148
170
179
148
170
179
149
171
179
150
170
178
150
172
179
150
172
178
150
172
178
150
173
179
151
173
179
151
173
179
151
172
178
150
64
69
73
63
69
73
61
67
70
124
110
111
166
146
143
155
134
135
154
133
135
164
143
141
153
131
133
146
125
127
141
119
121
138
116
119
130
108
111
132
110
115
127
105
111
133
112
118
130
109
116
129
108
114
135
114
119
150
130
133
148
127
130
146
124
129
143
122
127
141
121
125
134
114
119
136
114
119
121
100
107
128
108
115
124
104
111
120
99
106
126
108
113
113
93
101
112
92
99
120
99
104
125
103
108
123
101
105
113
92
98
103
84
90
120
99
104
122
101
108
78
83
61
77
82
60
79
84
62
90
95
70
91
97
71
95
101
74
89
95
69
80
85
62
85
90
66
87
92
68
82
90
66
86
89
67
90
88
68
82
85
64
84
92
67
90
98
71
68
74
54
45
49
35
45
49
35
43
47
34
167
176
147
167
176
147
167
176
147
167
176
147
166
175
146
166
175
146
166
175
146
166
175
146
167
176
147
166
175
146
167
176
147
167
176
146
167
176
147
167
176
147
167
176
147
167
176
147
167
176
147
166
176
147
167
176
147
167
176
147
168
177
148
168
177
148
170
178
147
170
178
147
169
178
149
170
179
150
170
179
150
171
179
148
171
179
148
170
179
149
170
179
150
170
179
150
170
179
150
172
178
150
172
178
150
171
177
149
172
178
150
172
178
150
171
177
149
172
178
150
62
67
73
60
66
70
59
65
69
130
118
115
172
151
148
165
144
143
155
134
136
154
133
134
145
123
125
132
109
112
130
109
110
127
106
107
123
102
104
123
101
105
122
99
105
131
109
115
132
111
116
139
117
122
150
128
132
150
129
132
152
130
133
145
123
127
142
120
125
141
119
124
135
115
120
135
114
119
121
100
107
119
100
105
111
92
98
115
95
100
111
92
99
109
87
94
116
94
99
121
100
103
118
97
99
111
89
93
103
81
86
110
89
93
128
106
108
126
105
110
76
81
59
73
77
57
80
85
62
88
93
69
90
95
70
91
96
71
91
96
71
81
86
63
82
87
64
82
89
66
99
85
70
113
82
74
111
78
76
104
77
74
94
78
69
96
93
74
68
74
54
44
47
35
44
48
35
42
46
34
166
174
145
164
173
143
163
171
141
163
171
142
163
172
142
163
172
143
163
172
143
164
173
144
164
173
144
164
173
143
164
172
143
164
173
143
164
173
144
165
173
144
164
172
143
164
172
142
162
171
141
162
171
140
162
170
140
164
172
141
164
172
141
165
174
144
168
177
147
169
178
147
169
178
148
169
178
149
170
179
149
171
178
147
171
178
147
170
179
149
170
179
149
170
178
148
170
179
148
171
178
149
172
178
150
172
178
150
172
178
150
172
178
150
172
178
150
172
178
150
59
64
70
60
65
69
59
63
68
122
113
111
173
153
149
165
143
143
147
126
127
143
123
124
134
114
115
124
103
105
125
103
105
124
103
104
126
104
106
127
105
108
130
108
113
139
118
122
139
117
123
145
125
128
151
131
133
143
123
126
143
122
124
143
121
124
140
118
123
141
119
124
142
122
125
134
114
117
124
103
108
122
102
107
104
83
89
117
96
100
101
79
85
108
86
90
117
94
97
110
87
90
105
82
86
102
79
82
110
88
91
116
94
96
115
94
96
119
98
101
71
75
55
77
82
60
80
85
63
87
92
68
88
93
68
88
93
69
91
96
71
85
90
67
72
78
57
97
81
69
108
74
71
105
73
74
93
68
73
71
57
64
68
53
61
99
81
79
58
62
46
43
46
34
43
47
34
41
44
32
186
187
141
228
222
144
240
231
148
240
230
143
236
227
141
227
221
140
211
209
142
201
202
142
201
202
142
201
201
139
208
206
132
227
222
131
233
226
131
235
227
133
238
231
134
242
234
134
246
235
132
247
236
135
245
235
140
239
229
139
246
236
147
233
225
145
178
182
141
168
176
146
169
178
148
169
178
149
169
179
148
170
178
147
170
178
147
169
178
149
169
178
148
169
178
147
169
178
147
171
178
149
172
178
150
171
178
150
172
178
150
172
178
150
171
177
149
171
177
149
56
61
65
56
61
65
54
59
63
118
109
107
170
150
145
157
134
134
144
123
124
136
115
116
127
105
107
117
94
97
124
101
102
127
105
107
131
110
112
133
112
115
137
115
120
143
120
125
143
123
127
140
120
122
142
122
125
136
115
118
137
116
117
134
112
114
132
111
114
137
115
118
140
119
122
135
114
117
131
110
114
121
101
106
113
92
96
111
90
92
101
79
82
110
87
89
107
82
85
99
75
78
107
82
85
108
84
86
113
89
92
109
87
90
117
96
99
114
92
96
75
79
58
79
84
61
74
78
57
79
83
61
82
87
64
86
91
67
88
93
69
92
97
71
78
71
57
106
76
71
101
72
73
79
60
65
60
48
54
60
49
56
86
65
72
94
72
75
41
44
33
41
45
33
42
45
33
45
45
28
248
233
130
251
235
121
248
233
128
235
216
120
231
209
117
220
202
129
207
193
133
206
194
133
215
201
120
216
198
112
212
196
119
206
191
128
202
187
125
206
191
129
214
200
126
235
217
116
246
225
99
247
227
104
250
232
113
250
232
115
250
231
116
246
227
120
212
203
136
167
176
145
169
178
149
169
178
148
169
178
147
169
178
148
169
178
149
169
178
149
169
178
149
169
178
147
170
178
147
170
177
148
172
178
150
170
178
149
171
177
149
172
178
150
171
177
149
171
177
149
51
56
61
50
55
59
48
53
57
135
123
121
158
137
134
151
129
128
142
121
121
132
110
112
126
104
106
117
95
98
125
101
104
134
111
112
135
113
115
133
111
114
136
113
117
132
111
113
132
112
114
133
112
114
126
104
107
123
101
105
125
103
105
122
100
103
124
102
104
129
107
109
130
109
112
128
107
109
131
110
112
115
94
99
112
89
91
109
86
86
107
81
83
99
74
74
94
69
71
104
79
81
108
83
85
114
90
90
116
93
93
110
87
91
112
91
94
110
88
92
70
74
55
67
71
53
73
77
57
75
80
58
82
87
64
83
88
65
89
95
69
90
95
71
86
65
60
93
68
69
81
63
65
82
62
66
88
62
68
55
40
48
93
68
76
97
70
75
39
38
30
40
43
31
41
45
32
45
44
27
245
222
114
245
222
100
249
227
107
251
230
108
246
228
113
241
224
115
242
225
113
244
228
112
248
232
117
252
236
115
250
234
108
252
234
102
252
231
94
250
226
82
250
225
84
248
223
83
245
219
77
242
214
78
240
213
79
238
212
83
230
205
91
218
195
97
185
178
132
167
177
146
169
178
149
170
179
148
170
179
149
173
178
152
171
178
151
169
179
149
169
178
149
170
178
147
170
178
147
171
178
148
171
178
149
169
178
149
171
177
149
171
178
149
171
177
149
171
178
149
47
52
57
45
50
54
47
52
56
143
130
128
148
128
127
144
122
123
139
118
117
126
104
106
116
92
94
118
94
96
122
98
98
135
111
109
131
108
108
128
106
108
129
107
109
125
103
105
126
105
107
128
107
110
123
102
105
118
96
99
122
101
104
123
102
104
126
102
105
125
100
103
124
101
104
128
105
107
127
104
107
116
93
95
116
92
94
107
81
82
113
85
83
101
75
74
92
67
70
106
81
81
103
78
80
114
91
92
105
81
83
106
83
86
105
81
84
103
78
82
60
64
47
64
68
50
70
75
55
72
76
56
78
83
61
80
85
62
92
98
72
87
88
67
84
60
59
89
65
67
84
63
67
69
56
61
64
51
57
65
48
57
77
59
65
78
59
67
69
53
59
39
36
30
40
37
32
34
29
27
200
176
99
222
194
81
227
199
72
232
204
77
238
211
82
238
210
77
243
215
80
246
219
81
246
219
82
244
216
79
241
210
74
231
199
63
229
194
57
225
190
58
214
179
56
214
179
55
214
180
60
212
180
63
213
182
65
203
175
74
167
146
78
122
102
71
139
121
118
174
167
154
172
177
152
155
149
138
149
136
134
148
126
136
161
144
149
169
157
155
171
172
153
171
178
148
170
178
147
170
178
148
171
177
149
171
177
149
169
178
149
169
178
149
171
177
148
171
178
148
42
47
53
40
46
51
70
79
81
145
132
129
145
125
123
138
117
117
131
107
108
119
95
97
114
90
91
120
96
94
119
92
91
133
108
106
121
95
94
132
108
108
127
103
104
121
98
97
123
99
102
128
106
109
125
104
106
126
104
107
124
102
105
121
100
102
123
102
104
120
99
100
118
95
95
120
96
95
117
93
93
114
89
90
110
84
84
110
83
81
113
84
81
96
70
71
95
70
70
109
83
83
105
80
81
107
82
84
107
83
86
106
82
85
98
74
77
102
77
80
63
67
50
64
69
50
70
76
55
76
81
59
68
73
53
81
89
65
86
94
69
76
78
60
81
59
59
70
54
58
60
48
53
43
34
39
30
21
28
50
37
43
61
48
53
78
60
69
88
69
77
33
26
29
30
25
27
30
24
27
98
74
70
148
127
76
177
153
75
192
163
70
195
165
64
197
165
62
197
166
59
199
166
59
201
169
57
202
168
56
197
165
57
192
163
66
178
151
66
150
124
58
129
103
50
129
105
51
123
100
50
115
93
48
109
90
52
82
65
55
74
55
62
91
69
78
143
122
129
143
121
132
116
97
105
115
94
106
113
91
106
117
94
111
136
113
128
164
143
153
175
155
163
173
164
158
172
179
150
170
178
148
169
178
149
168
177
148
169
178
148
169
178
149
171
177
149
171
178
149
37
42
48
68
75
79
78
88
90
140
126
124
136
115
113
131
110
109
128
103
105
116
92
93
104
79
79
120
95
91
111
84
80
131
107
102
115
88
85
133
108
105
125
98
98
117
92
92
128
106
106
128
107
109
125
105
106
129
106
108
127
105
107
127
106
109
125
103
105
120
98
100
119
95
95
114
89
89
112
86
86
99
73
75
106
78
77
113
84
80
108
79
76
94
68
69
100
73
73
106
79
79
109
82
81
106
80
81
94
70
73
90
67
71
102
78
82
105
81
83
64
70
52
64
70
52
63
69
50
75
82
60
78
85
62
80
88
64
86
94
69
64
67
51
67
52
54
50
41
47
43
34
39
57
40
45
77
55
61
87
65
72
80
62
69
87
68
77
49
38
43
28
23
27
30
24
27
31
25
27
140
115
124
106
81
92
78
56
65
77
61
52
89
72
47
103
84
46
103
84
44
99
80
44
100
81
45
101
82
47
83
67
45
61
46
40
57
40
44
61
43
48
63
45
50
64
46
53
68
48
56
74
53
64
83
61
73
89
68
81
103
79
96
119
95
112
142
120
133
128
105
119
126
104
118
98
76
92
77
59
73
117
93
110
123
99
115
138
115
129
126
103
119
140
118
133
145
134
134
170
178
152
168
178
148
169
178
149
168
177
148
168
177
148
169
178
149
169
177
148
57
64
67
82
92
94
77
88
89
131
117
116
135
114
113
124
103
103
120
96
97
113
89
89
104
80
80
103
77
74
107
79
72
126
99
94
113
87
83
139
114
110
119
93
91
126
103
103
144
122
122
135
114
116
130
109
111
132
110
112
129
108
110
127
105
106
123
99
99
117
93
93
109
84
87
102
77
78
102
76
77
93
65
67
109
80
78
114
84
79
106
76
72
99
71
71
101
74
73
99
71
71
107
79
78
108
81
79
103
78
77
88
64
68
101
77
80
109
84
83
64
71
52
63
68
50
67
73
53
76
82
60
78
85
62
80
88
64
90
99
72
56
59
44
58
47
49
64
50
55
83
59
65
77
55
60
84
61
69
83
65
71
83
65
70
81
64
71
47
37
41
29
24
26
31
25
28
27
22
25
150
126
138
131
105
121
116
90
109
102
80
94
94
72
84
83
62
74
77
57
68
73
55
65
75
57
67
77
57
69
83
63
75
95
72
87
100
77
93
106
83
98
105
82
98
109
85
102
114
90
107
119
95
112
125
101
118
128
103
121
132
107
126
133
109
127
140
117
131
135
113
126
114
92
107
81
61
75
69
52
66
83
63
75
98
77
89
126
106
114
143
121
131
131
108
122
124
102
116
144
138
131
169
180
150
169
178
149
168
177
148
168
178
149
168
178
148
168
178
148
80
90
92
79
89
90
76
87
87
120
109
109
129
108
106
125
101
102
118
94
94
113
88
88
105
81
80
97
71
71
103
74
69
123
94
88
120
93
88
138
111
105
127
101
99
148
124
122
143
121
122
132
110
111
132
112
113
131
111
113
124
102
104
123
99
98
118
93
91
113
86
87
97
71
73
92
66
68
92
65
66
96
67
66
108
77
73
107
75
70
108
77
72
111
81
77
98
69
67
98
69
69
105
76
74
110
82
79
106
80
81
105
80
83
95
68
71
100
73
74
67
73
53
73
79
57
75
83
60
75
83
60
79
87
63
81
89
64
85
94
67
59
65
46
62
59
50
72
53
57
56
43
48
82
58
63
80
61
66
76
61
67
82
64
71
82
64
71
73
58
65
53
41
47
25
20
23
22
18
21
137
113
130
137
114
129
135
111
126
137
113
129
135
110
127
130
105
123
131
106
126
128
104
124
127
103
123
128
104
124
130
105
126
132
107
129
126
100
122
130
104
126
129
103
125
124
100
120
122
98
119
126
101
122
126
101
122
134
110
128
141
117
131
138
114
129
143
119
133
132
109
123
114
92
108
51
39
47
63
48
60
71
53
66
67
50
61
66
48
58
80
60
71
106
84
93
118
97
106
129
111
117
173
181
153
170
181
149
170
181
150
170
180
150
170
181
150
170
181
150
79
89
90
78
88
88
77
87
87
82
87
87
112
95
92
115
92
89
112
86
85
109
82
81
104
78
77
98
72
72
97
68
66
116
84
76
121
90
82
135
108
101
135
109
104
150
125
121
136
112
112
126
103
104
131
109
110
129
106
108
125
101
103
120
94
94
114
87
85
99
72
73
93
65
66
100
70
70
95
65
63
96
65
62
107
74
68
109
76
68
113
81
75
110
79
74
103
73
70
108
76
72
113
83
77
108
80
79
100
74
78
95
68
70
106
78
77
107
81
81
70
76
50
80
87
58
94
102
68
90
99
65
89
98
65
93
103
67
81
91
59
66
74
47
71
78
50
64
63
47
74
54
55
77
57
60
75
57
61
82
62
67
75
58
64
67
53
59
72
56
63
67
54
62
43
35
40
23
19
21
146
124
138
137
115
130
138
113
130
139
113
129
141
117
133
139
115
132
143
120
137
132
108
128
126
101
122
129
104
125
129
105
125
130
106
126
126
101
122
125
100
121
126
101
122
124
100
121
124
102
121
128
105
125
132
107
126
135
111
127
142
119
132
141
117
132
139
115
129
137
114
128
130
107
122
109
90
102
36
26
32
50
37
46
55
38
50
59
42
52
64
47
56
68
48
57
96
75
80
111
92
95
180
188
157
180
190
157
181
189
158
180
189
158
181
189
158
181
190
159
78
88
89
77
87
87
77
87
86
76
85
85
102
95
92
115
93
89
105
79
76
104
76
73
104
75
71
99
70
67
94
66
63
102
70
64
114
78
65
129
98
88
144
116
108
141
114
110
134
108
106
129
106
107
128
105
105
122
97
98
114
87
88
115
87
86
107
79
77
101
71
71
95
65
64
99
69
66
104
73
68
105
72
66
106
73
64
113
79
70
116
82
73
113
80
72
110
77
69
115
83
74
110
80
76
99
71
72
90
61
63
94
64
66
108
80
79
97
72
74
67
74
51
81
89
62
89
98
68
88
97
67
87
95
65
90
99
67
63
69
46
63
70
46
62
68
47
65
63
50
66
50
52
62
47
51
68
51
55
76
59
64
58
47
52
65
52
58
59
48
54
57
46
54
68
55
63
46
37
42
144
122
135
136
114
129
135
112
128
143
120
134
137
115
129
144
121
136
147
126
139
141
119
133
130
107
124
132
107
126
132
108
126
135
110
129
123
98
118
117
92
113
119
95
116
118
95
115
126
103
122
127
104
122
133
109
128
138
114
130
142
118
132
143
120
134
135
112
125
126
102
117
128
105
120
136
113
126
91
74
84
31
22
27
29
20
25
46
31
41
52
37
46
59
40
49
72
56
59
142
141
124
184
192
161
183
191
159
184
191
159
183
191
160
183
191
160
182
191
161
78
87
87
77
86
86
76
85
84
75
84
83
73
80
78
96
84
80
92
67
61
94
67
61
100
69
64
101
68
62
100
66
58
101
66
56
105
68
55
121
85
70
150
120
110
136
106
98
139
112
108
128
104
105
111
86
88
98
71
73
111
82
81
108
78
76
104
75
71
95
64
62
96
63
60
106
73
68
114
80
71
109
74
65
110
74
65
117
80
68
119
82
70
118
82
71
118
83
73
113
82
74
104
74
71
102
72
69
102
72
69
92
65
64
96
69
72
87
61
65
64
71
48
78
86
58
89
100
67
89
99
67
89
98
67
67
74
50
49
55
38
45
51
35
50
48
38
57
43
44
56
42
44
53
41
44
53
42
46
55
44
48
55
44
48
63
51
57
55
44
51
60
49
56
70
56
64
71
58
66
138
115
129
143
120
135
141
119
131
145
124
136
141
120
132
145
123
137
139
118
130
139
117
129
146
124
136
142
120
134
124
101
117
127
103
120
115
91
110
114
90
111
115
92
112
120
96
115
122
99
118
127
103
122
125
100
119
128
104
122
138
115
129
143
120
133
136
114
128
122
99
116
120
98
113
131
108
121
126
105
115
65
50
59
41
30
38
28
19
26
119
118
106
167
173
149
179
188
159
181
190
160
179
189
159
180
190
159
179
189
158
177
187
157
177
186
157
176
186
157
80
86
84
77
84
82
74
84
80
72
81
78
71
80
76
66
72
70
89
75
69
95
67
59
97
64
55
99
63
50
95
59
43
81
49
37
60
35
25
64
40
28
124
93
81
141
106
92
132
102
95
98
65
64
96
63
62
93
62
60
96
66
62
102
71
68
103
72
71
102
71
68
110
76
69
112
77
69
115
78
68
116
79
67
116
76
63
116
75
59
116
74
58
119
81
68
115
82
72
110
80
74
101
72
69
95
66
65
91
64
65
76
52
56
88
62
66
92
65
66
31
36
31
35
39
36
35
39
36
40
45
43
36
40
38
2
3
2
2
2
2
2
2
2
6
4
4
23
18
19
38
30
31
42
33
36
41
32
36
47
37
41
57
45
51
56
46
52
62
50
57
72
58
65
74
59
66
72
58
65
147
124
136
142
119
131
142
120
132
149
127
139
141
119
132
136
115
127
134
112
124
141
121
131
154
134
141
139
120
130
136
114
128
126
103
120
113
90
108
111
88
106
116
92
110
124
101
117
117
96
113
120
96
115
123
98
117
120
95
114
128
104
119
147
123
136
143
121
134
135
112
127
121
97
115
131
109
123
134
113
121
93
75
86
62
47
58
58
44
55
93
80
85
133
125
121
91
99
91
89
100
92
88
99
92
88
97
91
87
97
92
87
97
92
88
97
93
87
96
93
76
82
80
74
80
79
74
79
80
71
78
77
65
71
69
57
61
58
76
64
53
99
61
41
70
45
34
57
34
24
35
19
13
19
6
3
16
5
3
12
3
2
13
5
5
106
76
62
118
80
63
105
67
56
101
65
59
100
66
61
102
69
64
102
70
65
107
75
72
115
84
82
117
87
82
111
77
68
116
78
61
103
64
45
96
57
39
91
54
35
92
55
36
99
60
43
110
72
56
115
81
70
108
77
72
105
76
74
110
79
74
114
82
75
119
85
75
124
85
71
30
34
35
30
34
34
30
34
33
31
35
34
17
19
19
8
10
9
11
12
12
18
16
16
32
24
25
37
28
29
38
29
31
42
33
35
44
35
38
49
40
43
57
46
51
65
52
58
75
61
66
77
62
67
79
64
69
77
62
69
148
125
137
147
124
135
146
124
136
151
130
139
147
127
137
134
113
124
139
119
127
146
126
133
141
123
130
139
119
130
130
109
122
130
108
123
127
105
120
119
97
111
116
94
109
118
96
112
115
92
111
114
91
111
117
94
113
121
96
115
126
103
118
150
127
139
147
124
136
146
123
135
136
113
128
138
115
129
152
129
138
126
105
114
80
62
73
75
58
72
94
76
88
77
61
71
104
103
103
86
93
94
87
93
95
88
94
95
90
95
96
90
95
96
90
96
97
90
95
96
72
78
78
70
76
76
70
75
76
66
71
72
57
62
62
53
55
53
128
80
43
121
61
8
95
44
3
72
32
4
63
27
3
68
32
8
65
30
6
64
30
7
50
20
2
59
41
36
125
94
85
116
80
69
101
65
55
106
72
61
97
66
58
88
60
55
89
61
58
105
71
64
117
84
75
87
58
50
49
30
22
11
4
3
12
5
4
10
4
3
9
4
2
10
4
3
29
18
13
57
34
24
90
62
51
113
81
71
89
64
59
64
44
45
58
38
41
62
42
43
20
22
22
21
22
23
27
29
30
13
14
15
14
15
15
17
18
19
18
19
20
38
31
31
41
32
32
45
34
36
58
44
45
55
43
45
58
46
50
60
48
54
69
54
60
72
57
63
74
61
66
75
61
66
75
61
66
78
63
68
146
124
133
146
125
133
152
130
140
144
122
132
147
127
135
142
120
130
145
123
131
148
128
133
144
124
131
150
130
137
125
106
117
127
107
118
136
115
128
120
99
112
112
92
106
130
109
122
125
103
118
120
98
113
111
87
105
118
95
112
125
102
118
144
122
133
150
128
139
147
125
137
137
115
128
135
112
126
153
132
140
147
125
133
113
92
103
101
81
94
89
70
85
94
76
88
116
105
109
106
106
104
106
109
106
108
110
108
108
110
108
109
111
109
110
112
109
108
110
107
83
87
86
81
84
84
79
83
83
69
73
74
51
55
56
125
89
52
154
87
17
141
74
8
136
67
3
128
62
2
116
54
3
105
48
2
98
44
3
93
41
3
87
38
3
71
31
2
56
24
6
75
47
34
82
56
46
88
57
49
104
73
67
102
71
66
101
72
66
84
59
51
38
21
15
31
10
3
37
13
3
44
17
2
51
21
3
52
22
3
51
21
3
48
20
2
45
17
3
41
15
3
35
11
2
32
14
8
67
48
42
95
69
63
109
80
72
110
83
75
26
28
29
24
25
26
15
16
16
17
18
19
19
20
21
19
20
21
34
30
30
50
39
40
57
44
45
62
48
49
64
49
51
64
50
53
59
47
51
63
50
54
66
53
57
77
61
66
77
63
67
76
62
68
72
59
66
75
61
67
151
130
138
149
129
136
147
127
135
143
123
132
142
123
132
136
116
126
142
121
129
149
130
135
141
122
129
140
119
126
117
98
107
117
98
108
131
110
121
121
99
112
122
102
114
125
106
116
132
111
122
133
112
122
128
107
119
128
107
120
125
103
117
134
113
125
149
128
137
146
125
134
144
123
134
141
119
130
148
126
136
152
131
139
134
114
123
98
78
90
93
73
86
86
68
81
103
88
96
108
108
107
102
104
103
104
106
104
104
106
103
104
106
103
105
107
104
104
108
104
76
78
78
74
77
78
73
76
77
67
69
70
77
68
59
182
116
41
176
102
9
171
97
9
166
90
5
157
82
3
145
71
2
139
67
2
132
64
2
126
59
2
122
56
2
115
52
3
111
50
3
103
47
3
65
27
2
54
29
20
60
38
30
52
32
25
36
13
3
47
18
3
54
21
3
65
28
3
75
33
3
76
33
2
80
34
2
84
36
3
85
37
2
87
37
3
88
38
3
90
38
3
84
36
2
77
33
3
72
31
3
68
29
3
72
31
4
81
36
3
16
18
18
20
22
22
22
24
24
21
23
23
23
24
25
25
26
27
54
45
43
60
48
48
65
50
52
64
50
53
70
54
56
66
52
54
63
50
53
60
48
53
58
47
52
73
58
63
70
57
63
80
63
69
73
59
65
73
59
66
150
129
137
140
120
127
139
118
126
141
121
128
140
120
126
133
114
122
141
122
130
143
124
131
140
122
129
128
108
116
119
100
111
123
104
115
127
108
116
132
111
122
125
104
116
131
111
121
139
119
126
137
117
126
129
110
120
125
105
117
124
102
116
133
111
124
136
113
125
146
125
134
145
123
133
144
123
133
149
128
137
140
119
128
141
120
130
119
98
110
104
84
95
94
75
88
91
73
85
124
117
119
97
101
99
98
101
98
100
102
100
101
103
100
102
104
101
103
105
102
69
73
73
67
71
71
65
69
69
61
64
64
151
107
59
191
115
21
185
106
10
182
103
7
183
105
7
178
100
4
174
96
7
171
93
4
164
87
3
155
80
3
144
71
3
130
63
5
131
63
3
128
61
2
125
59
2
112
50
2
101
44
4
95
41
3
95
41
4
102
45
6
100
43
1
104
46
2
106
46
2
106
47
2
111
50
2
113
51
1
114
52
2
117
54
2
119
56
2
123
60
4
123
60
5
123
58
3
129
63
3
132
65
3
138
71
5
143
78
17
23
26
27
26
28
28
30
31
33
30
32
33
31
33
34
38
36
37
70
56
55
62
51
51
62
50
51
65
52
55
67
53
55
72
55
57
66
52
55
60
48
53
64
52
57
65
53
58
78
62
68
76
60
66
80
64
69
78
62
67
141
121
128
145
125
131
150
129
134
147
127
134
142
123
132
140
119
127
134
114
121
130
109
116
126
105
112
128
108
114
120
102
112
128
109
117
130
110
116
136
116
123
134
114
123
130
112
119
135
116
124
140
121
127
135
115
124
122
102
114
126
105
117
128
106
118
139
116
128
137
115
127
136
115
127
143
121
133
149
126
136
145
124
133
140
120
129
130
109
119
124
104
113
112
92
102
93
73
86
133
119
125
97
99
97
96
99
96
98
101
98
101
103
100
102
104
101
103
105
102
49
53
55
49
53
55
48
52
55
62
57
53
194
129
52
196
120
23
195
116
13
194
115
11
192
114
10
191
112
10
186
106
8
191
112
9
191
111
9
189
109
15
187
110
24
175
99
14
173
98
10
163
89
5
160
85
3
161
86
4
161
86
4
163
89
7
162
91
9
161
91
18
157
85
5
160
86
4
162
87
5
165
89
5
166
90
5
167
90
4
167
91
4
169
94
5
172
97
9
174
96
7
176
97
7
178
97
5
183
104
7
189
111
15
192
115
18
196
122
31
33
37
38
35
37
37
36
38
39
35
37
38
37
39
41
58
48
49
77
60
61
71
56
58
70
56
57
69
55
57
72
56
58
71
56
58
68
54
57
64
51
55
64
50
56
71
57
61
78
63
66
76
61
66
73
60
64
71
57
62
142
122
130
143
123
129
149
128
133
140
120
128
137
119
129
139
122
131
134
114
122
139
118
124
130
108
115
132
111
116
131
111
116
129
110
116
135
115
120
143
123
128
138
117
123
133
113
120
138
119
126
139
120
127
128
108
118
126
107
118
135
115
125
130
108
120
130
109
121
138
117
128
136
116
128
138
117
129
149
127
136
151
130
139
143
122
130
141
120
128
134
113
122
130
110
118
108
88
99
131
113
121
118
113
114
93
98
95
96
99
96
98
100
97
100
102
99
101
103
100
42
46
50
41
45
49
40
45
48
134
97
57
200
126
33
198
121
21
197
119
15
198
119
14
197
119
12
197
118
12
198
118
13
197
116
11
200
118
11
198
115
10
197
115
11
196
115
12
202
121
15
198
117
9
197
116
7
199
117
10
197
114
9
199
116
12
199
117
11
201
120
14
199
118
8
199
117
10
197
116
9
196
116
8
196
116
9
196
116
10
196
116
9
197
117
11
197
116
11
197
117
15
197
116
10
195
114
10
197
116
10
200
121
16
200
120
17
200
120
15
34
39
40
36
39
39
36
39
39
37
39
40
38
40
42
66
55
55
79
60
62
81
61
64
71
57
60
73
57
60
69
55
57
67
53
56
69
55
58
68
54
57
72
57
60
76
61
64
80
64
68
79
64
68
77
63
67
73
59
64
135
115
122
131
112
121
129
109
119
133
114
120
139
119
127
136
119
126
137
118
125
137
117
123
136
115
119
131
112
118
131
112
118
132
114
120
134
115
121
138
120
126
135
117
125
138
119
126
136
117
125
138
118
127
130
109
121
131
111
121
141
121
129
140
119
128
133
112
122
137
115
125
139
118
128
140
118
128
152
130
138
154
131
141
156
133
141
156
134
142
143
122
129
141
120
127
130
109
118
130
110
120
121
112
115
90
93
92
93
96
95
96
98
97
98
100
98
99
101
98
36
41
46
35
40
46
35
37
42
181
124
56
200
124
30
199
121
21
198
121
18
199
120
16
200
121
15
199
121
13
199
121
13
198
117
12
200
118
11
199
118
12
200
119
16
203
122
15
204
123
15
200
119
11
201
119
9
201
118
8
199
116
7
198
116
7
202
120
12
201
120
11
201
121
10
200
118
9
200
119
11
202
121
14
201
120
13
202
121
13
200
119
12
201
120
12
200
120
13
199
121
17
202
120
14
200
119
13
201
120
12
202
125
23
204
123
13
204
123
14
35
40
41
36
38
39
36
39
40
37
40
41
37
40
41
71
60
58
71
58
57
70
56
57
69
56
58
75
58
61
70
56
59
68
54
57
65
52
56
69
56
58
72
58
61
78
63
66
80
66
68
77
63
67
76
62
67
76
61
65
141
121
128
139
120
128
134
115
123
135
115
121
138
118
124
129
112
123
133
115
124
136
116
123
141
121
125
131
113
120
136
116
122
131
113
117
134
116
121
135
118
124
140
120
125
139
118
123
134
115
121
137
118
124
138
118
125
141
120
127
130
110
117
139
119
125
139
119
126
144
123
131
141
120
129
149
127
136
156
133
141
154
131
138
162
139
145
155
133
138
150
127
133
147
126
131
135
114
123
125
104
115
129
116
120
87
91
90
90
94
93
94
96
95
95
98
97
96
98
97
32
37
41
32
37
41
78
62
47
203
136
50
201
126
31
200
122
23
200
122
20
199
121
17
200
121
16
200
121
15
200
121
15
199
118
13
202
120
15
201
120
15
204
125
21
204
123
17
204
123
16
204
122
13
205
123
13
204
120
11
203
119
8
205
123
14
205
123
14
205
125
14
203
125
16
204
125
17
206
125
17
205
125
15
205
125
15
205
126
17
203
125
17
204
123
16
204
125
17
203
125
26
204
125
21
202
123
16
205
124
17
205
127
23
207
127
17
207
127
16
34
39
41
36
39
40
37
39
40
39
42
43
37
39
40
76
64
62
71
58
57
70
56
57
52
42
45
62
50
53
63
51
54
62
50
53
63
51
54
56
46
49
59
48
52
71
58
60
78
63
67
67
55
58
48
39
41
34
29
29
114
99
103
137
117
126
137
118
124
140
119
124
137
117
125
134
117
127
135
116
125
131
111
118
131
112
118
133
114
119
129
111
117
132
112
118
130
112
121
134
113
120
137
117
122
136
117
124
133
114
120
137
117
121
140
119
123
143
123
129
115
99
104
80
69
70
104
90
92
136
118
123
151
129
136
155
134
140
155
133
139
150
127
134
162
139
145
155
133
138
156
133
139
142
119
126
130
107
117
120
98
109
146
129
132
84
88
87
88
92
91
90
94
93
92
95
94
95
97
96
30
35
39
29
34
38
134
96
52
203
132
41
201
127
34
199
122
25
199
122
21
201
123
20
202
124
19
203
125
19
203
125
17
202
121
15
203
123
16
202
121
16
202
123
22
203
122
19
208
128
20
209
128
16
206
125
13
205
122
10
205
121
8
207
124
13
207
126
16
208
129
19
207
128
18
205
125
17
207
126
18
206
126
15
204
124
14
204
124
15
204
125
16
205
124
15
206
127
17
207
127
26
208
127
19
205
126
18
207
129
18
207
127
19
207
128
19
208
129
20
36
40
41
37
39
40
37
40
40
38
40
41
50
47
47
75
62
60
68
56
57
63
51
53
73
58
60
67
53
57
63
51
56
59
48
52
65
53
57
63
52
56
66
53
56
57
47
48
30
24
24
15
13
11
18
16
14
20
19
16
94
83
86
138
118
125
137
119
125
136
116
123
135
116
125
134
116
124
139
119
124
137
117
121
131
111
118
130
110
114
132
114
119
133
114
121
131
112
119
140
119
125
134
114
122
136
117
124
140
120
125
132
112
119
135
115
121
139
117
124
90
79
81
40
37
34
38
36
34
37
35
33
73
64
64
121
105
108
156
135
140
152
130
137
155
133
138
154
132
137
156
133
138
147
125
130
137
115
120
137
115
120
152
133
135
87
89
89
86
90
89
88
92
91
89
93
92
92
95
94
28
33
37
28
32
36
168
116
55
203
132
40
203
129
35
201
125
29
202
124
26
202
124
23
204
126
22
204
127
20
204
126
18
204
124
17
207
126
19
206
125
24
205
126
26
206
127
24
209
131
22
209
129
18
208
127
15
205
123
10
205
122
11
206
125
15
208
127
15
208
129
16
208
128
17
206
125
15
207
125
15
210
129
19
208
128
18
207
127
18
207
129
19
208
127
18
209
131
19
208
130
25
208
127
19
207
126
16
208
128
16
209
129
17
210
130
20
210
131
22
34
39
41
37
40
41
37
39
41
37
40
41
55
51
50
78
64
62
63
52
54
65
53
56
59
47
50
67
53
57
59
48
54
64
52
58
57
47
49
42
35
37
18
16
15
17
16
14
19
18
16
18
17
15
25
21
21
49
41
43
133
117
123
134
117
125
136
117
124
126
107
116
127
107
116
132
113
122
135
115
121
135
115
121
128
110
116
124
105
113
133
113
118
130
111
117
133
113
119
130
111
118
134
113
120
137
118
123
134
115
121
126
107
115
130
110
117
133
113
119
132
116
119
84
75
75
39
36
33
45
42
39
46
44
40
40
38
34
45
41
38
105
91
93
148
128
132
152
130
136
157
135
139
147
126
130
132
112
118
131
110
116
154
134
135
101
100
100
84
88
88
86
90
90
87
90
89
88
92
91
27
32
37
26
30
34
182
128
60
205
134
40
206
133
39
203
129
33
203
126
28
205
128
26
205
127
21
206
128
22
207
128
22
207
126
20
209
128
21
208
127
20
206
124
23
207
128
24
209
131
24
208
129
20
206
125
13
205
122
9
206
123
9
208
126
14
208
127
15
207
126
12
208
128
16
207
126
14
207
125
14
208
126
16
208
127
16
209
129
18
210
131
20
209
129
19
210
130
19
207
127
20
208
127
17
207
126
14
209
128
16
208
126
15
207
127
16
210
129
19
33
37
39
36
39
40
37
40
41
37
40
41
65
57
55
79
63
63
69
56
59
67
55
57
58
47
50
53
42
45
64
52
56
56
46
49
17
16
14
19
18
16
20
19
18
20
19
18
46
38
40
61
51
53
71
59
63
69
57
61
137
115
123
136
115
122
127
107
113
125
106
115
129
110
119
126
106
116
126
107
114
128
110
117
133
115
119
132
114
119
129
110
116
130
113
121
134
115
122
130
111
119
131
110
117
133
114
121
123
104
113
123
102
111
131
111
119
130
112
117
132
111
117
142
121
126
143
125
128
126
110
113
92
84
84
46
44
40
46
45
40
45
44
39
53
48
45
136
117
122
148
126
132
156
134
137
140
119
125
131
111
116
155
136
135
122
116
116
82
86
88
85
89
90
86
90
89
88
90
89
27
32
38
26
30
35
146
100
48
208
139
48
207
134
39
206
132
35
205
129
30
206
131
29
206
129
25
206
128
22
206
127
22
207
127
22
206
125
20
206
125
18
209
127
24
206
126
24
210
131
26
209
131
23
208
128
19
210
129
18
210
129
19
209
127
17
207
126
14
207
126
12
209
129
17
210
128
17
209
127
15
209
127
16
208
127
15
208
127
14
210
129
18
209
128
17
209
128
17
208
129
19
211
132
22
211
131
21
212
133
22
212
131
20
213
133
21
212
132
20
32
36
39
36
39
40
37
40
41
35
38
39
70
60
59
81
66
65
73
59
61
75
60
62
66
53
57
55
45
49
59
48
51
61
50
52
21
18
17
43
36
37
60
50
52
73
60
63
68
55
60
67
55
59
64
53
56
65
53
57
127
105
112
129
108
115
127
107
114
123
102
109
124
105
113
126
108
117
128
109
116
131
113
118
141
121
128
136
116
124
137
117
125
132
112
121
131
111
120
128
108
115
130
111
120
124
104
114
108
89
100
115
95
107
122
102
112
122
103
110
132
113
120
133
112
118
138
118
123
141
120
126
150
128
135
147
129
133
121
108
109
71
64
62
51
49
44
125
108
112
154
132
138
159
138
141
149
128
133
141
121
125
155
136
136
147
133
133
80
85
85
83
87
87
85
89
88
87
90
89
28
33
39
26
31
36
104
66
35
153
97
35
196
132
49
214
144
54
208
134
35
209
132
32
207
131
28
206
127
23
207
128
26
210
131
25
210
129
25
209
130
25
212
131
27
211
130
26
213
135
30
212
135
29
211
132
24
210
130
22
209
128
20
210
129
21
210
129
17
212
130
18
210
128
16
212
132
21
212
131
21
212
132
23
213
135
23
215
135
22
212
133
20
211
133
20
212
132
19
212
133
25
211
131
21
211
131
20
213
134
23
212
132
21
213
133
22
213
132
22
33
37
40
37
39
40
36
39
40
35
38
39
72
61
59
76
62
61
63
52
53
64
53
54
64
52
55
66
54
57
64
52
56
68
56
60
71
58
61
70
57
61
69
55
60
65
53
57
66
54
59
64
52
56
58
47
50
55
45
48
118
96
102
111
93
97
111
93
98
123
102
108
125
105
114
129
110
117
129
111
117
130
110
117
130
111
118
142
122
128
122
108
112
142
123
131
146
125
131
145
124
130
139
119
127
127
107
117
120
100
111
118
97
107
100
85
91
106
88
97
135
115
120
137
116
121
141
120
127
144
123
130
155
133
138
154
133
138
157
136
141
158
136
141
140
121
125
147
127
133
135
114
121
162
140
144
150
130
133
157
137
139
159
139
140
160
143
143
78
82
83
82
86
87
84
88
87
84
88
87
29
34
38
28
33
38
101
67
39
134
76
15
137
79
11
146
89
21
174
116
44
186
124
43
194
128
41
195
126
42
201
132
47
205
137
49
209
138
47
212
141
50
216
142
48
218
143
45
219
145
44
218
144
41
216
140
36
217
140
35
215
137
32
216
136
28
215
136
27
214
134
25
212
132
21
214
136
25
211
132
21
212
131
21
214
134
24
213
134
23
213
135
24
214
136
26
214
136
28
214
137
31
217
140
35
217
141
40
217
141
37
217
141
38
218
141
39
216
140
38
35
40
42
38
41
42
38
41
42
37
40
41
69
59
58
61
51
52
66
54
55
58
47
49
61
50
52
65
53
54
57
46
50
61
49
52
65
52
54
50
41
44
46
37
40
41
33
36
42
34
37
45
37
39
44
36
38
40
33
34
118
99
104
98
82
85
41
37
36
109
94
97
125
106
113
130
111
118
131
112
118
132
113
120
122
104
111
85
76
77
35
32
31
93
83
83
138
120
125
140
121
127
133
113
120
124
104
113
113
95
104
94
81
86
30
27
25
114
96
104
133
113
121
134
113
120
140
118
125
144
123
128
145
123
128
152
130
134
149
126
132
153
131
136
152
129
135
148
126
131
137
115
122
154
132
136
154
133
135
150
129
132
157
136
137
152
133
135
97
95
96
82
87
87
84
88
88
84
88
87
25
31
35
23
29
34
70
48
34
134
77
8
139
80
0
142
84
1
142
86
4
144
87
7
142
85
6
138
82
5
140
82
7
140
83
5
137
80
1
133
78
0
134
78
0
138
82
2
142
86
7
150
92
16
153
95
19
159
100
27
162
103
26
164
105
25
164
106
24
168
108
27
170
110
29
170
111
31
171
112
31
172
113
33
172
114
35
173
115
35
170
112
34
172
113
35
168
111
34
166
110
36
163
106
31
157
98
21
154
96
16
149
91
7
148
90
6
149
90
6
23
26
27
25
27
28
25
26
27
25
26
27
50
42
42
45
38
39
57
46
46
49
41
42
47
39
40
47
39
40
45
37
40
50
42
42
50
41
42
47
38
41
46
38
41
41
33
37
44
36
40
49
40
42
48
39
42
49
40
42
123
104
109
128
108
115
99
87
91
35
31
31
62
55
56
82
72
75
89
78
80
72
64
65
42
36
34
105
81
73
174
128
116
104
80
74
45
39
37
67
59
58
81
72
72
72
63
63
41
37
35
37
32
32
112
98
100
127
106
113
128
108
115
133
112
120
135
113
120
140
118
124
141
119
124
146
126
129
145
123
126
151
128
135
154
133
137
154
133
136
150
128
133
149
127
131
158
137
139
133
112
118
148
126
129
145
125
129
106
103
103
81
85
85
82
86
87
83
86
86
255
255
255
255
255
255
255
255
255
255
255
255
255
255
255
255
255
255
255
255
255
255
255
255
255
255
255
255
255
255
255
255
255
255
255
255
255
255
255
255
255
255
255
255
255
255
255
255
255
255
255
255
255
255
255
255
255
255
255
255
255
255
255
255
255
255
255
255
255
255
255
255
255
255
255
255
255
255
255
255
255
255
255
255
255
255
255
255
255
255
255
255
255
255
255
255
255
255
255
255
255
255
255
255
255
255
255
255
255
255
255
255
255
255
255
255
255
255
255
255
75
80
83
77
82
85
77
82
85
74
80
82
121
107
109
147
128
128
158
137
138
145
123
126
152
130
133
144
122
127
135
112
118
140
118
123
136
115
119
118
98
106
124
104
110
115
93
104
116
94
105
136
116
122
136
115
121
128
108
113
128
108
113
125
105
111
125
106
113
102
89
91
117
90
83
163
118
106
167
121
109
183
133
121
203
149
135
213
150
134
208
144
130
212
151
136
205
150
136
175
139
124
157
142
124
166
123
111
125
97
89
105
91
95
126
106
114
126
105
112
126
105
114
129
109
116
135
112
119
140
118
122
142
121
125
144
121
127
146
126
128
149
130
132
153
131
134
157
135
137
153
131
134
153
131
134
155
133
137
156
136
138
155
135
136
150
131
132
110
106
105
79
83
83
81
85
86
81
85
85
255
255
255
255
255
255
255
255
255
255
255
255
255
255
255
255
255
255
255
255
255
255
255
255
255
255
255
255
255
255
255
255
255
255
255
255
255
255
255
255
255
255
255
255
255
255
255
255
255
255
255
255
255
255
255
255
255
255
255
255
255
255
255
255
255
255
255
255
255
255
255
255
255
255
255
255
255
255
255
255
255
255
255
255
255
255
255
255
255
255
255
255
255
255
255
255
255
255
255
255
255
255
255
255
255
255
255
255
255
255
255
255
255
255
255
255
255
255
255
255
74
80
83
76
81
84
76
81
84
73
77
80
150
135
133
160
140
139
146
124
126
155
133
136
161
139
141
142
120
124
139
117
122
146
124
127
119
97
105
97
75
88
128
107
116
115
93
104
117
95
106
121
100
110
141
121
129
140
119
124
135
113
118
136
116
122
134
117
123
119
102
106
147
109
99
208
144
129
210
145
130
215
151
136
214
150
135
213
150
136
213
148
133
212
149
133
212
149
133
216
160
142
213
179
159
211
146
131
146
107
96
108
93
98
122
102
110
125
105
112
127
107
115
130
110
116
132
110
116
135
113
119
140
117
123
142
120
125
144
123
127
146
126
128
150
128
131
154
132
135
153
131
134
150
129
133
145
123
129
164
143
143
162
141
141
156
137
137
114
107
107
77
81
82
79
83
84
80
84
84
255
255
255
255
255
255
255
255
255
255
255
255
255
255
255
255
255
255
255
255
255
255
255
255
255
255
255
255
255
255
255
255
255
255
255
255
255
255
255
255
255
255
255
255
255
255
255
255
255
255
255
255
255
255
255
255
255
255
255
255
255
255
255
255
255
255
255
255
255
255
255
255
255
255
255
255
255
255
255
255
255
255
255
255
255
255
255
255
255
255
255
255
255
255
255
255
255
255
255
255
255
255
255
255
255
255
255
255
255
255
255
255
255
255
255
255
255
255
255
255
72
77
80
74
79
82
75
80
83
73
77
79
169
152
149
163
143
142
148
127
128
162
141
142
155
134
136
139
119
122
143
123
125
153
132
134
110
89
98
99
77
90
122
101
111
124
101
112
135
112
122
133
112
120
120
99
109
135
113
119
137
114
120
133
113
118
135
117
120
129
110
115
117
90
83
210
148
132
209
146
130
209
145
129
210
146
130
209
147
132
211
148
132
211
149
132
211
149
132
217
152
136
221
156
141
213
148
133
117
89
82
120
102
111
123
102
111
126
105
113
124
104
112
127
107
115
137
116
123
138
117
123
134
112
119
144
121
127
144
123
128
145
124
127
148
126
129
148
126
129
151
129
132
145
122
128
152
129
135
154
132
136
169
148
147
162
142
142
114
107
107
75
79
80
76
81
81
76
82
82
255
255
255
255
255
255
255
255
255
255
255
255
255
255
255
255
255
255
255
255
255
255
255
255
255
255
255
255
255
255
255
255
255
255
255
255
255
255
255
255
255
255
255
255
255
255
255
255
255
255
255
255
255
255
255
255
255
255
255
255
255
255
255
255
255
255
255
255
255
255
255
255
255
255
255
255
255
255
255
255
255
255
255
255
255
255
255
255
255
255
255
255
255
255
255
255
255
255
255
255
255
255
255
255
255
255
255
255
255
255
255
255
255
255
255
255
255
255
255
255
71
76
79
73
78
81
73
78
81
86
87
89
172
154
150
154
134
135
152
131
133
155
133
134
138
117
119
142
121
125
142
120
124
146
124
128
132
110
118
131
110
117
115
93
104
106
83
97
115
93
106
124
102
112
112
91
102
139
117
123
143
121
126
137
117
122
132
114
118
137
116
122
83
71
70
205
147
130
208
144
128
203
138
122
200
135
119
197
135
120
198
135
120
203
139
123
205
143
126
205
142
125
205
140
124
200
142
128
67
56
57
123
104
112
113
93
102
122
101
111
121
100
110
125
105
112
133
113
119
140
118
125
136
115
122
143
121
127
143
122
127
145
123
128
145
123
126
147
125
128
152
130
134
155
133
138
150
127
133
156
134
137
167
146
146
164
145
144
122
114
113
73
78
79
73
79
80
73
78
81
255
255
255
255
255
255
255
255
255
255
255
255
255
255
255
255
255
255
255
255
255
255
255
255
255
255
255
255
255
255
255
255
255
255
255
255
255
255
255
255
255
255
255
255
255
255
255
255
255
255
255
255
255
255
255
255
255
255
255
255
255
255
255
255
255
255
255
255
255
255
255
255
255
255
255
255
255
255
255
255
255
255
255
255
255
255
255
255
255
255
255
255
255
255
255
255
255
255
255
255
255
255
255
255
255
255
255
255
255
255
255
255
255
255
255
255
255
255
255
255
70
75
78
72
77
80
72
77
80
94
94
95
153
135
135
144
124
127
155
133
135
148
126
129
143
121
124
142
120
124
143
120
126
148
125
131
152
130
135
157
135
139
119
97
108
103
81
95
103
82
95
110
88
99
120
99
108
136
116
121
142
121
127
136
114
120
132
112
118
131
111
116
111
97
97
153
114
102
209
147
130
211
147
130
211
148
131
212
149
134
212
150
133
210
147
130
212
149
133
213
151
134
211
148
131
150
112
101
103
87
94
119
99
108
121
101
110
123
103
111
119
98
107
131
111
117
136
115
120
142
120
126
144
122
128
139
118
123
139
118
124
138
116
122
144
122
127
144
122
127
148
126
131
154
131
137
152
130
134
155
135
138
165
144
145
167
147
146
127
118
117
71
77
78
71
77
79
72
77
80
255
255
255
255
255
255
255
255
255
255
255
255
255
255
255
255
255
255
255
255
255
255
255
255
255
255
255
255
255
255
255
255
255
255
255
255
255
255
255
255
255
255
255
255
255
255
255
255
255
255
255
255
255
255
255
255
255
255
255
255
255
255
255
255
255
255
255
255
255
255
255
255
255
255
255
255
255
255
255
255
255
255
255
255
255
255
255
255
255
255
255
255
255
255
255
255
255
255
255
255
255
255
255
255
255
255
255
255
255
255
255
255
255
255
255
255
255
255
255
255
69
74
77
71
76
79
71
76
79
102
99
100
130
112
115
135
114
118
160
139
140
155
133
135
146
124
126
148
126
129
144
122
125
147
124
130
153
131
137
140
118
125
123
102
112
113
92
103
138
116
123
134
113
120
132
112
118
136
116
122
136
115
122
138
117
124
132
111
118
133
113
119
134
113
117
82
70
71
172
127
114
209
146
130
212
148
131
210
148
131
210
146
129
210
145
129
208
145
129
207
145
129
164
119
106
77
67
69
122
103
111
121
101
109
125
105
113
129
109
116
120
100
108
121
101
108
136
115
121
134
113
118
142
120
126
139
117
122
141
120
124
135
112
118
146
123
128
148
126
129
147
125
129
151
130
133
155
133
136
147
126
130
161
140
142
162
142
142
133
122
121
69
75
77
70
75
78
70
75
78
255
255
255
255
255
255
255
255
255
255
255
255
255
255
255
255
255
255
255
255
255
255
255
255
255
255
255
255
255
255
255
255
255
255
255
255
255
255
255
255
255
255
255
255
255
255
255
255
255
255
255
255
255
255
255
255
255
255
255
255
255
255
255
255
255
255
255
255
255
255
255
255
255
255
255
255
255
255
255
255
255
255
255
255
255
255
255
255
255
255
255
255
255
255
255
255
255
255
255
255
255
255
255
255
255
255
255
255
255
255
255
255
255
255
255
255
255
255
255
255
68
73
77
70
75
79
69
74
78
125
116
116
116
95
100
143
122
124
158
136
138
155
134
136
150
129
132
152
131
134
154
133
135
154
132
136
150
128
133
143
122
129
124
102
112
135
113
121
146
123
130
139
117
122
135
115
121
136
114
122
135
115
121
134
114
120
134
114
120
126
105
113
136
115
121
129
110
116
73
62
64
117
87
79
170
120
105
190
137
122
190
136
121
194
139
124
176
128
114
124
93
84
87
77
81
130
111
119
122
102
110
128
107
115
132
112
121
115
94
104
129
109
116
107
87
98
120
100
108
131
111
116
135
114
120
138
115
120
137
117
119
140
119
123
140
118
122
144
123
126
148
129
130
150
129
131
146
124
127
150
129
131
149
128
131
146
127
128
130
121
119
68
73
75
68
73
76
68
73
74
255
255
255
255
255
255
255
255
255
255
255
255
255
255
255
255
255
255
255
255
255
255
255
255
255
255
255
255
255
255
255
255
255
255
255
255
255
255
255
255
255
255
255
255
255
255
255
255
255
255
255
255
255
255
255
255
255
255
255
255
255
255
255
255
255
255
255
255
255
255
255
255
255
255
255
255
255
255
255
255
255
255
255
255
255
255
255
255
255
255
255
255
255
255
255
255
255
255
255
255
255
255
255
255
255
255
255
255
255
255
255
255
255
255
255
255
255
255
255
255
66
72
76
69
74
78
68
73
77
136
124
124
127
107
110
156
135
135
137
115
119
152
131
132
150
129
132
151
130
132
151
129
131
157
136
137
147
125
130
140
120
124
136
115
120
130
110
116
130
107
114
136
114
119
139
117
124
137
115
122
133
112
118
134
113
120
133
113
120
133
113
120
133
112
118
127
107
115
123
104
113
120
103
111
108
94
98
91
78
82
83
71
73
90
78
81
104
90
94
120
103
110
123
104
113
135
115
124
125
104
114
120
99
108
129
110
117
126
106
114
134
113
119
125
104
112
125
105
112
134
113
119
129
108
115
135
113
119
134
113
117
137
117
119
135
113
117
142
120
124
147
126
127
142
122
124
145
124
126
140
120
123
133
112
116
138
119
121
121
112
111
66
71
73
66
71
74
66
71
74
255
255
255
255
255
255
255
255
255
255
255
255
255
255
255
255
255
255
255
255
255
255
255
255
255
255
255
255
255
255
255
255
255
255
255
255
255
255
255
255
255
255
255
255
255
255
255
255
255
255
255
255
255
255
255
255
255
255
255
255
255
255
255
255
255
255
255
255
255
255
255
255
255
255
255
255
255
255
255
255
255
255
255
255
255
255
255
255
255
255
255
255
255
255
255
255
255
255
255
255
255
255
255
255
255
255
255
255
255
255
255
255
255
255
255
255
255
255
255
255
66
71
75
68
73
77
67
71
75
137
122
124
152
131
132
158
136
137
106
84
92
157
136
138
158
137
139
158
136
138
153
131
133
150
129
131
143
121
124
137
115
119
128
106
113
123
103
110
131
109
116
134
112
118
135
115
120
137
117
123
140
119
124
137
117
123
136
115
122
136
116
122
140
119
124
134
114
120
117
97
107
123
103
112
128
108
114
131
111
118
127
108
114
131
111
118
122
102
110
124
104
112
125
104
113
133
113
120
131
110
117
124
104
110
123
102
109
124
103
110
133
113
120
137
117
123
136
115
120
135
113
119
143
121
127
135
114
119
125
103
109
132
110
114
133
111
114
134
113
115
140
118
120
139
119
120
142
121
122
134
112
114
129
108
111
133
115
116
116
107
107
65
70
73
65
70
73
65
70
73
255
255
255
255
255
255
255
255
255
255
255
255
255
255
255
255
255
255
255
255
255
255
255
255
255
255
255
255
255
255
255
255
255
255
255
255
255
255
255
255
255
255
255
255
255
255
255
255
255
255
255
255
255
255
255
255
255
255
255
255
255
255
255
255
255
255
255
255
255
255
255
255
255
255
255
255
255
255
255
255
255
255
255
255
255
255
255
255
255
255
255
255
255
255
255
255
255
255
255
255
255
255
255
255
255
255
255
255
255
255
255
255
255
255
255
255
255
255
255
255
64
68
73
66
71
75
63
69
72
135
120
121
162
142
140
143
122
125
148
126
130
165
144
143
160
138
138
152
131
133
151
129
131
140
118
121
133
110
115
133
111
116
129
107
112
125
104
111
131
108
116
129
108
114
134
113
120
140
119
126
148
127
131
141
120
125
142
120
126
137
117
123
136
116
122
139
118
122
128
108
114
125
105
113
129
109
115
125
104
111
132
114
119
128
109
116
118
98
106
125
104
112
118
97
105
127
105
112
126
105
112
121
101
108
114
94
101
124
104
110
126
107
113
125
106
113
133
113
119
141
119
124
142
120
126
146
124
128
131
109
114
127
105
110
135
113
117
136
115
116
138
117
118
137
115
117
135
114
115
128
106
109
134
113
115
139
121
120
111
102
103
63
68
71
63
68
71
63
68
72
255
255
255
255
255
255
255
255
255
255
255
255
255
255
255
255
255
255
255
255
255
255
255
255
255
255
255
255
255
255
255
255
255
255
255
255
255
255
255
255
255
255
255
255
255
255
255
255
255
255
255
255
255
255
255
255
255
255
255
255
255
255
255
255
255
255
255
255
255
255
255
255
255
255
255
255
255
255
255
255
255
255
255
255
255
255
255
255
255
255
255
255
255
255
255
255
255
255
255
255
255
255
255
255
255
255
255
255
255
255
255
255
255
255
255
255
255
255
255
255
61
67
71
63
69
73
61
67
70
124
110
111
166
146
143
155
134
135
154
133
135
164
143
141
153
131
133
146
125
127
141
119
121
138
116
119
130
108
111
132
110
115
127
105
111
133
112
118
130
109
116
129
108
114
135
114
119
150
130
133
148
127
130
146
124
129
143
122
127
141
121
125
134
114
119
136
114
119
121
100
107
128
108
115
124
104
111
120
99
106
126
108
113
113
93
101
112
92
99
120
99
104
125
103
108
123
101
105
113
92
98
103
84
90
120
99
104
122
101
107
124
103
110
121
101
110
124
103
112
139
119
124
142
120
126
148
126
130
139
117
120
126
104
109
133
111
114
137
115
115
133
112
113
134
112
114
131
110
111
129
107
110
135
114
116
141
123
123
103
98
98
61
66
70
62
67
70
62
67
70
255
255
255
255
255
255
255
255
255
255
255
255
255
255
255
255
255
255
255
255
255
255
255
255
255
255
255
255
255
255
255
255
255
255
255
255
255
255
255
255
255
255
255
255
255
255
255
255
255
255
255
255
255
255
255
255
255
255
255
255
255
255
255
255
255
255
255
255
255
255
255
255
255
255
255
255
255
255
255
255
255
255
255
255
255
255
255
255
255
255
255
255
255
255
255
255
255
255
255
255
255
255
255
255
255
255
255
255
255
255
255
255
255
255
255
255
255
255
255
255
59
65
70
60
66
70
59
65
69
130
118
115
172
151
148
165
144
143
155
134
136
154
133
134
145
123
125
132
109
112
130
109
110
127
106
107
123
102
104
123
101
105
122
99
105
131
109
115
132
111
116
139
117
122
150
128
132
150
129
132
152
130
133
145
123
127
142
120
125
141
119
124
135
115
120
135
114
119
121
100
107
119
100
105
111
92
98
115
95
100
111
92
99
109
87
94
116
94
99
121
100
103
118
97
99
111
89
93
103
81
86
110
89
93
128
106
108
126
105
110
121
100
108
116
95
105
126
106
112
138
116
122
140
118
123
142
120
123
142
120
123
127
106
109
129
107
109
134
112
112
133
111
113
133
111
112
134
112
114
132
110
112
141
120
120
141
122
121
103
98
98
60
66
69
61
66
69
61
66
69
255
255
255
255
255
255
255
255
255
255
255
255
255
255
255
255
255
255
255
255
255
255
255
255
255
255
255
255
255
255
255
255
255
255
255
255
255
255
255
255
255
255
255
255
255
255
255
255
255
255
255
255
255
255
255
255
255
255
255
255
255
255
255
255
255
255
255
255
255
255
255
255
255
255
255
255
255
255
255
255
255
255
255
255
255
255
255
255
255
255
255
255
255
255
255
255
255
255
255
255
255
255
255
255
255
255
255
255
255
255
255
255
255
255
255
255
255
255
255
255
56
61
67
60
65
69
59
63
68
122
113
111
173
153
149
165
143
143
147
126
127
143
123
124
134
114
115
124
103
105
125
103
105
124
103
104
126
104
106
127
105
108
130
108
113
139
118
122
139
117
123
145
125
128
151
131
133
143
123
126
143
122
124
143
121
124
140
118
123
141
119
124
142
122
125
134
114
117
124
103
108
122
102
107
104
83
89
117
96
100
101
79
85
108
86
90
117
94
97
110
87
90
105
82
86
102
79
82
110
88
91
116
94
96
115
94
96
118
98
101
114
92
98
122
101
106
126
105
110
136
114
118
137
115
118
137
116
118
142
120
122
135
112
114
119
96
97
130
107
109
130
107
109
132
111
111
131
110
112
133
112
113
142
121
121
148
130
126
85
83
85
58
64
68
59
64
68
59
64
68
255
255
255
255
255
255
255
255
255
255
255
255
255
255
255
255
255
255
255
255
255
255
255
255
255
255
255
255
255
255
255
255
255
255
255
255
255
255
255
255
255
255
255
255
255
255
255
255
255
255
255
255
255
255
255
255
255
255
255
255
255
255
255
255
255
255
255
255
255
255
255
255
255
255
255
255
255
255
255
255
255
255
255
255
255
255
255
255
255
255
255
255
255
255
255
255
255
255
255
255
255
255
255
255
255
255
255
255
255
255
255
255
255
255
255
255
255
255
255
255
53
59
63
56
61
65
54
59
63
118
109
107
170
150
145
157
134
134
144
123
124
136
115
116
127
105
107
117
94
97
124
101
102
127
105
107
131
110
112
133
112
115
137
115
120
143
120
125
143
123
127
140
120
122
142
122
125
136
115
118
137
116
117
134
112
114
132
111
114
137
115
118
140
119
122
135
114
117
131
110
114
121
101
106
113
92
96
111
90
92
101
79
82
110
87
89
107
82
85
99
75
78
107
82
85
108
84
86
113
89
92
109
87
90
117
96
99
114
92
96
119
97
102
125
103
108
116
95
99
124
102
105
128
106
108
134
112
115
138
116
117
144
120
119
113
89
89
131
107
107
133
108
109
130
108
107
128
106
107
131
110
111
139
119
119
150
132
129
55
60
64
55
63
67
57
63
67
57
62
66
255
255
255
255
255
255
255
255
255
255
255
255
255
255
255
255
255
255
255
255
255
255
255
255
255
255
255
255
255
255
255
255
255
255
255
255
255
255
255
255
255
255
255
255
255
255
255
255
255
255
255
255
255
255
255
255
255
255
255
255
255
255
255
255
255
255
255
255
255
255
255
255
255
255
255
255
255
255
255
255
255
255
255
255
255
255
255
255
255
255
255
255
255
255
255
255
255
255
255
255
255
255
255
255
255
255
255
255
255
255
255
255
255
255
255
255
255
255
255
255
48
53
58
50
55
59
48
53
57
135
123
121
158
137
134
151
129
128
142
121
121
132
110
112
126
104
106
117
95
98
125
101
104
134
111
112
135
113
115
133
111
114
136
113
117
132
111
113
132
112
114
133
112
114
126
104
107
123
101
105
125
103
105
122
100
103
124
102
104
129
107
109
130
109
112
128
107
109
131
110
112
115
94
99
112
89
91
109
86
86
107
81
83
99
74
74
94
69
71
104
79
81
108
83
85
114
90
90
116
93
93
110
87
91
112
91
94
110
88
91
113
91
95
109
87
92
116
94
98
119
97
100
129
108
109
130
109
110
141
118
116
144
120
116
114
89
88
131
106
103
131
105
103
129
105
104
128
105
105
127
105
107
137
117
117
138
122
121
51
59
63
52
59
64
55
61
66
55
60
65
255
255
255
255
255
255
255
255
255
255
255
255
255
255
255
255
255
255
255
255
255
255
255
255
255
255
255
255
255
255
255
255
255
255
255
255
255
255
255
255
255
255
255
255
255
255
255
255
255
255
255
255
255
255
255
255
255
255
255
255
255
255
255
255
255
255
255
255
255
255
255
255
255
255
255
255
255
255
255
255
255
255
255
255
255
255
255
255
255
255
255
255
255
255
255
255
255
255
255
255
255
255
255
255
255
255
255
255
255
255
255
255
255
255
255
255
255
255
255
255
43
48
54
45
50
54
47
52
56
143
130
128
148
128
127
144
122
123
139
118
117
126
104
106
116
92
94
118
94
96
122
98
98
135
111
109
131
108
108
128
106
108
129
107
109
125
103
105
126
105
107
128
107
110
123
102
105
118
96
99
122
101
104
123
102
104
126
102
105
125
100
103
124
101
104
128
105
107
127
104
107
116
93
95
116
92
94
107
81
82
113
85
83
101
75
74
92
67
70
106
81
81
103
78
80
114
91
92
105
81
83
106
83
86
105
81
84
103
78
82
99
76
80
105
81
85
113
90
92
114
93
94
123
101
103
127
104
103
146
122
119
137
113
108
114
88
84
129
102
98
125
100
96
126
101
97
126
101
100
126
103
103
133
112
111
148
130
123
134
126
110
49
55
60
51
57
63
53
58
63
255
255
255
255
255
255
255
255
255
255
255
255
255
255
255
255
255
255
255
255
255
255
255
255
255
255
255
255
255
255
255
255
255
255
255
255
255
255
255
255
255
255
255
255
255
255
255
255
255
255
255
255
255
255
255
255
255
255
255
255
255
255
255
255
255
255
255
255
255
255
255
255
255
255
255
255
255
255
255
255
255
255
255
255
255
255
255
255
255
255
255
255
255
255
255
255
255
255
255
255
255
255
255
255
255
255
255
255
255
255
255
255
255
255
255
255
255
255
255
255
38
43
50
40
46
51
70
79
81
145
132
129
145
125
123
138
117
117
131
107
108
119
95
97
114
90
91
120
96
94
119
92
91
133
108
106
121
95
94
132
108
108
127
103
104
121
98
97
123
99
102
128
106
109
125
104
106
126
104
107
124
102
105
121
100
102
123
102
104
120
99
100
118
95
95
120
96
95
117
93
93
114
89
90
110
84
84
110
83
81
113
84
81
96
70
71
95
70
70
109
83
83
105
80
81
107
82
84
107
83
86
106
82
85
98
74
77
101
77
80
104
79
82
105
81
83
115
91
91
123
99
98
111
86
89
135
108
106
144
117
112
125
99
95
116
88
84
128
101
95
128
102
97
128
102
99
128
102
99
127
102
101
129
107
107
147
127
118
160
143
117
48
54
58
48
55
61
51
57
63
255
255
255
255
255
255
255
255
255
255
255
255
255
255
255
255
255
255
255
255
255
255
255
255
255
255
255
255
255
255
255
255
255
255
255
255
255
255
255
255
255
255
255
255
255
255
255
255
255
255
255
255
255
255
255
255
255
255
255
255
255
255
255
255
255
255
255
255
255
255
255
255
255
255
255
255
255
255
255
255
255
255
255
255
255
255
255
255
255
255
255
255
255
255
255
255
255
255
255
255
255
255
255
255
255
255
255
255
255
255
255
255
255
255
255
255
255
255
255
255
32
38
44
68
75
79
78
88
90
140
126
124
136
115
113
131
110
109
128
103
105
116
92
93
104
79
79
120
95
91
111
84
80
131
107
102
115
88
85
133
108
105
125
98
98
117
92
92
128
106
106
128
107
109
125
105
106
129
106
108
127
105
107
127
106
109
125
103
105
120
98
100
119
95
95
114
89
89
112
86
86
99
73
75
106
78
77
113
84
80
108
79
76
94
68
69
100
73
73
106
79
79
109
82
81
106
80
81
94
70
73
90
67
71
102
78
82
105
81
83
107
84
84
107
84
84
106
82
83
125
98
98
130
103
100
136
108
102
146
118
110
112
86
81
118
88
81
128
98
91
126
98
93
128
102
98
128
103
99
132
108
105
127
105
102
140
120
115
78
75
70
45
52
57
46
53
59
47
54
60
255
255
255
255
255
255
255
255
255
255
255
255
255
255
255
255
255
255
255
255
255
255
255
255
255
255
255
255
255
255
255
255
255
255
255
255
255
255
255
255
255
255
255
255
255
255
255
255
255
255
255
255
255
255
255
255
255
255
255
255
255
255
255
255
255
255
255
255
255
255
255
255
255
255
255
255
255
255
255
255
255
255
255
255
255
255
255
255
255
255
255
255
255
255
255
255
255
255
255
255
255
255
255
255
255
255
255
255
255
255
255
255
255
255
255
255
255
255
255
255
54
61
65
82
92
94
77
88
89
131
117
116
135
114
113
124
103
103
120
96
97
113
89
89
104
80
80
103
77
74
107
79
72
126
99
94
113
87
83
139
114
110
119
93
91
126
103
103
144
122
122
135
114
116
130
109
111
132
110
112
129
108
110
127
105
106
123
99
99
117
93
93
109
84
87
102
77
78
102
76
77
93
65
67
109
80
78
114
84
79
106
76
72
99
71
71
101
74
73
99
71
71
107
79
78
108
81
79
103
78
77
88
64
68
101
77
80
109
84
83
109
84
84
105
81
82
111
87
89
126
101
98
132
104
98
138
108
100
154
123
112
101
71
65
118
88
79
122
91
83
124
95
88
128
100
96
130
105
100
132
107
103
132
108
104
142
116
102
90
72
56
42
49
55
44
51
57
45
52
58
255
255
255
255
255
255
255
255
255
255
255
255
255
255
255
255
255
255
255
255
255
255
255
255
255
255
255
255
255
255
255
255
255
255
255
255
255
255
255
255
255
255
255
255
255
255
255
255
255
255
255
255
255
255
255
255
255
255
255
255
255
255
255
255
255
255
255
255
255
255
255
255
255
255
255
255
255
255
255
255
255
255
255
255
255
255
255
255
255
255
255
255
255
255
255
255
255
255
255
255
255
255
255
255
255
255
255
255
255
255
255
255
255
255
255
255
255
255
255
255
78
88
90
79
89
90
76
87
87
119
109
109
129
108
106
125
101
102
118
94
94
113
88
88
105
81
80
97
71
71
103
74
69
123
94
88
120
93
88
138
111
105
127
101
99
148
124
122
143
121
122
132
110
111
132
112
113
131
111
113
124
102
104
122
98
98
118
93
91
113
86
87
97
71
73
92
66
68
92
65
66
96
67
66
108
77
73
107
75
70
108
77
72
111
81
77
98
69
67
98
69
69
105
76
74
110
82
79
106
80
81
105
80
83
95
68
71
100
72
74
112
86
85
119
95
95
124
98
98
126
99
95
134
105
97
139
109
99
148
115
101
108
73
63
118
83
72
123
89
77
120
88
78
123
93
86
128
100
95
131
104
99
133
107
103
150
116
90
168
118
59
106
81
57
39
46
52
41
48
54
