P3
# Created by GIMP version 2.10.34 PNM plug-in
200 200
255
166
188
123
167
189
124
167
189
124
167
189
124
167
189
124
167
189
124
167
189
124
167
189
124
167
189
124
167
189
124
167
190
125
166
191
126
166
191
126
167
192
127
167
192
127
167
192
127
168
193
128
168
193
128
167
193
127
167
194
127
166
193
126
166
193
126
166
193
126
167
194
127
167
194
127
167
194
127
166
193
126
167
194
127
167
194
127
168
195
128
167
194
127
167
194
127
168
193
128
168
193
128
168
193
128
168
194
129
168
194
129
169
194
129
169
194
129
170
195
130
169
195
130
169
195
130
169
195
130
170
196
131
169
195
130
171
196
131
171
196
131
171
196
131
171
196
131
171
196
131
171
196
131
172
197
131
172
197
131
173
198
132
173
198
132
173
198
132
176
198
133
175
197
132
175
197
132
176
198
133
176
198
133
177
199
134
177
199
134
176
198
133
176
198
133
177
199
134
177
199
134
177
199
134
177
199
134
177
199
134
177
199
134
177
199
134
177
199
134
178
200
135
178
200
135
178
200
136
178
200
136
177
199
135
177
199
135
178
200
136
178
200
136
178
200
136
177
200
136
177
202
137
177
202
137
177
202
137
177
202
137
177
202
137
179
201
137
180
202
138
180
202
139
180
202
140
180
202
140
181
201
140
182
202
141
182
202
141
182
202
141
182
202
141
182
202
141
182
202
141
182
202
141
182
201
141
183
201
141
183
201
141
181
202
141
181
202
140
181
201
140
182
200
140
181
199
139
180
198
139
180
198
138
180
198
138
180
198
140
180
198
140
180
198
140
179
199
140
178
198
139
179
199
138
179
199
138
179
199
138
178
200
138
178
200
138
178
200
138
178
200
138
178
200
138
178
200
138
178
200
138
178
200
138
180
200
139
179
200
139
179
199
138
179
199
138
179
199
138
179
199
139
178
198
139
178
198
139
177
197
138
177
197
138
177
197
137
177
197
136
177
197
136
176
197
135
175
197
135
174
196
134
174
196
134
174
196
134
174
196
133
173
195
131
173
195
131
174
194
131
174
194
131
173
193
130
172
194
130
172
194
130
171
193
130
172
194
132
172
194
132
172
194
132
172
194
132
172
194
132
169
193
131
168
192
130
168
192
131
168
192
132
169
193
133
170
192
131
170
192
130
170
192
130
170
192
130
170
192
130
169
191
129
168
190
128
168
190
128
168
190
126
168
190
126
167
189
125
166
188
124
167
189
125
167
189
125
166
188
124
166
188
124
167
188
123
167
188
123
167
188
123
167
188
123
167
188
123
166
187
122
165
187
122
165
187
122
164
187
120
164
187
118
164
187
116
165
186
117
164
185
116
164
185
116
163
184
115
163
184
115
163
184
116
163
184
117
162
183
116
166
188
123
167
189
124
167
189
124
167
189
124
167
189
124
168
190
125
167
189
124
167
189
124
167
189
124
168
190
125
167
190
125
166
191
126
167
192
127
168
193
128
168
193
128
168
193
128
169
194
129
169
194
129
168
194
128
167
194
127
167
194
127
167
194
127
167
194
127
168
195
128
169
196
129
168
195
128
168
195
128
168
195
128
168
195
128
168
195
128
168
195
128
168
195
128
169
194
129
169
194
129
169
194
129
169
195
130
169
195
130
169
195
130
170
195
130
170
195
130
169
195
130
169
195
130
170
196
131
170
196
131
170
196
131
171
196
131
171
196
131
172
197
132
172
197
132
172
197
132
173
198
132
172
197
131
173
198
132
173
198
132
174
199
133
174
199
133
176
198
133
177
199
134
177
199
134
177
199
134
176
198
133
177
199
134
178
200
135
178
200
135
178
200
135
177
199
134
178
200
135
178
200
135
178
200
135
178
200
135
178
200
135
177
199
134
178
200
135
178
200
135
178
200
135
178
200
136
178
200
136
178
200
136
178
200
136
178
200
136
179
201
137
179
201
137
178
201
137
177
202
137
177
202
137
178
203
138
177
202
137
177
202
137
180
202
138
180
202
138
181
202
139
181
201
140
182
202
141
182
202
141
183
203
142
183
203
142
183
203
142
183
203
142
183
203
142
183
203
142
183
203
142
183
202
142
184
202
142
184
202
142
184
202
142
183
201
141
182
201
141
183
201
141
182
200
140
181
199
139
181
199
139
182
200
140
181
199
141
181
199
141
181
199
141
180
200
141
180
200
141
179
199
139
179
199
138
180
200
139
179
201
139
179
201
139
179
201
139
179
201
139
179
201
139
179
201
139
179
201
139
179
201
139
180
200
139
180
200
139
180
200
139
180
200
139
180
200
139
179
199
140
179
199
140
180
200
141
178
198
139
178
198
139
178
198
138
177
197
136
177
197
136
176
197
136
175
197
135
175
197
135
174
196
134
174
196
134
174
196
133
174
196
132
173
195
131
174
194
131
174
194
131
174
194
131
172
194
130
172
194
130
172
194
130
172
194
132
172
194
132
172
194
132
172
194
132
172
194
132
169
193
131
169
193
131
169
193
130
169
193
130
169
193
130
170
192
130
170
192
130
170
192
130
170
192
130
170
192
130
169
191
129
168
190
128
168
190
128
168
190
127
168
190
126
167
189
125
167
189
125
167
189
125
167
189
125
167
189
125
167
189
125
168
189
124
168
189
124
168
189
124
167
188
123
167
188
123
166
188
123
165
187
122
165
187
122
165
187
121
164
187
118
164
186
115
164
185
116
164
185
116
164
185
116
163
184
115
163
184
115
163
184
116
163
184
117
163
184
117
166
189
123
166
189
124
167
189
124
167
189
124
168
190
125
168
190
125
167
190
125
167
190
125
168
191
125
168
191
125
168
191
126
168
193
128
167
192
127
168
193
128
168
193
128
169
194
129
169
194
129
169
194
129
169
194
129
169
195
129
169
195
129
169
195
129
169
195
128
168
195
128
169
196
129
169
195
128
169
195
128
169
195
128
169
195
128
169
195
128
169
195
128
169
195
128
169
194
129
170
195
129
170
195
129
169
195
130
169
195
130
170
195
130
170
195
130
170
195
130
170
195
130
170
196
131
170
196
131
170
196
131
170
196
131
171
196
131
171
196
131
172
197
132
172
197
132
173
198
132
174
198
133
173
198
132
173
198
132
174
198
133
174
198
133
175
199
133
176
198
133
177
199
134
177
199
134
178
200
135
178
200
135
178
200
135
178
200
135
178
200
135
179
200
135
178
200
134
179
200
135
179
200
135
178
200
134
179
200
135
179
200
135
179
201
135
179
200
135
179
200
135
179
200
135
178
200
136
178
200
136
179
201
137
179
201
137
178
200
136
179
201
137
179
201
137
179
201
137
178
202
137
178
202
137
179
203
138
178
203
138
178
202
138
181
202
138
181
203
139
182
203
140
183
202
141
184
202
141
184
203
142
183
203
142
183
203
141
183
203
141
183
203
141
183
203
142
183
203
142
184
204
142
184
203
143
185
203
143
184
203
143
185
201
142
186
202
142
184
201
142
183
201
141
184
202
142
183
201
141
183
201
141
182
200
140
182
201
142
182
200
141
181
200
141
180
200
140
181
201
142
180
200
140
180
200
139
181
201
140
180
202
140
180
201
140
180
202
140
180
202
140
181
202
141
180
202
140
179
201
139
179
201
139
181
201
140
180
200
139
180
200
139
180
200
139
181
201
140
181
201
141
180
200
140
180
200
140
179
199
139
178
198
139
178
198
137
177
197
136
177
197
136
176
198
136
176
198
136
175
197
135
174
197
134
174
196
133
174
196
133
174
196
132
173
195
131
174
194
131
174
195
131
174
194
131
172
194
130
172
194
130
172
194
130
172
194
131
171
193
131
171
194
131
171
194
131
171
194
131
169
193
130
169
193
130
169
193
130
169
194
129
169
194
129
169
193
129
169
192
129
169
192
129
170
192
129
170
192
129
170
192
129
169
191
128
168
190
127
168
190
127
168
190
126
167
189
125
167
189
125
167
189
125
167
189
125
167
189
125
167
189
125
167
189
124
168
189
124
168
189
124
167
188
123
167
188
123
166
188
123
165
187
122
165
187
122
165
187
120
164
187
118
163
186
115
164
185
116
164
185
116
163
185
116
163
184
115
163
184
115
163
184
116
163
184
116
163
184
117
165
190
124
165
190
124
166
190
124
168
190
125
168
190
125
167
191
125
166
191
125
166
191
125
167
192
126
167
192
126
168
193
127
168
193
128
168
193
128
168
193
128
168
193
128
169
194
129
170
195
130
170
195
130
170
195
130
170
195
130
170
195
130
170
195
129
169
194
128
170
195
129
171
196
130
171
196
130
171
195
130
170
195
129
171
196
130
170
195
129
170
195
129
170
195
129
170
195
129
170
195
129
170
195
129
170
195
129
170
195
129
171
196
130
171
196
131
171
196
131
171
196
131
171
196
131
171
196
131
171
196
131
171
196
131
172
197
132
172
197
132
172
197
132
173
198
132
173
198
132
173
198
132
174
199
133
174
199
133
176
199
133
176
198
133
176
198
133
177
199
134
177
199
134
177
199
134
178
200
135
179
201
136
178
200
135
178
200
135
179
201
136
180
201
134
180
201
134
180
201
134
180
201
134
179
200
133
180
201
134
180
201
134
180
201
134
180
201
136
180
201
136
180
201
136
179
201
136
179
201
136
179
201
137
179
201
137
179
201
137
179
201
137
179
201
137
179
201
137
179
201
137
180
202
138
180
202
138
180
202
138
180
202
138
182
202
139
183
203
140
183
203
140
182
202
139
183
203
140
183
203
140
183
203
140
183
203
140
183
203
140
183
203
140
184
204
141
184
204
141
184
204
141
184
204
142
184
204
143
184
204
143
184
202
142
184
202
142
184
202
142
184
202
142
184
202
142
184
202
142
184
202
142
184
202
142
182
202
141
182
202
141
182
202
141
181
201
140
182
202
141
182
202
141
182
202
141
182
202
141
181
201
140
182
202
141
182
202
141
182
202
141
182
202
141
181
203
140
180
202
138
180
202
138
181
201
140
181
201
140
181
201
140
181
201
140
181
201
140
181
201
140
180
200
139
179
199
138
179
199
138
178
198
137
178
198
137
178
198
137
177
197
136
176
198
136
176
198
136
176
198
136
175
197
133
174
196
132
174
196
132
174
196
132
173
195
131
173
195
131
173
195
131
173
195
131
173
195
131
172
194
130
172
194
130
171
193
129
172
194
130
171
195
130
170
195
130
170
195
130
169
194
129
169
194
129
169
194
129
169
194
129
168
193
128
168
193
128
168
193
128
168
193
128
170
192
128
170
192
128
170
192
128
170
192
128
169
191
127
168
190
126
168
190
126
168
190
126
167
189
125
167
189
125
167
189
125
167
189
124
167
189
124
166
188
123
167
189
124
167
189
124
166
188
123
166
188
123
165
187
122
165
187
122
165
187
122
164
187
119
164
187
117
163
186
116
163
186
116
163
186
116
163
186
116
162
185
115
162
185
115
163
184
115
163
184
115
163
184
115
166
191
125
166
191
125
166
190
125
169
191
126
169
191
126
168
192
126
167
192
126
168
193
127
168
193
127
168
193
127
168
193
127
168
193
128
169
194
129
169
194
129
169
194
129
170
195
130
170
195
130
170
195
130
171
196
131
171
196
131
171
196
131
171
196
130
171
196
130
171
196
130
171
196
130
171
196
130
171
196
130
171
196
130
171
196
130
171
196
130
171
196
130
170
195
129
171
196
130
171
196
130
171
196
130
171
196
130
170
195
129
170
195
130
171
196
131
171
196
131
172
197
132
171
196
131
171
196
131
172
197
132
172
197
132
172
197
132
173
198
133
174
199
134
174
199
133
174
199
133
174
199
133
174
199
133
174
199
133
176
199
134
177
199
134
176
198
133
177
199
134
177
199
134
178
200
135
178
200
135
179
201
136
179
201
136
179
201
136
179
201
136
180
201
134
180
201
134
180
201
134
180
201
134
180
201
134
180
201
134
180
201
134
180
201
134
180
201
136
180
201
136
180
201
136
179
201
136
179
201
136
179
201
137
179
201
137
179
201
137
179
201
137
180
202
138
180
202
138
180
202
138
181
203
139
181
203
139
181
203
139
182
204
140
182
202
139
183
203
140
183
203
140
183
203
140
183
203
140
184
204
141
184
204
141
183
203
140
184
204
141
184
204
141
184
204
141
184
204
141
184
204
141
184
204
142
184
204
143
184
204
143
185
203
143
185
203
143
185
203
143
185
203
143
184
202
142
184
202
142
184
202
142
184
202
142
182
202
141
182
202
141
182
202
141
182
202
141
183
203
142
183
203
142
183
203
142
183
203
142
182
202
141
183
203
142
183
203
142
183
203
142
183
203
142
182
203
140
181
203
139
181
203
139
182
202
141
181
201
140
181
201
140
181
201
140
180
200
139
180
200
139
180
200
139
180
200
139
179
199
138
178
198
137
178
198
137
178
198
137
177
197
136
176
198
136
175
197
135
175
197
135
175
197
133
174
196
132
174
196
132
174
196
132
173
195
131
173
195
131
173
195
131
173
195
131
173
195
131
173
195
131
173
195
131
172
194
130
171
193
129
170
194
130
170
195
130
170
195
130
169
194
129
169
194
129
169
194
129
168
193
128
168
193
128
168
193
128
168
193
128
168
193
128
170
192
128
170
192
128
169
191
127
169
191
127
168
190
126
168
190
126
168
190
126
167
189
125
167
189
125
167
189
125
167
189
125
167
189
124
167
189
124
167
189
124
167
189
124
166
188
123
167
189
124
166
188
123
166
188
123
165
187
122
164
186
121
164
187
118
164
187
117
164
187
117
163
186
116
162
185
115
162
185
115
161
184
114
161
184
114
162
183
114
162
183
114
162
183
114
167
192
126
167
192
126
168
192
126
169
191
126
170
192
127
168
192
127
168
193
127
167
192
126
168
193
127
168
193
127
169
194
128
169
194
128
169
194
129
170
195
130
170
195
130
170
195
130
171
196
131
171
196
131
171
196
131
172
197
132
172
197
132
172
197
131
172
197
131
172
197
131
172
197
131
172
197
131
172
197
131
172
197
131
171
196
130
172
197
131
171
196
130
171
196
130
171
196
130
171
196
130
171
196
130
171
196
130
171
196
130
171
196
130
171
196
130
172
197
131
172
197
132
172
197
132
172
197
132
173
198
132
173
198
132
173
198
132
174
199
133
174
199
133
174
199
133
174
199
133
174
199
133
174
199
133
174
199
133
176
199
134
177
199
134
177
199
134
178
200
135
178
200
135
178
200
135
179
201
136
179
201
136
179
201
135
179
201
134
179
202
135
180
201
134
181
202
135
180
202
134
179
202
134
179
202
134
179
202
134
179
202
134
179
202
134
179
201
136
179
201
136
180
201
136
180
202
137
180
202
137
179
201
136
179
201
136
180
202
137
180
202
137
180
202
137
180
202
138
181
203
138
181
203
138
181
203
139
182
204
140
182
204
140
182
204
140
182
204
140
182
204
140
183
204
140
182
204
140
183
204
141
184
204
141
184
204
141
184
204
141
184
204
141
184
204
141
184
204
141
184
204
141
185
205
142
184
204
142
184
204
142
184
204
142
184
204
142
184
204
142
184
204
142
184
203
141
184
203
141
184
203
141
184
203
141
184
204
141
183
203
141
183
203
141
183
203
141
183
203
141
182
203
141
182
204
141
182
204
141
182
204
141
182
204
141
182
204
141
182
204
142
182
204
142
182
203
141
182
203
141
182
202
140
181
203
141
181
202
140
180
202
140
180
202
140
180
201
139
180
200
139
180
200
139
180
200
139
178
200
138
178
199
137
177
198
137
177
198
136
177
198
136
176
198
136
176
198
136
175
197
135
173
197
133
172
196
131
172
196
131
172
196
131
172
196
131
172
196
131
172
196
130
172
196
130
172
196
130
172
196
130
171
195
130
171
195
130
170
194
129
170
194
129
170
195
130
170
195
130
168
194
128
168
194
128
168
194
128
168
193
127
168
193
127
168
193
127
168
193
127
168
193
127
168
192
127
168
192
127
167
191
126
167
191
126
167
191
125
166
190
126
166
190
126
166
190
125
165
189
124
165
189
125
165
189
124
165
189
123
165
189
124
166
189
123
166
188
123
166
188
123
167
188
123
167
188
123
165
187
122
164
188
121
163
187
120
163
188
118
162
187
117
162
187
117
161
186
115
160
185
114
160
185
114
160
185
114
160
185
114
161
184
114
161
184
114
161
183
113
167
192
126
167
192
126
168
192
126
169
191
126
170
192
127
169
193
127
168
193
127
168
193
127
168
193
127
168
193
127
169
194
128
169
194
128
170
195
129
170
195
130
171
196
131
171
196
131
171
196
131
172
197
132
173
198
133
172
197
132
172
197
132
173
198
132
173
198
132
172
197
131
172
197
131
172
197
131
172
197
131
172
197
131
173
198
132
172
197
131
172
197
131
171
196
130
171
196
130
171
196
130
171
196
130
171
196
130
171
196
130
171
196
130
171
196
130
172
197
131
172
197
132
172
197
132
172
197
132
173
198
132
173
198
132
174
199
133
174
199
133
174
199
133
174
199
133
174
199
133
174
199
133
173
198
132
174
199
133
176
199
134
177
199
134
177
199
134
178
200
135
178
200
135
178
200
135
179
201
136
179
201
136
179
202
135
179
202
134
179
202
134
180
201
134
181
202
135
180
202
135
179
202
134
179
202
134
179
202
134
179
202
134
179
202
134
179
201
136
179
201
136
179
201
136
180
202
137
180
202
137
179
201
136
179
201
136
180
202
137
180
202
137
180
202
137
180
202
137
181
203
138
181
203
138
182
204
139
182
204
140
182
204
140
182
204
140
182
204
140
182
204
140
182
204
140
182
204
140
183
204
141
184
204
141
184
204
141
184
204
141
184
204
141
184
204
141
184
204
141
184
204
141
184
204
141
184
204
141
184
204
141
184
204
141
184
204
141
184
204
141
184
204
141
184
204
141
184
204
141
184
204
141
184
204
141
184
204
141
183
203
140
183
203
140
183
203
140
183
203
140
182
204
140
182
204
140
182
204
140
182
204
140
182
204
140
182
204
141
182
204
142
182
204
142
183
203
142
183
203
142
182
202
141
181
203
141
180
202
140
180
202
140
180
202
140
179
201
139
180
200
139
180
200
139
180
200
139
178
200
138
177
199
137
177
199
137
176
198
136
176
198
136
176
198
136
175
197
135
174
196
134
172
197
132
171
196
131
171
196
131
171
196
131
171
196
131
171
196
130
171
196
130
170
195
129
170
195
129
171
196
130
170
195
129
170
195
129
169
194
128
169
194
128
169
194
129
169
194
129
167
194
127
167
194
127
167
193
126
167
192
126
168
193
127
167
192
125
167
192
125
167
192
125
166
191
124
166
191
124
166
191
124
166
191
124
165
190
123
164
189
123
164
189
124
164
189
123
164
189
123
163
188
123
163
188
123
164
189
123
163
188
122
164
188
123
164
188
122
164
188
122
165
188
123
166
188
123
164
187
121
163
188
120
162
187
119
161
187
117
160
186
115
160
186
115
160
186
115
159
185
114
158
184
113
158
184
113
158
184
113
159
183
113
160
183
113
159
182
112
167
192
126
168
193
127
169
193
127
170
192
127
170
192
127
169
193
127
169
194
128
168
193
127
169
194
128
169
194
128
169
194
128
170
195
129
171
196
130
171
196
131
171
196
131
172
197
132
172
197
132
173
198
133
173
198
133
173
198
133
173
198
133
173
198
132
173
198
132
173
198
132
173
198
132
173
198
132
173
198
132
172
197
131
173
198
132
172
197
131
172
197
131
172
197
131
171
196
130
171
196
130
171
196
130
171
196
130
171
196
130
171
196
130
171
196
130
172
197
131
172
197
132
173
198
133
173
198
133
173
198
132
173
198
132
174
199
133
174
199
133
173
198
132
173
198
132
173
198
132
173
198
132
173
198
132
174
199
133
175
198
133
177
199
134
177
199
134
178
200
135
178
200
135
178
200
135
179
201
136
179
201
136
179
202
135
179
202
134
179
202
134
181
202
135
181
202
135
181
202
135
180
203
135
179
202
134
180
203
135
179
202
134
179
202
134
179
201
136
179
201
136
179
201
136
180
202
137
180
202
137
180
202
137
180
202
137
180
202
137
181
203
138
180
202
137
180
202
137
181
203
138
182
204
139
182
204
140
182
204
140
182
203
139
182
204
140
182
204
140
182
204
140
182
204
140
182
204
140
183
203
140
183
203
140
183
203
140
183
203
140
184
204
141
184
204
141
184
204
141
183
203
140
184
204
141
183
203
140
183
203
140
184
204
141
184
204
141
184
204
141
183
203
140
184
204
141
184
204
141
184
204
141
184
204
141
184
204
141
183
203
140
183
203
140
183
203
140
183
203
140
182
204
140
182
204
140
182
203
139
182
204
140
182
204
140
182
204
140
181
203
141
182
204
142
182
203
141
182
202
141
182
202
141
181
203
141
180
202
140
180
202
140
179
201
139
179
201
139
180
200
139
180
200
139
180
200
139
178
200
138
176
198
136
176
198
136
176
198
136
176
198
136
175
197
135
175
197
135
174
196
134
171
196
131
171
196
131
170
195
130
171
196
131
170
195
130
170
195
129
170
195
129
170
195
129
169
194
128
169
194
128
168
193
127
168
193
126
168
193
126
168
193
127
168
193
128
168
193
128
166
193
126
166
193
126
166
193
126
167
192
126
166
191
125
165
191
122
165
191
121
165
191
121
165
191
121
165
190
120
164
190
119
164
190
119
164
189
119
163
188
120
163
188
120
163
188
120
162
187
120
162
187
119
162
187
120
162
187
121
162
187
121
161
188
121
161
188
121
160
187
120
162
187
121
162
187
121
162
187
120
161
186
118
161
186
118
160
186
116
160
186
115
159
185
114
158
184
113
158
184
113
157
183
112
158
184
113
157
183
112
158
182
111
158
181
111
158
181
111
167
192
126
168
193
127
168
193
127
168
193
127
168
193
127
168
193
127
168
193
127
168
193
127
170
195
129
170
195
129
170
195
129
171
196
130
171
196
130
172
197
131
172
197
132
172
197
132
173
198
133
173
198
133
173
198
133
174
199
134
174
199
134
174
199
133
174
199
133
174
199
133
173
198
132
173
198
132
173
198
132
172
197
131
173
198
132
173
198
132
173
198
132
172
197
131
171
196
130
171
196
130
171
196
130
171
196
130
171
196
130
171
196
130
172
196
131
172
197
131
173
198
133
173
198
133
173
198
133
174
199
134
173
198
133
173
198
132
173
198
132
173
198
132
173
198
132
173
198
132
173
198
132
173
198
132
173
198
132
174
199
133
174
199
133
174
199
133
177
199
134
178
200
135
178
200
135
179
201
136
179
201
136
179
201
136
179
201
136
180
202
137
180
203
135
180
203
135
180
203
136
180
202
137
180
202
137
179
201
136
179
201
136
179
201
136
179
201
136
179
201
136
179
201
136
179
201
136
180
202
137
179
201
136
179
201
136
180
202
137
180
202
137
180
202
137
180
202
137
181
203
138
181
203
138
180
202
137
181
203
138
181
203
138
179
204
138
180
205
139
180
205
139
180
205
139
180
205
139
181
204
139
182
204
139
182
204
139
180
205
139
180
205
139
181
205
139
182
204
139
182
204
139
182
204
139
182
204
139
182
204
139
182
204
139
182
204
139
182
204
139
182
204
139
182
204
139
183
203
140
183
203
140
183
204
140
182
204
140
182
204
140
182
204
140
182
204
139
182
204
139
182
204
140
182
204
140
181
203
139
179
204
139
179
204
139
179
203
139
180
202
138
181
203
139
179
203
138
178
203
138
178
203
138
178
203
138
178
203
138
177
202
138
177
201
139
176
200
138
176
200
138
176
200
138
175
199
137
175
198
136
174
198
136
173
197
135
173
197
135
173
196
134
172
197
133
171
197
132
170
196
131
170
196
131
169
195
130
169
195
129
168
195
128
167
194
127
167
194
127
167
194
127
167
194
127
167
194
126
167
194
126
166
193
125
166
193
125
166
193
125
166
193
125
166
193
125
166
193
125
165
192
124
165
192
124
164
191
123
164
191
122
164
191
121
163
190
121
163
190
119
163
191
117
162
190
116
162
190
116
161
189
115
161
189
115
161
189
115
161
189
116
160
188
116
160
187
116
161
188
118
161
188
118
161
188
118
161
188
118
161
188
118
161
188
118
161
188
118
160
187
117
160
187
117
160
187
117
160
187
117
159
186
115
159
186
115
159
185
114
159
185
114
159
185
114
158
184
113
158
184
113
157
183
111
156
182
109
156
182
109
156
182
109
156
182
109
155
181
108
167
192
126
168
193
127
168
193
127
168
193
127
168
193
127
168
193
127
168
193
127
169
194
128
170
195
129
170
195
129
170
195
129
171
196
130
171
196
130
172
197
131
172
197
132
173
198
133
173
198
133
173
198
133
174
199
134
174
199
134
174
199
134
174
199
133
174
199
133
174
199
133
174
199
133
173
198
132
174
199
133
173
198
132
173
198
132
173
198
132
173
198
132
172
197
131
171
196
130
171
196
130
171
196
130
171
196
130
171
196
130
171
196
130
171
196
130
171
196
130
173
198
133
173
198
133
173
198
133
173
198
133
174
199
134
173
198
133
173
198
132
173
198
132
173
198
132
173
198
132
173
198
132
173
198
132
173
198
132
174
199
133
174
199
133
175
200
134
177
199
134
178
200
135
178
200
135
178
200
135
179
201
136
179
201
136
179
201
136
179
201
136
179
202
134
179
202
134
180
202
135
180
202
137
179
201
136
179
201
136
179
201
136
179
201
136
179
201
136
179
201
136
179
201
136
179
201
136
179
201
136
179
201
136
179
201
136
180
202
137
180
202
137
180
202
137
180
202
137
180
202
137
181
203
138
181
203
138
181
203
138
181
203
138
178
203
137
179
204
138
180
205
139
180
205
139
180
205
139
181
204
139
182
204
139
182
204
139
180
205
139
180
205
139
180
204
139
182
204
139
181
203
138
181
203
138
181
203
138
182
204
139
181
203
138
182
204
139
182
204
139
181
203
138
182
204
139
181
204
139
181
204
140
180
204
139
181
203
139
181
203
139
181
203
139
181
203
138
181
203
138
181
203
139
181
203
139
181
203
139
178
203
138
178
203
138
178
203
138
178
203
138
178
203
138
178
203
138
178
203
138
178
203
138
178
203
138
177
202
137
176
201
137
176
200
138
175
199
137
175
199
137
175
199
137
174
198
136
173
198
133
173
198
133
172
197
132
172
197
132
171
196
131
170
196
130
170
196
129
169
196
129
169
196
128
168
195
128
167
194
127
167
194
125
167
194
125
166
193
125
166
193
124
166
193
124
166
193
122
165
192
122
165
192
122
164
191
121
164
191
121
165
192
122
165
192
122
165
192
122
164
191
121
164
191
121
164
191
120
163
191
118
163
191
118
162
190
117
162
190
115
161
189
113
161
189
113
161
189
113
161
189
113
160
188
112
160
188
112
160
188
113
160
188
113
159
187
113
160
187
114
160
188
115
160
188
115
160
188
115
160
188
115
160
188
115
160
188
115
159
187
114
160
188
115
160
187
114
159
187
114
159
186
115
158
185
114
159
185
114
159
185
114
158
184
113
158
184
113
157
183
112
156
182
110
156
182
109
155
181
108
155
181
108
155
181
108
154
180
107
167
192
126
168
193
127
168
193
127
168
193
127
168
193
127
168
193
127
168
193
127
169
194
128
170
195
129
170
195
129
170
195
129
171
196
130
171
196
130
172
197
131
172
197
132
173
198
133
173
198
133
174
199
133
174
199
133
174
199
134
174
199
134
174
199
133
175
199
133
175
199
133
174
199
133
174
199
133
173
198
133
173
198
133
173
198
132
173
198
132
173
198
132
172
197
131
171
196
130
171
196
130
171
196
130
171
196
129
171
196
129
171
196
130
171
196
130
171
196
130
172
197
132
172
197
132
173
198
132
173
198
132
174
199
133
173
198
132
173
198
132
173
198
132
173
198
132
173
198
132
173
198
132
173
198
132
173
198
132
174
199
133
174
199
133
175
200
134
176
199
134
176
199
134
177
200
135
177
200
135
178
201
136
178
201
136
178
201
136
178
201
136
178
202
135
178
202
135
179
202
135
180
202
137
179
201
136
179
201
136
179
201
136
179
201
136
179
201
136
179
201
136
179
201
136
179
201
136
179
201
136
179
201
136
179
201
136
180
202
137
180
202
136
180
202
137
180
202
136
180
202
137
181
203
138
181
203
138
180
203
138
180
203
138
179
204
138
179
204
138
179
204
138
180
205
139
180
205
139
179
203
137
179
202
136
179
202
136
178
203
137
178
203
137
178
203
137
179
202
136
179
202
136
179
202
136
179
202
136
179
202
136
180
203
137
180
203
137
180
203
137
180
203
137
179
202
136
179
203
137
178
203
137
178
203
137
179
202
137
179
202
137
179
202
136
178
201
135
179
202
136
179
202
136
179
202
137
179
202
137
177
202
137
177
202
136
176
202
136
175
202
136
175
202
136
176
202
136
176
202
136
176
202
136
176
201
136
175
201
135
174
200
135
174
199
136
174
199
136
173
198
135
173
198
135
172
197
134
171
197
131
171
197
131
171
197
130
170
196
130
170
195
129
169
195
127
168
195
126
168
195
126
168
195
126
167
194
126
167
194
125
166
193
123
167
194
123
166
193
121
165
192
121
165
193
121
164
192
119
165
192
119
165
192
119
164
192
119
164
192
119
165
192
119
165
192
119
164
192
118
164
192
118
163
191
117
163
191
117
162
190
115
163
191
116
162
190
116
162
190
114
161
189
111
160
188
111
161
189
112
161
189
112
160
188
111
160
188
111
160
188
112
160
188
112
159
187
112
159
187
113
160
188
113
160
188
113
160
188
113
160
188
113
160
188
113
160
188
113
159
187
112
160
187
114
159
187
113
159
186
114
159
186
115
158
185
114
158
185
114
158
185
114
157
184
113
156
183
111
156
182
110
156
182
110
155
182
108
155
181
108
154
181
107
154
181
107
153
180
106
167
192
126
168
193
127
168
193
127
168
193
127
168
193
127
168
193
127
168
193
127
169
194
128
169
194
128
169
194
128
170
195
129
171
196
130
171
196
130
172
197
132
173
198
133
173
198
133
173
198
132
173
198
132
173
198
132
174
199
133
174
199
133
175
198
134
176
198
134
176
198
134
174
199
134
174
199
134
174
199
134
174
199
134
173
198
133
173
198
132
173
198
132
172
197
131
171
198
131
170
197
130
170
197
129
170
197
128
170
197
128
171
196
129
171
196
130
171
196
130
172
197
131
172
197
131
172
197
131
172
197
131
173
198
132
173
198
132
173
198
132
173
198
132
173
198
132
173
198
132
173
198
132
173
198
132
173
198
132
174
199
133
174
199
133
174
199
133
174
199
133
174
199
133
175
200
134
175
200
134
176
201
135
176
201
135
176
201
135
177
202
136
177
202
136
177
202
136
178
202
136
179
202
137
178
201
136
179
201
136
180
201
136
180
201
136
179
201
136
179
201
136
179
201
136
179
201
136
179
201
136
179
201
136
179
201
136
180
202
137
180
203
135
180
203
135
180
202
135
179
201
136
180
202
137
180
204
138
179
204
138
179
204
138
179
204
138
179
204
138
179
204
138
179
204
138
179
204
138
178
203
136
178
203
135
178
203
135
177
202
136
177
202
136
177
202
135
177
202
134
177
202
134
177
202
134
177
202
134
177
202
134
177
202
134
177
202
134
177
202
134
177
202
134
177
202
134
177
202
134
176
201
133
176
201
133
176
201
133
176
201
133
176
201
133
176
201
133
176
201
133
176
201
133
177
202
133
177
202
134
176
201
135
177
202
135
176
201
134
175
202
133
175
202
133
176
203
135
176
203
136
175
202
135
175
202
134
173
200
133
173
200
133
173
200
132
172
199
132
172
199
131
171
199
131
171
198
131
170
197
130
170
197
130
170
197
129
170
197
128
169
196
127
168
195
125
168
195
124
167
194
123
167
194
125
167
194
125
167
194
124
167
194
123
167
194
123
166
194
121
164
192
118
164
192
118
164
192
119
164
192
119
164
192
119
165
193
120
165
193
120
164
192
119
164
192
118
163
191
117
164
192
118
163
191
117
163
191
116
162
190
115
162
190
115
161
189
115
161
189
113
160
189
110
161
189
111
160
188
110
160
188
110
160
188
110
160
188
110
159
187
111
159
187
111
159
187
111
159
187
111
159
187
111
159
187
112
160
188
114
159
187
112
159
187
113
159
187
113
159
187
113
159
187
114
159
187
114
159
186
113
158
186
113
158
186
113
157
185
112
157
185
112
157
185
112
155
183
109
155
183
109
154
182
108
154
182
107
154
182
107
153
181
106
153
181
106
152
180
105
166
191
125
167
192
126
167
192
126
167
192
126
167
192
126
168
193
127
168
193
127
168
193
127
169
194
128
169
194
128
170
195
129
170
195
129
171
196
130
172
197
131
172
197
132
172
197
132
172
197
131
173
198
132
173
198
132
173
198
132
174
199
133
175
198
134
176
198
134
176
198
134
174
199
134
174
199
134
174
199
134
173
198
133
173
198
133
173
198
132
172
197
131
172
197
131
170
197
130
170
197
130
170
197
129
169
196
127
170
197
128
171
196
129
171
196
130
171
196
130
172
197
131
172
197
131
172
197
131
172
197
131
173
198
132
173
198
132
173
198
132
173
198
132
173
198
132
173
198
132
173
198
132
173
198
132
173
198
132
174
199
133
174
199
133
174
199
133
174
199
133
174
199
133
174
199
133
175
200
134
175
200
134
175
200
134
176
201
135
177
202
136
177
202
136
177
202
136
177
202
136
176
203
136
177
203
136
177
202
136
178
202
136
178
202
136
179
201
136
179
201
136
179
201
136
179
201
136
179
201
136
179
201
136
179
201
136
179
201
136
179
202
134
179
202
134
179
202
135
179
201
136
180
202
137
179
203
137
178
203
137
178
203
137
178
203
137
178
203
137
178
203
137
178
203
137
178
203
137
178
203
136
178
203
135
178
203
135
177
203
134
177
203
133
177
202
133
177
202
134
176
201
133
176
201
133
176
201
133
176
201
133
177
202
134
177
202
134
177
202
134
177
202
134
176
201
133
176
201
133
176
201
133
176
201
133
175
200
132
175
200
132
175
200
132
175
200
132
175
200
132
176
201
133
176
201
133
175
200
132
175
201
131
175
201
132
174
200
131
174
201
132
174
201
132
175
202
134
175
202
135
174
201
134
173
200
131
173
200
130
172
199
130
172
199
129
172
199
129
171
198
128
170
197
128
170
197
127
170
197
127
170
197
127
170
197
126
169
196
124
168
195
123
167
195
122
167
195
121
167
195
121
167
194
122
167
194
122
167
194
123
167
194
123
167
194
123
166
194
121
165
193
119
165
193
119
165
193
118
165
193
118
165
193
118
165
193
118
165
193
118
165
193
119
164
192
118
164
192
118
163
191
117
163
191
117
163
191
116
162
190
115
161
189
114
161
189
113
161
189
111
161
190
109
160
189
108
160
189
108
160
189
108
159
188
107
160
189
108
159
188
109
159
187
109
158
187
108
159
188
109
158
187
108
158
187
109
159
187
111
159
187
111
159
187
111
159
187
110
158
186
110
158
186
111
158
186
111
158
186
111
157
185
110
157
185
110
156
184
109
156
184
109
155
183
108
155
183
109
154
182
108
154
182
108
154
182
107
153
181
106
152
180
105
152
180
105
152
180
105
165
190
123
166
191
123
166
191
124
166
192
124
166
192
124
166
192
124
167
193
125
167
193
125
168
194
126
168
194
126
169
195
128
169
196
129
170
196
129
171
196
130
171
196
130
171
196
131
172
197
131
172
197
131
173
198
132
173
198
133
173
198
133
174
198
133
175
198
134
175
199
134
174
199
134
174
199
134
174
199
134
174
199
133
173
198
132
171
197
131
171
197
131
171
197
130
170
197
129
170
197
129
170
197
128
170
197
128
170
197
128
170
197
128
170
197
129
170
197
129
171
197
129
171
197
130
172
197
130
172
197
131
173
198
132
173
198
132
173
198
132
174
199
133
173
199
133
173
199
132
172
199
132
172
199
131
172
199
131
173
199
131
173
199
131
173
199
131
174
199
132
174
199
132
174
199
132
174
201
133
174
201
133
175
200
134
176
201
135
177
202
136
177
202
136
177
202
136
177
202
136
177
202
136
177
202
136
177
202
136
177
202
136
177
202
136
178
202
136
178
202
136
178
202
136
178
202
136
178
202
136
178
202
135
178
202
135
178
202
135
178
202
134
178
202
134
178
202
134
178
202
135
178
202
135
178
203
136
178
203
136
178
203
136
179
204
136
178
203
136
178
203
136
178
203
136
179
204
136
177
203
134
177
203
133
177
203
133
177
203
132
177
203
132
176
202
131
175
201
132
175
202
132
175
201
131
175
201
131
175
201
131
176
202
134
176
202
134
175
201
133
174
201
132
174
201
132
175
200
132
175
200
132
175
200
132
173
200
132
173
200
132
174
200
132
175
200
132
175
200
132
174
200
132
174
200
132
173
200
132
174
200
130
174
201
131
174
201
131
174
201
132
174
201
132
174
201
133
174
201
133
174
201
133
173
200
129
172
199
128
172
199
127
172
200
127
171
199
126
170
198
126
170
197
126
170
197
126
170
197
126
169
196
125
169
196
124
168
196
122
168
196
122
167
196
121
166
195
121
165
195
120
166
195
121
166
195
121
166
195
121
165
194
121
166
195
122
165
195
120
164
194
118
164
194
118
164
194
118
163
193
117
163
193
117
163
193
117
164
194
117
165
193
118
164
192
117
164
192
117
162
192
116
161
191
116
162
191
116
162
190
115
161
189
113
160
189
111
160
190
109
159
190
106
158
189
105
158
189
105
158
189
105
157
188
104
158
189
105
159
188
107
159
188
108
158
187
107
157
187
107
157
187
107
157
187
108
158
186
109
158
186
109
157
187
109
157
187
109
156
186
109
158
186
109
158
186
109
157
185
108
157
185
108
156
184
107
156
184
107
155
183
106
155
183
106
154
182
106
153
181
106
153
181
105
153
181
105
152
180
104
152
180
104
152
180
104
152
180
103
165
190
122
165
190
122
165
190
122
164
191
122
165
192
123
165
192
123
166
193
124
167
194
125
167
194
125
167
194
125
168
195
127
169
196
129
169
196
129
169
195
129
170
195
129
171
196
130
172
197
131
172
197
131
172
197
132
173
198
133
173
198
133
173
198
133
174
199
134
174
199
134
174
199
134
174
199
134
174
199
134
174
199
133
173
198
132
171
198
131
171
198
131
170
197
130
170
197
128
170
197
128
170
197
128
170
197
128
170
197
128
170
197
128
170
197
128
170
197
128
170
197
128
171
198
129
171
198
130
172
197
131
173
198
132
173
198
132
173
198
132
174
199
133
173
200
133
172
199
132
172
199
131
172
199
130
172
199
130
172
199
130
172
199
130
172
199
130
174
199
131
174
199
131
174
200
131
174
201
132
174
201
132
175
201
134
176
201
135
177
202
136
177
202
136
177
202
136
177
202
136
177
202
136
177
202
136
177
202
136
177
202
136
177
202
136
177
202
136
177
202
136
177
202
136
177
202
136
177
202
137
177
202
135
177
202
134
177
202
134
177
202
134
177
202
134
177
202
134
177
202
134
177
202
134
178
203
135
178
203
135
177
202
134
178
203
135
178
203
135
178
203
135
178
203
135
178
203
135
176
203
133
176
203
132
176
203
132
177
203
132
176
202
131
176
202
131
175
202
131
175
202
131
175
202
131
175
202
131
175
202
131
175
202
132
174
201
132
174
201
131
174
201
132
174
201
132
175
200
132
175
200
132
175
200
132
173
200
130
173
200
130
173
200
130
174
199
130
173
199
130
173
200
130
173
200
130
173
200
130
173
200
128
173
200
128
173
200
129
174
201
129
174
201
129
174
201
130
174
201
131
173
200
130
173
200
129
172
199
128
172
199
127
172
200
126
171
199
125
171
199
125
170
198
124
170
198
124
170
198
124
169
197
123
169
197
122
168
196
121
168
196
121
166
196
120
165
196
120
165
196
120
165
196
120
165
196
120
165
196
120
164
195
119
165
196
120
164
195
118
163
194
116
163
194
116
163
194
116
162
193
115
162
193
115
162
193
115
163
194
116
164
193
116
164
192
115
164
192
115
161
192
114
160
191
114
161
191
114
162
190
114
161
189
111
159
190
110
159
190
108
158
190
105
157
189
104
157
189
104
157
189
104
156
188
103
157
189
104
158
188
106
159
188
107
158
187
106
156
187
107
156
187
107
157
187
107
158
187
108
158
186
108
156
186
107
155
186
107
155
186
107
158
186
108
157
186
107
157
185
106
157
185
107
155
184
105
155
184
105
155
184
105
155
183
105
153
182
103
153
182
103
153
182
103
153
181
103
152
180
102
152
181
102
152
180
101
151
180
101
165
190
122
165
190
122
165
190
122
164
191
122
165
192
123
165
192
123
165
192
123
166
193
124
167
194
125
167
194
125
167
194
126
168
195
128
169
196
129
170
195
129
170
195
129
171
196
130
171
196
130
171
196
130
173
198
132
173
198
133
173
198
133
174
199
134
174
199
134
174
199
134
174
199
134
174
199
134
174
199
133
173
198
132
173
198
132
172
198
132
170
197
130
170
197
130
170
197
128
170
197
128
170
197
128
170
197
128
170
197
128
170
197
128
170
197
128
170
197
128
170
197
128
171
198
129
171
198
130
172
197
131
173
198
132
174
199
133
174
199
133
174
199
133
173
200
133
172
199
132
172
199
131
172
199
130
172
199
130
172
199
130
172
199
130
173
200
131
174
199
131
174
199
131
174
200
131
174
201
132
175
202
133
176
201
134
176
201
135
177
202
136
176
201
135
176
201
135
176
201
135
176
201
135
177
202
136
177
202
136
177
202
136
177
202
136
177
202
136
177
202
136
176
201
135
177
202
136
177
202
136
177
202
135
177
202
134
177
202
134
177
202
134
177
202
134
177
202
134
177
202
134
177
202
134
177
202
134
177
202
134
177
202
134
177
202
134
177
202
134
177
202
134
178
203
135
177
202
134
176
203
133
176
203
132
176
203
132
177
203
132
177
203
132
176
203
132
175
202
131
175
202
131
175
202
131
174
201
130
174
201
130
174
202
129
174
202
129
174
201
130
174
201
132
174
201
132
175
200
132
175
200
132
174
199
131
173
201
128
173
201
128
173
200
128
174
200
128
173
199
127
173
200
127
173
200
127
172
200
127
173
201
127
173
201
127
173
201
127
173
201
127
173
201
127
173
201
127
173
201
128
173
201
128
173
200
129
172
199
128
172
199
127
171
199
125
171
199
125
170
198
123
170
198
122
169
197
122
170
198
122
169
197
122
169
197
121
169
197
120
168
196
119
166
196
118
165
196
118
165
196
118
165
196
118
165
196
118
165
196
118
165
196
118
165
196
118
164
195
116
163
194
114
163
194
114
162
193
113
162
193
113
162
193
113
162
193
113
162
193
113
163
193
113
163
192
112
163
192
112
160
191
111
160
191
111
160
190
111
161
189
111
161
190
109
159
189
109
158
190
108
158
190
105
157
189
104
157
189
104
156
188
103
156
188
103
156
188
103
158
188
104
158
187
103
158
187
103
156
187
107
155
186
106
157
187
106
158
187
105
157
186
104
156
187
104
155
187
104
155
187
104
157
186
104
157
186
104
156
185
103
156
185
103
155
184
102
155
184
102
155
184
102
154
183
101
154
183
101
153
182
100
153
182
100
152
181
99
152
180
99
152
181
99
152
181
99
151
180
98
163
190
119
164
191
120
164
191
120
164
191
120
164
191
120
165
192
123
165
192
124
165
192
124
166
193
122
167
194
123
168
195
125
168
195
127
169
196
128
169
196
129
170
197
130
170
197
130
171
196
131
172
196
131
173
198
132
173
198
133
173
198
133
173
198
133
173
198
133
173
198
133
173
198
132
173
198
132
173
198
132
172
199
132
172
199
132
171
198
130
171
198
129
171
198
129
170
197
126
170
197
126
170
197
127
170
197
129
170
197
129
170
197
127
170
197
126
170
197
126
170
197
128
171
198
129
172
199
130
172
199
130
172
199
130
173
199
130
174
199
131
174
199
131
173
200
131
173
200
131
173
200
131
172
199
130
172
199
130
172
199
130
172
199
130
173
200
131
173
200
129
173
200
129
173
200
129
174
201
130
175
202
131
175
202
133
175
202
133
175
202
133
174
201
132
175
202
133
175
202
133
175
202
133
176
203
134
177
203
136
177
202
136
177
202
136
177
202
136
177
202
136
177
202
135
176
201
133
176
201
133
176
202
132
175
201
130
176
202
131
176
202
131
177
203
132
177
203
132
177
203
132
177
203
132
177
203
132
177
203
132
177
203
132
177
203
132
177
203
132
177
203
132
176
203
132
176
203
132
176
203
132
176
203
132
176
203
132
176
203
132
175
202
131
175
202
131
175
202
131
175
202
131
174
201
130
174
201
130
174
201
130
173
200
129
174
201
130
174
201
130
173
200
130
173
200
130
174
201
131
174
201
131
172
199
129
173
201
127
172
200
126
172
200
126
172
200
126
172
200
126
172
200
126
172
200
126
172
200
126
172
200
126
172
200
126
173
201
127
173
201
127
173
201
127
173
201
127
173
201
127
173
201
127
173
201
127
172
200
126
172
200
126
172
200
126
171
199
125
171
199
124
170
198
123
170
198
123
170
198
121
169
197
120
168
196
118
168
197
117
168
197
117
166
196
116
165
196
116
165
196
116
165
196
120
165
196
120
166
196
120
167
195
120
167
195
120
165
195
117
164
195
115
163
194
114
165
194
112
164
193
111
163
193
111
162
194
111
162
194
111
161
193
112
161
192
112
161
192
112
160
192
107
160
192
107
160
192
107
159
191
108
159
191
108
159
191
106
158
190
105
158
190
105
157
189
104
157
189
104
157
189
104
156
188
103
156
188
103
156
188
103
156
188
103
155
187
102
155
187
104
155
187
104
156
188
105
155
187
104
155
187
104
154
186
102
154
186
101
154
186
101
153
185
102
153
185
102
154
185
101
155
184
100
155
184
100
153
184
100
152
184
101
153
185
102
154
183
101
154
183
101
152
181
99
152
181
97
152
181
97
151
180
96
151
180
96
151
180
96
163
190
119
163
190
119
163
190
119
163
190
119
164
191
120
164
191
121
165
192
121
165
192
122
166
193
122
167
194
123
167
194
124
168
195
124
169
196
126
169
196
127
169
196
128
170
197
128
171
196
130
172
197
131
172
197
131
173
198
132
173
198
132
172
199
132
172
199
132
171
198
131
173
198
132
173
198
132
173
198
131
172
199
130
171
198
129
171
198
129
171
198
129
171
198
129
170
197
126
170
197
126
170
197
126
170
197
127
170
197
127
170
197
126
170
197
126
170
197
126
171
198
129
172
199
130
172
199
130
172
199
130
171
198
129
173
199
130
174
199
131
174
199
131
173
200
131
173
200
131
173
200
131
172
199
130
173
200
131
172
199
130
172
199
130
173
200
131
173
200
129
173
200
129
173
200
129
174
200
130
175
202
131
174
201
132
174
201
132
174
201
132
175
202
133
175
202
133
175
202
133
175
202
133
176
203
134
177
202
135
177
202
136
177
202
136
177
202
136
176
201
135
176
201
134
176
201
133
176
201
133
176
202
132
176
202
131
176
202
131
176
202
131
176
202
131
177
203
132
177
203
132
177
203
132
177
203
132
177
203
132
177
203
132
177
203
132
177
203
132
177
203
132
176
203
132
176
203
132
176
203
132
176
203
132
176
203
132
176
203
132
175
202
131
175
202
131
175
202
131
175
202
131
174
201
130
174
201
130
174
201
130
173
200
129
173
200
129
173
200
129
173
201
128
173
201
128
173
201
128
173
201
128
173
201
128
172
200
126
172
200
126
172
200
126
172
200
126
172
200
126
172
200
126
172
200
126
172
200
126
172
200
126
172
200
126
173
201
127
173
201
127
173
201
127
173
201
127
173
201
127
173
201
127
173
201
127
173
201
127
172
200
126
172
200
126
172
200
126
171
199
124
171
199
124
170
198
123
169
197
120
169
197
120
168
197
119
168
197
117
168
197
117
166
196
116
165
196
116
165
196
116
165
196
117
165
196
117
166
196
117
167
195
117
167
195
117
165
195
116
163
194
114
163
194
114
165
194
112
164
193
111
163
193
111
162
194
111
162
194
111
162
194
111
161
193
110
161
193
110
160
192
107
160
192
107
160
192
107
159
191
108
159
191
108
159
191
107
159
191
106
158
190
105
158
190
105
157
189
104
157
189
104
157
189
104
157
189
104
156
188
103
156
188
103
155
187
102
156
188
105
156
188
105
156
188
105
155
187
104
155
187
104
154
186
102
154
186
101
154
186
101
153
185
100
153
185
101
154
185
100
155
184
100
154
183
99
153
184
99
152
184
99
152
184
100
154
183
101
154
183
101
153
182
99
153
182
98
152
181
97
152
181
97
151
180
96
151
180
96
163
190
119
163
190
119
163
190
119
163
190
119
163
190
119
164
192
119
164
192
118
165
193
119
166
193
122
167
194
123
167
194
122
167
195
121
169
197
123
169
196
125
169
196
126
169
196
126
171
196
130
172
197
131
172
197
131
172
198
130
172
198
130
171
199
129
170
199
129
170
199
128
172
198
132
172
198
132
172
198
131
172
199
129
171
198
128
171
198
129
171
198
129
170
197
128
170
197
126
170
197
126
170
197
125
170
198
124
170
198
124
170
197
125
170
197
126
170
197
126
171
198
128
172
199
129
172
199
129
172
199
129
173
200
130
173
199
130
174
199
130
174
199
130
173
200
131
173
200
131
173
200
131
173
200
131
173
200
131
173
200
131
173
200
131
173
200
130
173
200
129
173
200
129
173
200
129
173
200
129
173
200
129
174
201
131
174
201
132
174
201
132
175
202
133
175
202
133
175
202
133
175
202
134
176
203
134
177
202
135
177
202
136
177
202
136
177
202
135
176
201
135
176
201
134
176
201
133
176
201
133
176
202
131
176
202
131
176
202
131
176
202
131
176
202
131
176
202
131
177
203
132
177
203
132
176
203
132
176
203
132
176
203
132
176
203
131
177
203
131
177
203
132
176
203
132
176
203
132
176
203
132
176
203
132
176
203
132
176
203
132
175
202
131
175
202
131
175
202
131
175
202
131
174
201
130
174
201
130
174
201
130
173
200
129
173
200
128
173
200
128
173
201
126
173
201
126
173
201
126
173
201
126
173
201
127
172
200
126
172
200
125
172
200
125
172
200
125
172
200
125
172
200
125
172
200
125
172
200
125
172
200
126
173
201
126
173
201
126
173
201
127
173
201
127
173
201
127
173
201
127
173
201
127
173
201
127
173
201
127
173
201
127
172
200
126
172
200
126
171
199
124
171
199
124
170
198
123
169
197
121
169
197
121
169
197
120
168
197
118
168
197
118
167
196
117
166
196
116
166
196
116
166
196
116
166
196
116
166
196
116
167
196
116
167
196
116
165
195
115
164
194
113
164
194
113
165
194
112
164
193
111
164
193
111
162
193
110
163
194
110
162
193
109
162
193
108
162
193
108
161
192
107
160
191
106
160
191
107
159
191
108
159
191
108
159
191
107
159
191
106
158
190
105
158
190
105
157
189
104
157
189
104
157
189
104
157
189
104
156
188
103
156
188
103
156
188
103
156
188
104
156
188
104
156
188
104
155
187
104
155
187
104
154
186
101
154
187
101
154
186
101
153
186
99
153
186
99
153
185
98
154
185
100
153
184
99
153
185
98
152
185
98
152
185
98
153
184
100
153
183
100
153
183
99
152
182
98
152
181
98
151
181
97
151
181
96
150
181
96
162
189
118
163
190
119
163
190
119
163
190
119
164
191
120
164
192
119
164
192
118
165
193
119
166
193
122
167
194
123
167
194
122
167
195
121
168
196
122
169
196
124
169
196
125
169
196
125
170
197
128
171
198
129
171
198
129
171
198
129
171
198
129
171
198
128
171
198
127
171
198
127
171
198
129
171
198
129
171
198
129
171
198
129
171
198
129
170
197
127
170
197
126
170
197
126
170
197
126
170
197
126
170
197
125
170
198
124
170
198
124
170
197
125
170
197
126
170
197
126
171
198
127
171
198
127
171
198
127
172
199
128
173
200
129
173
200
129
173
200
129
173
200
129
173
200
131
173
200
131
173
200
131
173
200
131
173
200
131
173
200
130
173
200
129
173
200
129
173
200
129
173
200
129
173
200
129
173
200
129
173
200
129
174
201
131
174
201
132
175
202
133
175
202
133
175
202
133
175
202
134
175
202
135
175
202
135
176
202
136
177
202
136
177
202
136
177
202
134
176
201
133
176
201
133
176
201
133
176
201
133
175
201
131
175
201
130
175
201
130
175
201
130
176
202
131
176
202
131
176
202
131
176
202
131
175
202
131
175
202
131
175
202
131
174
202
128
175
203
129
176
203
130
176
203
132
176
203
132
176
203
132
176
203
132
175
202
131
175
202
131
175
202
131
175
202
131
175
202
131
175
202
131
174
201
130
174
201
130
174
201
130
173
201
127
173
201
127
173
201
127
173
201
126
173
201
126
173
201
126
173
201
126
173
201
126
172
200
125
171
199
124
171
199
123
171
199
122
171
199
122
171
199
122
171
199
122
172
200
123
172
200
125
172
200
125
172
200
125
173
201
126
173
201
126
173
201
127
173
201
127
173
201
127
173
201
127
173
201
127
173
201
127
172
200
126
171
199
125
171
199
125
171
199
125
170
198
124
170
198
123
169
197
122
169
197
121
168
196
119
168
196
119
168
197
118
167
196
116
167
196
116
167
196
116
167
196
116
167
196
116
167
196
116
166
195
115
166
195
114
165
194
112
165
194
112
165
194
112
165
194
112
165
194
111
164
193
109
164
193
109
164
193
109
163
192
108
163
192
108
162
191
107
161
190
106
161
191
107
159
192
109
159
191
108
159
191
107
159
191
106
158
190
105
158
190
105
158
190
105
158
190
105
157
189
104
158
190
105
157
189
104
157
189
104
157
189
104
156
188
103
156
188
103
156
188
104
156
188
105
156
188
105
155
188
102
154
187
100
154
187
100
154
187
100
153
186
99
153
186
99
153
186
99
152
185
98
152
185
98
153
186
99
152
185
98
152
185
98
151
184
97
151
184
97
150
182
97
150
182
98
150
182
96
149
182
95
149
182
95
163
190
119
163
190
119
163
190
119
163
190
119
163
190
119
164
191
118
165
193
119
165
193
119
165
192
121
165
192
121
166
193
121
167
195
121
167
195
121
168
196
122
168
196
122
169
197
123
170
197
125
170
197
125
170
197
125
170
197
125
170
197
125
170
197
126
170
197
126
170
197
126
170
197
125
170
198
126
170
198
126
170
197
125
170
197
125
170
198
124
170
198
124
170
198
124
170
197
126
170
197
126
170
197
125
170
198
124
169
197
123
170
197
125
170
197
126
170
197
126
170
197
126
171
198
127
171
198
127
172
199
128
173
200
129
173
200
129
173
200
129
173
200
129
173
200
131
173
200
131
173
200
131
173
200
131
173
200
131
173
200
130
173
200
129
173
200
129
173
200
129
173
200
129
173
200
129
173
200
129
173
200
129
174
201
131
174
201
132
174
201
132
175
202
133
175
202
133
175
202
134
175
202
135
175
202
135
176
201
135
176
201
135
176
201
135
176
201
133
176
201
133
176
201
133
176
201
133
175
200
132
175
201
131
175
201
130
175
201
130
175
201
130
175
201
130
175
201
130
175
201
130
175
201
130
175
202
131
175
202
131
175
202
131
175
203
129
175
203
129
175
203
130
175
202
131
175
202
131
175
202
131
175
202
131
175
202
131
174
201
130
174
201
130
174
201
130
174
201
130
174
201
130
174
201
130
174
201
130
173
200
129
173
201
127
173
201
127
173
201
127
173
201
126
173
201
126
173
201
126
173
201
126
172
200
125
172
200
125
171
199
124
171
199
123
171
199
122
171
199
122
171
199
122
171
199
122
171
199
122
172
200
125
172
200
125
172
200
125
172
200
125
173
201
126
173
201
127
173
201
127
173
201
127
173
201
127
173
201
127
173
201
127
173
201
127
172
200
126
172
200
126
170
198
124
170
198
124
170
198
123
169
197
122
169
197
121
168
196
119
167
195
118
168
196
117
167
196
116
167
196
116
167
196
116
167
196
116
167
196
116
166
195
115
166
195
115
166
195
114
166
195
113
165
194
112
165
194
112
165
194
112
165
194
111
165
194
110
165
194
110
164
193
109
164
193
109
164
193
109
163
192
108
162
191
107
161
191
108
160
192
109
159
191
108
159
191
107
159
191
106
158
190
105
158
190
105
159
191
106
159
191
106
158
190
105
158
190
105
158
190
105
158
190
105
157
189
104
157
189
104
157
189
104
156
188
104
156
188
105
156
188
105
155
188
102
154
187
100
155
188
101
153
186
99
153
186
99
153
186
99
153
186
99
153
186
99
153
186
99
153
186
99
152
185
98
152
185
98
151
184
97
151
184
97
151
184
96
150
183
95
150
183
96
150
183
96
150
183
96
164
190
119
164
190
119
164
190
119
164
190
119
164
190
119
164
191
119
164
192
120
164
192
120
165
192
121
166
193
122
167
194
122
167
195
121
167
195
121
168
196
122
168
196
122
168
196
122
170
198
124
170
198
124
170
198
124
170
197
125
170
197
125
170
197
126
170
197
126
170
197
126
170
198
124
170
198
124
169
198
124
169
198
124
169
198
124
168
198
122
168
198
122
169
198
124
169
198
125
169
198
125
169
197
124
170
198
124
170
198
124
170
198
124
170
198
124
170
197
124
170
197
126
170
197
126
171
198
127
171
198
127
172
199
128
172
199
128
173
200
129
173
200
129
173
200
130
173
200
130
173
200
130
173
200
131
173
200
131
173
200
130
173
200
130
173
200
130
173
200
129
173
200
129
173
200
129
173
200
129
173
200
129
173
200
130
174
201
130
174
201
131
174
201
132
175
202
133
175
202
133
175
202
134
175
202
134
176
201
134
176
201
134
176
201
134
175
201
132
175
201
132
175
201
133
175
201
132
174
201
132
174
200
130
174
200
129
174
200
129
174
200
129
174
201
130
174
201
130
174
200
129
174
201
130
174
201
130
174
201
130
174
201
130
175
203
129
175
203
129
175
203
129
174
202
129
174
202
129
174
201
130
174
201
130
175
202
131
174
201
130
174
201
130
173
200
129
173
200
129
173
200
129
173
201
129
173
201
128
173
200
127
173
201
128
173
201
127
173
201
126
172
200
125
172
200
125
172
200
125
172
200
124
172
200
124
172
199
124
171
199
124
171
199
123
171
200
121
170
199
120
171
199
121
171
199
122
171
199
122
171
199
123
171
199
123
172
200
124
172
200
125
172
200
125
173
201
126
173
201
126
173
201
126
173
201
127
173
201
127
173
201
127
173
201
127
172
200
126
171
199
125
170
198
124
170
198
124
170
198
123
169
197
122
169
197
122
168
196
120
167
195
119
167
195
118
167
195
117
167
195
117
167
196
115
166
195
114
166
195
114
166
195
115
166
195
115
166
195
113
166
195
112
165
194
111
165
194
112
165
194
112
165
194
112
165
194
110
164
193
109
164
194
109
164
194
108
164
194
108
164
193
109
163
192
108
162
192
108
161
191
108
159
191
107
159
191
106
159
191
106
158
190
105
158
190
105
158
190
105
158
190
105
159
191
106
158
190
105
158
190
105
158
190
105
158
190
105
158
190
105
157
189
104
157
189
104
157
189
104
156
188
104
155
188
102
155
188
101
154
187
100
153
186
99
152
186
99
152
186
98
153
186
98
152
185
97
152
187
98
152
186
98
151
185
97
151
184
97
151
184
97
150
183
96
150
183
96
150
183
96
150
183
96
150
182
96
149
182
96
164
190
119
164
190
119
164
190
119
164
190
119
164
190
119
164
191
120
164
191
120
164
191
120
165
192
121
167
193
122
167
194
122
167
195
121
167
195
121
168
196
122
168
196
122
168
196
122
168
196
122
169
197
123
170
198
124
170
198
124
170
198
124
170
198
124
170
198
124
170
198
124
170
198
124
170
198
124
169
198
123
168
199
123
168
199
123
167
198
119
167
198
120
168
199
123
168
199
123
168
199
123
168
198
122
170
198
123
170
198
123
170
198
123
170
198
123
169
197
122
170
198
124
170
198
124
170
198
125
171
198
127
171
198
127
171
198
127
172
199
128
172
199
128
173
200
129
173
200
129
173
200
129
173
200
128
173
200
128
172
200
128
172
200
128
173
200
128
172
199
128
172
199
128
173
200
129
173
200
129
173
200
129
173
200
129
173
200
129
174
201
130
174
201
132
175
202
133
175
202
133
175
202
133
175
202
133
176
201
133
176
201
133
175
200
132
174
201
132
174
201
132
174
201
132
174
201
132
174
201
132
173
200
130
173
200
129
173
200
129
173
200
129
174
201
130
174
201
130
173
200
129
174
201
130
174
201
130
174
201
130
174
201
130
174
202
128
174
202
128
174
202
128
174
202
128
174
202
128
174
201
129
174
201
130
174
201
130
174
201
130
173
200
129
173
200
129
173
200
129
173
200
129
173
201
127
173
201
127
173
201
127
173
200
128
173
201
126
173
201
124
172
200
123
172
200
123
172
200
123
172
200
123
172
200
123
171
199
122
171
199
122
171
199
121
171
200
120
170
199
119
171
199
121
171
199
122
171
199
122
171
199
122
171
199
122
171
199
123
172
200
125
172
200
125
172
200
125
173
201
126
173
201
126
173
201
127
173
201
127
173
201
127
173
201
127
172
200
126
171
199
125
170
198
124
170
198
124
170
198
123
169
197
122
169
197
122
168
196
121
167
195
120
167
195
119
167
195
118
167
195
118
165
194
112
166
195
113
166
195
113
166
195
114
166
195
114
166
195
112
166
195
111
165
194
110
165
194
112
165
194
112
165
194
111
165
194
110
164
193
109
164
194
108
164
194
108
164
194
108
164
193
109
163
192
108
163
192
108
161
191
107
158
192
106
159
191
106
159
191
106
158
190
105
158
190
105
157
189
104
158
190
105
159
191
106
158
190
105
158
190
105
158
190
105
158
190
105
158
190
105
157
189
104
157
189
104
157
189
104
156
188
103
155
188
102
155
188
101
154
187
100
152
186
99
152
186
99
152
185
98
153
186
97
152
185
96
151
186
96
151
186
96
151
185
96
151
184
96
150
183
96
150
183
96
149
183
95
149
183
96
150
183
95
150
183
95
149
182
94
164
190
119
164
190
119
164
190
119
164
190
119
165
191
120
164
191
120
164
191
120
164
191
120
165
192
121
166
193
122
166
193
121
166
194
120
166
194
120
167
195
121
168
196
122
168
196
122
168
196
122
169
197
123
169
197
123
169
197
121
169
197
121
169
197
121
169
197
121
169
197
121
169
197
123
169
197
123
168
197
122
167
198
120
166
197
119
166
197
116
166
198
117
167
198
120
167
198
120
167
198
120
168
198
120
169
197
120
169
197
120
169
197
121
169
197
122
169
197
122
169
197
121
170
198
122
170
198
124
170
197
126
171
198
127
172
199
128
172
199
128
172
199
128
172
199
128
172
199
128
172
199
127
172
200
125
173
201
127
172
200
126
172
200
125
172
200
126
173
200
129
173
200
129
172
199
128
172
199
128
173
200
129
173
200
129
173
200
129
174
201
130
174
201
132
174
201
132
174
201
132
174
201
132
174
201
132
175
200
132
175
200
132
174
199
131
173
200
131
173
200
131
173
200
131
174
201
132
173
200
131
173
200
130
173
200
129
173
200
129
173
200
129
173
200
129
173
200
129
173
200
129
173
200
129
173
200
129
173
200
129
173
200
129
173
201
127
173
201
127
173
201
127
173
201
127
173
201
127
173
200
128
173
200
129
173
200
129
173
200
129
173
200
129
173
200
129
173
200
129
173
200
129
172
200
127
172
200
126
172
200
126
172
199
127
172
200
126
172
200
123
171
200
120
171
200
120
172
200
122
172
200
123
171
199
122
170
199
119
170
199
119
170
199
119
170
199
119
170
199
119
170
199
121
171
199
122
171
199
122
171
199
122
171
199
122
171
199
123
171
199
124
171
199
124
171
199
124
172
200
125
173
201
126
173
201
127
172
200
126
172
200
126
172
200
126
171
199
125
170
198
124
170
198
124
169
197
123
169
197
122
168
196
121
168
196
121
167
195
120
167
195
120
167
195
118
166
194
117
166
194
117
165
194
112
165
194
112
165
194
111
165
194
110
165
194
110
165
194
110
165
194
110
165
194
110
165
194
112
164
193
111
164
193
111
165
194
110
164
193
109
164
194
108
164
194
108
164
194
108
164
193
109
163
192
108
162
191
107
162
191
107
159
192
106
159
191
106
159
191
106
158
190
105
157
189
104
157
189
104
157
189
104
158
190
105
158
190
105
158
190
105
158
190
105
158
190
105
157
189
104
157
189
104
157
189
104
156
188
103
156
188
103
155
188
101
154
187
100
154
187
100
152
186
99
152
186
99
152
186
98
152
185
96
151
184
95
150
185
95
150
185
95
150
185
95
150
183
96
150
183
96
150
183
95
149
184
93
149
184
93
150
183
93
150
183
93
149
182
92
166
189
119
166
189
119
165
189
119
164
190
119
165
191
120
163
190
119
164
191
120
164
191
120
165
193
119
166
194
120
165
194
120
164
195
119
164
195
119
164
194
120
165
195
121
166
196
122
166
197
121
167
198
122
167
198
122
167
198
122
167
198
122
166
196
122
166
196
122
166
196
122
166
197
121
166
197
121
166
197
120
166
197
119
165
196
118
166
197
117
166
197
117
166
197
117
166
197
119
166
197
119
166
197
119
167
198
120
167
198
120
167
198
121
167
198
122
167
198
122
169
197
122
170
198
123
170
198
123
170
198
123
170
198
123
171
199
124
171
199
125
171
199
124
171
199
124
171
199
125
171
199
125
171
199
125
172
200
126
172
200
126
172
200
126
172
200
126
172
200
126
173
201
127
173
201
128
173
200
129
172
199
128
172
199
128
172
199
128
173
200
129
173
200
130
173
200
129
174
201
131
173
200
131
173
200
131
173
200
131
173
200
131
173
200
131
173
200
131
173
200
131
174
201
132
173
200
131
173
200
131
173
200
130
173
200
129
173
200
129
173
200
129
173
200
129
173
200
128
173
201
127
173
201
126
173
200
128
173
200
129
173
200
129
173
201
127
173
201
127
173
201
128
173
200
129
173
200
129
173
200
129
173
200
129
173
200
129
173
200
129
173
200
129
173
200
129
173
200
129
172
199
128
172
200
127
172
200
126
172
200
126
171
199
124
171
199
121
171
200
120
170
199
119
171
200
120
171
200
119
171
200
118
171
200
118
169
200
117
168
200
117
168
200
117
168
200
117
168
200
117
168
200
117
168
200
117
168
200
117
170
199
119
170
199
119
170
199
120
170
198
121
171
199
122
171
199
123
171
199
124
171
199
124
171
199
124
171
199
124
171
199
123
170
198
122
170
198
121
170
198
122
170
198
123
169
197
122
168
196
121
167
195
120
167
195
120
166
194
119
167
195
120
166
194
118
166
194
117
165
193
116
165
194
114
164
193
111
164
193
109
164
194
108
164
194
109
164
194
110
164
193
110
164
193
110
164
194
108
164
194
108
164
194
108
164
194
108
164
194
108
164
194
108
163
193
107
163
193
107
161
194
107
161
193
106
160
192
106
159
191
106
159
191
106
158
190
105
158
190
105
157
189
104
156
188
103
156
188
103
157
189
104
157
189
104
157
190
105
158
190
105
158
190
105
158
190
105
158
190
105
157
189
104
157
189
104
157
190
103
156
189
102
155
188
101
154
187
100
153
186
99
152
185
96
153
186
97
152
185
96
151
184
93
151
184
93
150
185
94
151
184
95
153
183
95
150
185
95
150
185
95
150
184
95
150
183
94
150
183
93
149
183
95
149
184
93
148
183
90
166
189
119
166
189
119
165
189
119
164
190
119
165
191
120
164
191
120
164
191
120
164
191
120
165
193
119
165
193
119
165
194
119
163
194
118
164
195
119
164
195
120
165
195
121
166
196
122
166
198
122
167
198
122
167
198
122
166
197
121
166
197
121
166
197
120
165
196
120
165
196
120
166
197
118
166
197
118
165
196
117
165
197
116
165
196
116
165
196
116
165
196
116
165
196
116
166
197
119
166
197
119
166
197
119
166
197
119
166
197
119
166
197
121
167
198
122
167
198
122
169
197
122
170
198
123
170
198
123
170
198
123
170
198
123
170
198
123
171
199
124
170
198
123
170
198
123
170
198
123
170
198
123
170
198
122
171
199
123
171
199
125
171
199
125
171
199
125
172
200
126
172
200
126
172
200
127
172
199
128
172
199
128
172
199
128
172
199
128
173
200
129
172
199
128
173
200
129
173
200
130
173
200
131
173
200
131
173
200
131
173
200
131
173
200
131
173
200
131
173
200
131
173
200
131
173
200
131
173
200
131
173
200
130
173
200
129
172
199
128
172
199
128
172
199
128
172
199
128
173
200
128
172
199
127
173
200
128
173
200
129
172
199
128
172
200
126
172
200
126
172
200
127
172
199
128
173
200
129
173
200
129
173
200
129
173
200
129
173
200
129
173
200
129
173
200
129
173
200
129
172
199
128
172
200
127
172
200
126
172
200
126
172
200
124
171
199
121
170
199
119
170
199
119
171
200
120
171
200
118
170
199
117
170
199
117
168
200
117
168
200
117
168
200
117
168
200
117
168
200
117
168
200
117
168
200
117
168
200
117
170
199
119
170
199
119
170
199
120
170
198
121
170
198
121
170
199
121
171
199
121
171
199
121
171
199
121
171
199
121
170
198
121
170
198
121
169
197
120
169
197
122
169
197
122
168
196
121
168
196
121
167
195
120
167
195
120
166
194
119
166
194
119
165
193
117
165
193
116
164
192
115
165
194
114
164
193
111
163
193
108
163
193
107
164
194
108
164
193
108
164
193
108
163
193
108
164
194
108
164
194
108
164
194
108
164
194
108
164
194
108
163
193
107
163
193
107
163
193
107
161
194
107
160
193
106
160
192
106
159
191
106
158
190
105
157
189
104
157
189
104
157
189
104
157
189
104
157
189
104
158
190
105
158
190
105
158
190
105
158
190
105
158
190
105
158
190
105
157
189
104
157
189
104
157
189
104
157
190
103
156
189
102
155
188
101
154
187
100
153
186
99
152
185
96
152
185
96
151
184
94
151
184
93
151
184
93
150
185
94
152
184
95
154
184
96
153
184
96
153
184
96
152
184
95
151
184
95
150
183
94
149
183
95
149
183
93
148
183
90
167
190
120
166
189
119
165
189
119
164
190
119
165
191
120
164
191
120
164
191
120
164
191
120
165
193
119
165
193
119
164
193
119
163
194
118
164
195
119
165
195
120
165
196
121
165
196
121
167
198
122
167
198
122
167
198
122
166
197
120
166
197
120
166
197
119
165
196
117
165
196
117
164
196
115
165
196
115
165
197
115
165
197
114
165
197
114
165
196
115
165
196
116
165
196
116
165
196
118
166
197
119
166
197
119
166
197
119
166
197
119
166
197
120
166
197
121
167
198
122
169
197
122
170
198
123
170
198
123
170
198
123
170
198
123
170
198
123
170
198
123
170
198
123
169
198
122
169
198
122
169
198
122
169
198
121
170
199
122
171
199
124
171
199
125
171
199
125
172
200
126
172
200
126
172
200
126
172
199
128
172
199
128
172
199
128
172
199
128
173
200
129
172
199
129
173
200
130
173
200
130
173
200
131
173
200
131
173
200
131
173
200
130
173
200
130
173
200
131
173
200
131
173
200
131
173
200
131
173
200
131
173
200
130
173
200
129
172
199
128
172
199
128
172
199
128
171
198
128
171
198
128
172
199
129
171
198
128
171
198
127
171
198
127
171
200
126
171
200
126
171
200
127
171
199
128
172
200
129
173
200
129
173
200
129
173
200
129
173
200
129
173
200
129
173
200
129
173
200
129
172
199
128
172
200
127
172
200
126
172
200
125
170
199
123
169
199
120
169
199
118
169
199
118
169
199
118
169
199
117
169
199
117
169
199
117
168
200
116
167
199
116
168
200
117
168
200
117
168
200
117
167
199
116
167
199
116
168
200
117
169
199
118
169
198
118
168
198
118
168
198
119
169
199
120
169
199
119
169
199
119
169
199
119
170
198
119
169
198
118
169
198
119
169
197
119
168
197
119
169
197
120
169
197
121
168
196
121
168
196
121
168
196
121
166
194
119
166
194
119
166
194
119
165
193
117
165
193
115
164
192
114
164
193
113
164
193
111
163
192
108
163
193
107
163
193
107
163
193
106
162
192
105
163
193
105
164
194
108
164
194
108
164
194
108
164
194
108
164
194
108
163
193
107
163
193
107
163
193
107
161
193
107
161
193
106
160
192
106
160
191
106
158
190
105
158
189
104
157
189
104
157
189
104
157
189
105
157
189
104
158
190
105
158
190
105
158
190
105
157
189
104
157
189
104
158
190
105
157
189
104
157
189
104
157
189
103
157
190
102
156
189
102
155
188
101
154
187
100
153
186
99
153
186
97
152
185
96
151
184
94
151
185
93
151
185
93
151
185
94
153
184
96
155
185
97
155
185
98
155
185
98
154
185
97
151
184
95
151
183
95
150
184
96
149
184
94
148
182
91
168
189
120
165
190
119
164
190
119
164
190
119
165
191
120
164
191
120
164
191
120
164
191
120
164
192
118
165
193
119
164
193
119
163
193
119
164
194
120
165
195
120
165
196
120
165
196
120
166
197
121
166
197
121
166
197
121
166
197
119
165
196
118
164
195
116
164
195
115
164
195
115
163
197
113
163
197
113
164
198
114
165
197
114
165
197
114
165
196
115
164
195
114
164
196
115
164
195
117
165
196
118
165
196
118
165
196
118
166
197
119
166
197
120
166
197
121
166
197
121
168
196
121
169
197
122
169
197
122
170
198
123
170
198
123
170
198
123
170
198
123
170
198
123
168
199
121
168
199
121
168
199
121
168
199
121
168
199
121
169
198
122
170
198
123
171
199
124
171
199
125
171
199
125
171
199
126
172
199
128
171
198
127
172
199
128
172
199
128
172
199
128
172
199
130
173
200
131
173
200
131
173
200
131
173
200
131
173
200
129
173
200
129
172
199
128
172
199
130
172
199
130
172
199
130
172
199
130
172
199
130
172
199
130
172
199
130
171
198
129
171
198
127
171
198
127
171
198
127
171
198
127
171
198
127
171
198
127
171
198
127
171
198
127
169
199
125
170
200
126
170
200
127
170
200
128
170
200
128
172
200
129
173
200
129
173
200
129
173
200
129
173
200
129
173
200
129
173
200
129
172
199
128
172
199
128
172
200
126
171
199
123
168
199
121
168
199
118
167
199
116
167
199
116
167
199
116
168
200
117
168
200
117
168
200
117
168
200
115
168
200
115
168
200
116
168
200
117
168
200
117
168
200
117
168
200
117
168
200
117
167
199
116
167
199
116
167
199
116
167
199
116
168
200
117
168
199
118
168
199
119
168
199
119
169
198
118
169
198
118
169
198
118
168
197
117
168
197
117
169
197
119
169
197
121
168
196
122
168
196
121
167
195
120
166
194
119
166
194
119
165
193
118
165
193
117
164
193
114
164
193
112
164
193
113
163
192
110
162
191
107
162
192
106
162
192
106
162
192
106
162
192
106
162
192
106
162
192
106
162
192
106
163
193
107
163
193
107
163
193
107
163
193
107
163
193
107
163
193
107
162
192
106
162
192
106
162
191
106
161
190
106
161
190
106
159
190
106
157
189
104
157
189
104
157
189
106
157
189
106
157
189
106
157
189
106
157
189
106
157
189
105
157
189
104
157
189
104
157
189
104
157
189
104
157
189
103
156
189
101
156
189
101
155
188
101
154
187
100
154
187
100
153
186
97
152
185
96
152
185
95
152
185
94
152
185
94
153
185
94
154
184
95
154
184
97
155
185
99
155
185
99
155
185
99
154
184
98
152
182
96
151
183
95
150
183
94
150
183
94
168
189
120
165
190
119
164
190
119
164
190
119
165
191
120
164
191
120
164
191
120
164
191
120
164
192
118
164
192
118
164
192
118
163
193
119
164
194
120
165
195
120
165
196
120
165
196
120
165
196
120
166
197
121
166
197
120
165
196
118
165
196
118
165
196
117
165
196
116
164
195
115
163
197
113
164
198
114
164
198
114
165
197
114
165
197
114
164
196
113
164
196
112
164
196
112
164
195
117
165
196
118
165
196
118
165
196
118
165
196
118
166
197
120
166
197
121
166
197
121
168
196
121
169
197
122
169
197
122
169
197
122
169
197
122
169
197
122
169
197
122
170
198
123
168
199
121
168
199
121
168
199
121
168
199
121
168
199
121
169
198
122
170
198
123
170
198
123
170
198
124
170
198
124
170
198
125
171
198
127
171
198
127
171
198
127
172
199
128
173
200
129
172
199
130
173
200
131
173
200
131
173
200
131
173
200
131
173
200
130
173
200
129
172
199
128
172
199
130
171
198
129
171
198
129
171
198
129
171
198
129
171
198
129
171
198
129
171
198
129
171
198
127
171
198
127
171
198
127
171
198
127
171
198
127
171
198
127
171
198
127
171
198
127
169
199
125
170
200
126
170
200
127
170
200
128
170
200
128
172
200
129
173
200
129
173
200
129
173
200
129
172
199
128
172
199
128
172
199
128
172
199
128
172
199
128
172
200
126
170
198
122
168
199
121
167
199
118
166
198
115
166
198
115
167
199
116
167
199
116
167
199
116
167
199
116
167
199
114
167
199
114
167
199
115
167
199
116
167
199
116
167
199
116
167
199
116
167
199
116
167
199
116
167
199
116
166
198
115
166
198
115
167
199
116
167
198
117
167
198
118
167
198
118
168
197
117
168
197
117
168
197
117
167
196
116
167
196
116
167
196
118
167
195
119
167
195
121
167
195
120
167
195
120
166
194
119
166
193
119
164
192
117
164
192
117
164
192
117
164
193
114
163
192
112
163
192
110
161
191
106
161
191
105
161
191
105
161
191
105
161
191
105
161
191
105
161
191
105
161
191
105
162
192
106
163
193
107
163
193
107
163
193
107
163
193
107
163
193
107
163
193
107
162
192
106
161
191
105
161
190
106
161
190
106
159
190
105
157
189
104
157
189
104
157
189
106
157
189
106
157
189
106
157
189
106
157
189
106
157
189
105
157
189
104
157
189
104
157
189
104
157
189
104
157
189
104
156
188
103
156
188
103
155
188
101
154
187
100
154
187
100
153
186
97
152
185
96
152
185
96
152
185
97
152
185
97
153
185
94
154
184
95
154
184
97
154
184
98
154
184
98
154
184
98
154
184
98
153
183
97
151
183
95
150
183
94
150
183
94
167
189
120
166
190
120
165
190
119
164
190
118
165
191
119
164
191
119
164
192
119
164
192
119
164
192
118
164
192
118
164
192
118
164
193
119
164
193
119
164
194
119
164
195
119
165
196
120
165
196
120
165
196
120
166
197
120
166
197
119
165
196
118
165
196
117
165
196
116
164
195
115
164
197
114
164
197
114
165
197
114
164
198
114
164
198
114
164
197
113
164
196
112
164
196
112
165
196
119
165
196
119
165
196
119
166
195
119
167
196
119
167
197
121
167
196
122
167
196
122
168
196
121
169
197
121
169
197
122
169
197
122
169
197
121
169
197
121
169
197
121
169
197
121
168
198
119
168
198
119
168
198
119
168
198
120
169
198
120
169
197
121
170
198
122
170
198
122
170
198
123
170
198
123
171
198
125
171
198
127
172
199
128
172
199
128
172
199
128
173
200
129
173
200
129
173
200
130
173
200
130
173
200
130
173
200
130
173
200
129
173
200
129
172
199
128
172
199
129
171
198
128
171
198
128
171
198
128
171
198
128
171
198
127
170
197
127
170
197
127
170
197
126
170
197
126
171
198
127
171
198
127
171
198
127
171
198
127
170
197
126
171
198
127
171
199
127
171
199
127
171
200
127
170
200
127
170
200
127
171
200
128
172
201
129
172
201
129
173
200
129
173
200
129
173
200
129
173
200
129
172
199
128
171
199
128
170
199
125
169
199
122
168
199
121
167
198
118
166
198
115
166
198
115
166
198
115
167
199
115
167
199
115
167
199
115
167
199
114
167
199
114
167
199
114
167
199
116
167
199
116
167
199
116
167
199
116
168
200
117
167
199
116
166
198
115
166
198
115
166
198
115
166
198
115
166
198
116
166
198
116
166
198
116
168
196
118
168
197
118
168
196
118
167
195
117
167
195
117
167
195
118
167
195
118
167
195
119
167
195
121
167
195
121
166
194
120
165
193
119
165
193
118
164
192
118
164
192
117
164
192
116
164
193
113
163
192
109
162
191
107
162
192
106
162
192
106
161
191
105
161
191
105
161
191
105
161
191
105
161
191
105
161
191
105
163
193
105
163
193
106
163
193
106
163
193
106
163
193
106
163
193
107
162
192
106
161
191
106
161
190
106
161
190
106
160
190
106
158
189
106
157
190
105
158
190
107
158
190
107
158
189
107
158
189
108
158
189
108
157
189
105
157
189
104
157
189
104
158
190
105
157
189
104
157
189
105
158
188
106
157
188
105
156
187
102
156
187
101
155
186
100
154
185
98
154
186
98
154
185
98
154
185
97
154
185
97
154
184
95
154
184
96
154
184
98
154
184
98
154
184
98
154
184
98
154
184
98
153
183
97
151
183
95
150
183
94
150
183
94
167
190
120
167
190
120
166
190
120
165
191
121
165
191
121
164
191
121
164
191
121
164
191
121
164
191
121
164
191
121
164
191
120
165
193
120
166
193
120
165
194
121
165
195
121
165
195
122
165
195
122
165
195
122
166
196
122
166
197
120
166
197
120
166
197
118
165
196
117
165
196
117
165
196
115
165
197
115
165
197
115
165
196
115
165
196
115
164
196
115
164
195
114
164
196
114
165
196
120
165
196
120
166
196
120
167
195
121
168
196
121
168
196
122
168
196
122
168
196
122
168
196
122
169
197
122
169
197
122
169
197
123
169
197
122
169
197
121
169
197
121
169
197
121
169
197
119
169
197
119
169
197
119
169
197
121
169
197
121
170
198
121
169
197
121
170
198
122
170
198
124
171
199
124
171
199
125
171
198
127
172
199
128
172
199
128
172
199
128
173
200
129
173
200
129
173
200
129
173
200
129
173
200
129
173
200
129
173
200
129
173
200
129
172
199
128
172
199
128
171
198
127
171
198
127
171
198
127
171
198
127
170
197
126
170
197
126
170
197
126
170
197
126
170
197
126
170
197
126
171
198
127
171
198
127
170
197
126
170
197
126
171
198
127
172
199
128
172
199
128
171
199
128
170
200
128
170
200
129
171
201
129
171
201
129
171
201
129
173
200
129
173
200
129
173
200
129
173
200
129
172
199
128
170
199
127
169
199
125
168
199
122
168
199
121
167
198
118
166
198
115
166
198
115
166
198
115
167
199
116
167
199
116
167
199
115
167
199
114
166
198
113
166
198
114
167
199
116
167
199
116
167
199
117
167
199
118
168
199
118
167
199
117
166
198
116
166
198
116
166
198
115
166
198
115
166
198
116
166
198
116
166
198
116
168
196
119
168
196
119
168
196
119
167
195
118
167
195
118
167
195
118
167
195
119
167
195
119
167
195
121
167
195
121
166
194
120
165
193
119
165
193
119
164
192
118
164
192
117
164
192
117
164
193
114
163
192
111
163
192
109
163
192
108
162
191
107
161
191
106
161
191
105
161
191
105
161
191
105
161
191
105
161
191
105
162
192
106
163
193
107
163
193
107
163
193
107
163
193
107
163
192
108
162
191
107
162
191
107
161
190
106
161
190
106
161
190
107
159
190
107
157
191
107
158
190
107
158
190
107
158
190
108
158
189
109
158
189
109
158
189
107
157
189
105
157
189
106
158
190
107
158
190
107
159
190
107
159
188
106
158
187
105
157
186
103
157
186
102
156
185
101
155
184
100
155
184
100
155
184
100
155
184
99
155
185
99
155
185
97
155
185
98
155
184
100
155
184
100
154
183
99
154
183
99
154
183
99
153
182
98
151
183
97
150
183
96
150
183
96
167
190
120
167
190
120
166
190
121
165
190
123
165
190
123
164
191
123
164
191
123
164
191
123
164
191
123
164
191
123
164
191
122
166
193
123
167
194
124
166
195
124
165
195
124
165
195
124
165
195
124
165
195
124
167
197
125
167
197
122
167
197
123
167
197
121
166
197
121
166
197
120
165
196
118
165
196
118
166
196
118
166
194
117
167
195
117
166
196
118
165
196
118
165
196
118
165
196
120
165
196
120
166
195
121
167
194
122
168
195
123
168
196
122
168
196
122
168
196
122
168
195
123
168
195
123
168
196
123
169
196
124
169
196
124
169
197
123
169
197
123
170
198
124
169
197
121
169
197
121
169
197
122
169
197
123
169
197
123
169
197
123
169
197
123
169
197
123
171
198
126
171
198
126
171
198
127
171
198
127
172
199
128
173
200
129
173
200
129
173
200
129
173
200
129
173
200
129
173
200
129
173
200
129
173
200
129
173
200
129
173
200
129
172
199
128
172
199
128
171
198
127
171
198
127
171
198
127
170
197
126
170
197
126
170
197
126
171
198
127
170
197
126
170
197
126
170
197
126
171
198
127
171
198
127
171
198
127
171
198
127
172
199
128
171
198
127
172
199
128
171
199
129
171
201
131
171
201
132
171
201
130
171
201
129
171
201
129
173
200
129
173
200
129
173
200
129
173
200
129
172
199
128
170
199
128
170
200
126
169
200
123
168
199
121
168
199
119
167
199
116
167
199
116
167
199
116
167
198
117
167
198
118
167
198
118
168
200
115
167
199
114
167
199
115
167
199
116
167
199
116
167
198
119
168
199
121
168
199
121
168
199
121
167
198
120
167
198
118
166
198
115
167
199
116
167
198
119
167
198
120
167
198
120
169
197
120
168
196
119
168
196
119
167
195
118
167
195
118
167
195
120
167
195
121
167
195
121
167
195
121
167
195
121
166
194
120
166
194
120
165
193
119
165
193
118
165
193
118
164
192
117
164
192
117
164
193
115
164
193
112
164
193
111
163
192
110
162
192
107
162
192
106
162
192
106
162
192
106
162
192
106
162
192
106
162
191
108
163
192
108
163
192
109
163
192
109
163
192
109
163
192
110
162
191
109
162
191
108
161
190
106
161
190
106
161
190
107
160
191
108
158
192
108
158
190
107
158
190
107
158
190
108
158
189
109
158
189
109
158
189
109
157
188
108
158
189
108
158
189
109
159
190
110
159
190
109
160
189
107
158
187
105
157
186
104
156
185
103
156
185
103
155
184
102
155
184
102
155
184
102
155
184
101
155
184
101
155
185
100
155
184
100
155
184
103
155
184
102
155
184
102
155
184
102
154
183
101
153
182
100
151
182
98
149
181
97
150
182
98
165
190
122
165
190
122
165
190
122
166
191
123
165
190
122
165
190
122
165
190
122
165
190
122
164
191
122
165
192
123
165
192
123
166
193
124
167
194
125
167
194
125
167
194
125
167
194
125
168
195
126
168
195
126
169
197
126
170
198
125
169
197
124
169
197
123
169
197
122
168
196
122
168
196
120
168
196
120
167
195
119
167
195
119
167
195
119
167
195
119
167
195
119
167
195
119
168
196
121
167
195
121
167
195
121
167
194
123
168
195
124
167
196
123
166
196
122
167
197
124
170
196
124
170
196
124
170
196
124
170
196
124
170
196
124
171
197
124
171
197
125
171
197
125
171
197
123
170
196
123
170
196
123
170
196
123
170
196
123
170
196
123
170
196
123
171
197
123
171
197
125
171
197
125
172
198
127
172
198
129
174
199
131
173
199
130
174
199
130
174
200
131
173
200
129
173
200
129
173
200
129
173
200
129
173
200
129
173
200
129
173
200
129
172
199
128
172
199
128
172
199
128
171
198
127
171
198
127
171
198
127
171
198
128
171
198
129
171
198
128
169
199
127
170
200
128
170
199
128
171
198
127
171
198
127
171
198
127
171
198
127
172
199
128
172
199
128
172
199
128
172
199
129
173
200
131
173
200
131
173
200
131
173
200
131
173
201
131
174
201
130
174
201
130
174
201
131
173
200
131
173
200
128
172
199
127
172
199
128
172
199
128
170
199
123
170
198
122
169
198
121
168
199
121
168
199
121
168
199
121
168
199
121
168
199
121
168
199
119
168
199
119
168
199
119
167
198
118
168
199
119
168
199
120
168
199
121
168
199
121
167
198
119
167
198
118
167
198
118
168
199
119
168
199
119
169
198
121
169
197
122
169
197
122
170
198
122
170
198
122
169
197
121
168
196
121
168
196
121
167
196
122
166
196
123
166
196
122
169
195
123
169
195
123
168
194
122
168
194
122
168
194
121
167
193
121
167
193
121
167
193
121
167
193
120
167
193
119
166
192
118
165
192
116
165
191
116
164
193
112
163
192
110
163
192
110
161
193
110
161
193
110
161
192
110
163
192
112
164
193
113
164
193
113
164
193
113
164
193
113
163
192
112
163
192
112
163
192
112
163
192
112
162
191
111
162
191
110
161
190
108
161
190
108
159
190
109
159
190
109
159
189
109
160
188
111
160
188
111
159
190
110
158
189
108
158
189
109
161
189
111
161
190
112
161
189
111
160
188
111
158
187
107
158
187
107
157
186
106
157
185
106
155
184
104
155
184
104
155
184
104
154
185
105
154
185
105
155
184
104
155
184
104
156
185
105
156
184
106
156
184
106
156
183
107
156
182
107
155
181
107
155
181
106
154
180
105
153
179
104
165
190
122
165
190
122
166
191
123
166
191
123
165
190
122
165
190
122
165
190
122
165
190
122
165
191
125
165
192
125
165
192
126
166
192
126
167
194
127
166
193
127
167
194
127
168
194
128
168
195
128
168
195
128
169
196
129
170
197
127
170
197
127
170
197
125
169
196
124
169
196
124
168
196
122
168
196
122
167
195
121
167
195
121
167
195
121
167
195
121
168
196
121
168
196
121
168
195
123
168
195
123
168
195
123
168
195
124
168
195
124
168
195
125
169
195
126
169
196
126
170
195
126
170
195
126
170
195
126
170
195
126
170
195
126
171
196
127
171
196
127
171
196
127
170
196
125
170
196
124
170
196
124
171
197
125
170
196
124
170
196
124
170
196
124
171
197
125
171
196
127
172
197
128
173
198
130
174
199
131
174
199
131
174
199
131
174
199
131
175
200
132
173
200
129
173
200
129
173
200
129
174
201
130
173
200
129
173
200
129
173
200
129
173
200
129
173
200
129
173
200
129
172
199
128
172
199
128
172
199
128
172
199
129
172
199
130
172
199
130
172
199
128
172
199
128
172
199
128
172
199
128
171
198
127
171
198
127
171
198
127
172
199
128
173
200
129
173
200
129
173
200
129
173
200
131
174
201
132
174
201
132
174
201
132
174
201
132
175
202
133
175
202
133
174
201
133
173
200
131
173
200
128
172
200
128
172
199
128
172
199
128
172
200
126
170
198
124
170
198
124
168
199
123
168
199
123
169
199
123
169
199
123
169
200
123
168
199
121
168
199
121
168
199
121
168
199
121
168
199
121
168
199
121
168
199
121
168
199
121
168
199
122
167
198
120
167
198
120
168
199
121
168
199
121
169
198
122
170
198
123
170
198
123
170
198
124
170
198
124
170
197
124
169
197
124
169
196
124
169
195
125
169
195
126
169
195
126
169
194
125
170
195
126
170
195
126
170
195
126
170
195
126
169
194
125
169
194
125
169
194
125
169
195
123
168
194
123
168
194
121
167
193
120
166
192
119
165
193
117
165
193
116
165
193
116
165
192
116
164
191
115
163
191
114
164
192
115
165
193
116
164
192
115
164
192
115
164
193
115
164
192
115
163
191
114
163
191
114
163
191
114
162
190
113
162
190
114
162
190
113
162
190
113
162
190
115
162
190
115
162
190
115
162
190
115
161
189
114
162
189
114
161
189
114
161
189
114
162
189
115
162
190
116
161
189
115
160
188
113
159
187
111
158
187
109
157
185
108
157
185
108
156
184
107
156
184
107
156
184
107
156
184
107
156
184
107
157
184
107
157
184
107
158
184
107
158
183
109
158
183
109
158
183
109
159
183
109
158
182
108
158
182
108
157
181
107
156
181
107
165
190
123
165
190
123
167
191
124
167
191
124
167
191
124
166
190
123
165
190
123
165
190
123
166
191
126
166
191
126
166
192
127
166
192
127
167
193
128
167
192
127
167
193
128
169
194
129
168
194
129
168
194
129
169
196
130
170
197
129
170
197
129
169
196
127
168
195
126
169
195
127
168
195
124
168
195
124
168
194
123
167
194
122
167
194
123
168
195
124
168
195
124
168
195
124
169
195
126
169
195
126
168
195
125
168
195
125
169
195
125
169
195
127
170
195
128
170
195
127
170
195
128
170
195
128
170
195
128
171
195
128
171
195
128
171
196
128
171
196
128
171
196
128
170
195
126
170
195
125
171
195
127
172
196
127
171
195
127
171
196
127
172
196
127
172
196
128
172
196
129
172
197
130
174
198
131
175
199
132
175
199
132
175
200
132
175
200
132
176
200
132
174
200
130
174
200
130
174
200
130
174
201
130
173
200
129
173
200
129
173
200
129
173
200
129
173
200
129
173
200
129
173
200
129
173
199
128
173
199
128
173
199
130
172
199
130
172
199
130
173
199
128
173
199
128
173
199
128
172
199
127
171
198
126
171
198
127
172
198
128
172
199
129
173
199
130
173
200
130
173
200
131
174
200
132
174
201
132
174
201
133
175
201
133
175
202
134
176
202
136
176
202
136
175
201
135
174
201
132
174
200
130
173
200
129
173
200
129
173
200
130
172
199
128
172
199
128
171
199
127
170
199
126
170
199
126
170
200
126
170
199
125
170
199
125
170
200
124
169
199
123
169
199
124
170
200
125
169
199
123
168
199
122
168
199
122
169
199
122
169
199
123
169
199
123
169
199
123
169
199
123
169
199
123
170
198
123
171
198
124
171
198
124
170
197
126
170
197
126
170
197
126
170
197
127
170
197
127
171
196
129
170
196
129
170
195
128
170
195
129
171
196
129
171
196
129
172
196
129
172
196
129
171
195
129
171
195
129
171
195
129
171
195
127
171
195
126
170
194
125
169
194
124
168
193
122
167
193
120
166
193
119
166
192
119
167
193
119
166
192
119
166
192
118
165
193
118
165
193
118
165
193
118
165
192
118
165
192
118
164
192
118
164
192
118
164
192
118
164
191
117
164
191
117
164
191
117
164
191
117
164
191
117
164
190
119
164
190
119
164
191
119
164
191
118
163
190
117
164
189
118
164
189
118
164
189
118
163
189
120
163
189
120
163
189
119
162
188
116
161
188
114
160
187
113
159
186
111
159
186
111
158
185
111
158
185
111
158
185
111
159
184
111
159
184
111
160
184
110
161
185
110
161
185
110
161
183
111
161
183
111
161
183
111
162
183
111
161
182
110
161
182
110
160
181
109
160
181
109
165
190
124
166
191
125
167
191
126
169
191
127
169
191
127
167
191
126
167
191
126
166
191
126
167
192
127
168
193
128
168
193
128
168
193
128
168
193
128
169
193
128
169
193
128
170
194
129
169
194
129
170
195
130
170
195
130
171
196
130
170
195
129
169
194
128
169
194
128
169
194
128
169
195
125
169
194
125
169
195
124
169
195
123
169
195
123
169
195
125
169
195
125
169
195
125
170
195
127
170
195
127
170
195
127
169
194
126
170
195
127
171
196
128
170
195
127
169
194
126
172
196
128
172
196
128
172
196
128
173
196
128
173
196
128
172
196
128
172
196
128
172
196
128
173
196
126
173
196
126
173
196
126
173
196
128
173
196
128
173
196
128
173
196
128
174
197
129
174
196
131
174
196
131
175
197
132
176
198
133
176
198
133
177
200
133
177
200
132
177
200
132
175
200
132
175
200
132
175
201
132
175
201
130
174
200
129
174
200
129
174
200
129
174
200
129
174
200
129
174
200
129
174
200
129
174
200
129
174
200
129
174
199
130
174
199
131
173
198
130
173
199
128
173
199
128
173
199
128
173
199
127
172
198
126
173
198
129
173
198
130
173
198
130
174
199
133
174
199
133
174
199
133
174
199
133
175
200
134
176
201
135
176
201
135
176
201
135
177
202
137
177
202
137
177
202
136
176
201
135
175
200
134
173
200
132
173
200
132
173
200
132
173
200
130
173
200
130
173
200
129
172
199
129
173
200
129
172
199
128
172
199
127
172
199
127
172
199
127
171
199
127
171
199
127
172
199
127
171
199
126
170
198
126
170
199
126
170
199
126
171
199
125
170
198
124
170
198
124
171
199
125
171
199
125
172
198
126
172
198
126
172
198
126
172
198
127
173
199
128
173
198
128
172
197
129
172
197
129
172
198
130
171
198
131
171
198
131
172
196
131
172
197
132
173
197
132
174
196
131
174
196
131
174
196
131
174
196
131
174
196
131
173
196
128
173
196
128
172
195
127
173
194
125
172
193
124
170
193
123
169
192
122
169
192
121
167
193
120
167
193
120
167
193
119
167
193
119
167
193
120
166
192
120
166
192
121
166
192
121
166
192
121
166
192
121
166
192
121
165
191
120
165
191
120
165
191
119
165
191
118
165
191
118
166
191
120
166
192
121
167
191
121
167
190
120
167
190
120
167
190
120
167
190
120
167
189
120
166
189
121
166
189
121
167
190
121
166
189
119
165
187
118
164
187
115
164
187
114
163
186
113
162
185
113
162
185
113
163
185
113
163
185
113
163
185
113
163
185
112
163
185
112
163
185
112
163
184
112
164
184
113
164
184
113
165
183
113
164
182
112
166
181
112
167
181
112
166
181
112
166
191
125
166
191
125
168
192
126
170
192
128
170
192
128
170
191
127
170
191
127
170
191
127
167
192
127
168
193
128
169
194
129
168
193
128
168
193
128
171
193
129
172
193
130
172
193
130
169
194
129
171
196
131
171
196
130
170
195
129
169
194
128
169
194
128
169
194
128
169
194
128
170
195
128
170
195
128
170
195
128
169
194
126
169
194
126
169
194
127
169
194
128
169
194
128
170
195
127
171
196
128
171
196
128
170
195
127
170
195
127
171
196
128
171
196
128
171
196
128
173
195
128
174
195
128
173
196
128
173
196
128
173
196
128
173
196
128
174
195
128
174
195
128
173
196
126
173
196
126
173
196
127
173
196
128
173
196
128
174
197
129
174
197
129
174
197
129
175
197
132
174
196
131
174
196
131
175
197
132
176
198
133
177
200
133
177
200
132
177
200
132
175
200
132
175
200
132
175
200
131
175
201
130
175
201
130
174
200
129
174
200
129
174
200
129
174
200
129
174
200
129
174
200
129
174
200
129
174
200
129
174
199
130
174
199
131
173
198
130
174
200
129
174
200
129
174
199
129
173
198
130
174
199
131
173
198
130
173
198
130
174
199
131
175
200
133
175
200
134
175
200
134
176
201
135
176
201
135
177
202
136
176
201
135
177
202
136
177
202
137
177
202
137
177
202
137
177
202
136
176
201
135
174
200
134
174
200
134
174
200
134
173
200
132
173
200
133
173
200
133
173
200
132
173
200
133
173
200
131
173
200
131
173
200
131
173
200
131
173
200
131
173
200
131
173
200
131
172
199
130
172
199
130
173
198
130
172
198
130
172
199
128
172
199
128
172
199
128
172
199
128
172
199
128
173
198
129
173
198
130
173
198
130
173
199
128
174
200
129
174
199
129
173
198
130
173
198
130
174
198
131
174
198
132
175
198
133
176
197
134
176
198
134
176
198
134
176
198
133
175
197
132
176
197
132
176
197
132
176
196
131
175
196
129
175
195
129
175
195
129
173
195
129
174
195
129
172
194
127
171
194
126
170
193
125
168
194
123
168
194
123
168
194
123
168
194
123
167
193
122
167
193
122
167
193
122
167
193
122
167
193
122
167
193
122
167
193
122
166
192
121
166
192
121
167
193
122
167
193
122
167
192
122
169
191
122
169
191
122
170
191
122
170
191
122
170
191
122
169
190
121
169
190
121
169
190
121
169
189
122
169
189
122
169
189
122
169
189
120
168
188
119
166
187
118
166
187
118
166
187
118
166
187
115
166
187
115
166
186
115
167
186
115
165
184
114
165
185
113
166
186
114
167
186
114
167
184
114
167
184
114
168
184
114
171
183
115
170
182
114
169
181
113
169
181
113
169
181
112
168
191
126
169
192
127
169
192
128
171
192
128
171
192
129
171
192
128
171
191
128
171
191
128
170
193
129
170
193
129
170
193
129
170
193
129
170
193
129
171
193
129
173
194
130
173
194
131
172
195
131
172
195
131
172
195
130
172
195
130
171
194
129
171
194
129
171
194
128
171
194
129
172
195
130
171
195
129
170
194
128
170
193
128
170
193
128
171
194
128
171
194
129
171
195
129
172
196
128
172
196
128
172
196
128
170
195
127
171
196
128
173
196
129
174
196
129
174
196
129
175
196
129
175
196
129
174
195
128
174
195
128
174
196
128
174
195
128
174
195
128
174
195
128
174
196
127
174
195
127
174
195
127
174
195
128
174
195
128
174
196
130
175
196
130
175
197
131
176
197
132
175
196
131
175
197
132
175
197
132
176
198
133
177
199
133
177
199
133
177
199
133
175
200
132
175
200
132
175
200
131
175
201
130
175
201
130
175
201
130
175
201
130
175
201
130
175
201
130
174
200
129
174
200
129
174
199
130
174
200
131
174
199
131
174
199
131
174
199
131
174
199
130
174
199
130
174
199
131
174
199
132
174
199
131
173
199
131
174
200
131
174
200
132
177
200
134
177
201
135
177
201
135
178
201
136
178
201
136
178
201
136
178
201
136
178
201
137
176
202
137
177
202
137
177
202
137
178
201
137
177
201
136
176
200
135
174
200
135
175
200
135
175
201
135
175
200
135
174
200
134
173
200
134
174
200
134
175
199
133
175
199
133
175
199
133
175
199
133
175
199
133
174
199
133
173
199
132
173
199
132
174
198
132
174
198
131
174
198
130
173
199
131
173
199
131
174
199
130
175
199
130
175
199
130
175
199
131
175
199
131
175
198
131
175
200
130
175
200
130
176
200
131
177
200
133
177
199
133
177
199
134
177
198
134
178
199
135
178
198
135
178
198
135
178
198
135
178
198
135
178
197
134
178
197
133
178
197
133
178
197
133
177
196
132
177
196
131
177
196
131
176
196
131
174
194
130
173
194
128
172
194
128
172
194
127
171
193
126
170
193
126
170
193
126
170
193
126
169
193
125
168
194
124
168
194
123
168
194
123
169
193
123
169
193
123
169
193
123
169
193
123
169
193
123
169
193
123
170
192
124
169
192
123
171
191
122
171
191
122
171
191
122
171
191
122
171
192
123
171
191
122
171
191
122
170
190
121
171
190
124
171
190
124
171
190
123
170
189
122
169
189
121
169
188
122
168
187
121
168
187
121
169
186
119
168
187
117
168
186
116
169
185
117
168
184
116
168
184
115
169
184
115
169
184
115
170
184
115
171
184
116
171
184
116
173
182
117
173
182
116
171
181
115
171
181
115
171
181
114
169
190
127
170
191
128
171
191
128
171
191
128
172
192
129
172
191
128
172
191
128
172
191
128
173
191
129
173
191
129
173
191
129
173
191
129
172
191
129
172
192
129
172
194
130
174
194
131
174
194
131
174
194
131
173
194
130
174
194
131
173
194
131
173
194
130
173
194
129
173
195
130
173
195
130
172
194
129
171
193
128
171
193
128
171
193
128
172
194
129
172
194
129
173
195
130
173
196
128
173
196
128
173
196
128
173
197
129
172
196
128
174
196
129
175
196
129
175
196
129
175
196
129
175
196
129
174
195
128
174
195
128
174
195
128
174
195
128
174
195
128
174
195
128
174
195
128
174
195
128
174
195
128
174
195
128
174
195
128
175
196
130
175
196
131
176
197
132
176
197
132
175
196
131
176
197
132
176
198
133
176
198
133
177
199
134
177
199
134
177
199
134
175
200
132
175
200
132
175
200
131
175
201
130
175
201
130
175
201
130
175
201
130
175
201
130
175
201
130
174
200
129
174
200
130
174
199
131
174
199
131
174
199
131
174
199
131
174
199
131
174
199
131
174
199
131
174
199
131
175
200
132
175
200
132
175
200
132
174
200
132
175
201
133
178
200
135
179
201
136
179
201
136
179
201
136
179
201
136
179
201
137
179
201
137
179
201
137
177
202
137
177
203
138
178
202
138
179
201
137
180
202
138
178
202
137
176
201
136
176
201
136
176
201
136
176
201
136
176
201
136
175
201
136
175
201
136
177
200
135
177
199
134
177
199
134
178
200
135
177
199
134
177
199
134
176
199
133
175
199
133
176
199
132
177
200
132
176
199
131
175
199
131
175
199
131
175
199
130
176
199
129
176
199
129
177
200
131
177
200
132
177
200
132
177
200
132
178
201
133
178
200
133
179
200
135
179
200
135
179
200
136
179
199
136
180
200
137
179
199
136
179
199
136
179
198
135
179
197
135
179
197
135
179
198
135
179
198
134
180
199
135
179
198
134
178
197
133
178
197
133
177
196
132
176
195
131
174
196
129
173
195
128
173
195
127
173
194
127
172
193
126
172
194
126
171
194
126
170
193
125
169
194
124
168
194
123
168
194
123
170
193
123
170
193
123
170
193
123
171
194
124
171
194
124
171
193
123
171
192
123
171
192
123
171
191
122
173
193
124
173
193
124
174
193
124
173
193
124
174
192
124
174
191
124
174
191
123
174
190
125
174
190
125
174
190
125
173
190
124
172
189
124
172
188
123
171
187
122
171
187
122
170
186
122
170
187
119
169
185
116
169
184
117
170
185
118
169
184
116
169
184
115
170
185
116
172
186
117
173
186
117
172
184
116
173
182
117
173
182
117
173
182
117
172
181
116
172
181
116
171
190
128
172
190
128
172
191
128
172
192
129
172
192
129
173
191
129
174
191
129
174
191
129
174
191
129
174
191
129
174
191
129
174
191
129
174
191
129
174
191
129
173
192
130
175
193
131
175
193
131
175
193
131
175
193
131
175
193
131
174
193
131
174
193
129
174
193
129
175
194
130
173
195
130
172
194
129
171
193
128
172
194
129
172
194
129
172
194
129
172
194
129
173
195
130
173
196
128
173
196
128
174
196
128
175
196
129
175
196
129
175
196
129
175
196
129
176
197
130
175
196
129
175
196
129
175
196
129
175
196
129
175
196
129
175
196
129
175
196
129
175
196
129
174
195
128
174
195
128
174
195
128
174
195
128
175
196
129
176
197
131
176
197
132
176
197
132
176
197
132
176
197
132
176
197
132
176
198
133
176
198
133
177
199
134
177
199
134
177
199
134
176
201
133
175
200
132
175
200
131
175
201
130
175
201
130
175
201
130
175
201
130
175
201
130
175
201
130
174
200
129
174
200
130
175
200
132
174
199
131
175
200
132
175
200
132
174
199
131
174
199
131
175
200
132
175
200
132
175
200
132
176
201
133
177
201
133
178
201
133
178
201
133
178
200
135
179
201
136
179
201
136
179
201
136
180
202
137
179
201
137
179
201
137
180
202
138
180
202
138
180
203
138
180
202
138
180
202
138
180
202
138
178
202
137
177
202
137
177
202
137
177
202
137
177
202
137
177
201
137
179
201
137
179
201
137
179
201
136
179
201
136
178
200
135
178
200
135
178
200
135
178
200
135
178
199
134
178
199
134
176
199
132
176
199
131
177
200
132
177
198
131
177
198
131
177
198
130
176
199
129
176
199
129
177
200
131
177
200
132
177
200
132
178
201
133
179
202
134
179
202
135
180
201
136
179
200
135
180
200
137
180
200
137
180
200
137
180
200
137
179
199
136
179
198
135
180
198
136
180
198
136
179
198
135
179
198
134
180
199
135
179
198
134
178
197
133
178
197
133
177
196
132
177
196
132
176
195
130
175
194
128
175
194
128
174
195
128
173
194
127
172
194
126
171
194
126
171
194
126
170
195
125
169
195
124
168
194
123
170
193
123
170
193
123
170
193
123
170
193
123
170
193
123
172
193
124
172
193
124
172
193
124
173
193
124
173
193
124
174
193
124
175
192
124
175
192
124
176
191
124
177
191
124
177
191
124
176
190
125
176
190
125
176
190
125
176
190
125
174
188
124
174
188
123
174
188
123
173
187
122
171
187
123
170
187
120
169
185
116
169
184
117
170
185
118
170
185
117
170
185
116
170
185
116
173
186
117
174
187
118
173
185
117
174
183
118
173
182
117
174
183
118
173
182
117
173
182
117
171
190
128
172
191
129
173
191
129
174
192
128
174
193
129
174
192
128
174
192
128
174
192
128
174
192
128
174
192
128
174
192
128
176
192
129
176
192
129
174
192
128
175
193
129
176
194
130
177
193
131
177
193
131
177
193
131
177
193
130
177
193
130
174
194
129
173
194
129
174
195
130
175
194
130
175
194
130
174
194
129
173
193
129
175
194
130
174
195
130
174
195
130
174
195
130
174
196
131
174
197
131
175
196
131
177
196
130
177
196
130
176
197
130
176
197
130
176
197
130
176
197
128
176
197
128
176
197
129
176
197
130
176
197
130
175
196
129
175
196
129
175
196
129
176
197
130
175
196
129
175
196
129
175
196
131
175
196
131
176
197
132
176
197
132
176
197
132
177
198
133
177
198
133
177
198
133
177
198
133
178
199
134
177
199
134
177
199
134
177
199
134
178
201
133
177
200
132
177
200
132
176
201
133
176
201
133
176
201
134
176
201
135
176
201
134
175
200
134
175
200
134
175
200
133
174
199
133
175
200
134
175
200
134
175
200
134
175
200
134
175
200
134
176
201
135
177
201
135
178
200
135
178
200
135
178
200
135
178
200
135
179
201
136
180
201
136
180
201
136
180
201
136
181
202
137
182
203
138
181
202
138
181
201
138
182
202
139
182
202
139
182
202
139
182
202
139
181
203
139
180
202
138
180
201
138
180
201
138
181
201
138
180
202
138
179
202
138
180
202
138
180
202
138
180
202
138
179
201
137
179
201
137
179
200
136
180
201
136
179
200
135
179
200
135
179
200
135
178
199
134
178
199
132
178
199
132
178
199
132
178
199
132
177
198
131
177
198
131
178
199
130
177
199
130
178
199
131
178
199
132
179
200
133
179
200
133
181
202
135
180
201
135
180
201
136
180
201
136
181
200
137
181
199
137
180
198
136
181
199
137
180
198
136
180
198
136
181
199
137
181
199
137
181
198
136
182
198
136
182
198
136
182
198
136
181
197
135
181
197
134
180
196
133
180
196
133
177
195
131
175
194
130
174
193
129
174
195
130
173
194
129
172
193
128
172
193
126
171
192
125
170
193
124
170
193
123
170
193
123
170
193
123
170
193
123
170
193
123
170
193
123
170
193
123
171
193
123
172
193
125
173
194
125
176
192
127
176
192
127
176
192
127
176
192
127
176
192
127
177
192
127
177
192
127
177
192
127
176
191
126
176
191
126
175
190
125
175
190
125
175
190
125
173
188
123
173
188
123
172
187
122
172
187
122
171
186
121
170
185
119
170
185
118
170
185
118
172
185
119
173
185
119
172
184
118
173
185
119
175
185
120
176
185
119
175
184
117
174
183
118
174
183
119
173
182
117
173
182
117
173
190
128
173
190
128
174
190
128
175
190
128
176
191
128
175
190
128
176
191
128
176
191
129
175
190
128
176
191
128
176
191
129
177
193
130
177
193
130
177
192
129
177
192
130
178
193
130
177
193
130
177
193
130
177
193
130
177
193
130
177
193
130
175
193
129
174
193
129
174
194
129
175
194
130
175
194
130
175
194
130
174
193
129
175
194
130
174
195
130
175
196
131
175
196
131
175
196
131
176
198
133
177
197
132
178
197
131
178
197
131
177
197
131
177
198
131
177
198
131
176
197
128
176
197
128
176
197
129
176
197
130
176
197
130
176
197
130
176
197
130
176
197
130
176
197
130
176
197
130
176
197
130
175
196
131
175
196
131
176
197
132
176
197
132
176
197
132
177
198
133
177
198
133
177
198
133
177
198
133
178
199
134
178
199
134
178
200
135
178
200
135
178
201
133
178
201
133
177
201
133
175
200
132
176
201
133
176
201
134
176
201
135
176
201
135
175
200
134
175
200
134
175
200
134
175
200
134
175
200
134
175
200
134
175
200
134
176
201
135
175
200
134
176
201
135
177
201
135
178
200
135
179
201
136
179
201
136
179
201
136
179
201
136
180
201
136
181
202
137
181
202
137
182
203
138
182
203
138
182
202
138
182
202
139
182
202
139
182
202
139
182
202
139
182
202
139
182
202
139
182
202
139
182
202
139
182
202
139
182
202
139
180
202
138
180
202
138
180
202
138
181
201
138
181
201
138
181
201
138
181
201
138
181
201
138
181
202
137
180
201
136
179
200
135
180
201
136
179
200
135
178
199
133
178
199
132
178
199
132
178
199
132
178
199
132
178
199
131
178
199
130
179
200
131
179
200
132
178
199
132
179
200
133
180
201
134
180
201
134
180
201
135
180
201
136
180
201
136
181
200
137
181
199
137
181
199
137
181
199
137
181
199
137
181
199
137
181
199
137
181
199
137
182
198
136
182
198
136
183
199
137
183
199
137
182
198
136
181
197
135
180
196
135
180
196
134
178
195
132
175
194
130
175
194
130
173
194
129
173
194
129
172
193
127
172
193
126
171
192
125
170
193
124
170
193
123
170
193
123
170
193
123
170
193
123
170
193
123
170
193
123
170
193
123
172
194
126
173
194
128
174
195
128
177
193
128
176
192
127
177
193
128
177
193
128
177
193
128
177
193
128
177
192
127
177
192
127
176
191
126
176
191
126
176
191
126
175
190
125
175
190
125
174
189
124
173
188
123
172
187
122
172
187
122
171
186
121
170
185
120
170
185
118
170
185
118
172
185
119
173
185
119
172
184
118
173
185
119
175
185
120
176
185
119
175
184
117
174
183
118
175
184
119
174
183
118
173
182
117
175
189
127
175
189
127
175
190
127
176
190
127
176
190
127
176
190
127
177
191
128
177
191
128
177
190
128
178
191
129
178
192
129
177
193
129
177
193
129
178
192
129
178
192
129
178
192
129
177
193
128
177
193
128
177
193
129
177
193
130
177
193
129
176
192
129
176
192
128
176
192
128
175
193
130
175
193
130
175
193
130
175
193
129
176
194
130
175
195
130
176
196
131
177
197
132
178
197
132
178
197
133
178
197
132
178
198
131
179
198
131
178
198
131
177
198
131
178
198
131
177
198
129
177
197
128
176
197
129
176
197
130
176
197
130
176
197
130
176
197
130
176
197
130
177
198
131
177
198
131
177
198
131
176
197
132
177
198
133
178
199
134
178
199
134
178
199
134
178
199
134
178
199
134
178
199
134
178
199
134
178
200
135
178
200
135
178
200
136
178
200
136
178
201
134
178
201
134
178
201
134
177
201
134
176
201
133
176
201
134
176
201
135
176
201
135
176
200
135
176
200
134
176
200
134
176
200
134
176
200
134
176
200
134
176
200
134
176
201
135
176
200
135
176
201
135
177
201
135
178
200
135
179
201
136
179
201
136
179
201
136
179
201
136
180
201
136
181
202
137
181
202
137
182
202
138
182
202
138
182
202
139
182
202
139
182
202
139
183
202
139
183
202
139
183
202
139
183
202
139
183
202
139
182
202
139
182
202
139
182
202
139
182
203
140
182
203
140
182
203
140
183
202
140
183
202
140
182
201
139
182
201
138
182
200
138
181
202
137
181
201
136
180
200
135
180
201
135
179
200
134
178
199
133
178
199
132
178
199
132
178
199
132
178
199
132
178
199
132
179
200
132
179
200
132
179
200
133
179
200
133
179
200
133
180
201
134
180
201
134
180
201
134
180
201
136
180
201
136
181
199
137
181
199
137
181
199
137
180
198
136
181
199
137
181
199
137
181
199
137
181
199
137
182
198
136
182
198
136
183
199
137
183
199
137
182
198
136
182
197
136
181
196
136
180
195
135
178
195
133
175
194
131
175
194
130
173
194
129
172
193
128
171
192
127
171
192
125
171
192
125
170
193
124
170
193
123
170
193
122
170
193
123
170
193
123
170
193
123
171
194
124
171
194
125
173
195
129
174
195
130
174
195
130
176
194
129
177
194
129
177
193
129
177
193
129
177
193
129
178
193
128
178
193
128
177
192
127
176
191
126
176
191
126
175
190
125
175
190
125
175
190
125
174
189
124
173
188
122
172
187
121
173
187
122
172
186
121
171
186
120
171
185
117
171
186
118
172
185
119
173
185
120
173
185
120
173
185
120
174
185
119
174
184
118
175
185
117
175
184
119
174
184
119
174
184
118
173
183
118
175
190
125
175
190
125
175
190
125
175
191
126
175
191
126
175
191
126
176
191
126
176
192
127
177
192
127
177
192
127
177
192
127
178
193
128
177
192
127
177
192
127
177
192
127
178
193
128
178
193
128
178
193
128
178
193
128
176
192
127
176
192
127
175
191
126
176
192
127
176
192
127
176
192
129
176
192
129
176
192
129
177
193
130
177
193
130
177
193
130
179
195
132
180
196
133
178
197
131
179
198
132
179
198
131
179
199
130
179
199
130
179
199
130
179
199
130
179
199
130
179
199
130
178
198
129
178
198
129
177
198
129
177
198
129
177
198
130
177
198
131
177
198
131
177
198
131
177
198
131
177
198
132
177
198
133
178
199
134
178
199
134
178
199
134
178
199
134
178
200
135
178
200
135
178
200
135
178
200
135
179
201
136
179
201
137
179
201
137
179
201
137
179
201
136
179
201
136
178
200
135
179
201
136
179
201
136
177
200
135
177
201
135
177
201
135
178
200
135
177
199
134
177
199
134
177
199
134
178
200
135
178
200
135
178
200
135
178
200
135
178
200
136
178
200
136
178
200
136
179
201
136
179
201
136
179
201
136
179
201
136
179
201
136
180
201
136
180
201
136
182
202
138
183
201
139
183
201
139
184
202
140
184
202
140
183
201
139
184
202
140
184
202
140
183
202
139
182
203
138
182
203
138
182
202
139
182
202
139
182
202
139
183
201
141
184
202
142
183
202
142
183
203
142
183
203
142
182
202
140
182
202
139
182
202
139
182
201
137
182
201
137
181
200
135
181
200
134
180
199
133
178
199
132
178
199
132
178
199
132
178
199
132
178
199
132
178
199
132
179
200
133
179
200
133
179
200
133
179
200
133
179
200
133
180
201
134
180
201
134
180
201
134
180
201
135
179
199
136
180
198
136
180
198
136
181
199
137
180
198
136
181
199
137
181
199
137
181
199
137
181
199
137
182
199
137
183
199
137
183
199
137
183
199
137
182
198
136
181
197
135
180
196
134
180
196
134
178
195
133
176
194
132
174
192
130
172
193
128
172
192
127
171
192
126
170
193
125
169
193
124
170
193
125
170
193
124
169
192
121
170
193
123
170
193
123
170
193
124
171
194
127
173
195
128
174
195
129
174
195
130
175
196
131
175
195
132
176
194
132
178
194
131
177
193
130
177
193
130
177
193
129
177
193
128
176
192
127
175
191
125
174
190
125
174
190
125
174
190
125
174
190
125
173
190
123
172
189
122
171
188
121
172
187
122
171
186
121
170
185
119
170
185
117
170
185
117
171
186
120
171
186
121
171
186
121
173
185
121
172
184
120
172
184
120
172
185
119
173
185
120
172
184
119
172
184
119
172
184
119
174
189
124
175
190
125
176
190
125
177
190
125
177
190
125
177
190
126
177
190
126
177
191
126
177
192
127
176
191
126
177
192
127
177
192
127
178
193
128
178
193
128
178
193
128
178
193
128
178
193
128
178
193
128
178
193
128
177
193
128
177
193
128
177
193
128
177
193
128
176
192
127
176
192
129
176
192
129
176
192
129
177
193
130
178
194
131
178
194
131
179
195
132
180
196
133
179
198
132
179
198
132
179
198
131
179
199
130
180
200
131
180
200
131
180
200
131
180
200
131
179
199
130
179
199
130
178
198
129
177
198
129
177
198
129
177
198
130
177
198
131
177
198
131
177
198
131
177
198
131
177
198
132
178
199
134
179
200
135
179
200
135
179
200
135
180
201
136
179
201
136
179
201
136
179
201
136
179
201
136
179
201
136
179
201
137
179
201
137
179
201
137
179
201
136
179
201
136
179
201
136
179
201
136
179
201
136
179
201
136
179
201
136
179
201
136
178
200
135
178
200
135
177
199
134
177
199
134
178
200
135
179
201
136
179
201
136
178
200
135
178
200
136
178
200
136
178
200
136
178
200
135
179
201
136
179
201
136
179
201
136
179
201
136
180
201
136
180
201
136
182
202
138
183
201
139
184
202
140
184
202
140
184
202
140
184
202
140
184
202
140
184
202
140
183
202
139
182
203
138
182
203
138
182
202
138
182
202
139
183
203
140
184
202
142
184
202
142
184
202
142
183
203
142
183
203
142
182
202
140
182
202
139
182
202
139
183
202
138
183
202
138
181
200
136
180
199
133
181
200
134
180
200
133
178
199
132
178
199
132
178
199
132
178
199
132
179
200
133
180
201
134
179
200
133
179
200
133
179
200
133
179
200
133
178
199
132
178
199
132
178
199
132
179
200
134
179
199
136
180
198
136
180
198
136
180
198
136
180
198
136
181
199
137
181
199
137
181
199
137
181
199
137
182
198
136
182
198
136
182
198
136
182
198
136
182
198
136
181
197
135
180
196
134
179
195
133
177
194
132
176
194
132
175
193
131
172
193
128
172
193
128
170
192
126
169
192
124
169
192
124
170
192
125
171
194
125
169
192
121
169
192
122
169
192
122
170
193
125
172
194
129
173
195
131
174
196
131
175
196
131
175
196
131
175
195
132
176
194
132
177
194
131
175
194
130
175
194
130
176
193
128
176
192
127
175
191
126
174
190
125
174
190
125
174
190
125
174
190
125
174
190
125
173
189
125
172
188
125
171
187
123
170
187
122
170
186
121
169
185
120
168
185
120
169
186
121
169
186
121
169
186
121
169
186
120
170
185
120
169
184
119
169
184
119
169
184
121
170
185
121
169
184
121
169
184
121
169
184
121
175
188
122
175
188
122
175
188
123
177
189
123
177
189
124
178
189
124
178
190
124
179
190
125
177
191
125
178
191
125
178
192
126
178
191
126
178
192
126
179
192
127
179
192
128
179
192
128
178
193
128
178
193
128
178
193
128
179
192
127
179
192
127
178
193
128
178
193
128
178
193
128
178
192
130
178
192
130
178
193
130
178
194
131
179
195
132
179
195
131
180
196
132
180
196
132
180
197
132
181
198
133
180
199
132
179
199
130
180
200
131
180
200
131
180
200
131
180
200
131
179
200
131
179
199
130
178
198
129
177
198
129
177
198
129
177
197
129
178
198
130
178
198
130
178
198
132
178
198
132
178
199
132
179
200
133
179
200
134
179
200
135
180
201
136
180
201
136
180
201
136
180
201
136
180
201
136
180
201
136
180
201
136
180
201
136
180
201
137
181
202
137
180
201
137
180
201
137
180
201
137
181
200
137
181
200
137
180
201
136
179
201
136
179
201
136
178
200
135
178
200
135
177
199
134
178
199
134
179
200
135
179
200
136
179
200
136
178
199
135
178
199
135
178
199
136
178
199
136
179
199
137
179
200
137
180
200
138
180
201
138
180
200
138
181
200
137
181
200
137
183
201
139
184
201
140
185
201
141
184
203
142
184
203
142
183
202
141
184
202
141
184
202
140
184
202
139
183
203
139
183
202
138
181
203
137
182
203
138
184
202
140
184
203
142
184
203
142
184
204
142
184
203
143
184
203
142
183
202
140
183
202
139
183
201
139
183
202
138
183
202
138
181
200
136
180
199
133
181
200
134
180
199
133
179
199
132
179
199
133
178
199
131
178
199
131
179
200
132
179
200
132
179
200
132
178
200
132
178
200
132
177
199
132
177
199
131
177
199
131
178
200
133
178
199
134
179
200
135
179
199
135
179
199
135
179
199
135
179
198
136
179
198
136
180
199
136
180
198
136
181
199
137
182
198
136
182
198
136
182
198
136
181
198
136
180
197
135
180
197
135
179
196
134
178
195
133
176
194
132
175
194
132
173
194
131
172
193
128
171
192
127
170
192
126
169
192
124
168
191
123
169
192
125
169
193
125
169
193
123
168
193
121
168
193
123
170
194
127
172
195
132
172
195
132
174
195
132
175
196
132
175
195
132
175
195
133
176
195
133
175
194
132
174
193
130
173
192
129
174
191
127
174
190
127
174
190
127
174
190
125
174
190
125
173
189
125
174
190
126
173
189
126
173
190
126
171
189
125
170
188
124
168
188
123
168
187
123
167
186
122
166
186
122
167
187
122
167
187
122
166
186
120
166
186
119
167
186
121
167
186
121
167
185
120
167
185
120
167
185
120
166
184
120
166
184
120
166
184
120
175
187
121
175
187
121
176
188
122
176
188
122
176
188
122
177
189
123
178
189
123
179
190
124
178
190
124
179
190
124
179
190
124
179
191
125
179
191
125
180
192
127
180
192
128
180
192
128
178
193
128
178
193
128
179
193
127
180
192
126
180
192
126
179
193
127
178
193
128
178
193
128
178
192
130
178
192
130
178
193
130
178
194
131
179
195
132
179
195
131
180
196
131
180
196
131
181
197
132
182
198
133
181
199
132
180
200
131
180
200
131
181
201
132
181
201
132
180
200
131
179
200
131
179
200
131
177
198
129
176
197
128
177
198
129
177
197
128
178
198
129
178
198
129
179
198
132
179
198
132
179
199
132
179
200
133
179
200
133
180
201
135
180
201
136
180
201
136
180
201
136
180
201
136
180
201
136
180
201
136
180
201
136
180
201
136
180
201
136
181
202
137
181
201
138
181
201
138
181
201
138
182
200
138
182
200
138
180
201
137
180
201
136
179
201
136
179
200
135
179
200
135
178
199
134
178
199
134
180
201
136
180
200
136
179
199
136
179
199
136
178
198
135
179
199
136
179
199
136
179
199
138
179
199
138
180
200
139
181
201
140
180
200
139
181
199
138
182
200
139
185
202
142
187
202
144
186
201
143
185
202
143
185
203
144
186
203
145
185
204
143
184
204
144
186
204
145
185
202
143
186
203
144
183
202
143
183
203
144
184
203
145
186
204
141
186
203
143
185
203
143
185
203
143
184
202
142
184
202
141
184
202
140
183
201
139
183
202
138
183
202
138
181
200
136
180
199
133
181
200
134
180
199
133
180
199
133
180
199
133
178
199
130
179
200
131
179
200
131
179
200
131
178
198
129
177
200
131
177
200
132
176
199
131
175
198
130
175
198
130
177
199
132
178
199
134
178
199
134
178
199
134
177
198
133
178
199
134
178
198
134
177
197
134
179
198
135
180
198
136
179
197
135
181
198
136
182
198
136
182
198
136
180
198
136
179
197
135
179
197
135
178
196
134
177
195
133
176
194
132
175
195
132
172
194
130
171
193
128
170
192
127
170
192
126
169
192
124
169
192
124
168
193
125
168
193
125
168
193
125
167
193
122
168
193
126
170
195
130
171
195
133
171
195
133
174
196
133
174
196
133
174
196
133
174
195
135
174
195
134
173
193
133
173
192
131
171
191
129
171
191
127
172
191
127
172
191
127
171
190
124
171
190
124
170
189
124
171
189
125
171
190
126
170
190
126
168
189
124
167
187
123
165
187
123
165
187
123
164
186
122
164
186
121
165
187
122
165
186
121
164
186
120
164
187
117
164
186
120
164
186
120
164
186
120
165
186
119
164
185
118
164
184
119
164
184
119
164
185
120
173
185
119
174
186
120
175
187
121
175
187
121
175
187
121
176
187
121
177
188
122
177
188
122
179
188
123
180
189
124
179
189
124
178
190
124
179
191
125
180
192
127
180
192
128
180
192
128
178
193
128
178
193
128
179
193
128
180
192
126
180
192
126
179
193
127
178
193
128
178
193
128
178
192
130
179
193
131
179
194
131
178
194
131
179
195
132
179
195
131
180
196
131
181
197
132
182
198
133
182
198
133
181
199
132
180
200
131
180
200
131
180
200
131
180
200
131
180
200
131
179
200
131
178
199
130
177
198
129
177
198
129
176
197
128
177
198
129
178
198
129
178
198
129
179
198
132
179
198
132
179
199
132
179
200
133
179
200
133
179
200
134
180
201
136
180
201
136
180
201
136
180
201
136
180
201
136
180
201
136
180
201
136
180
201
136
180
201
136
181
202
137
182
202
139
182
202
139
182
202
139
183
201
139
181
199
137
181
200
136
181
200
136
181
200
136
180
201
136
179
200
135
179
200
135
179
200
135
179
200
135
179
199
136
179
199
136
179
199
136
178
198
135
179
199
136
179
199
136
179
199
138
179
199
138
181
201
140
181
201
140
180
200
139
182
200
141
183
201
142
185
202
144
187
202
147
188
203
147
188
202
148
193
206
157
199
211
168
208
214
178
215
220
189
219
223
195
221
223
194
222
224
195
222
225
195
212
216
183
206
214
177
199
211
167
192
205
154
187
203
146
185
203
142
185
203
143
184
202
141
184
202
140
184
202
140
183
202
138
182
201
137
181
200
136
180
199
133
180
199
133
180
199
133
180
199
133
180
199
133
179
200
131
179
200
131
178
199
130
177
198
129
176
197
128
176
199
130
176
199
131
175
198
130
175
198
130
174
197
129
176
198
131
177
198
133
177
198
133
177
198
133
177
198
133
177
198
133
176
196
133
176
196
133
177
196
134
178
196
134
179
197
135
180
197
135
181
197
135
181
197
135
179
197
135
179
197
135
179
197
135
177
195
133
177
195
133
177
195
133
175
195
132
172
194
130
171
193
128
170
192
127
170
192
126
170
193
125
169
192
124
167
191
123
167
192
124
167
192
124
167
192
124
169
194
128
170
195
131
171
195
133
171
195
133
172
196
135
172
196
135
172
196
135
171
195
136
172
196
137
171
194
135
172
193
133
170
191
131
169
191
127
170
191
126
170
191
126
169
190
123
168
189
122
168
189
123
169
190
125
170
191
126
169
190
125
166
188
123
165
187
122
162
187
122
163
188
123
162
187
122
162
187
121
162
186
120
161
185
120
160
185
118
161
187
116
162
187
117
162
188
118
162
187
118
163
186
118
162
185
117
162
185
119
161
183
118
161
183
118
173
185
121
174
186
122
175
186
121
176
187
120
176
188
120
178
189
122
178
189
123
178
189
123
178
189
122
178
189
122
178
189
122
179
190
124
180
191
125
180
191
127
180
192
128
180
192
128
180
192
128
180
192
128
180
192
128
180
192
128
180
192
128
179
192
129
178
192
130
178
192
130
178
192
130
179
193
131
179
194
131
179
195
132
179
195
132
180
196
133
181
197
134
182
198
135
183
199
134
182
198
133
181
199
132
180
200
131
180
200
131
179
199
130
180
200
131
180
200
131
179
200
131
179
199
130
177
197
128
177
197
128
178
198
129
178
197
130
179
198
131
178
197
131
177
198
131
177
198
131
177
198
131
178
199
132
179
200
133
180
201
134
180
201
134
180
201
134
180
201
134
180
201
134
180
201
134
180
201
134
180
201
134
180
201
134
181
202
135
180
201
134
182
201
137
183
202
138
183
202
138
182
201
137
181
200
136
182
199
136
183
199
136
182
198
135
181
200
136
180
199
135
179
198
134
179
199
134
179
199
134
180
199
135
180
199
135
179
198
134
178
198
135
178
198
135
178
198
136
179
199
138
179
199
138
180
201
140
182
201
143
184
199
145
182
201
144
185
204
148
189
206
153
198
210
162
211
217
182
215
220
190
227
227
204
240
234
220
243
238
224
246
240
227
247
240
228
247
239
227
248
240
228
249
240
229
248
239
227
247
238
225
243
240
225
239
236
218
228
228
205
211
218
185
198
209
164
188
204
148
186
203
142
186
202
140
185
201
141
184
201
138
183
200
135
180
199
135
180
199
135
179
200
134
179
200
133
179
200
133
177
200
132
177
200
132
176
199
130
176
199
129
176
199
129
175
200
129
174
200
129
173
199
128
172
197
129
172
197
129
173
197
130
176
198
133
176
198
133
175
197
132
175
197
132
175
197
132
175
197
132
175
197
132
176
196
132
178
195
134
178
196
134
178
196
134
179
197
135
179
197
135
179
197
135
179
197
135
179
197
135
176
196
133
176
196
133
175
196
132
173
195
130
170
195
129
169
193
126
168
193
125
168
193
125
167
192
124
166
191
123
166
191
125
167
192
125
167
192
126
167
192
127
169
194
129
169
194
130
170
194
132
171
195
133
170
196
134
170
196
135
170
196
135
171
195
137
171
195
137
171
195
137
169
193
134
168
192
130
168
190
127
168
190
125
168
191
123
165
190
124
165
190
124
165
190
124
165
190
124
166
190
125
165
190
124
163
188
122
162
187
121
162
187
122
163
188
123
162
187
122
162
187
121
161
187
117
160
186
116
158
185
116
159
185
116
160
187
117
160
187
117
160
187
117
160
187
116
159
186
117
159
185
117
159
184
117
159
184
117
173
185
121
174
186
122
175
186
122
176
186
122
177
187
123
177
187
124
178
188
125
178
188
126
178
188
124
178
189
124
178
188
125
179
189
127
179
189
127
179
190
127
179
191
127
180
192
128
180
192
128
180
192
128
180
192
128
180
192
128
180
192
128
179
192
129
178
192
130
178
192
130
179
193
131
179
193
131
179
194
132
179
195
132
179
195
132
179
195
132
180
196
133
182
197
134
183
199
134
182
198
133
181
199
132
180
200
131
179
199
130
178
198
129
179
199
130
180
200
131
179
199
130
177
197
128
176
196
127
176
196
127
177
197
128
178
197
130
179
198
132
179
198
132
178
199
132
177
198
131
177
198
131
178
199
132
178
199
132
179
200
133
179
200
133
179
200
133
179
200
133
179
200
133
179
200
133
179
200
133
179
200
133
180
201
134
180
201
134
180
201
134
181
200
136
182
201
137
182
201
137
182
201
137
181
200
136
182
199
136
183
199
136
182
198
135
180
199
135
180
199
135
179
198
134
179
198
134
178
197
133
179
198
134
178
197
133
178
197
133
178
198
135
178
198
135
178
199
135
179
199
138
186
203
150
192
204
156
200
209
164
203
209
167
199
209
168
214
217
184
226
224
198
239
235
216
245
238
224
247
239
226
250
239
227
249
236
223
248
238
222
248
239
223
248
238
223
249
237
224
248
236
224
248
239
225
249
241
228
249
240
230
250
240
230
250
241
229
250
240
227
248
238
226
243
236
218
225
228
199
201
211
169
189
204
148
186
202
140
184
200
136
183
200
135
180
199
135
180
199
135
179
200
134
179
200
133
179
200
133
177
200
132
177
200
132
176
199
130
176
199
129
176
199
129
174
199
129
173
199
128
172
198
127
171
196
128
172
197
129
173
197
130
175
197
132
176
198
133
175
197
132
175
197
132
175
197
132
175
197
132
174
196
131
175
196
132
177
195
133
178
196
134
178
196
134
178
196
134
178
196
134
178
196
134
178
196
134
178
196
134
176
196
133
176
196
133
174
195
131
172
194
129
169
194
128
168
193
125
168
193
125
168
193
125
167
192
124
165
190
122
166
191
125
167
192
126
166
191
125
167
192
127
168
193
128
169
194
130
170
194
132
171
195
133
170
196
134
170
196
135
170
196
135
170
195
137
170
195
137
170
194
136
169
193
134
167
191
130
166
190
126
166
191
125
165
191
123
164
189
123
164
189
123
164
189
123
163
188
122
165
190
124
164
189
123
163
188
122
162
187
121
162
187
122
162
187
122
162
187
122
162
187
121
161
186
117
159
186
114
158
185
112
158
185
113
159
187
114
160
187
114
159
187
113
159
187
113
158
186
115
159
185
115
159
184
114
158
183
114
173
185
121
173
185
121
175
187
123
176
186
124
177
187
124
178
188
126
178
188
128
178
188
127
178
188
127
178
188
127
178
188
127
179
189
128
179
189
128
178
190
127
179
191
127
180
192
128
179
192
128
179
192
128
180
192
129
180
192
129
180
192
128
179
192
129
178
192
130
178
192
130
179
193
131
179
193
131
180
194
132
179
195
132
179
195
132
179
195
132
180
196
133
181
197
134
182
199
134
182
199
133
181
199
133
180
200
132
178
198
130
177
197
129
178
198
130
178
198
130
177
197
128
176
196
127
175
195
126
175
196
127
176
196
128
178
197
131
179
198
132
179
198
132
178
199
132
177
198
132
177
198
132
178
199
132
177
198
131
177
198
131
178
199
132
178
199
132
178
199
132
178
199
132
177
198
131
177
198
131
177
198
131
178
199
131
178
199
132
179
200
133
180
199
134
180
199
135
181
200
136
181
199
136
181
199
136
182
199
136
182
198
135
181
197
134
179
198
134
179
198
134
178
198
133
178
197
132
178
197
133
177
197
132
178
197
133
178
197
134
178
198
135
177
198
135
178
197
136
187
198
149
214
216
183
232
225
199
236
227
204
238
228
207
237
230
208
243
235
220
246
239
227
247
240
225
246
237
221
247
237
219
245
235
217
246
236
217
248
234
214
247
233
213
243
228
207
243
228
204
243
228
204
242
228
204
243
229
208
246
232
216
247
234
217
246
233
215
247
234
216
246
234
217
247
237
221
249
239
226
242
237
218
229
229
203
203
213
171
185
201
144
183
200
134
180
199
135
180
199
135
179
200
134
179
200
134
179
200
134
177
200
132
177
200
132
175
198
130
175
198
129
175
198
129
173
198
128
172
198
127
172
198
127
171
196
128
172
197
129
173
197
130
174
197
132
175
198
132
175
197
132
174
197
132
174
197
132
175
197
132
174
196
131
175
196
132
176
196
133
177
196
133
178
196
134
178
196
134
178
196
134
178
196
134
177
196
133
177
196
133
175
196
132
174
194
131
173
195
130
172
195
129
169
193
127
166
192
123
166
191
123
166
191
123
166
191
123
165
190
122
165
190
124
166
191
125
166
191
125
166
192
126
168
193
128
168
193
129
169
193
131
169
193
131
169
194
133
168
194
132
168
194
133
167
194
134
167
194
134
167
193
134
167
191
131
166
190
128
164
190
125
164
190
124
163
190
122
164
189
123
164
189
123
164
189
123
163
188
122
164
190
123
163
189
123
162
187
121
162
187
121
162
187
122
162
187
122
161
187
121
161
187
120
160
186
116
159
186
113
158
186
112
158
186
112
159
187
113
158
186
112
157
185
110
158
186
110
157
185
111
157
183
110
157
183
110
156
183
110
173
185
122
173
185
122
174
186
123
176
187
124
177
187
125
178
188
127
179
189
129
179
189
129
179
189
129
179
189
129
179
189
129
179
189
128
178
188
127
178
189
128
178
190
128
178
190
128
177
191
129
178
192
130
178
192
130
179
191
129
179
191
129
178
191
129
177
191
129
178
192
130
177
193
130
178
194
131
179
195
132
177
194
131
177
194
131
177
195
131
178
196
132
179
197
133
179
198
132
180
199
133
180
199
133
180
199
133
178
197
131
177
196
130
178
197
131
177
196
130
175
196
127
174
195
126
174
195
127
174
195
128
175
196
129
176
197
131
177
198
133
178
199
134
177
198
133
177
198
133
177
198
133
178
198
131
178
197
131
177
198
131
176
198
130
176
198
130
176
198
131
176
198
130
176
198
130
175
197
128
175
197
127
175
197
128
175
197
128
177
199
130
178
198
131
179
199
132
180
199
133
181
198
135
180
198
134
179
197
133
179
198
134
179
198
134
178
197
133
178
197
133
177
197
132
176
197
130
176
197
130
175
196
129
176
197
132
177
197
134
177
198
134
178
198
139
187
202
150
210
212
175
232
222
194
237
221
192
243
228
204
245
234
216
248
239
227
247
239
226
246
237
225
248
237
225
247
237
222
246
236
218
246
233
212
243
229
203
243
228
202
243
228
202
243
226
201
241
223
199
237
220
193
236
216
186
235
214
185
235
217
189
237
219
193
237
219
195
243
226
205
243
228
207
245
230
208
246
232
211
247
235
215
244
235
217
237
233
212
206
216
175
185
201
142
180
199
133
180
199
134
179
200
134
179
200
135
178
199
134
176
199
131
176
199
131
175
199
130
173
199
129
172
198
128
171
197
126
171
197
125
171
197
125
171
197
127
171
197
127
172
198
129
172
197
131
172
197
131
172
197
131
172
197
131
172
197
131
175
197
132
174
196
131
174
196
131
175
197
132
175
197
132
176
197
132
177
197
133
178
197
133
176
198
133
176
197
132
175
196
131
173
195
130
173
195
129
170
194
127
168
193
126
167
192
124
165
192
122
165
192
122
165
191
121
165
191
121
165
191
120
164
190
121
163
190
122
164
191
123
166
193
124
166
193
127
167
193
128
168
194
130
167
193
130
167
193
130
167
193
129
167
193
130
167
193
130
167
193
130
166
192
128
165
191
125
163
190
124
163
190
122
163
190
121
162
189
120
162
189
122
162
189
122
162
189
122
162
189
122
163
190
123
163
190
123
162
189
122
161
188
121
161
188
121
160
187
120
159
186
119
160
187
118
159
186
115
158
185
112
156
184
111
157
184
112
158
186
113
158
186
111
156
184
108
156
184
108
155
183
108
154
182
106
155
183
108
155
182
110
171
185
124
171
185
124
173
187
125
174
187
126
175
188
126
176
188
127
177
189
129
178
190
129
177
189
129
177
189
129
177
189
128
177
189
127
176
189
127
175
189
127
175
190
127
175
190
127
176
190
128
177
191
129
177
191
129
177
191
129
175
190
127
175
191
128
175
191
128
176
193
130
175
194
130
175
194
130
176
195
131
174
195
130
175
195
130
175
195
131
175
196
131
177
197
133
178
197
131
178
197
131
179
198
132
178
197
131
177
196
130
176
195
129
176
195
129
175
194
128
174
195
126
173
194
125
174
195
127
174
195
128
174
195
128
175
196
130
176
197
132
177
198
133
176
197
132
176
197
132
176
197
131
176
198
130
176
198
130
174
197
129
173
197
129
173
197
129
172
196
128
171
196
128
171
196
127
172
196
126
171
196
125
171
196
125
171
196
125
173
197
127
175
197
129
176
198
130
177
199
132
177
197
132
176
196
131
177
196
132
177
196
132
177
196
132
177
196
132
177
196
132
176
195
130
174
195
128
174
195
128
174
195
128
175
196
130
176
196
133
176
197
135
193
204
158
214
215
183
229
221
193
236
221
196
236
219
194
239
226
204
248
238
225
249
237
227
247
236
221
244
233
215
242
229
211
243
230
210
242
225
202
239
221
196
239
223
196
241
224
197
240
223
196
241
224
198
243
225
201
240
223
196
237
218
188
234
213
182
232
210
177
231
210
177
230
209
178
235
215
187
236
218
190
239
220
193
240
222
195
242
226
200
243
230
206
244
234
216
236
232
209
194
204
158
180
199
137
183
201
139
182
202
138
180
201
136
179
200
135
177
200
132
175
198
130
174
198
129
172
198
125
171
197
124
171
197
123
171
197
123
170
196
123
171
197
124
171
197
124
171
197
125
171
197
128
171
197
128
171
197
128
171
197
128
171
196
128
174
196
131
174
196
131
174
196
131
174
196
131
174
196
132
175
197
132
175
196
131
175
196
131
173
197
131
173
196
131
172
195
129
171
195
126
169
194
125
168
194
123
168
194
122
166
192
121
165
192
119
164
192
119
163
191
118
162
191
117
162
190
117
162
190
117
162
190
118
163
190
119
164
191
123
166
193
126
166
193
127
167
194
127
166
193
127
166
193
127
165
192
126
166
192
126
166
193
127
166
193
126
164
191
125
162
189
122
161
188
121
161
189
119
161
189
117
161
188
117
161
188
119
161
188
118
161
188
119
161
188
121
162
189
122
163
190
123
162
189
122
161
188
121
160
187
120
160
187
120
160
187
119
160
187
117
158
185
113
156
184
110
156
184
109
157
185
110
157
185
110
157
185
108
155
184
104
154
183
101
154
182
101
153
182
102
154
182
105
154
182
107
170
185
123
171
185
124
172
186
125
172
186
125
173
187
126
174
187
127
175
188
128
176
189
128
175
188
127
175
188
128
175
189
128
174
189
127
174
188
126
173
188
126
174
189
127
175
189
128
175
190
128
175
190
128
175
191
128
175
191
129
174
190
128
173
190
128
174
191
128
174
192
129
173
193
129
173
194
130
174
194
130
174
195
130
173
195
130
173
195
129
173
195
129
175
197
130
177
197
130
177
197
130
177
197
130
175
197
130
175
196
129
174
195
128
173
194
127
174
195
128
172
193
125
171
192
124
173
194
126
174
195
129
174
195
129
174
195
130
175
196
131
174
195
130
174
195
131
174
196
131
174
196
130
173
197
130
173
197
130
171
196
129
169
194
127
169
194
126
169
195
125
168
194
124
168
194
123
167
194
121
167
194
121
167
194
121
167
194
121
168
195
124
172
195
128
173
196
130
174
196
131
174
196
131
174
195
130
175
195
131
175
195
132
175
194
131
175
195
130
174
194
130
174
194
129
172
194
126
172
194
127
172
193
127
171
196
127
172
195
130
182
200
149
218
219
190
235
228
209
240
232
211
240
230
209
243
231
216
247
236
222
247
238
223
245
233
218
239
227
208
237
223
200
232
215
188
230
210
180
231
209
181
230
209
182
234
215
187
233
214
187
231
211
184
231
211
182
234
215
187
238
219
190
240
222
193
236
220
190
234
214
180
229
206
172
224
200
168
225
201
170
230
209
177
231
211
179
237
216
186
240
220
191
239
222
193
245
231
210
243
234
216
214
218
183
186
204
149
178
199
139
176
198
135
176
199
132
175
199
131
174
200
130
175
200
131
172
198
128
170
197
124
169
197
122
169
196
120
169
196
120
169
196
120
170
197
121
169
196
122
169
196
123
170
197
126
170
197
126
171
197
126
171
197
126
171
197
126
173
197
129
173
197
129
172
197
129
173
197
130
172
196
129
173
195
130
173
195
130
173
195
130
171
196
130
170
196
128
169
195
126
168
195
124
167
194
122
167
194
120
166
193
119
164
191
116
162
191
114
162
191
114
161
191
113
160
191
113
159
190
114
160
190
115
160
189
115
160
189
115
162
190
120
163
191
123
164
192
125
164
192
125
163
192
124
163
191
122
162
191
121
163
191
122
163
191
124
163
191
123
161
190
120
160
188
117
160
188
116
160
188
115
160
188
114
160
188
114
160
187
116
160
187
116
159
186
117
160
187
120
161
188
120
161
188
120
161
188
120
160
187
119
159
186
119
159
186
119
159
186
119
159
187
118
157
185
113
156
184
109
155
183
108
156
184
108
154
183
109
155
185
107
154
183
103
153
182
99
152
181
97
152
181
97
152
181
99
152
180
102
168
184
122
169
186
124
170
187
125
170
187
125
170
186
124
172
187
126
174
188
127
174
188
127
173
187
126
173
188
127
173
188
127
171
188
126
171
187
125
172
188
126
172
189
127
173
189
127
172
190
128
172
190
128
172
190
128
172
190
128
172
190
128
172
190
128
173
190
128
173
191
129
173
193
130
173
193
130
174
194
131
174
195
130
174
195
130
173
195
128
172
195
127
173
196
128
173
196
128
174
196
128
174
196
128
172
195
127
172
195
127
171
194
126
170
193
125
171
194
126
171
192
125
170
191
124
171
192
126
172
193
128
172
193
128
172
193
128
173
194
129
173
194
129
172
194
130
172
194
130
172
195
130
171
196
130
170
195
129
169
194
128
168
193
125
166
192
121
166
193
120
166
193
120
165
193
119
164
192
117
164
192
117
163
192
115
164
192
116
165
193
119
169
193
124
170
194
128
171
194
129
172
194
129
173
194
129
173
194
130
173
194
131
172
194
130
173
194
129
172
193
128
171
193
127
170
193
125
170
193
125
170
192
126
168
195
127
175
195
138
197
206
165
227
221
195
236
224
201
241
225
201
241
225
201
245
230
208
242
228
206
234
221
197
233
219
196
232
216
192
226
209
183
224
206
176
217
195
163
223
202
171
229
208
179
224
203
174
221
203
175
224
203
177
219
198
166
218
196
164
223
201
169
236
216
185
233
216
189
230
208
177
225
202
170
222
196
164
220
193
159
223
197
163
228
205
172
230
208
174
234
213
180
233
214
181
238
223
194
244
235
214
230
228
205
192
203
157
177
198
136
175
199
134
174
199
133
172
197
128
171
197
127
170
197
126
170
197
125
168
196
122
168
196
119
166
195
117
167
196
117
167
196
117
167
196
117
167
196
120
168
196
122
168
196
123
169
197
123
170
197
125
171
197
126
171
197
126
172
198
127
172
198
127
171
197
127
171
196
128
170
195
127
172
195
129
173
195
130
173
195
130
170
195
129
170
195
127
168
194
124
167
194
123
165
193
119
165
193
119
164
192
116
162
190
112
159
190
109
159
190
109
158
190
108
158
189
108
158
189
111
158
189
113
158
188
113
157
188
112
158
188
114
159
189
117
160
190
121
161
190
120
161
191
118
160
190
116
159
189
115
159
189
115
160
190
118
159
189
115
158
188
113
157
188
112
157
188
112
158
187
112
159
187
112
159
187
111
158
186
113
159
186
113
158
186
113
159
186
116
159
186
116
159
186
116
159
186
116
159
185
116
159
186
116
159
186
117
159
187
117
158
188
116
155
185
111
155
184
109
155
183
108
155
183
108
153
184
108
153
184
106
152
183
102
151
181
97
150
181
94
150
180
93
150
180
95
150
179
97
165
184
121
166
185
122
167
186
124
167
186
124
167
186
123
169
187
125
170
187
125
170
187
125
170
187
125
170
187
125
170
187
125
168
187
124
168
187
124
169
188
125
169
188
125
170
188
126
169
189
126
169
190
127
169
190
127
169
190
127
171
191
128
171
191
128
172
192
129
172
192
129
172
192
129
172
192
129
173
194
130
173
194
129
173
194
129
172
194
127
172
195
127
172
195
127
170
195
127
170
195
127
171
195
127
171
194
126
170
193
125
170
193
125
169
192
124
169
192
124
170
191
124
169
190
123
170
191
125
171
192
127
170
191
126
171
192
127
171
192
127
171
192
127
171
193
129
171
193
129
171
194
129
170
195
129
169
194
128
168
193
125
166
192
121
165
191
118
163
191
116
163
191
116
163
191
115
162
190
113
161
189
113
161
189
110
162
190
112
163
191
116
165
192
120
166
193
123
167
194
126
169
193
127
169
194
128
169
194
129
169
194
129
169
194
129
169
194
128
169
193
127
168
192
125
169
192
124
169
192
124
168
192
123
170
194
131
190
202
158
219
217
185
229
216
191
229
215
185
229
212
183
234
216
187
235
218
188
228
210
183
230
211
187
225
207
179
217
197
167
215
193
161
212
190
157
213
190
158
212
191
159
212
192
160
216
196
164
217
200
172
217
196
170
207
186
153
196
172
139
197
174
140
223
202
170
227
210
185
225
202
177
218
191
161
214
186
151
215
186
147
212
182
143
222
194
158
226
203
167
231
210
178
236
216
188
234
214
183
242
229
202
240
232
213
209
212
178
186
203
148
178
200
140
174
199
135
173
198
132
170
197
127
168
196
121
168
197
119
167
195
119
166
195
116
166
195
113
166
195
113
166
194
113
166
195
113
166
195
115
167
195
119
167
195
120
168
196
121
169
196
123
170
196
125
171
197
126
170
196
125
170
196
125
169
195
125
170
195
127
169
194
126
171
194
128
172
194
129
172
194
129
170
195
129
168
193
125
167
193
123
166
193
122
165
193
119
164
192
116
162
191
112
161
190
108
158
190
106
157
189
104
156
188
103
155
187
104
156
188
107
156
187
108
155
186
108
154
185
107
156
187
110
157
187
113
158
188
115
158
189
114
159
190
112
158
189
112
157
188
112
157
188
111
158
188
112
157
188
109
156
187
107
155
186
108
155
186
108
156
185
108
157
185
108
157
185
108
157
185
109
157
185
110
156
184
110
157
184
112
157
185
112
157
185
112
157
185
112
156
184
111
157
185
112
157
185
112
157
186
113
156
186
113
155
186
110
155
184
108
154
182
107
154
182
107
153
184
106
152
183
102
150
183
99
148
181
94
147
181
91
148
180
90
149
179
92
150
180
94
164
182
120
166
184
122
167
185
123
166
185
122
167
185
123
168
186
125
168
186
126
168
186
125
168
186
124
168
186
124
168
186
124
166
186
123
166
186
123
167
187
124
167
187
124
168
188
125
167
189
125
167
189
125
168
190
125
168
190
125
169
191
126
170
192
127
170
192
128
170
192
128
171
192
130
171
193
131
172
194
131
172
194
130
171
194
127
170
195
127
171
195
127
170
194
126
169
194
126
168
193
125
168
193
125
167
192
124
168
192
124
167
191
125
167
192
126
167
191
125
166
191
123
166
190
122
167
191
124
169
191
126
169
191
126
168
192
126
168
192
126
168
192
126
168
193
128
168
192
127
168
193
126
167
194
127
166
193
124
164
192
120
162
192
117
161
191
113
161
190
111
161
190
110
161
191
110
158
189
106
157
189
105
157
189
105
158
190
108
160
190
111
162
190
115
163
191
118
165
192
121
166
193
125
167
192
127
167
193
128
167
193
128
167
193
128
168
193
127
167
192
125
166
191
124
165
191
123
165
192
122
166
192
123
178
199
144
215
216
187
229
218
191
227
212
184
226
209
179
225
208
179
228
208
178
219
195
161
207
182
151
214
191
163
211
193
162
205
183
148
200
173
136
197
169
133
194
167
131
195
169
133
198
174
140
201
178
148
205
188
161
205
183
153
191
168
135
179
156
126
168
144
116
193
173
143
218
200
176
216
199
175
212
191
159
205
180
145
208
178
140
204
171
133
218
188
152
227
202
169
233
213
184
234
217
191
232
216
188
234
216
188
244
231
209
228
223
198
189
202
156
170
196
133
169
196
129
169
196
126
168
195
124
167
195
121
165
194
118
164
194
116
163
194
112
162
194
109
162
195
109
162
195
108
162
194
109
163
194
113
164
194
116
166
194
120
167
195
121
168
195
123
169
196
125
169
196
125
169
195
124
169
195
124
168
194
122
169
195
124
168
193
125
169
194
127
170
194
127
169
194
126
168
194
127
166
193
124
165
192
120
164
192
118
164
192
115
161
191
111
159
191
107
158
191
104
155
189
102
154
188
101
153
187
100
154
187
103
154
187
105
155
185
106
154
184
106
154
184
106
153
186
107
154
186
110
155
187
112
156
188
112
155
188
109
154
187
107
154
187
106
154
187
106
154
187
106
154
188
104
154
188
103
154
187
104
154
187
104
154
187
104
154
187
104
153
187
103
156
185
105
155
184
104
154
183
104
153
182
106
153
183
107
154
184
106
154
183
108
154
183
109
154
184
107
154
185
107
155
186
110
156
186
111
154
185
107
153
184
106
153
183
105
151
182
101
150
184
100
150
184
100
150
183
99
148
181
94
147
180
91
147
180
91
147
180
92
147
180
92
162
183
118
163
184
119
165
185
120
166
184
121
166
185
121
166
187
123
166
187
123
165
186
123
165
185
122
165
186
123
166
186
123
165
185
122
165
185
122
166
186
123
166
186
123
166
186
123
166
188
123
166
188
123
166
188
123
167
189
124
167
189
124
168
190
125
168
190
125
168
190
125
169
191
127
170
192
128
170
192
128
171
193
128
170
193
126
169
193
125
168
193
125
168
193
125
168
193
125
167
192
124
167
192
124
166
191
123
166
191
123
166
191
124
166
191
125
165
190
124
164
189
121
163
188
120
165
189
122
167
189
124
168
190
125
167
191
125
166
191
125
166
191
125
166
191
126
166
191
125
167
192
124
165
192
123
164
192
120
162
192
117
160
191
113
159
190
110
158
190
107
157
188
106
157
188
105
156
188
102
155
188
102
155
188
101
157
189
104
158
190
107
160
189
111
162
190
114
163
191
118
164
192
122
164
191
124
165
192
126
167
193
128
167
193
128
167
193
128
166
192
125
164
191
122
163
190
119
164
192
116
172
195
131
197
205
164
224
219
190
229
217
190
224
207
179
215
194
162
208
183
144
204
177
136
199
170
132
202
175
141
203
178
148
201
178
144
196
172
136
189
163
127
191
166
131
195
170
135
189
162
130
186
161
128
187
165
130
186
164
134
180
154
122
176
146
111
157
127
94
135
107
78
148
125
95
189
167
140
209
189
167
214
192
163
208
183
151
209
180
145
205
175
140
212
184
147
224
198
164
233
211
181
232
215
188
226
208
183
219
199
168
238
224
197
239
230
207
199
205
162
171
196
130
167
194
124
167
194
121
166
194
119
165
193
117
164
193
114
161
193
112
161
192
109
160
193
106
160
193
106
160
193
106
161
193
108
161
193
111
163
193
115
166
194
120
166
194
120
167
194
122
168
195
124
167
194
123
168
194
123
167
193
122
167
193
121
167
193
121
168
193
125
168
193
126
169
194
126
168
193
125
167
194
127
165
192
123
164
191
119
163
191
117
162
190
114
160
190
109
157
189
105
156
189
102
153
187
100
152
186
99
151
185
99
152
186
101
152
186
104
152
185
104
152
184
103
151
183
102
151
185
103
153
185
107
153
185
109
154
186
109
152
185
104
151
185
102
151
185
101
151
185
101
152
185
103
152
186
102
152
186
100
152
186
101
152
186
101
152
186
101
152
186
101
152
186
101
154
185
102
152
183
101
151
183
100
150
183
99
150
183
99
150
183
100
151
183
102
151
183
104
152
183
103
152
183
103
153
184
105
155
186
110
154
185
109
153
184
106
152
183
104
151
183
100
150
184
98
149
183
97
148
182
97
148
181
94
146
179
89
146
179
89
147
180
90
147
180
90
161
184
117
161
184
116
163
184
117
164
183
117
164
184
118
164
185
120
163
185
120
163
185
120
163
185
121
163
185
121
164
185
121
164
184
120
164
184
120
165
185
121
165
185
121
165
185
121
165
187
119
165
188
120
165
188
120
166
187
122
166
188
123
167
189
122
167
190
122
167
190
122
168
190
124
168
190
125
168
190
125
168
191
126
168
191
125
167
191
123
166
191
122
166
192
123
166
191
123
165
191
122
165
190
122
165
190
122
165
190
122
165
190
123
165
190
124
164
189
123
163
188
119
162
187
119
164
188
120
165
188
122
166
189
123
165
190
124
165
190
124
165
190
124
165
190
124
165
190
123
165
191
122
163
191
119
162
190
116
160
190
112
158
189
109
157
189
106
156
190
104
154
188
102
154
188
101
154
187
99
153
186
98
153
187
98
155
188
101
157
189
104
159
188
108
161
189
112
162
191
116
163
191
118
164
191
122
165
191
125
166
192
127
167
193
128
164
192
126
164
192
125
163
192
121
163
190
120
170
194
132
193
207
166
231
227
207
235
224
203
231
216
190
225
206
179
216
193
164
207
183
150
198
172
137
199
174
139
202
179
148
201
181
153
190
164
128
185
159
122
194
168
133
187
162
128
187
163
129
185
159
123
180
156
122
185
163
133
187
169
142
189
169
140
179
153
120
143
113
82
106
81
58
107
81
61
157
131
103
194
170
141
208
187
160
211
186
156
218
191
160
217
192
160
218
189
154
221
193
159
233
208
177
232
211
182
223
204
172
208
185
153
225
207
182
236
221
197
211
209
169
176
196
133
165
193
120
164
192
117
163
192
115
162
191
112
161
192
110
159
191
108
159
191
105
158
191
105
158
192
105
159
192
105
159
192
107
160
192
109
162
192
113
165
193
118
166
194
120
166
193
121
166
193
123
166
193
122
166
192
121
165
192
120
165
192
119
165
192
120
166
191
122
167
192
124
167
192
124
167
192
124
165
192
125
164
191
121
163
190
118
162
190
115
161
189
112
158
189
108
155
188
104
154
187
101
152
186
99
150
184
97
150
184
97
151
185
100
151
184
102
150
184
101
149
184
99
149
183
99
151
184
101
151
185
104
152
185
105
152
185
104
150
184
101
150
184
98
149
183
98
150
184
98
150
184
102
150
184
100
150
184
98
150
184
97
150
184
97
151
185
98
151
185
98
151
185
98
151
185
99
150
184
98
148
183
96
147
183
95
147
183
95
147
183
95
147
183
96
148
183
98
150
183
99
151
183
100
152
184
102
154
185
106
154
184
109
152
183
106
151
182
102
151
183
100
149
183
96
148
182
95
148
181
94
146
179
91
144
178
88
144
177
86
145
179
87
145
178
87
161
182
115
161
182
115
162
183
116
161
182
114
161
182
114
161
183
115
162
184
117
162
184
117
161
184
117
161
184
117
161
184
117
161
184
116
162
185
117
163
185
117
163
184
117
164
185
118
164
185
116
165
186
117
165
186
118
165
186
120
166
187
120
166
188
119
166
189
119
167
190
120
166
189
122
166
189
122
166
189
121
164
190
120
164
190
120
164
190
119
164
190
119
164
190
119
163
190
119
164
191
120
163
190
120
164
189
121
164
189
121
163
188
122
164
189
124
163
188
122
161
187
116
161
187
116
161
187
116
162
187
117
163
188
118
163
188
121
163
188
122
164
189
122
162
189
119
163
190
117
162
191
116
160
190
115
159
190
112
158
189
108
157
189
106
156
188
105
154
188
101
154
188
101
152
186
99
151
185
98
150
184
97
151
185
96
152
186
99
154
188
103
156
187
107
158
189
111
160
190
115
163
190
118
164
191
122
165
192
126
166
193
125
170
196
134
180
199
145
188
203
153
189
203
156
195
207
166
216
219
191
237
233
214
241
232
213
237
224
201
234
215
190
225
206
178
225
206
182
216
200
175
199
178
149
184
157
123
178
148
111
181
157
123
194
169
138
187
161
123
178
150
113
175
147
108
173
147
110
169
144
108
177
160
133
194
180
156
204
190
166
199
180
155
165
142
116
125
102
78
92
73
59
88
70
57
122
97
74
177
149
121
205
181
154
214
188
160
226
201
172
231
207
178
226
200
169
225
197
165
231
205
174
233
209
179
232
208
176
220
197
163
179
154
120
188
161
127
222
208
173
190
200
151
164
191
119
161
191
110
160
192
109
159
191
108
159
191
107
158
192
106
157
191
105
156
190
104
156
190
103
157
191
104
159
192
105
159
191
107
161
191
110
164
192
115
165
193
118
165
193
121
165
192
121
164
191
121
164
192
118
162
190
116
162
190
116
163
191
117
163
190
120
165
190
122
165
190
122
165
190
122
163
190
122
163
190
119
161
189
116
158
189
114
158
189
111
156
189
108
153
186
104
151
185
100
151
185
98
150
184
97
150
184
97
149
183
97
149
183
97
148
182
95
148
182
95
148
182
95
149
182
100
150
183
102
150
184
101
150
184
100
149
184
99
148
183
97
147
183
96
147
183
96
149
184
99
149
183
99
148
182
97
148
182
95
148
182
95
149
183
96
149
183
97
149
183
97
148
182
95
148
182
95
147
181
94
146
180
93
147
181
94
147
181
92
147
181
94
147
181
96
148
182
96
149
183
97
150
183
98
152
183
102
152
183
102
152
183
101
150
182
99
150
182
98
149
181
96
148
181
94
147
181
91
144
179
85
143
178
84
143
176
86
144
177
88
144
177
88
160
181
112
160
181
112
160
181
111
159
181
109
159
181
109
160
181
111
160
181
112
160
181
111
160
181
112
160
181
112
161
182
113
161
182
115
162
182
115
162
183
116
162
183
116
163
184
117
163
184
115
164
185
116
164
185
116
164
185
116
165
186
117
165
187
117
165
188
118
166
189
119
165
188
118
165
188
118
165
189
118
163
189
116
162
188
115
163
189
117
163
189
118
164
190
119
163
190
119
163
190
119
163
189
119
164
189
121
164
189
121
163
188
121
163
188
121
162
187
120
161
187
116
160
186
115
160
186
114
160
186
113
161
187
114
161
187
115
162
187
116
162
188
116
160
188
115
160
189
113
160
189
112
157
188
111
157
188
108
157
189
106
156
188
105
155
187
104
154
188
101
152
186
99
150
184
97
149
183
96
149
183
96
150
184
95
151
185
99
153
186
101
156
187
107
157
188
110
159
189
114
161
188
116
163
190
120
163
190
124
169
193
128
182
200
147
211
215
181
228
225
199
237
228
209
239
229
210
242
229
212
241
229
211
237
225
202
235
218
192
228
205
175
212
187
150
202
175
144
210
191
165
209
191
165
199
178
151
200
175
144
192
169
139
190
169
137
176
150
111
166
134
98
167
137
100
167
139
103
168
147
116
188
175
153
195
181
162
181
164
147
121
101
83
38
30
25
103
106
109
60
63
66
45
38
31
67
52
38
142
113
91
189
161
133
212
185
155
229
204
171
238
215
184
240
218
188
236
214
183
234
213
182
235
215
187
241
221
196
237
217
189
228
209
180
215
195
169
234
219
192
202
206
165
168
192
124
160
191
108
159
191
106
158
190
104
157
189
104
156
190
104
156
190
104
155
189
103
155
189
102
156
190
103
158
191
104
158
190
106
160
190
109
162
190
114
163
191
117
164
192
118
164
192
118
163
191
117
162
190
116
161
189
115
161
189
115
161
189
115
162
189
118
163
189
120
163
188
120
164
189
121
163
189
123
162
189
121
160
188
118
158
188
116
157
187
112
155
187
110
152
185
106
151
184
101
150
184
100
150
184
99
149
183
98
148
182
96
148
182
96
146
180
94
146
180
93
147
181
94
148
182
97
149
183
99
149
183
99
149
183
99
148
182
98
147
182
96
146
182
95
146
182
95
148
182
98
147
181
97
147
181
96
147
181
94
148
182
95
148
182
96
149
183
97
148
182
96
148
182
95
147
181
94
145
179
92
145
179
92
144
178
91
145
180
91
146
180
93
147
181
96
147
181
95
149
183
97
149
183
98
151
183
99
151
183
99
151
183
98
149
182
96
149
181
96
148
181
94
147
180
91
146
180
88
144
179
85
142
177
83
142
175
85
142
175
86
143
176
87
159
180
110
159
179
108
158
180
108
157
179
107
157
179
106
158
179
108
158
178
107
158
178
107
159
179
108
160
180
109
161
180
112
161
181
113
162
181
114
163
182
115
164
183
115
165
184
116
164
185
116
164
185
116
164
184
115
164
185
115
165
186
116
165
186
116
165
186
116
166
187
117
164
187
115
164
187
115
164
187
115
163
187
114
161
187
112
161
187
114
162
188
117
162
188
119
162
189
118
162
188
117
163
189
119
163
188
121
162
187
120
161
186
119
161
186
117
160
186
116
160
186
115
159
186
115
159
186
114
158
185
111
158
185
110
158
185
110
159
186
110
159
186
111
159
187
110
159
187
109
158
188
108
156
187
108
157
188
107
157
188
107
156
187
106
154
186
105
153
186
100
152
185
98
150
183
95
149
184
94
149
184
94
149
184
95
151
185
99
152
186
102
156
187
107
157
188
110
159
189
114
161
188
117
162
189
121
163
191
122
170
192
130
182
197
149
207
212
173
226
220
191
236
221
198
233
216
191
232
213
185
230
213
187
233
217
191
227
206
175
215
188
151
200
168
127
185
149
108
184
158
123
207
192
165
216
200
173
198
174
144
194
175
146
187
165
131
172
145
109
178
149
114
173
146
112
159
135
103
167
148
122
180
165
142
162
143
116
106
85
64
30
28
25
44
44
43
55
61
67
75
79
86
25
25
26
56
43
35
136
106
83
182
152
123
217
189
156
232
206
171
237
214
181
241
222
191
244
224
198
245
226
202
244
227
205
244
227
205
244
227
202
241
224
199
234
217
196
232
218
193
222
215
183
190
199
149
165
192
119
158
191
107
158
189
106
158
189
104
155
189
103
155
189
103
155
189
102
155
189
102
155
189
102
157
189
105
158
190
106
159
191
110
161
190
114
161
191
115
161
190
116
161
190
116
160
189
115
161
189
116
161
188
116
160
188
114
160
188
114
160
188
116
162
189
117
162
188
119
162
188
120
161
188
121
162
189
121
160
188
119
158
188
117
156
186
113
154
185
110
152
185
107
151
184
103
150
184
99
149
183
98
148
183
97
147
182
95
146
181
94
144
179
92
144
179
91
145
180
92
147
181
94
148
182
96
148
182
96
148
182
97
147
181
97
145
182
96
145
181
94
145
181
94
146
181
97
145
181
96
144
179
94
146
180
93
147
181
94
147
181
94
147
181
94
147
181
95
146
180
93
145
179
92
145
179
91
144
178
90
143
177
89
143
178
88
144
179
90
146
180
93
147
181
94
149
182
97
149
182
98
150
181
99
150
181
99
149
182
98
148
181
95
147
181
94
148
182
92
146
180
90
145
179
87
143
178
84
142
177
83
142
175
85
142
175
86
143
176
87
161
177
111
160
177
108
159
177
106
157
177
105
156
176
104
158
176
105
158
175
104
158
175
104
159
177
106
160
177
109
161
178
111
162
179
111
163
180
113
165
182
114
165
182
114
166
183
115
165
185
116
165
185
116
164
184
115
164
184
115
165
185
116
165
185
116
164
184
115
165
185
116
163
185
113
163
185
113
163
185
114
163
185
114
161
186
114
161
187
115
162
187
118
162
187
121
162
187
119
162
187
119
163
188
120
162
187
121
162
187
121
161
186
119
160
186
116
160
186
114
159
187
113
158
186
112
158
186
112
157
185
110
156
185
107
156
185
106
156
185
106
157
186
107
158
187
107
158
187
107
157
187
107
156
187
108
157
188
109
158
189
110
157
188
109
155
186
107
153
186
102
152
185
99
150
183
95
148
183
93
149
184
94
149
184
96
151
185
99
152
186
102
154
186
106
157
188
110
159
189
114
161
189
116
162
189
119
164
189
126
175
194
138
188
199
150
200
202
160
215
207
170
222
205
172
220
199
164
218
194
158
217
194
162
217
191
155
209
171
125
190
144
92
169
125
77
154
111
69
154
119
86
190
169
142
191
169
135
177
149
112
178
157
122
174
149
113
175
149
114
169
142
106
158
131
93
154
129
97
163
143
119
154
135
105
103
83
63
60
57
56
52
57
62
43
45
47
46
42
38
59
52
46
70
57
46
110
88
69
161
128
98
203
173
136
215
185
146
221
192
153
231
206
171
238
217
185
241
222
195
241
221
194
237
216
187
235
214
186
232
213
184
217
197
168
201
180
153
193
174
153
185
171
150
190
181
160
199
199
170
178
195
143
164
191
115
157
189
111
155
189
102
154
188
102
155
189
103
155
189
103
155
189
103
157
189
106
157
189
106
158
190
108
158
189
112
159
190
113
159
190
113
159
190
114
159
190
114
161
189
115
160
188
114
159
187
113
159
187
113
159
187
113
160
188
114
160
187
117
160
187
119
160
187
118
160
187
118
159
187
118
158
187
117
157
187
114
154
186
110
152
185
106
151
184
103
149
183
99
149
183
98
148
183
98
147
182
95
145
181
94
144
180
93
144
180
92
144
180
92
147
181
94
148
182
95
148
182
95
148
182
95
147
181
97
147
182
97
146
181
96
145
180
96
146
181
98
145
180
97
143
178
94
144
178
94
145
179
95
146
180
95
146
180
94
146
180
94
146
180
93
145
179
92
145
179
92
144
178
91
144
178
91
143
177
90
144
178
91
144
179
91
148
180
94
149
181
97
149
181
98
149
181
99
149
181
99
148
181
97
147
181
94
147
182
92
146
181
89
145
180
89
144
179
87
143
178
84
142
177
83
142
175
85
142
175
86
143
176
87
161
176
110
161
176
108
161
177
105
158
176
102
158
176
102
160
176
103
159
175
102
160
175
103
161
175
106
162
176
109
162
177
111
163
178
111
164
179
112
164
180
113
164
181
113
165
182
114
165
185
116
164
184
115
164
184
115
164
184
115
164
184
115
164
184
115
163
184
114
164
184
115
163
185
113
163
185
113
163
185
113
164
186
115
163
187
119
162
187
119
162
187
121
163
188
123
162
187
121
162
187
121
162
187
121
162
187
121
161
186
120
161
186
119
159
185
115
158
184
112
157
185
110
157
185
110
157
185
109
156
184
106
155
184
103
154
183
102
155
184
102
156
185
104
157
186
106
158
187
107
157
187
108
157
188
112
159
190
113
158
189
112
157
188
111
156
187
110
154
185
106
153
185
102
151
184
98
148
182
95
149
183
96
149
183
96
151
185
99
153
187
103
154
185
106
157
188
110
159
189
113
161
189
114
161
188
115
168
192
130
185
198
148
202
204
166
213
209
174
220
207
173
218
196
161
210
185
146
202
174
133
203
172
134
195
162
113
181
134
78
173
123
72
171
125
79
145
102
63
127
92
64
179
160
133
182
158
123
174
148
114
180
156
120
170
145
106
162
136
98
157
131
92
149
122
85
154
129
97
151
126
95
120
93
68
58
44
32
66
60
55
86
77
72
92
81
71
109
94
80
137
116
96
155
129
104
156
129
100
175
146
113
197
165
128
203
171
132
212
181
141
220
193
156
229
206
173
232
209
176
228
204
171
223
199
166
226
205
173
217
199
173
164
151
133
125
118
111
122
122
121
136
137
136
149
150
154
158
161
165
154
157
157
161
178
136
159
189
108
153
187
101
154
188
102
154
188
104
155
189
105
155
189
105
156
188
105
156
188
105
157
189
107
157
188
108
158
189
109
158
189
110
158
189
111
157
188
110
159
187
112
159
187
111
158
186
111
157
185
111
157
185
111
158
186
112
158
185
115
158
185
117
158
185
116
158
185
116
158
185
117
156
186
116
155
185
113
153
185
109
152
184
106
151
184
103
149
183
101
149
182
101
147
181
99
146
181
97
145
180
96
145
181
94
145
181
93
145
181
93
146
180
93
148
182
95
148
182
95
148
182
95
148
182
98
148
181
99
148
181
99
147
180
99
147
180
101
147
179
100
145
177
97
144
177
96
145
178
96
146
179
96
146
180
96
146
180
95
145
179
92
145
179
92
145
179
93
146
180
95
145
179
93
144
178
93
144
178
92
144
178
93
146
179
92
148
180
96
148
180
97
148
180
95
148
180
96
147
180
94
146
181
91
145
180
88
144
179
85
143
178
84
143
178
84
142
177
83
141
176
82
141
174
84
141
174
85
141
174
85
164
177
108
164
177
108
162
175
106
162
175
102
161
175
100
163
176
101
163
175
101
163
175
101
163
176
104
163
176
107
163
177
108
163
178
111
164
179
112
164
180
113
164
181
113
166
183
115
166
183
115
165
182
114
164
182
114
163
183
114
162
183
114
164
182
114
165
182
113
165
182
113
163
183
112
161
184
112
163
186
114
165
187
119
163
187
119
162
186
118
161
186
120
163
188
123
165
188
123
165
188
124
165
188
124
162
186
123
162
187
121
161
186
119
159
185
115
158
184
112
157
185
110
156
184
108
155
184
106
153
184
102
152
184
99
152
184
96
152
184
98
152
184
100
154
186
103
155
186
106
157
187
110
160
189
115
161
189
115
161
189
116
159
188
113
158
186
110
157
185
109
156
185
106
154
185
103
150
184
99
150
183
97
151
184
99
151
184
100
154
186
103
157
186
106
158
187
110
160
188
113
161
189
114
160
188
115
166
191
125
188
201
152
209
206
169
216
207
173
214
198
164
211
189
154
199
174
135
196
168
130
198
170
132
185
147
95
163
114
63
149
101
56
145
102
65
137
100
62
122
93
64
165
141
110
160
132
92
176
156
121
170
144
105
163
136
99
160
134
93
150
123
82
146
117
78
139
108
73
120
88
55
106
78
54
111
93
67
130
108
82
142
120
94
162
141
116
175
154
127
174
149
119
183
160
133
172
149
120
188
163
129
197
166
130
198
167
130
201
171
132
206
176
137
206
178
144
202
173
134
203
174
139
195
169
133
188
165
133
172
158
135
96
90
83
72
69
67
63
63
61
62
62
60
64
63
62
69
69
67
68
68
67
99
103
89
162
182
121
154
187
103
153
187
103
155
187
105
155
187
104
156
188
105
155
189
105
155
189
105
155
188
105
156
189
108
157
190
109
157
189
109
156
189
108
155
188
107
155
188
107
155
188
107
154
187
106
154
186
107
154
186
109
154
185
110
155
184
111
155
184
114
154
183
114
155
184
115
155
184
115
154
184
113
153
183
109
152
184
108
151
183
107
151
183
106
149
182
101
149
182
101
149
182
101
147
180
98
148
182
97
147
182
96
147
182
96
148
182
96
147
181
94
147
181
94
147
181
94
148
182
95
148
182
98
148
181
99
148
181
101
148
180
103
146
178
103
146
178
103
145
178
101
145
178
99
145
178
99
146
179
99
146
179
99
145
178
99
145
178
97
145
178
97
145
179
98
146
179
100
146
179
99
145
178
97
145
177
95
146
177
96
147
179
97
147
179
97
147
178
97
146
178
96
147
179
95
146
180
94
146
180
92
145
180
88
143
178
86
142
177
85
141
176
83
141
176
82
140
175
81
139
174
82
140
174
85
140
174
87
165
176
106
165
176
106
163
175
104
163
175
100
162
175
98
164
176
99
164
175
99
164
175
99
164
176
101
164
176
104
165
176
107
166
179
110
167
179
110
165
181
113
165
182
114
166
183
115
166
183
115
166
183
115
165
182
113
164
182
112
163
181
111
163
181
110
164
181
110
164
181
110
161
181
108
160
182
111
163
186
116
164
187
119
163
186
118
163
186
118
163
185
120
165
187
123
167
188
124
168
188
125
167
188
126
165
187
124
163
186
121
161
185
119
159
185
115
158
184
111
156
184
108
155
183
105
153
183
102
151
183
98
150
183
96
151
184
95
152
185
98
152
184
100
154
186
103
156
187
109
159
188
115
161
188
118
161
188
118
161
188
118
160
187
115
158
186
112
157
185
111
157
185
109
155
184
106
153
184
103
152
184
100
152
184
102
153
184
104
154
186
106
158
187
107
159
187
110
160
188
113
161
189
114
161
188
115
168
193
129
182
197
146
192
199
151
201
196
149
208
195
154
204
183
145
195
166
127
194
163
121
188
154
108
170
126
75
152
103
54
140
97
56
134
97
65
130
98
65
122
94
65
157
134
103
176
155
120
174
155
122
161
137
100
151
118
80
138
105
67
126
93
55
121
89
51
120
88
52
125
95
60
134
109
76
150
128
99
160
141
116
169
151
126
168
149
125
162
143
120
169
150
127
181
163
141
191
169
142
195
168
134
181
149
111
186
153
115
190
157
118
194
163
124
203
176
141
203
178
144
198
174
139
183
159
125
150
124
95
106
96
81
49
48
45
40
39
36
25
24
21
15
15
12
18
19
15
30
31
27
26
27
20
26
26
18
161
168
128
163
188
117
151
187
101
154
187
103
155
187
104
156
188
105
155
189
105
155
189
105
155
188
105
156
189
108
156
189
108
156
189
106
155
189
105
154
188
105
154
188
105
154
188
104
153
186
103
152
186
103
152
185
105
153
185
107
154
184
109
154
184
111
153
183
112
153
183
112
153
183
113
153
183
111
153
183
109
152
184
108
151
183
107
150
182
106
149
182
101
149
182
101
149
182
102
148
181
101
149
182
99
149
182
99
149
183
99
150
183
100
149
183
96
147
181
94
147
181
94
148
182
95
149
183
98
149
182
100
149
182
102
148
180
104
147
179
104
147
179
104
147
179
103
146
179
102
146
178
101
147
179
102
147
179
102
145
178
101
145
178
99
145
178
99
146
178
100
146
178
102
146
178
101
146
177
101
146
177
100
147
177
101
147
178
102
148
179
102
148
179
102
147
178
99
147
179
97
146
179
94
145
180
92
144
179
88
142
177
85
141
176
84
140
175
82
139
174
80
138
173
79
137
172
80
138
172
83
139
173
87
167
177
106
166
176
104
164
175
102
163
174
97
163
174
95
166
175
97
166
174
97
166
174
97
165
176
100
165
175
102
166
177
106
167
179
109
168
180
110
167
181
113
166
182
114
166
183
115
166
183
115
166
183
115
165
182
113
165
182
110
165
181
109
164
181
108
163
180
108
162
180
108
159
180
105
160
182
110
162
185
117
163
185
117
163
186
117
163
185
117
165
186
121
166
186
123
168
187
124
169
187
125
169
188
126
166
187
125
164
186
122
162
185
119
159
185
115
158
184
111
155
184
106
155
184
103
153
183
99
150
183
96
150
183
94
150
183
94
152
184
98
153
185
101
155
186
104
157
187
112
160
188
120
161
188
120
161
188
120
161
188
120
160
187
117
159
186
114
158
185
113
158
185
111
157
184
109
156
184
106
155
184
103
154
184
105
155
185
107
155
186
108
158
187
108
159
187
111
161
188
113
161
189
114
161
188
115
166
192
122
185
197
144
201
198
157
210
197
159
204
183
145
192
164
124
182
149
110
183
149
104
177
135
82
154
104
55
139
92
46
126
89
53
112
80
53
107
79
52
136
112
83
171
149
117
177
155
121
166
141
103
144
114
74
127
96
57
119
89
52
122
93
59
131
107
75
132
111
80
131
112
81
134
117
84
140
124
98
142
127
105
136
122
100
139
123
102
152
136
116
179
165
148
202
188
166
203
182
149
182
152
111
169
135
95
178
144
104
176
141
102
181
148
111
191
167
131
198
173
139
177
149
109
151
121
84
99
79
60
46
43
34
32
29
24
22
22
17
15
15
9
9
9
4
12
13
7
21
22
16
23
25
22
27
26
21
197
189
169
196
201
157
160
186
112
154
186
103
154
186
103
154
187
104
155
189
105
155
189
105
155
189
105
155
188
107
156
189
107
155
189
105
155
189
103
154
188
102
154
188
102
153
187
101
152
186
100
150
184
99
152
185
102
153
184
104
153
184
107
154
185
109
153
183
109
153
183
109
153
183
111
153
183
112
153
183
109
152
184
108
151
183
107
150
182
106
149
182
101
149
182
101
149
182
102
148
181
103
149
182
102
149
182
101
149
182
101
150
183
102
149
183
96
148
182
95
148
182
95
148
182
95
149
183
99
149
182
100
149
182
102
148
180
104
147
179
104
147
179
104
147
179
104
148
179
104
148
179
104
147
179
104
147
179
104
147
178
103
145
177
101
145
177
101
145
177
101
146
178
103
147
179
104
147
177
104
147
177
105
147
177
105
148
178
105
148
178
105
148
178
105
147
178
102
147
178
99
146
179
95
145
179
91
144
179
88
142
177
85
141
176
84
140
175
82
139
174
80
138
173
80
137
172
80
137
171
82
138
172
85
170
178
107
168
176
102
166
175
98
165
174
95
165
174
95
167
174
96
167
174
96
167
174
96
166
174
99
165
176
103
166
178
107
167
178
110
168
179
111
170
181
114
169
181
114
168
182
114
166
181
113
166
181
113
166
181
113
164
181
111
163
180
110
163
181
108
163
181
107
162
180
106
160
180
107
161
181
110
163
183
114
163
183
114
164
184
115
163
185
117
165
186
121
167
186
124
169
187
125
170
188
126
169
187
125
166
187
123
162
186
121
162
184
117
161
184
113
158
184
111
155
184
107
154
183
100
152
183
96
149
182
95
149
182
96
150
183
95
152
185
98
154
186
101
157
186
107
160
188
114
162
188
120
162
187
119
162
187
119
162
187
120
161
186
117
160
186
114
159
185
114
159
185
114
158
185
112
157
185
108
155
184
105
156
185
105
157
186
108
158
186
111
159
187
112
161
189
114
161
189
114
161
189
115
161
189
115
167
190
122
187
197
147
201
198
159
204
186
152
194
167
129
180
145
103
164
131
87
171
137
94
166
124
76
145
98
53
129
86
47
110
76
46
96
66
45
102
77
55
156
133
102
161
136
99
150
123
83
139
109
70
131
99
61
130
101
66
140
113
80
148
125
92
150
130
98
153
133
100
153
133
102
152
133
104
149
133
105
149
134
111
140
129
107
146
135
116
172
161
142
217
203
182
217
199
173
197
168
133
168
133
96
162
126
86
166
131
93
172
141
105
189
161
127
185
157
123
175
146
110
165
138
99
154
128
97
144
131
109
83
80
70
32
32
30
18
18
16
12
13
11
12
13
10
16
17
11
16
17
10
26
27
22
87
87
82
197
193
186
225
220
195
171
190
129
153
186
104
154
187
104
153
186
104
154
188
104
155
189
105
155
189
104
155
189
103
156
190
104
155
189
103
155
189
103
154
188
102
153
187
101
152
186
101
152
186
99
151
185
97
151
185
99
151
184
102
152
185
105
152
184
107
152
184
109
152
184
110
153
184
113
154
184
113
153
183
112
153
184
109
153
184
108
151
182
106
150
183
104
150
183
104
150
182
103
149
182
101
149
182
101
150
181
101
151
182
102
150
181
101
149
183
98
149
183
97
149
183
97
149
183
96
149
183
99
149
182
100
149
182
102
149
181
104
149
179
105
149
179
105
149
179
105
149
179
105
149
179
105
148
178
104
148
178
104
147
177
103
147
178
102
146
177
101
146
177
101
147
178
103
148
178
106
147
177
106
147
177
105
147
177
105
148
178
103
148
178
104
148
179
104
148
179
102
147
178
99
145
178
95
144
178
91
143
178
89
142
177
85
141
176
84
140
175
84
140
175
85
138
173
83
137
172
83
137
171
83
138
172
83
172
177
107
169
175
102
168
174
99
167
174
95
167
174
96
167
174
96
167
174
96
167
174
96
166
175
97
165
176
100
166
178
104
167
179
108
168
180
109
169
180
111
168
181
112
167
182
112
166
182
111
166
182
111
166
182
111
167
181
109
165
179
108
164
181
108
164
182
108
163
181
107
160
181
108
162
182
111
164
184
115
163
183
114
164
184
114
165
186
118
167
186
122
170
186
124
172
188
126
172
188
126
170
187
123
165
185
117
162
184
116
162
184
115
161
184
113
157
183
109
155
183
106
153
182
99
151
182
96
149
182
95
149
182
95
151
184
95
152
185
98
153
185
101
157
186
107
161
188
115
162
189
120
162
187
119
163
188
120
163
188
122
162
187
121
161
186
118
160
186
115
160
186
115
159
186
114
157
185
109
156
185
105
156
185
105
158
186
108
159
187
112
160
188
113
161
189
114
161
189
114
161
189
115
161
190
115
166
190
120
185
194
142
201
192
152
198
175
138
184
152
111
167
128
83
158
121
77
163
128
86
157
115
69
132
85
45
113
75
42
87
55
30
79
52
33
124
102
75
154
131
96
144
120
81
144
116
78
143
115
78
137
110
73
141
117
82
153
131
98
158
137
105
168
148
115
170
150
117
166
145
110
161
141
106
163
145
111
161
146
123
175
164
142
203
192
173
223
208
188
220
200
172
203
179
148
177
145
109
159
124
88
160
128
91
163
132
97
171
143
110
167
142
110
165
140
108
159
133
103
160
135
101
151
127
97
150
134
110
137
131
114
75
71
68
31
31
31
25
25
26
25
26
23
16
17
12
16
17
9
17
18
11
57
58
52
191
191
181
239
231
215
200
205
162
169
196
127
162
190
118
157
186
111
153
187
103
154
188
104
154
188
104
153
187
101
155
189
103
155
189
103
155
189
103
155
189
103
153
187
100
153
187
100
152
186
98
152
186
98
151
185
99
151
185
100
151
185
102
152
185
105
152
184
106
152
184
108
153
184
110
153
183
109
153
183
109
153
184
108
153
184
108
153
184
108
153
183
105
153
182
105
152
181
103
152
181
101
151
181
101
150
181
101
151
182
102
151
182
102
149
183
97
149
183
97
148
182
96
149
182
96
150
182
99
149
183
98
149
182
99
148
181
101
150
180
106
150
180
106
150
180
107
149
179
107
148
179
102
148
178
103
148
178
104
148
178
104
147
178
102
146
177
101
146
177
101
147
177
103
147
177
106
147
177
106
147
177
105
147
177
105
148
178
106
149
179
106
149
179
106
147
178
101
146
177
98
145
178
94
144
178
91
142
177
88
140
175
84
140
175
83
140
175
83
140
175
85
139
174
84
138
172
85
137
171
85
137
171
85
174
177
109
172
176
105
170
176
101
170
174
98
169
173
96
169
174
96
167
174
96
166
174
95
165
174
97
166
175
99
167
177
102
168
179
106
169
180
108
168
181
109
167
182
109
166
182
109
166
182
110
166
182
110
167
182
110
168
181
109
167
180
108
166
180
108
164
181
108
163
181
107
162
181
109
163
182
111
164
183
114
164
184
115
164
184
115
166
185
118
168
185
122
171
185
124
173
187
126
172
187
124
170
185
119
166
182
113
163
183
112
162
183
113
161
183
113
157
182
110
154
182
104
153
182
100
152
182
97
150
182
94
151
182
95
152
183
96
153
184
99
155
186
102
159
186
109
161
188
115
163
189
121
164
189
122
164
189
121
163
188
123
163
188
122
162
187
118
161
187
117
160
186
115
159
186
113
157
184
109
157
184
107
158
185
108
159
187
110
160
187
112
161
188
114
161
188
114
161
188
114
161
188
114
162
189
115
166
190
118
184
189
136
199
184
144
189
164
122
172
138
93
159
119
76
149
113
76
160
121
79
152
107
60
116
72
36
84
49
25
76
46
26
95
71
51
149
129
99
154
132
93
151
127
89
147
120
82
140
114
77
145
122
85
149
128
95
160
141
107
165
146
113
176
154
122
177
155
121
175
151
114
178
154
119
183
161
129
194
179
154
210
197
175
222
210
186
217
200
174
200
176
147
179
149
115
158
125
89
162
131
98
175
147
115
174
146
115
171
144
113
152
128
97
150
127
96
144
118
90
138
113
83
144
122
94
149
129
104
118
108
89
85
78
72
48
47
41
36
36
32
20
21
16
16
17
11
16
17
10
20
22
14
65
63
57
187
186
173
236
227
208
209
207
171
163
185
117
159
189
114
164
190
123
158
189
113
153
187
104
153
187
103
153
187
101
153
187
101
154
188
103
155
189
103
155
189
103
153
188
99
152
187
98
152
186
98
152
186
99
151
185
99
150
184
98
151
185
99
151
184
102
151
185
103
151
184
105
153
185
108
153
184
107
153
184
109
153
183
109
153
183
109
153
184
109
155
183
108
155
183
107
154
182
106
152
181
103
152
181
101
150
181
100
150
182
100
150
182
100
150
182
98
150
182
98
149
182
97
150
182
96
151
182
97
150
183
98
149
183
98
149
182
100
150
180
106
151
181
108
150
180
108
149
180
106
149
180
102
148
179
103
148
178
104
148
178
104
147
177
102
146
177
100
146
177
101
147
177
103
147
177
104
147
177
104
147
177
104
147
177
106
148
178
108
149
178
109
149
178
108
147
178
102
146
177
97
145
178
93
144
178
91
142
177
88
141
175
84
138
174
82
138
173
82
139
174
84
139
174
84
138
173
86
138
172
87
137
171
86
174
176
109
172
177
106
169
176
103
168
174
99
167
174
96
168
174
96
166
175
96
164
174
95
164
174
96
165
175
98
167
177
100
168
179
103
169
180
107
166
181
108
165
181
108
165
181
108
166
182
111
166
182
111
167
182
110
168
181
109
167
180
108
167
180
108
166
180
108
163
180
107
162
180
108
164
181
110
165
183
114
164
184
115
164
184
115
166
185
117
169
185
121
172
184
123
172
186
123
171
186
120
168
183
115
167
182
113
164
182
112
162
182
112
161
182
113
158
181
111
154
182
106
153
182
103
152
181
99
151
181
95
153
183
96
155
184
99
156
185
101
156
185
102
160
187
108
161
187
114
164
189
120
164
189
123
164
189
122
163
188
122
163
188
121
162
188
118
162
187
118
161
187
114
159
185
111
157
183
109
158
184
110
159
185
111
160
186
112
161
187
113
162
188
114
162
188
114
162
188
114
162
188
115
165
188
116
169
189
118
188
190
137
196
178
137
181
154
108
163
126
82
146
108
69
145
110
75
162
125
83
135
92
49
100
60
28
83
52
30
80
55
36
116
95
73
154
134
101
150
128
89
144
119
82
142
117
79
146
122
85
149
128
93
159
140
108
163
144
110
163
145
107
165
144
105
173
149
113
178
155
120
184
163
131
193
174
145
201
186
156
204
187
161
196
178
146
185
162
128
171
142
105
159
128
90
153
123
88
165
136
104
162
134
98
161
131
96
147
117
84
144
121
91
140
119
91
130
107
80
125
102
76
127
107
82
124
105
82
113
100
83
82
74
63
54
50
42
40
38
33
38
39
33
43
44
39
19
20
14
41
41
36
102
98
91
177
171
156
225
216
196
227
222
198
194
202
156
171
195
128
160
186
112
161
188
117
157
188
107
153
187
101
154
188
101
153
187
100
153
187
101
154
188
102
155
189
103
153
188
98
152
187
97
152
187
97
152
187
97
151
186
97
150
185
96
150
184
97
150
184
100
151
185
100
150
183
101
151
184
104
153
184
107
153
184
109
154
183
109
154
183
109
155
184
110
156
183
109
156
183
109
156
183
109
153
181
105
152
181
102
150
181
99
150
182
99
150
182
99
150
182
97
150
182
97
150
182
97
150
183
96
150
183
96
150
184
97
149
183
97
150
184
98
151
182
105
151
182
108
150
181
107
149
180
103
149
180
102
149
179
104
148
179
104
148
179
103
147
177
102
146
177
99
147
177
99
147
177
102
147
177
103
146
177
102
147
177
104
147
177
107
148
178
108
148
178
108
148
178
107
147
178
101
146
178
95
144
178
91
144
178
91
142
176
89
141
175
86
138
174
84
136
172
83
138
172
85
139
173
85
138
172
85
138
172
87
136
170
87
174
176
110
172
177
106
169
177
103
167
176
101
166
175
96
166
175
96
164
175
96
162
175
95
163
175
94
164
176
95
165
178
97
166
180
100
166
180
103
165
180
106
164
180
107
164
180
107
165
181
110
165
181
110
166
181
110
168
181
109
168
181
109
168
181
109
165
179
107
162
180
106
162
179
107
162
179
109
164
182
113
163
183
114
163
183
114
164
184
114
167
184
117
170
184
120
171
186
120
169
184
116
168
183
113
166
181
112
163
181
111
162
182
112
161
182
113
158
181
111
153
181
107
153
181
105
153
181
101
153
182
99
153
182
99
155
184
100
156
185
101
157
186
102
160
187
106
162
188
112
163
189
117
164
190
120
164
189
120
162
188
120
162
187
120
161
187
117
161
186
117
159
185
113
158
184
110
157
183
109
158
184
110
159
185
111
160
186
112
161
187
113
161
187
113
162
188
114
162
188
114
164
188
115
167
188
117
172
189
120
189
189
135
191
171
125
172
139
94
154
114
73
125
89
56
156
124
86
163
125
83
122
77
39
97
60
30
85
58
37
87
66
48
128
107
84
150
130
95
142
119
80
135
110
72
140
116
80
147
126
91
152
132
99
156
137
105
157
139
105
172
154
119
179
159
128
183
160
130
186
163
132
192
173
141
191
174
141
188
171
138
183
161
129
168
145
104
159
134
93
153
125
86
146
119
82
156
129
93
162
133
97
157
130
92
144
119
85
138
115
85
132
111
85
120
101
78
118
99
76
110
93
70
109
93
72
109
93
72
94
80
63
72
60
48
56
49
40
41
37
29
35
35
29
49
50
44
47
48
42
56
54
50
99
93
83
155
147
128
211
200
177
227
219
195
181
191
138
173
195
136
178
198
143
167
190
126
163
189
120
156
187
105
154
188
101
153
187
100
152
186
98
153
187
99
154
188
100
153
188
95
152
187
95
151
186
94
151
186
93
151
186
93
150
185
93
150
185
96
151
185
98
149
183
96
149
183
98
150
183
102
152
183
105
153
183
109
155
182
109
157
183
110
157
183
110
159
182
110
159
182
110
158
183
110
154
182
106
153
182
103
151
182
100
150
182
99
150
182
99
150
183
95
149
182
94
149
182
94
149
182
95
150
183
96
149
184
96
149
184
95
150
185
96
151
182
100
152
183
103
150
181
103
149
180
101
149
180
100
149
180
101
149
180
102
148
179
101
147
178
101
146
177
97
146
178
95
147
178
97
147
178
102
147
178
103
147
177
104
148
178
107
148
178
105
148
177
104
147
177
103
146
177
97
146
178
93
144
178
91
143
177
90
142
176
89
141
174
88
138
173
86
135
172
85
137
171
86
138
172
87
138
172
87
137
170
89
137
170
91
173
177
106
170
177
105
168
177
102
166
176
99
165
175
97
164
175
95
162
175
93
161
174
92
161
175
91
163
177
93
163
178
95
161
179
98
162
179
101
163
179
104
162
179
104
163
179
104
165
180
106
165
181
106
165
180
106
167
181
106
167
181
106
167
180
105
165
180
103
161
179
102
161
178
105
159
179
105
159
180
107
161
181
109
162
182
110
163
183
113
165
184
115
167
183
116
169
184
114
168
183
113
168
182
112
167
183
112
164
182
111
161
181
111
159
181
111
157
180
110
154
180
106
155
182
104
154
182
101
153
183
97
154
184
99
155
185
100
157
186
101
158
187
102
159
188
107
160
188
112
161
189
115
162
189
118
162
189
118
161
188
117
160
187
116
159
186
115
159
187
112
157
185
110
156
183
108
156
184
107
156
184
108
159
185
110
160
186
112
161
187
113
161
187
113
161
187
113
163
188
113
165
189
113
167
188
114
170
188
115
181
185
122
179
155
108
158
120
81
138
100
63
125
92
58
170
136
97
145
102
62
115
71
35
84
48
23
85
61
39
86
65
45
125
106
78
140
120
86
137
113
77
138
113
77
144
121
86
147
125
91
153
130
96
159
140
106
160
142
105
159
142
103
165
149
113
180
163
132
190
173
144
192
175
145
184
167
135
180
162
129
165
145
106
156
133
91
156
133
91
146
122
84
154
129
93
165
140
106
160
134
102
160
137
103
164
146
119
154
138
115
145
127
104
134
116
96
122
104
83
127
110
88
106
89
67
105
88
69
90
75
60
69
58
45
62
56
44
53
50
40
44
41
33
49
46
38
66
62
56
56
54
46
96
90
76
155
145
129
204
192
168
227
219
195
190
196
142
155
184
102
161
189
114
166
192
128
164
191
121
162
189
119
155
187
104
153
188
100
152
187
100
153
187
99
153
188
97
151
186
92
151
186
92
150
185
91
150
185
91
150
185
91
150
185
93
151
185
94
150
185
94
148
183
93
149
183
97
150
183
101
152
182
103
154
182
106
156
182
108
157
183
110
158
184
111
160
184
110
160
183
110
158
183
108
155
182
104
154
181
102
153
181
100
152
180
99
153
180
99
148
182
96
148
182
94
148
183
94
149
182
95
150
183
96
149
184
93
149
184
93
149
183
95
150
183
97
151
183
99
150
182
100
149
183
98
149
182
97
148
181
96
148
181
97
147
180
98
146
180
96
145
178
95
144
177
94
147
177
96
148
178
100
148
179
103
146
178
103
146
178
103
147
178
102
147
178
102
146
177
100
144
177
95
144
178
93
144
177
92
143
176
90
142
175
89
142
173
87
139
173
86
135
171
84
136
170
84
137
169
85
137
169
87
137
169
90
138
169
92
170
176
102
167
176
101
163
175
99
161
175
96
161
175
96
159
174
94
158
174
93
157
173
93
157
175
92
158
176
93
159
178
94
158
179
96
159
179
98
159
179
100
159
179
100
160
179
101
162
180
102
163
180
102
163
180
103
164
179
104
164
179
104
164
180
103
162
180
102
159
179
100
159
178
103
156
178
103
155
178
103
157
180
106
158
181
107
159
182
109
161
182
110
163
181
110
165
181
110
166
182
111
168
183
113
167
183
112
163
181
109
160
180
108
158
179
107
156
180
107
154
180
106
155
182
104
154
182
101
153
183
97
154
184
98
156
186
99
157
187
100
157
187
100
159
188
106
160
189
110
161
189
113
160
188
114
160
188
114
159
187
113
158
186
111
156
184
110
156
184
107
155
183
106
154
182
104
155
184
104
155
184
104
157
184
108
159
185
111
161
187
113
160
186
112
161
187
113
162
187
113
164
187
112
166
187
112
169
187
114
177
171
111
162
132
87
141
104
67
126
91
56
140
108
74
169
132
91
135
91
50
114
72
38
82
49
26
74
53
33
96
76
55
119
100
72
137
117
83
129
105
69
133
109
73
146
123
87
150
128
91
153
131
95
155
135
97
152
132
93
162
144
106
172
156
122
188
171
140
188
170
136
172
154
116
163
145
105
156
136
98
151
132
90
147
126
84
145
124
84
140
118
81
140
119
81
141
121
83
151
131
96
150
133
100
140
124
96
130
116
91
119
104
80
112
96
75
120
104
84
107
91
71
96
80
59
99
85
66
83
70
54
69
59
47
54
47
38
59
52
43
54
50
39
54
50
39
45
42
31
67
64
51
91
84
68
141
130
111
194
183
157
224
212
191
206
203
164
169
190
128
156
186
104
158
187
105
161
189
117
160
189
109
157
189
109
154
189
102
154
188
101
153
188
100
152
187
96
150
186
91
149
185
89
149
185
89
150
185
91
150
185
91
149
185
90
149
185
90
149
184
90
147
182
89
148
183
95
151
184
101
153
183
104
155
181
106
156
182
108
158
184
111
158
184
111
160
184
110
160
184
110
158
183
107
155
182
103
155
182
103
154
181
102
154
181
102
153
180
101
150
181
99
149
181
96
149
182
95
149
182
95
150
183
96
149
183
92
149
184
93
149
183
95
150
183
95
150
183
97
150
182
98
149
183
96
147
181
95
146
181
93
146
181
93
146
180
95
146
180
94
144
178
93
143
177
91
144
177
93
146
178
97
146
178
101
145
178
101
145
178
101
146
177
101
147
178
102
146
177
100
144
177
95
144
178
93
145
178
93
144
176
91
143
174
89
142
172
88
139
172
87
136
171
85
135
170
85
136
168
87
137
167
87
136
167
88
137
168
92
165
175
98
162
175
96
159
174
95
155
174
94
154
173
93
153
173
93
152
173
93
152
173
92
151
175
92
152
175
92
153
177
93
155
178
92
155
178
94
155
178
96
156
178
96
156
179
97
158
180
98
159
180
99
159
179
100
160
178
102
160
178
102
161
180
102
159
179
100
156
178
99
156
177
102
153
177
100
152
177
101
154
178
104
155
179
105
155
180
105
158
181
106
160
181
107
161
181
109
162
182
110
165
182
111
165
181
110
161
179
108
158
178
105
156
178
104
155
180
105
153
179
104
154
181
103
155
183
101
154
184
98
154
184
98
156
186
98
156
186
98
157
187
98
159
188
104
159
189
107
159
188
109
158
187
111
158
186
110
157
185
109
156
184
108
154
183
107
154
183
103
153
182
102
153
182
101
153
182
100
155
184
102
157
184
108
159
185
111
160
186
112
160
186
111
161
187
113
161
187
112
163
186
111
166
187
112
170
186
113
174
155
99
146
112
68
131
95
60
120
86
54
153
120
85
161
121
78
129
84
43
117
77
44
85
54
33
72
53
34
106
86
65
122
103
74
135
115
81
132
108
72
133
109
73
144
122
84
143
122
83
150
128
89
147
125
83
148
126
86
164
144
108
181
165
131
178
162
127
170
151
116
160
140
102
150
130
90
148
126
84
140
122
79
133
116
75
132
112
74
134
115
80
134
117
83
138
122
90
138
121
91
143
129
98
140
126
96
127
113
85
122
109
84
115
101
79
118
104
84
105
90
71
95
80
62
88
76
57
82
72
56
63
54
41
68
61
46
73
62
46
53
45
34
22
18
10
15
12
3
35
31
22
72
63
44
117
107
80
181
169
138
205
191
156
199
192
137
178
193
137
160
186
115
157
187
103
159
188
105
159
186
113
156
187
109
154
189
104
154
189
102
154
189
100
152
187
95
150
186
88
149
185
88
149
185
88
150
185
91
150
185
91
149
185
90
149
185
89
149
185
89
147
183
88
148
183
93
151
183
100
154
182
104
155
181
107
156
182
108
158
184
111
159
184
112
160
184
110
160
184
110
158
182
107
155
182
103
155
182
103
155
182
104
155
182
105
153
180
103
152
181
102
151
180
99
150
181
97
149
182
95
150
183
96
149
183
92
149
183
92
150
183
95
150
183
93
149
183
95
149
182
95
148
183
93
146
180
91
145
180
89
145
179
90
145
179
92
144
178
92
143
177
90
142
176
89
141
177
90
144
178
94
144
177
97
144
177
98
144
176
98
146
176
99
146
177
100
146
177
99
144
177
95
144
177
93
145
178
93
144
176
91
143
175
90
141
172
90
139
173
89
136
171
87
135
169
87
136
167
88
136
166
87
134
165
87
136
167
90
160
174
98
157
174
96
153
173
95
149
172
94
149
172
94
148
172
94
147
172
92
147
173
90
145
173
88
145
174
89
147
175
90
149
175
89
150
176
90
150
176
90
151
177
91
151
177
91
151
179
92
153
178
95
154
177
96
155
178
99
156
179
102
156
179
102
155
179
101
154
178
100
153
177
98
150
175
97
149
176
97
150
177
99
151
178
101
151
178
101
154
179
102
156
179
103
158
179
106
161
179
108
163
179
109
162
179
109
158
178
104
155
177
102
154
178
102
152
179
102
151
179
102
152
181
101
154
183
100
154
183
99
154
184
97
155
185
96
156
186
99
158
187
102
158
190
105
157
189
107
157
188
108
156
187
107
155
186
109
154
185
107
153
183
106
152
182
105
150
182
101
150
183
99
150
182
97
151
183
99
152
183
102
155
184
106
157
186
108
159
187
109
159
186
110
160
186
112
160
186
112
161
187
110
163
186
110
171
182
110
168
144
91
142
106
67
126
92
58
122
87
58
162
128
91
149
108
65
136
92
51
108
70
40
84
55
33
90
71
48
106
88
63
125
108
78
138
120
85
131
109
72
135
113
76
140
120
82
143
122
82
140
117
75
141
117
76
148
126
85
158
137
96
157
138
96
155
139
96
152
135
96
146
127
88
137
119
78
131
113
72
120
102
64
111
95
58
115
97
63
117
102
69
115
101
69
127
112
83
133
118
91
128
114
85
131
117
88
120
106
78
119
105
79
109
95
68
111
96
73
105
90
70
89
73
57
79
70
51
76
69
51
59
53
37
64
55
40
82
66
46
88
73
43
73
65
46
25
20
10
26
20
11
63
50
35
119
104
70
179
162
124
202
184
138
196
187
129
169
186
119
163
187
120
158
187
105
157
186
103
159
187
111
159
188
109
155
188
103
155
189
101
155
190
98
151
187
91
150
186
90
149
185
89
149
185
89
150
184
90
150
184
90
150
184
89
150
184
89
150
184
89
150
183
89
153
182
94
156
182
99
159
183
105
158
182
106
159
182
106
160
183
108
161
184
111
162
184
112
161
183
111
160
182
109
158
180
105
158
180
105
157
181
105
157
181
105
155
179
103
153
180
103
152
179
102
151
179
101
150
181
98
151
182
97
151
183
94
150
182
93
151
183
93
149
183
95
149
183
95
148
182
94
147
181
94
144
178
91
144
178
91
143
177
90
144
178
91
143
177
90
143
177
90
141
175
88
141
175
89
142
176
92
142
174
93
143
174
96
144
175
98
146
174
98
147
175
101
148
176
102
148
177
99
146
177
99
144
177
97
143
176
95
142
174
94
141
173
90
140
172
89
137
170
89
136
169
90
134
167
88
133
166
87
132
165
86
133
166
87
155
174
99
151
173
97
148
172
95
145
171
92
144
170
91
142
169
89
142
171
87
143
172
86
141
172
84
140
172
80
140
172
79
140
173
80
141
174
81
142
175
82
143
176
83
144
176
84
145
177
86
148
176
90
149
175
91
150
176
93
152
177
97
152
178
99
151
176
98
150
175
97
149
175
93
145
173
91
144
175
91
146
176
92
147
177
93
148
178
95
150
178
100
153
178
105
155
178
104
156
177
105
158
177
106
158
178
106
155
178
103
154
177
99
152
177
98
151
177
98
151
180
99
152
181
98
153
182
97
153
183
96
154
184
95
153
186
94
154
187
96
156
189
100
157
190
102
157
190
105
156
188
105
156
188
105
154
185
106
153
183
106
153
182
105
152
182
104
150
182
101
150
182
98
149
182
96
150
182
98
152
183
102
154
184
103
156
185
104
158
186
106
158
185
108
159
185
111
159
185
111
160
186
109
162
185
110
172
178
110
165
138
88
139
104
66
119
85
52
137
103
70
166
132
91
149
108
65
127
87
49
99
67
36
82
56
33
87
67
44
106
89
64
130
113
83
134
117
82
133
111
74
134
112
75
140
119
81
138
117
77
139
116
74
137
113
72
143
120
79
147
126
85
149
130
88
149
133
90
142
127
87
132
116
78
122
106
70
99
84
50
76
61
37
80
68
44
96
83
59
91
77
51
109
96
71
116
104
79
110
97
71
120
106
77
121
107
79
119
105
77
108
94
67
109
95
68
103
89
64
99
85
62
88
73
53
82
71
48
55
45
30
24
23
11
22
18
8
71
58
39
123
102
67
163
148
114
126
112
78
107
88
54
117
96
57
151
128
81
158
127
81
196
167
116
193
181
118
165
182
109
157
185
113
157
186
107
157
186
102
157
186
108
159
187
111
156
188
106
154
188
103
154
188
100
152
187
93
150
186
90
149
185
89
149
185
89
150
184
90
150
184
90
151
183
89
154
182
89
158
182
89
162
182
87
164
182
89
166
183
91
166
184
93
167
185
96
165
184
99
163
184
104
161
185
110
163
185
113
162
184
112
161
183
110
160
182
109
159
181
109
158
181
108
157
181
107
155
179
105
153
179
105
152
178
104
152
178
104
152
180
104
153
181
101
152
182
99
151
181
97
151
181
98
151
181
97
150
181
96
148
180
94
146
180
93
143
177
90
142
176
89
142
176
89
143
177
90
143
177
90
142
176
89
141
175
88
140
174
88
141
175
90
141
173
92
141
172
93
141
172
96
146
173
102
151
175
103
155
175
103
157
176
102
154
177
101
150
175
99
145
174
97
142
175
96
142
173
96
140
171
94
138
170
92
136
169
90
134
167
88
133
166
87
132
165
86
131
164
85
151
173
100
149
172
98
145
170
94
143
169
90
140
168
88
138
167
84
138
169
82
138
169
80
135
170
77
133
170
72
133
171
69
133
170
70
134
171
71
135
172
73
136
173
74
137
174
75
139
174
78
141
173
82
143
173
85
144
173
87
147
174
93
147
174
94
146
174
94
146
174
93
144
173
88
141
173
86
140
174
86
142
175
88
144
178
91
145
177
92
148
177
97
150
178
103
151
177
101
151
176
101
153
176
103
155
178
104
153
177
101
151
176
96
150
177
95
150
178
96
149
179
97
150
181
96
150
182
94
151
183
92
152
184
91
152
187
92
153
188
94
154
189
98
156
189
101
156
189
103
155
188
102
155
189
102
156
186
106
158
184
105
160
182
103
161
181
101
160
181
100
157
181
98
153
180
96
152
182
100
151
183
102
152
183
100
154
184
101
155
186
103
156
185
105
156
185
108
158
186
110
160
185
109
163
185
110
171
176
108
158
128
81
134
97
61
123
88
55
152
118
84
162
128
84
147
106
63
116
79
43
102
74
44
81
57
34
81
63
40
103
86
61
118
101
71
123
105
71
127
106
71
126
105
69
134
113
75
133
112
72
132
110
68
128
105
64
132
110
69
142
122
80
145
127
85
145
130
88
129
115
78
121
106
69
95
83
52
40
35
18
21
16
11
51
49
41
29
26
15
51
45
32
86
76
60
94
82
63
100
86
64
111
97
70
110
96
68
110
96
68
99
85
59
102
90
64
87
74
49
84
71
50
61
47
31
48
33
23
39
20
13
34
24
17
38
37
32
91
76
53
147
127
88
186
172
141
185
164
137
138
102
66
129
94
57
125
87
51
145
99
54
191
160
108
190
178
116
160
180
103
153
183
104
157
186
113
157
186
109
157
186
110
159
187
112
157
188
107
155
188
104
155
188
101
153
187
96
151
186
91
150
185
90
149
184
89
149
183
89
151
183
92
153
182
93
159
183
90
166
184
85
172
183
81
175
184
82
178
185
84
179
185
88
180
187
91
178
185
97
174
185
103
169
185
110
165
185
113
163
184
113
161
183
112
160
182
110
161
183
111
159
182
110
158
181
109
157
180
108
155
179
109
154
178
106
153
178
105
155
179
106
155
180
103
157
180
101
158
180
100
159
180
99
156
180
96
153
179
96
150
178
95
147
177
92
145
176
91
143
175
89
142
175
87
143
176
87
144
176
90
143
176
90
141
174
88
140
172
88
140
173
89
140
171
90
140
171
93
143
172
96
153
172
99
162
173
98
166
175
95
167
176
94
165
176
93
160
176
96
149
174
99
144
174
100
144
173
99
141
170
96
139
169
94
136
168
91
133
166
87
132
165
86
132
164
85
131
163
85
151
173
99
150
172
96
147
170
90
144
169
86
140
168
84
137
166
83
135
168
79
132
170
74
132
169
71
129
168
67
127
168
64
128
166
63
128
166
63
130
168
66
131
169
68
131
169
68
132
170
71
135
171
74
137
171
76
138
171
80
142
170
86
142
171
89
143
172
90
144
173
90
141
171
86
139
172
84
137
172
83
140
174
87
142
177
89
145
177
91
146
176
93
148
178
97
149
177
96
149
176
99
150
176
101
152
177
101
151
177
98
148
176
93
148
177
93
149
178
94
147
179
94
147
180
93
148
181
90
148
182
88
150
184
90
151
185
92
153
187
95
154
188
99
155
188
101
155
188
101
155
187
103
158
186
106
163
185
103
167
184
96
170
182
91
173
180
89
170
180
88
167
181
90
162
182
92
159
183
100
154
183
103
150
183
98
151
183
98
153
185
100
153
185
100
153
185
102
156
185
105
158
185
107
161
186
109
168
169
101
152
120
76
133
98
61
129
95
62
149
115
81
157
122
80
143
102
61
114
77
42
107
78
48
78
55
33
76
60
37
98
82
56
109
91
61
118
99
66
125
105
71
124
104
68
131
111
73
130
110
69
129
109
67
129
107
65
136
116
75
143
125
83
147
132
91
140
126
87
122
109
73
110
96
60
59
51
32
12
11
5
25
24
19
28
28
23
10
8
5
41
38
33
51
44
36
47
35
26
65
48
39
67
51
36
84
68
51
73
57
40
63
49
33
68
56
42
42
32
19
35
27
17
28
19
10
39
28
23
37
20
14
57
40
34
70
57
49
119
104
73
166
148
112
199
186
160
171
148
120
114
72
40
109
69
36
114
73
39
138
92
45
184
149
91
190
177
111
157
181
102
155
182
107
156
185
110
158
187
111
158
186
112
159
186
111
159
187
109
158
186
109
157
185
107
155
185
104
153
183
94
152
183
93
152
183
93
152
182
93
154
181
95
157
181
92
164
182
88
174
184
85
185
183
83
189
184
87
192
185
90
191
185
92
189
185
94
187
186
99
181
187
104
175
186
108
168
185
115
165
185
116
163
184
116
162
183
114
163
184
115
161
183
114
160
182
112
159
181
111
158
180
112
158
179
108
158
179
107
160
180
105
161
178
98
165
179
94
168
180
92
171
180
91
170
180
90
164
180
89
158
179
90
152
176
92
148
176
93
145
175
94
143
174
91
144
176
92
145
176
93
145
175
93
142
173
89
138
172
87
138
170
91
141
169
93
141
170
94
149
170
96
160
172
93
172
174
92
175
175
89
176
175
89
173
175
89
170
176
91
158
176
98
147
175
102
146
173
102
142
169
98
138
167
94
134
166
91
133
166
87
131
165
88
131
163
87
134
162
87
157
171
92
156
171
89
154
168
84
152
166
80
149
166
78
145
164
78
139
165
78
133
167
76
131
168
69
128
167
66
124
165
61
125
163
60
125
163
60
126
164
62
126
164
63
127
165
64
126
166
68
129
168
67
132
169
68
134
170
73
136
169
79
139
168
85
140
169
87
141
170
88
141
170
88
137
169
85
137
171
84
138
172
85
141
175
88
144
178
90
145
178
91
145
179
94
147
178
94
148
178
97
148
177
98
148
176
96
147
176
94
147
176
90
147
177
90
147
177
90
145
178
90
146
179
89
147
180
88
148
182
88
149
183
89
152
184
92
154
184
97
155
185
100
157
187
101
157
187
101
158
185
102
166
184
101
173
182
92
180
180
87
183
177
84
186
176
82
181
177
81
178
178
83
173
179
86
166
181
95
159
183
101
152
183
98
151
183
98
152
184
99
152
185
97
152
185
99
153
184
101
156
187
105
167
184
107
170
156
94
146
113
72
132
98
64
123
89
56
138
104
70
157
122
80
136
96
54
118
81
46
109
80
51
80
57
35
72
55
32
97
81
55
109
90
61
123
103
70
128
108
74
126
106
70
132
113
74
134
116
75
134
116
73
134
114
72
140
122
80
144
127
86
146
130
92
138
124
88
125
113
78
96
85
55
24
21
12
14
13
9
25
24
21
20
19
16
20
18
17
47
43
41
28
20
17
39
25
23
49
31
28
59
37
34
63
42
36
65
45
38
63
44
38
58
40
36
42
29
25
41
30
24
39
28
23
43
33
30
50
36
32
61
40
35
92
67
62
143
122
98
179
163
127
194
179
152
140
112
83
109
65
36
104
64
34
108
69
37
128
88
45
188
155
96
186
174
106
157
180
104
155
182
110
158
185
112
158
185
112
159
185
113
162
186
114
162
187
112
162
186
112
162
185
110
160
184
106
159
183
101
157
181
99
157
181
99
156
180
98
158
180
96
160
180
90
171
182
87
185
184
86
193
185
89
196
185
93
198
184
95
197
185
96
196
186
99
193
187
100
185
186
102
179
185
107
170
185
115
168
184
116
166
184
118
166
183
118
166
183
118
165
184
118
163
183
117
161
181
115
159
182
113
162
180
111
166
180
110
168
180
104
172
178
94
178
177
90
181
177
88
183
178
87
185
177
88
179
177
83
172
176
80
164
175
84
158
176
91
153
176
94
151
175
95
151
176
98
149
175
100
147
173
98
144
171
95
143
170
94
146
169
92
151
169
91
154
171
90
166
171
89
178
172
86
188
171
86
190
172
85
189
171
84
184
173
88
177
174
90
169
175
95
150
175
105
146
173
104
144
171
102
139
168
97
134
166
91
133
166
87
135
165
89
140
163
87
145
162
83
162
169
89
163
168
86
164
167
82
163
164
78
159
165
77
152
165
73
146
165
76
139
164
81
134
166
75
128
166
68
123
164
63
122
162
63
122
162
63
123
161
62
123
160
62
124
161
65
125
162
66
127
165
66
129
166
65
132
167
71
134
167
80
136
166
86
139
166
87
141
166
88
140
168
91
140
168
88
140
171
87
138
172
86
141
175
89
145
176
91
146
177
93
145
178
95
147
178
93
149
177
97
149
176
98
148
176
93
145
176
90
145
176
90
145
176
89
146
176
87
145
175
86
147
177
87
148
178
87
149
179
91
151
181
96
152
182
98
154
183
98
156
183
97
158
184
102
159
184
103
167
184
99
177
182
93
187
179
86
193
177
82
196
174
79
195
174
77
192
174
76
185
176
80
178
178
83
173
181
90
164
184
99
157
184
103
154
183
101
153
184
99
153
184
98
152
184
98
154
184
100
160
186
100
177
181
105
166
139
87
145
111
72
128
96
59
123
90
57
148
116
82
154
118
76
135
96
55
116
81
45
110
84
53
82
61
39
79
63
40
102
85
58
113
96
66
125
108
75
127
108
74
127
108
72
136
116
79
134
115
76
132
113
71
133
116
73
136
121
78
136
122
79
142
128
86
137
125
85
127
116
81
95
84
57
23
20
12
19
15
14
27
24
21
18
15
11
41
36
34
53
43
39
54
42
37
40
26
23
42
28
25
56
35
32
62
37
35
70
48
44
81
58
54
75
52
51
66
47
45
58
43
40
60
48
44
55
42
41
61
47
46
73
57
56
88
61
60
151
130
117
182
167
138
186
169
138
132
101
73
120
82
49
105
68
37
111
70
36
114
76
37
186
152
95
185
176
104
161
182
106
160
182
113
164
183
113
169
183
113
172
185
112
175
187
110
176
188
111
175
187
110
173
187
107
170
186
103
168
184
100
167
183
99
166
183
99
163
182
99
163
180
99
166
180
94
178
182
93
192
184
94
196
185
96
199
185
97
200
184
97
200
185
99
199
187
102
196
187
104
189
185
105
182
185
107
173
185
113
169
184
116
165
184
118
166
184
120
166
184
120
166
184
121
165
183
120
163
182
117
164
181
116
168
181
113
173
182
111
177
180
105
182
178
99
187
177
94
191
176
89
196
178
88
196
176
86
190
176
83
183
175
82
177
176
83
174
178
87
171
178
89
166
178
93
160
176
96
158
176
101
153
175
101
148
172
98
154
171
94
161
172
89
164
171
85
170
170
81
183
171
81
196
172
80
200
170
81
201
170
82
199
170
81
194
171
85
187
171
87
176
174
92
156
176
105
146
171
106
142
170
101
138
168
95
136
166
93
138
164
91
145
165
86
153
164
82
159
161
77
169
165
84
171
165
83
172
165
81
171
163
77
167
164
76
161
165
75
155
165
77
148
164
79
139
165
80
132
163
74
127
162
69
127
162
66
126
161
66
126
159
66
126
158
68
127
159
71
127
159
71
130
162
72
131
163
71
134
164
74
138
164
81
140
165
86
142
165
89
145
166
90
143
167
92
142
168
92
142
170
93
142
171
91
143
173
93
145
176
92
149
177
94
155
177
99
160
178
97
164
179
94
167
178
90
165
178
88
161
177
83
157
177
85
153
177
86
151
177
85
150
176
87
148
176
89
147
176
92
150
178
96
154
179
98
159
181
99
164
183
99
167
184
99
169
185
99
172
184
100
182
182
94
192
179
89
198
176
84
204
174
81
207
172
77
205
173
75
203
173
76
196
174
77
190
176
79
183
180
85
174
183
92
166
184
97
161
183
100
158
184
106
157
185
103
159
184
101
163
185
99
172
187
96
184
172
100
155
122
75
131
97
61
128
95
60
126
94
61
136
105
70
153
116
73
133
95
53
117
82
47
110
84
52
87
65
41
81
63
39
102
85
58
115
98
69
125
108
76
127
110
75
130
113
75
133
114
76
130
111
72
131
112
70
129
109
67
129
112
69
133
117
74
135
120
78
133
120
80
126
113
76
97
83
53
44
36
21
24
21
16
26
23
19
25
23
20
33
29
27
62
53
49
71
59
57
56
45
42
81
72
65
76
64
57
59
35
33
66
42
40
95
70
67
94
68
68
88
65
67
77
57
58
75
57
58
81
65
67
75
60
61
82
67
67
104
84
83
142
118
120
190
174
165
190
172
144
129
93
58
114
72
39
137
94
54
157
115
67
184
150
95
186
149
88
185
178
100
172
184
103
172
182
107
178
184
108
184
186
109
189
187
109
191
188
111
192
189
111
193
189
112
191
188
109
186
186
104
184
184
101
182
183
99
183
183
100
179
184
101
170
184
100
170
182
97
183
184
97
195
185
97
200
185
98
201
186
99
202
186
99
201
186
100
201
188
104
197
187
105
191
186
107
183
186
109
175
185
111
170
184
114
167
184
117
169
184
120
168
184
119
168
183
121
169
184
120
168
184
117
168
183
117
174
182
114
180
181
110
184
179
105
190
178
101
195
178
97
199
177
92
205
179
90
209
177
89
206
177
87
201
176
84
197
178
87
193
178
88
189
180
90
182
179
93
174
177
96
169
178
100
162
176
98
158
173
96
166
174
94
171
173
88
173
172
83
183
170
77
200
170
72
208
173
77
211
174
80
211
171
80
209
171
82
204
170
84
196
169
86
185
171
89
164
174
99
149
170
104
145
169
102
143
168
99
141
166
96
146
164
89
155
164
80
163
163
77
170
162
73
179
163
82
180
162
79
181
163
78
180
162
76
176
164
75
169
165
77
165
166
79
160
167
80
146
167
83
139
164
81
134
163
80
133
161
79
131
159
77
132
159
76
131
158
76
133
158
80
134
159
79
135
161
79
136
163
78
139
164
80
145
164
82
152
165
83
155
165
84
158
165
85
155
165
85
151
166
88
148
169
92
147
170
97
148
172
98
152
175
97
163
178
93
173
179
87
182
180
87
190
180
86
194
179
84
191
178
82
188
178
79
185
177
79
181
178
81
177
179
83
168
180
87
162
179
89
158
178
93
161
178
94
168
180
94
180
183
96
185
184
96
187
184
95
187
184
95
191
181
95
200
177
88
206
175
86
209
172
83
214
171
80
220
173
80
219
175
79
217
176
81
213
177
80
211
178
80
204
178
84
195
181
87
185
183
93
178
184
96
172
186
99
171
185
101
176
185
98
183
186
96
191
185
94
183
161
92
142
108
64
130
95
62
126
93
60
115
82
49
134
104
68
152
116
73
131
93
52
118
83
48
109
81
48
92
67
42
78
57
32
93
76
50
115
98
69
122
107
73
124
110
75
126
111
74
132
113
76
130
110
72
129
110
68
124
102
61
125
105
63
122
104
62
123
105
64
127
112
72
124
111
71
107
91
56
84
70
47
39
35
24
28
25
19
32
30
28
25
24
22
39
32
30
61
51
51
82
72
68
109
101
90
99
91
80
57
39
36
65
40
41
93
66
63
106
78
78
102
75
79
98
73
78
91
70
74
98
79
82
99
80
84
96
76
82
115
94
100
149
131
135
189
175
183
183
163
141
156
112
66
148
98
48
177
131
71
201
168
107
206
181
119
193
163
94
191
184
107
185
186
109
188
183
109
193
185
111
198
185
110
202
187
110
204
188
110
206
189
112
208
189
112
207
188
110
203
187
105
200
183
100
197
181
98
197
181
98
195
183
100
190
184
101
186
183
100
194
184
100
206
184
100
208
186
102
206
187
102
204
188
101
203
187
101
203
189
105
199
188
107
192
188
108
185
187
110
178
185
110
173
184
112
170
183
115
171
184
117
171
184
117
171
184
118
172
185
119
171
184
116
171
184
115
180
182
113
188
182
110
193
181
106
198
179
102
203
178
99
207
178
96
214
181
95
216
182
96
216
181
90
212
179
85
208
179
87
204
180
89
202
181
91
195
178
92
189
178
97
180
179
97
172
177
96
168
175
96
175
174
94
181
173
86
188
172
77
198
171
73
209
171
71
218
175
74
222
176
79
222
173
80
220
172
83
214
171
85
207
169
87
194
169
87
174
172
94
154
170
101
149
168
103
148
167
103
148
167
100
156
166
88
165
163
76
173
162
73
183
163
72
191
160
79
192
160
78
190
164
77
189
165
74
184
167
76
176
168
80
172
169
83
169
171
85
157
170
84
147
167
86
145
164
90
140
165
88
138
163
86
138
162
83
142
162
83
146
162
85
149
163
82
152
165
78
155
166
78
160
167
80
166
166
79
170
166
82
174
166
85
175
165
84
171
164
85
166
165
87
161
169
92
154
172
98
155
174
97
167
177
93
180
179
91
191
178
87
200
179
83
206
179
82
211
178
81
208
177
79
205
176
77
202
177
79
198
178
83
192
180
86
182
182
85
175
181
87
177
180
91
182
180
92
194
182
92
200
184
95
202
185
96
204
184
96
203
183
96
206
179
91
210
176
89
214
174
87
220
173
83
227
174
80
231
176
81
233
178
83
231
180
84
230
181
87
226
180
87
218
180
89
209
181
92
204
183
96
197
184
98
189
186
100
186
186
100
191
184
98
200
185
98
206
184
98
183
153
87
142
105
59
128
91
57
121
86
55
117
85
53
145
115
75
147
111
68
132
95
56
113
78
43
106
76
45
90
65
38
73
51
28
91
74
49
106
89
59
115
99
65
119
103
70
125
109
74
128
111
74
131
112
73
125
103
62
122
100
59
113
91
50
112
90
49
123
102
61
121
104
61
127
112
70
121
106
70
110
95
64
85
72
48
52
44
30
33
32
27
31
32
29
22
22
21
22
19
19
52
42
39
87
79
71
93
87
75
72
63
57
103
90
89
71
49
47
107
80
80
108
80
86
103
77
85
102
78
88
104
82
89
112
90
97
120
99
106
114
91
99
130
104
113
178
160
171
194
172
156
204
166
102
211
176
127
204
175
111
213
183
113
208
181
111
199
172
97
199
184
104
193
184
106
198
182
109
203
185
108
206
186
107
209
186
107
212
188
110
216
188
112
218
189
112
218
189
109
216
187
106
213
184
101
209
182
98
206
182
96
206
183
96
207
184
97
206
184
99
209
186
101
217
188
105
222
188
109
222
190
111
220
190
109
216
190
106
211
190
107
208
189
108
202
187
110
194
186
111
187
184
109
184
183
110
183
184
111
184
184
110
184
184
110
184
185
113
184
186
115
183
185
114
183
185
111
192
184
109
201
184
108
206
182
108
208
183
106
211
183
103
214
181
100
220
183
101
222
184
99
223
182
94
220
179
88
216
178
88
213
178
89
209
179
89
204
178
89
199
179
93
192
178
99
185
177
102
180
178
99
185
176
95
194
175
84
203
172
76
210
171
73
217
172
71
225
173
71
229
174
74
230
175
76
229
174
77
223
173
83
212
171
86
202
169
89
183
169
92
163
169
99
154
169
100
154
167
101
154
168
97
162
167
88
175
163
79
183
162
74
191
163
73
199
158
76
201
159
74
197
162
75
197
166
75
193
169
79
187
170
87
181
172
90
174
173
91
167
174
93
158
172
93
154
169
93
152
168
94
154
167
90
158
167
85
166
168
83
174
168
82
179
167
79
182
169
77
187
169
74
193
170
76
195
168
77
197
167
81
198
168
84
197
168
83
192
169
86
188
170
88
182
174
91
176
176
95
179
175
94
189
176
89
200
179
90
207
178
88
211
179
84
216
179
83
221
178
83
220
179
82
217
178
80
214
178
81
209
179
85
202
180
88
192
182
89
189
182
89
196
180
90
205
182
92
212
183
94
215
184
95
216
184
95
218
184
96
219
183
96
220
181
92
223
180
90
227
177
86
233
176
82
237
176
79
239
177
80
242
180
82
243
180
85
243
181
88
238
181
89
230
182
91
226
183
96
222
185
100
218
186
102
211
186
102
203
186
99
208
183
96
216
185
97
217
185
97
186
152
82
148
113
62
126
90
54
119
85
51
121
89
57
135
105
68
141
104
65
132
95
56
115
80
45
108
77
46
91
65
38
75
54
30
88
70
42
95
78
49
103
86
55
111
96
62
120
104
69
121
104
67
123
104
65
119
97
56
116
94
53
113
91
50
119
97
56
117
96
55
118
100
57
124
107
67
127
110
72
127
109
73
111
94
58
92
76
51
59
47
33
37
33
28
29
28
26
26
27
23
27
22
19
23
19
15
34
29
24
60
55
52
74
68
66
55
43
42
91
69
71
113
83
89
113
79
89
116
82
95
134
113
118
129
97
107
130
101
112
148
120
132
143
113
126
150
118
133
193
172
177
204
178
152
211
188
151
215
187
124
212
185
110
208
180
99
206
182
102
202
183
105
199
183
106
205
183
106
209
185
107
211
186
106
214
186
106
218
189
111
220
188
111
222
188
110
223
189
109
221
188
106
221
185
102
220
183
101
221
181
98
222
181
95
223
182
96
224
185
99
227
187
105
231
189
111
235
190
115
235
192
116
232
192
115
228
191
114
222
190
113
217
188
111
213
186
108
206
183
106
203
180
105
200
179
106
200
180
107
202
179
106
203
180
107
202
183
108
202
185
108
202
185
109
204
186
109
210
186
106
216
187
107
218
187
110
221
188
108
223
186
106
224
185
103
225
185
101
228
185
96
228
183
91
226
180
85
222
177
85
218
176
85
215
176
84
211
176
86
207
176
89
203
177
95
198
175
98
197
177
96
202
177
94
207
174
84
212
172
78
217
170
73
224
171
71
229
173
71
232
173
72
234
174
74
235
174
75
230
173
80
219
170
85
208
168
88
189
168
92
172
168
96
160
168
96
158
167
99
159
168
96
170
164
87
184
161
82
193
161
79
200
161
77
205
157
74
206
158
73
205
162
74
205
167
78
200
171
82
194
173
92
188
175
97
180
177
99
175
177
101
168
178
100
167
176
99
167
175
96
174
174
90
180
173
88
189
174
87
198
174
84
201
172
80
205
171
76
209
171
74
212
171
78
213
170
80
215
171
83
214
174
85
213
176
87
211
175
89
206
176
91
202
178
93
200
179
96
202
176
92
208
179
90
212
181
90
217
181
90
222
183
88
228
180
83
232
179
82
231
179
83
228
180
85
225
181
90
219
181
94
212
181
97
203
182
94
205
183
93
211
182
92
217
184
93
223
185
95
226
185
95
228
184
94
230
183
93
233
185
95
233
184
92
233
182
88
236
180
83
240
178
80
242
176
76
244
177
76
247
178
79
247
180
84
246
183
89
243
184
93
240
184
96
238
184
99
233
186
101
229
188
103
225
187
103
218
186
100
219
185
97
228
187
98
227
185
97
197
160
86
160
124
69
133
97
58
119
85
51
112
81
50
122
90
57
139
103
66
133
97
58
111
77
43
106
75
45
98
72
44
78
54
29
76
57
27
82
63
34
89
71
42
97
81
48
107
91
56
113
97
60
119
101
64
120
101
62
118
98
57
114
92
51
114
92
51
111
90
49
116
97
55
121
101
61
129
109
70
130
110
70
120
105
72
113
96
64
103
85
55
80
66
45
51
41
31
30
27
22
32
29
26
27
24
23
23
20
19
21
19
17
22
20
16
28
25
22
54
41
41
104
76
76
115
80
83
107
68
73
157
142
135
131
92
96
135
90
108
145
107
124
159
128
142
162
130
145
178
156
163
184
151
161
212
180
147
219
183
108
214
181
106
212
182
105
207
185
104
201
184
107
200
184
107
205
184
104
213
186
107
218
188
107
222
189
108
224
190
112
224
189
110
225
188
109
227
188
106
228
187
103
228
186
102
230
184
101
232
181
98
235
180
94
237
181
95
238
183
99
239
186
105
240
187
112
243
189
115
242
191
118
239
192
117
235
190
116
229
188
115
220
187
114
215
184
111
212
181
106
211
175
99
209
173
100
210
175
101
209
176
101
210
178
101
214
182
102
215
184
103
215
184
104
220
187
107
224
190
107
227
192
109
227
192
113
230
192
112
231
190
108
230
188
104
228
186
100
229
184
95
232
182
89
231
179
83
226
175
81
221
171
78
219
171
78
216
173
82
211
175
86
211
177
91
209
176
94
207
174
91
211
174
89
217
173
85
220
173
79
224
172
74
230
172
71
233
173
72
234
172
71
236
171
72
237
172
72
232
170
75
223
168
81
211
167
87
195
167
92
181
167
96
170
167
96
166
166
97
171
163
92
181
161
85
195
162
84
203
163
84
210
164
82
208
158
74
209
159
74
211
163
76
209
168
81
204
173
89
199
177
97
194
178
101
188
180
105
184
181
106
179
181
105
182
180
105
186
180
102
195
179
96
201
179
94
209
180
93
215
180
90
216
178
85
220
175
79
224
171
74
229
171
77
230
172
81
230
175
83
229
179
87
226
180
89
223
181
92
219
180
95
216
181
98
214
181
95
214
179
92
220
180
93
223
181
92
227
183
89
232
182
86
239
180
80
240
180
82
240
180
83
237
181
89
233
182
93
227
183
96
221
184
100
217
185
98
219
184
96
222
184
95
226
183
94
232
185
94
236
184
92
238
184
90
240
186
89
243
187
89
243
187
88
242
186
85
243
184
83
244
181
79
245
179
75
247
178
76
250
177
80
248
180
84
248
183
90
246
185
96
243
186
99
242
186
101
241
186
103
238
188
104
233
188
105
227
187
104
225
187
101
232
188
102
234
190
102
209
169
92
175
137
70
149
111
62
122
86
53
104
73
43
117
85
54
134
101
62
134
98
60
112
77
45
105
76
45
99
72
42
86
60
33
80
57
25
79
58
29
91
72
44
97
81
50
103
87
54
111
95
60
118
102
67
122
106
71
125
106
67
122
101
61
121
99
58
115
93
52
119
97
56
120
98
57
126
104
63
132
111
70
129
111
76
126
107
70
117
98
61
105
88
56
92
78
52
80
66
46
55
44
30
31
27
21
28
26
22
27
25
23
27
26
23
31
30
26
29
28
24
31
26
24
44
31
29
49
31
29
128
105
98
123
82
80
144
91
104
154
109
122
159
122
137
174
143
159
189
161
174
188
157
169
204
165
138
218
180
102
214
181
106
210
183
105
203
184
106
199
184
109
201
183
107
206
183
105
214
187
107
219
188
107
225
190
109
227
191
113
226
190
112
225
189
109
228
186
104
232
186
100
237
185
101
240
183
98
242
181
94
243
180
91
246
180
93
246
182
97
246
185
103
246
187
109
246
187
111
245
190
115
243
191
117
238
190
115
231
187
114
221
184
112
217
181
107
217
179
103
216
172
95
216
169
91
218
170
92
219
172
93
220
176
94
221
181
99
221
182
101
224
184
103
227
188
103
232
192
107
233
194
109
233
193
110
235
193
110
235
192
108
232
190
104
227
186
100
227
183
96
232
181
89
232
178
82
227
171
78
222
166
73
221
166
74
221
171
79
219
175
83
220
178
88
219
177
89
217
175
88
218
175
85
223
173
84
226
173
82
228
174
78
231
173
75
232
173
72
233
170
70
234
169
70
233
168
72
231
167
76
225
166
80
213
166
87
201
166
94
193
165
98
184
164
97
178
163
95
181
161
91
190
161
86
203
163
85
212
166
86
218
168
84
211
159
76
213
161
76
214
164
77
213
169
84
210
175
98
207
178
101
203
180
103
198
182
107
191
184
110
190
184
110
198
183
110
205
184
106
213
182
100
218
183
97
224
183
95
229
182
91
231
180
86
235
177
80
238
175
76
239
174
75
241
175
78
241
176
82
240
180
87
238
183
90
232
183
91
228
183
94
225
183
97
225
182
95
225
180
91
228
179
91
232
180
89
235
181
86
242
180
80
246
179
77
246
180
83
245
180
86
242
182
91
240
182
94
234
183
96
230
185
101
228
186
98
229
185
95
232
184
92
236
182
89
241
181
87
246
181
86
247
183
85
247
186
85
250
186
84
249
186
82
248
185
80
248
185
80
247
184
77
247
183
78
249
181
79
250
179
81
249
181
84
248
183
91
247
186
97
247
187
101
245
187
103
244
187
105
242
187
105
238
187
106
232
187
106
231
188
103
236
188
103
237
190
103
219
176
96
197
156
81
164
123
64
133
95
49
107
74
40
105
74
44
129
99
61
133
97
59
110
76
44
104
75
44
99
72
43
98
72
45
94
71
41
90
70
41
93
74
47
87
70
42
92
76
45
105
89
56
113
97
63
119
103
69
123
106
70
124
106
67
123
102
62
120
98
57
116
94
53
114
92
51
126
104
63
131
109
68
130
111
70
126
108
69
122
106
69
117
101
67
113
96
62
106
86
53
97
77
50
84
67
46
68
54
39
53
44
33
34
29
22
26
25
21
32
31
27
28
25
25
38
33
33
47
40
38
79
64
62
70
50
49
95
58
64
124
80
89
141
96
108
152
113
126
160
123
134
162
133
139
182
151
113
211
178
102
209
180
106
205
184
109
200
186
110
198
184
111
202
183
107
206
184
106
212
185
105
217
185
105
223
187
107
226
190
112
225
189
111
223
188
107
226
185
102
234
184
99
242
183
98
245
182
96
248
180
93
250
180
88
252
179
89
252
182
91
252
184
97
253
187
104
251
188
104
247
188
110
244
189
115
239
187
113
232
185
113
224
183
110
220
179
104
219
176
99
218
170
95
218
168
89
220
168
87
222
169
89
223
173
89
224
177
93
225
178
95
228
181
98
233
187
97
239
193
102
241
194
103
241
192
102
240
193
107
239
192
108
233
189
104
224
187
99
223
182
96
229
180
90
231
176
83
227
169
77
221
163
70
223
163
69
229
170
73
232
176
76
231
178
81
230
176
82
227
173
80
226
173
80
225
170
80
227
170
78
229
171
78
229
171
78
228
170
76
229
168
75
231
167
74
230
167
75
228
166
79
224
165
83
216
164
87
207
164
92
199
162
96
191
162
95
186
161
95
190
159
93
199
159
88
210
161
87
219
165
88
226
167
87
212
162
80
216
164
80
219
168
79
218
173
86
218
179
101
214
181
105
210
182
108
206
183
112
203
183
116
204
186
115
208
186
112
218
186
107
224
186
102
231
184
97
235
183
93
238
181
88
241
180
83
244
180
83
247
180
83
248
180
81
246
180
81
247
180
84
247
182
88
243
184
90
238
185
93
234
183
93
231
183
93
230
182
91
232
179
89
235
177
89
238
178
88
241
179
83
244
177
78
250
175
78
248
177
79
245
178
83
242
179
91
240
180
94
238
182
96
235
185
100
233
185
98
234
183
92
236
181
88
240
178
83
245
177
82
249
181
82
251
183
82
250
186
83
251
187
82
249
187
81
247
187
80
248
185
78
247
185
74
248
186
76
248
184
80
247
182
82
244
181
88
245
183
93
246
184
98
247
185
101
246
184
101
245
183
103
242
184
103
238
186
104
236
185
107
234
186
107
236
188
108
235
187
106
228
180
100
213
170
91
190
143
73
164
120
62
132
92
46
113
74
36
122
91
53
133
99
59
114
81
47
102
73
45
97
69
43
91
66
38
89
66
35
84
63
33
84
65
36
83
64
37
93
74
46
106
86
56
113
96
63
118
103
70
123
107
72
124
108
71
125
108
69
125
104
64
120
97
56
120
97
56
125
102
61
125
102
61
124
104
62
128
109
69
129
111
74
122
105
69
122
103
70
115
95
61
107
86
53
100
79
48
99
78
49
93
77
53
70
63
48
32
29
21
24
22
18
30
29
25
31
31
26
26
26
21
37
35
36
40
39
39
31
27
27
46
34
34
70
53
53
82
61
62
93
74
73
95
86
82
147
132
96
205
179
108
205
181
109
203
183
109
200
187
114
198
186
116
201
184
112
205
184
108
207
185
106
211
185
102
215
185
102
217
186
104
219
188
108
219
188
108
225
186
105
233
185
102
241
185
99
247
183
96
253
181
91
254
178
85
254
177
84
255
178
86
255
182
92
255
186
100
252
187
101
247
187
107
243
188
113
236
186
113
229
184
112
224
182
108
220
178
104
216
173
99
215
170
93
216
167
89
218
166
86
219
168
86
224
171
90
226
173
89
227
176
91
229
179
94
235
182
93
243
189
96
245
191
95
243
190
95
240
190
102
237
190
104
230
188
101
221
184
98
220
180
93
225
177
90
226
171
83
223
167
76
220
163
73
225
163
73
232
168
75
236
173
75
237
175
78
236
175
77
233
171
74
231
169
74
227
166
76
225
165
76
225
167
77
224
168
77
221
168
79
222
166
78
223
166
79
224
165
80
224
165
81
220
164
84
215
162
87
208
161
90
198
161
92
192
160
94
188
159
96
194
159
93
205
160
88
214
160
86
220
163
88
225
166
90
214
165
84
218
167
82
223
171
81
221
176
87
220
181
100
218
184
108
216
185
113
213
186
117
213
188
121
216
189
119
219
188
114
225
186
105
233
188
101
238
186
97
242
184
93
244
183
87
247
181
85
250
181
86
253
182
87
254
183
87
251
183
87
250
182
86
249
184
90
245
185
91
239
186
94
236
185
94
234
184
94
234
183
92
236
180
91
237
177
88
239
176
86
240
175
83
242
174
79
243
171
80
240
173
82
238
174
86
234
174
90
233
176
93
233
181
98
232
184
102
232
185
99
234
181
93
236
177
85
241
174
80
246
175
80
249
178
80
250
180
81
250
182
83
248
184
81
248
186
82
246
188
83
246
187
83
244
186
80
244
186
83
242
184
85
240
182
88
239
179
92
240
179
94
242
180
99
243
181
102
242
180
101
239
180
103
236
180
103
234
181
103
233
181
106
232
182
106
233
185
108
235
186
108
233
184
106
221
175
94
216
166
85
189
141
69
170
127
60
158
112
55
139
100
53
134
99
60
112
78
48
98
67
40
90
62
37
88
63
34
92
70
38
89
68
37
89
70
40
90
71
41
94
75
45
99
79
48
109
91
59
117
102
69
121
105
72
124
108
73
125
109
72
126
107
69
124
103
63
119
96
55
114
91
50
116
93
52
118
97
55
125
104
62
128
108
66
124
105
65
126
106
69
120
100
64
113
94
58
115
95
62
110
90
57
105
86
57
87
77
58
41
37
28
32
31
27
36
34
30
30
27
24
31
28
24
30
28
24
31
28
24
36
33
28
33
32
23
32
31
23
34
34
25
49
47
36
104
99
87
196
193
177
203
188
134
200
182
110
199
184
113
198
186
115
195
187
116
194
186
114
197
187
112
201
185
110
205
185
106
207
183
102
209
184
103
211
185
107
215
187
108
223
187
106
233
188
104
240
187
96
246
184
92
252
181
86
253
178
82
253
175
80
254
175
81
254
178
86
252
181
92
250
183
99
244
183
105
238
184
111
230
184
114
224
182
113
218
179
109
213
174
103
210
171
100
209
167
92
211
165
88
212
163
85
213
165
83
218
167
87
221
170
91
225
173
92
229
174
92
234
177
86
240
181
86
244
184
86
240
186
90
235
187
97
231
187
100
223
184
96
214
179
93
213
176
91
215
173
87
215
169
82
215
165
77
218
163
76
224
164
77
229
167
77
233
169
75
240
169
75
241
170
76
236
167
72
230
164
70
227
162
73
222
162
74
219
164
77
217
166
79
212
167
82
213
166
82
214
165
82
219
164
82
217
163
81
215
163
85
213
163
88
209
163
90
203
162
90
199
161
90
197
160
90
201
162
87
211
164
87
219
165
85
220
164
83
222
163
84
214
166
85
219
168
83
223
172
82
221
176
85
220
181
97
222
186
110
220
187
116
218
188
119
220
190
123
226
191
120
229
189
114
232
187
104
239
187
98
244
187
96
246
185
92
249
183
87
251
180
86
254
180
87
254
179
86
254
180
88
252
181
88
249
181
87
248
183
90
243
184
91
238
185
93
236
185
94
235
185
95
235
181
91
236
178
89
238
175
86
240
175
85
241
173
85
239
172
82
238
170
85
233
172
90
232
172
91
229
174
93
227
175
94
227
178
99
227
182
103
227
182
98
233
179
93
237
174
85
242
171
78
246
171
78
249
174
80
247
174
79
247
177
81
246
181
82
246
184
84
244
187
85
241
187
87
240
186
88
237
185
89
234
182
91
232
180
93
228
178
95
228
177
96
229
178
99
230
178
101
230
179
102
229
177
102
229
175
101
229
175
100
227
174
101
225
174
101
226
178
104
229
181
106
232
184
108
230
180
104
234
180
100
212
161
81
195
147
70
201
150
70
178
131
64
141
106
57
115
82
46
97
65
35
88
60
36
90
65
36
97
75
42
102
82
50
104
85
53
99
80
47
94
75
43
96
76
45
105
87
55
112
97
65
119
103
72
123
107
74
123
108
73
125
108
72
121
103
65
118
97
57
116
93
52
114
91
50
110
88
46
113
91
48
117
95
50
122
100
57
126
104
63
120
100
60
115
95
57
116
96
60
117
96
62
117
95
62
108
92
66
69
57
42
58
47
37
57
51
39
56
52
40
53
50
38
56
51
42
51
47
38
54
48
39
52
46
35
56
53
40
68
63
52
86
80
65
150
143
124
213
205
186
202
192
149
200
188
125
196
186
120
195
186
116
193
184
113
192
184
113
193
185
115
196
186
115
200
186
112
203
184
108
207
184
108
208
185
111
213
188
110
223
189
107
231
189
105
239
188
101
245
184
96
250
180
91
254
178
89
253
174
86
248
172
84
245
175
88
242
177
92
237
179
96
232
181
102
224
181
107
215
182
111
208
179
110
202
177
106
199
174
102
197
172
100
198
169
95
200
167
91
201
165
89
200
164
90
205
166
93
209
169
95
215
172
95
221
172
90
225
171
84
230
174
82
234
176
81
234
178
84
228
181
91
222
182
94
214
178
90
208
176
89
207
175
90
208
174
87
206
169
81
208
164
79
215
162
79
219
164
79
225
166
76
232
167
75
237
166
72
238
167
72
233
163
68
227
158
65
222
156
68
218
159
72
213
162
78
209
165
84
205
168
87
206
167
86
208
165
85
213
163
84
213
163
84
213
163
88
212
164
89
209
166
88
208
164
89
208
163
86
209
164
85
212
167
83
218
169
84
225
171
86
225
169
84
223
166
81
211
169
91
214
171
86
217
174
84
220
175
85
220
180
93
222
185
108
223
187
114
222
189
116
229
189
113
233
189
110
237
188
106
239
186
100
242
185
95
248
185
93
248
183
89
248
181
85
249
178
86
250
177
86
250
174
85
250
173
88
249
175
91
247
176
92
244
179
93
238
181
92
230
181
91
232
182
94
232
180
94
233
176
90
234
172
88
237
170
87
239
171
87
238
170
86
235
169
86
231
170
90
228
171
94
226
173
94
226
175
96
224
176
97
226
179
99
228
181
101
229
182
98
235
179
94
241
176
87
243
172
80
245
171
80
248
170
80
245
170
78
243
173
79
242
178
86
241
182
88
239
185
90
237
185
94
232
183
95
229
181
95
226
181
97
222
181
101
221
179
101
220
177
101
219
176
101
219
174
100
218
173
102
219
171
100
219
169
99
217
167
96
214
168
97
213
168
101
213
171
105
215
176
105
224
178
107
229
182
108
232
182
105
223
169
89
216
163
84
228
169
86
200
147
68
162
121
68
122
90
49
95
64
33
86
58
31
106
82
51
111
91
52
108
87
51
106
86
51
106
86
51
106
86
51
102
83
49
106
88
55
113
98
67
118
103
73
123
108
76
126
111
77
124
108
74
126
110
76
125
108
72
123
104
65
118
96
56
115
94
52
112
91
49
112
91
49
115
92
51
121
95
56
120
96
54
116
93
51
117
94
52
121
97
57
118
94
58
118
96
62
105
88
58
98
81
59
87
74
56
80
71
53
88
80
61
87
80
61
80
73
54
83
76
58
89
83
65
94
85
63
108
97
72
143
130
102
180
166
136
201
189
153
200
188
133
199
186
124
198
187
122
196
186
118
193
184
113
191
183
111
192
184
112
192
184
115
197
185
113
201
185
111
206
186
112
210
187
114
215
189
115
224
191
112
231
191
108
238
188
106
245
186
102
252
183
98
255
182
97
253
178
96
248
175
94
241
175
92
232
177
91
225
178
95
219
181
102
212
181
106
204
181
105
196
179
107
189
178
107
185
178
106
188
174
105
191
171
99
193
171
97
195
170
96
196
171
97
196
170
100
199
170
101
204
170
97
208
168
89
212
165
83
218
167
80
222
168
77
223
173
80
219
176
86
213
176
90
205
174
88
199
175
89
197
174
89
200
172
87
200
169
83
202
165
82
207
161
81
213
164
80
220
166
74
228
167
76
233
167
74
230
164
71
224
156
64
218
150
63
212
150
69
209
156
76
201
162
80
202
166
85
203
167
86
205
166
84
206
162
81
207
160
80
210
163
82
210
164
83
209
166
86
209
168
89
214
168
88
216
168
83
218
169
82
221
170
83
224
171
82
227
171
82
228
172
82
225
168
78
205
171
93
210
172
88
214
173
85
217
174
83
219
177
91
222
183
101
226
185
105
228
185
108
233
186
106
237
187
103
240
186
99
242
184
94
245
183
90
247
183
87
248
181
86
248
178
85
247
176
87
248
174
86
249
172
86
249
172
89
247
173
91
245
174
94
239
174
93
232
175
91
224
173
91
225
174
94
225
173
95
226
171
92
228
167
90
231
165
89
231
164
87
231
164
87
227
165
89
224
167
90
223
170
92
222
172
93
221
173
94
223
176
94
225
179
95
227
180
97
233
181
97
239
181
94
242
179
89
245
176
83
246
174
82
246
173
79
241
172
79
239
173
83
235
178
90
233
180
95
232
183
99
232
184
101
229
182
104
224
182
106
220
181
106
218
180
106
217
180
104
215
178
105
212
174
103
209
172
101
207
170
101
208
168
101
206
165
99
204
163
97
202
164
103
201
165
104
202
167
106
208
170
103
216
172
105
225
177
107
231
178
105
229
173
96
230
169
91
235
172
93
213
168
106
184
152
111
125
94
53
91
59
29
88
61
33
128
104
68
121
99
58
111
88
50
105
83
46
105
86
48
107
87
49
103
83
49
105
88
55
113
97
67
122
107
77
126
111
79
126
111
77
127
111
77
126
110
76
125
109
75
126
109
73
128
108
70
126
108
67
123
104
63
118
99
58
114
93
52
117
94
53
120
95
52
120
95
50
115
90
45
118
93
49
118
92
51
119
94
54
120
97
57
116
95
58
105
86
54
99
81
52
105
89
59
97
82
52
105
89
59
104
90
60
114
100
67
118
103
66
132
114
71
163
145
103
188
171
132
200
182
129
200
188
125
197
188
125
197
186
121
195
185
117
193
185
114
191
183
111
191
183
111
192
185
113
200
185
112
207
186
111
211
188
113
215
190
116
222
191
116
230
192
112
236
191
107
240
189
105
246
186
103
251
182
101
251
179
99
249
177
99
247
176
101
241
177
101
232
178
99
221
180
101
213
182
103
206
184
107
197
184
110
188
181
110
181
179
111
178
181
111
182
179
112
183
177
106
184
177
103
187
177
104
188
177
106
190
175
104
192
173
100
195
170
96
199
167
92
202
164
84
206
164
79
210
166
76
212
169
76
210
171
82
207
172
88
200
173
88
190
173
87
190
173
88
195
172
87
197
169
85
199
167
85
202
166
84
206
165
83
211
164
75
218
164
76
221
161
75
216
156
70
211
150
65
204
145
64
199
147
68
196
154
74
192
160
79
196
163
84
199
164
83
204
161
81
206
156
77
206
158
75
206
162
78
206
164
79
206
166
82
207
170
87
217
169
85
219
169
80
222
170
79
227
172
79
228
171
77
229
169
73
231
169
76
225
163
74
198
170
90
204
169
85
208
170
82
212
171
81
216
174
88
221
179
94
226
180
97
230
180
100
233
182
98
239
184
95
243
184
94
245
182
90
246
180
84
247
179
80
246
175
80
246
173
83
244
174
87
246
173
88
247
172
89
247
171
89
247
171
90
242
171
92
235
170
91
226
169
89
221
168
91
219
168
94
218
168
96
220
167
95
224
166
95
227
163
93
226
161
92
222
159
89
218
161
88
218
165
90
219
169
92
220
171
92
219
172
90
220
174
90
223
176
91
227
178
93
236
181
94
240
182
92
243
180
89
245
179
85
246
177
83
245
175
81
240
174
84
234
174
88
227
176
93
223
176
99
227
181
105
229
183
110
227
184
113
227
184
116
225
183
115
223
180
112
221
178
108
215
174
105
212
171
103
208
169
101
205
166
102
200
166
102
196
163
99
194
161
98
193
161
100
192
163
99
194
164
99
200
164
99
208
165
100
218
170
102
227
171
102
230
172
101
230
173
97
232
188
134
228
208
179
198
182
154
138
111
74
92
58
26
113
89
58
142
119
79
129
106
63
119
96
55
111
88
49
108
87
49
109
90
52
108
89
54
107
90
57
116
101
70
125
110
80
130
115
83
131
116
82
130
114
80
129
114
80
134
119
85
134
119
85
134
118
82
135
118
81
133
116
78
130
113
74
124
105
64
121
99
58
119
95
51
119
94
49
121
94
50
122
95
48
126
99
54
127
100
56
129
101
58
128
102
59
124
97
57
124
100
59
120
98
56
120
95
55
121
97
55
126
102
59
133
112
65
143
121
72
164
147
98
203
187
148
208
195
158
199
190
133
195
187
124
196
187
124
195
184
120
194
185
116
194
185
115
193
184
113
192
184
111
194
186
112
205
187
111
214
188
111
220
189
115
225
189
115
230
191
114
235
192
112
239
191
108
243
191
105
247
186
104
250
182
102
248
178
101
244
173
100
243
173
103
239
176
104
233
178
103
225
181
104
217
184
107
209
184
106
202
183
106
194
182
108
187
182
109
185
183
110
186
181
110
184
180
110
184
180
109
187
181
110
188
179
110
189
174
105
190
172
101
193
170
97
197
168
94
196
164
86
198
162
78
201
163
73
203
166
73
203
168
79
199
170
85
197
173
87
194
172
88
195
170
88
197
169
87
199
167
85
201
166
86
202
166
86
201
164
83
202
160
76
205
158
74
203
157
75
198
153
71
193
148
68
189
146
67
185
149
69
186
154
73
185
159
77
188
160
81
193
159
80
201
154
75
206
150
69
207
150
69
207
157
74
205
162
77
203
165
79
206
168
83
216
168
78
219
167
76
224
169
75
230
171
74
231
170
72
231
168
70
230
164
69
222
156
68
192
167
86
195
166
82
199
167
79
203
170
79
206
173
81
212
174
89
219
176
93
224
175
94
229
177
92
237
181
92
243
182
90
245
180
83
245
179
77
245
176
77
243
172
79
242
171
83
241
172
88
242
172
92
244
173
94
244
172
90
245
170
89
238
168
88
230
167
89
221
165
89
217
166
91
214
167
96
211
166
98
212
165
97
217
164
98
220
163
97
218
161
94
213
159
91
211
162
89
214
165
89
217
167
89
219
168
87
220
169
83
223
172
86
226
173
87
229
176
88
235
179
89
240
180
90
245
180
90
246
180
86
245
177
81
245
176
81
239
176
86
231
177
91
223
178
101
220
179
110
226
180
113
229
181
116
228
183
117
229
183
118
228
182
115
226
180
112
222
175
107
215
171
103
211
169
100
208
167
99
202
166
102
194
165
100
189
162
97
186
161
95
186
161
97
187
161
95
187
160
94
192
160
93
201
160
94
208
164
95
218
165
98
224
169
103
227
179
121
229
203
171
232
220
203
209
196
171
148
122
87
111
79
42
151
128
95
154
132
95
140
117
76
129
106
65
121
98
59
113
92
53
108
89
53
113
94
60
111
94
61
112
97
66
124
109
79
131
116
84
132
117
83
131
116
83
137
122
89
138
124
90
140
126
91
140
126
91
143
127
93
139
123
86
135
120
81
132
114
74
129
110
67
126
105
61
123
100
56
124
99
55
123
98
53
131
106
62
131
105
61
137
111
67
143
117
72
150
125
83
157
134
92
159
138
97
163
144
101
165
147
103
172
153
111
179
162
126
191
174
138
218
202
170
231
216
192
224
212
182
211
199
159
201
191
141
196
187
125
194
183
120
193
184
114
194
184
114
194
184
113
195
186
113
202
186
110
212
187
110
221
187
109
230
188
113
235
189
113
241
190
111
245
189
110
246
189
107
246
187
104
248
184
104
249
182
104
245
177
104
242
174
105
241
172
104
239
174
101
238
177
100
231
178
98
225
180
102
219
181
103
215
180
101
208
180
104
202
182
107
199
183
110
196
183
111
195
182
111
190
180
108
189
179
106
191
178
105
192
176
105
193
173
103
195
171
99
196
168
94
195
162
87
195
161
80
193
161
73
193
164
72
195
168
76
198
170
81
201
171
83
203
172
84
206
170
86
206
168
84
206
165
83
205
164
83
204
163
82
198
160
78
193
158
76
189
155
73
185
154
71
180
152
70
176
151
70
174
151
71
173
152
71
176
154
74
177
159
77
181
158
77
185
154
75
195
147
68
203
142
61
206
143
59
207
151
68
204
158
75
202
164
79
204
165
81
212
165
75
216
162
72
220
164
70
227
165
67
229
165
67
229
164
68
229
159
64
218
150
62
184
167
88
186
165
83
189
165
80
191
167
81
193
169
83
198
170
88
210
171
90
217
170
87
225
173
88
234
177
88
240
179
85
242
178
79
243
176
77
240
175
80
236
173
83
233
169
84
235
167
87
236
168
90
237
169
91
238
168
89
239
166
88
233
164
86
224
163
86
217
163
88
212
165
94
209
166
99
206
167
101
205
165
99
210
164
100
212
164
100
210
162
97
206
161
96
206
165
95
211
166
90
214
165
85
218
164
82
223
165
79
230
168
83
231
170
85
232
174
85
235
177
88
242
179
89
245
179
88
245
180
86
246
178
82
244
177
81
237
177
86
230
178
91
226
181
102
229
182
117
232
179
120
230
179
121
229
180
121
229
180
118
228
180
114
225
177
110
222
171
105
217
168
100
214
166
99
208
165
98
200
166
101
191
167
101
185
166
98
179
165
95
178
163
96
181
162
94
182
160
92
185
160
91
194
162
93
201
164
94
210
165
97
213
166
100
217
183
132
227
212
185
228
217
195
208
194
169
160
132
98
140
110
71
163
142
109
160
140
107
149
128
91
137
117
77
127
107
66
124
103
64
123
104
68
120
101
67
118
100
67
119
103
72
123
108
78
128
113
81
129
114
80
127
112
79
127
112
80
132
117
83
138
124
89
141
127
92
142
126
92
142
126
89
138
124
85
135
120
79
133
116
72
131
113
68
130
110
64
122
99
55
122
99
58
130
107
67
125
103
62
137
115
74
143
121
81
153
135
96
164
148
113
176
161
131
190
176
150
199
184
161
202
187
165
206
192
168
218
203
179
231
217
193
237
224
202
236
225
203
234
219
195
216
203
169
196
188
129
193
185
121
194
182
113
196
182
112
196
184
112
198
186
111
206
186
109
215
186
108
225
186
107
233
186
108
241
188
109
245
187
108
248
186
106
249
185
103
249
184
102
246
180
103
245
178
106
243
174
106
243
174
105
243
173
105
241
172
99
240
172
92
238
171
90
235
172
90
232
174
91
227
175
95
223
178
100
218
180
105
212
180
107
206
181
108
205
180
106
202
179
104
198
177
101
197
177
101
200
176
102
201
176
103
200
170
100
201
167
98
198
164
92
193
162
86
190
162
81
192
166
78
197
169
79
203
169
79
209
169
81
213
169
81
217
167
80
218
165
79
217
161
77
213
157
74
206
156
71
197
154
69
188
153
70
180
154
72
170
156
72
162
155
72
156
156
72
154
155
72
156
155
73
160
156
75
165
159
76
174
155
71
180
149
67
189
141
63
199
136
59
203
137
57
202
144
65
198
153
72
194
159
76
195
158
76
203
156
69
209
153
66
212
154
65
219
153
62
221
153
62
223
154
65
224
150
62
214
143
62
177
165
93
176
164
89
177
165
88
179
167
89
184
167
89
189
167
89
199
167
87
210
165
85
219
166
83
229
170
82
235
172
80
236
172
79
236
172
79
232
173
84
229
172
85
226
168
82
228
164
82
231
163
85
233
163
88
232
164
87
232
164
85
227
161
82
220
160
82
215
161
87
210
163
93
204
166
100
200
168
105
202
167
104
206
167
103
208
167
103
204
164
99
202
163
95
206
167
96
210
166
91
211
163
85
214
161
78
221
161
73
229
165
77
231
167
81
232
169
84
234
173
87
238
174
87
241
175
86
242
177
84
241
177
80
237
176
78
231
176
81
226
177
87
227
180
101
231
180
109
232
178
115
232
177
121
229
178
121
227
177
117
225
175
111
222
172
104
219
167
98
216
165
98
213
164
98
205
164
98
196
165
101
191
167
102
188
169
102
182
169
100
179
165
97
179
164
96
179
163
94
182
163
91
189
163
93
196
166
98
203
168
106
210
178
128
223
205
175
228
216
198
212
201
182
196
183
160
169
150
120
158
137
101
165
148
118
161
145
116
153
137
102
144
126
89
134
114
76
131
108
73
131
112
77
131
114
78
122
106
73
120
104
72
123
106
78
124
108
79
126
110
80
126
110
79
126
110
79
132
116
83
138
122
88
139
123
89
141
126
88
141
125
87
137
122
82
135
120
78
134
119
75
132
114
70
130
111
67
119
99
56
127
105
67
128
105
69
119
97
61
136
116
79
146
126
88
152
133
100
161
143
113
177
162
134
196
182
158
204
189
169
201
186
161
204
188
162
214
200
175
229
217
192
237
225
202
240
228
209
236
224
198
223
209
176
196
190
130
197
183
116
201
180
112
201
180
113
201
182
111
203
185
109
207
186
109
214
187
109
221
187
108
233
185
107
241
186
107
244
185
105
244
183
103
244
182
101
244
178
101
241
175
102
240
174
104
241
172
105
242
172
106
242
171
103
242
168
93
243
165
82
242
163
75
243
163
74
240
166
75
236
168
83
232
171
91
228
173
96
223
176
100
217
179
103
216
179
103
212
179
101
206
177
98
203
176
98
202
173
101
204
171
102
204
166
99
205
164
97
202
164
94
197
162
89
195
162
85
199
166
82
205
168
78
210
169
77
217
167
78
223
164
76
227
163
73
228
163
73
226
160
71
220
151
66
210
147
63
199
145
60
186
145
66
174
152
70
161
155
74
148
155
73
143
156
74
143
156
73
145
156
72
150
157
72
155
158
72
162
154
68
175
146
63
186
135
59
193
132
59
192
134
60
190
141
67
187
148
71
184
154
72
184
153
70
195
148
64
204
147
62
206
147
61
208
142
61
208
139
61
212
139
63
211
139
65
203
135
65
169
167
97
169
167
95
170
167
94
174
167
95
179
167
94
183
166
92
191
165
90
198
163
86
206
162
84
215
165
82
223
167
80
226
168
80
228
167
80
226
166
83
222
164
82
221
163
81
223
160
81
225
161
84
226
162
88
228
162
87
226
160
83
223
159
81
216
158
82
211
159
85
204
164
93
200
167
99
197
169
103
198
168
103
201
167
103
201
166
102
197
163
98
196
162
94
199
163
93
202
162
89
205
159
83
210
155
78
218
156
76
223
159
76
226
161
80
228
162
84
228
165
86
232
167
87
235
169
84
236
172
80
234
174
78
230
173
77
223
172
81
219
174
88
221
177
102
224
176
107
228
177
114
231
176
118
230
175
117
228
173
113
223
171
106
216
167
96
212
164
93
208
164
94
204
164
95
200
164
96
194
166
99
191
168
101
191
171
103
189
171
102
187
169
99
185
167
97
184
165
94
185
164
90
188
164
91
189
167
96
196
171
109
208
187
141
227
213
188
219
206
188
200
190
166
188
175
152
178
163
138
167
152
122
169
153
127
165
149
120
154
139
105
147
130
95
140
120
85
134
114
80
136
118
84
134
118
84
128
111
79
122
105
76
120
103
75
121
104
76
122
105
77
122
105
78
121
104
77
124
108
77
128
112
79
127
111
78
126
111
74
125
109
73
131
116
79
134
118
81
133
118
77
126
108
68
122
102
63
113
93
54
130
108
70
130
108
72
129
107
73
138
118
83
149
129
94
160
140
109
154
136
108
172
156
130
190
176
153
198
183
164
197
181
156
198
181
152
215
199
173
228
214
188
235
221
196
236
223
199
233
218
191
224
210
177
202
191
135
200
181
114
205
178
111
205
178
113
206
179
112
208
181
111
210
184
112
213
184
111
218
184
109
231
182
106
237
181
104
239
180
103
238
178
100
237
176
100
231
174
100
230
171
100
229
171
102
230
171
103
232
168
99
235
167
96
240
163
86
244
159
75
247
153
62
250
151
59
248
153
61
244
155
69
242
160
77
238
166
84
233
170
90
227
173
94
226
175
95
221
175
94
213
173
90
210
171
91
208
169
94
208
166
96
208
162
95
207
159
95
206
160
93
202
159
89
202
159
85
209
161
80
215
164
76
221
165
72
228
163
69
232
158
65
235
154
60
234
153
61
230
150
61
225
144
63
213
136
61
197
134
57
182
136
63
171
145
69
155
151
73
143
155
74
140
155
75
141
155
76
143
155
74
144
156
73
147
158
73
154
154
70
166
145
65
176
136
61
181
134
62
182
137
65
179
143
71
177
147
71
177
150
70
182
146
67
192
140
63
200
137
58
201
137
56
201
134
57
201
132
58
199
133
65
196
134
70
190
132
72
168
166
101
168
166
99
168
166
98
171
167
101
177
168
100
180
168
99
185
167
96
188
164
91
195
162
90
204
164
86
213
167
85
218
165
82
220
162
81
221
161
83
217
158
81
215
156
79
217
157
82
218
160
86
217
162
88
216
162
86
213
159
80
212
159
80
205
158
81
197
157
82
193
160
89
193
165
94
193
168
97
193
168
99
195
167
103
194
166
102
190
163
97
190
163
95
193
162
92
197
161
88
198
158
83
202
156
80
209
155
80
211
155
78
212
156
79
214
157
83
215
160
86
219
162
86
223
162
85
225
163
82
224
164
79
218
164
76
214
166
80
211
169
89
211
172
100
215
172
106
220
171
110
227
172
111
230
171
111
229
169
108
219
164
98
211
163
89
205
161
88
198
162
89
194
164
92
193
164
94
191
167
94
190
169
98
193
171
101
192
170
100
191
169
96
189
168
94
186
167
94
181
166
96
181
168
97
186
174
107
195
178
124
211
197
163
223
209
187
204
191
172
191
180
153
183
171
147
178
166
145
171
160
135
169
156
132
164
149
119
154
138
107
147
129
97
140
121
88
133
114
82
130
114
81
131
114
83
126
109
80
122
106
79
123
106
78
122
105
77
127
109
82
128
111
86
126
109
83
126
109
80
120
103
73
113
96
66
110
94
61
111
95
62
123
107
74
130
114
81
128
112
77
128
110
75
114
94
59
108
88
53
126
104
66
138
116
80
141
119
86
144
124
91
150
130
98
162
142
113
167
148
123
173
157
133
188
173
151
191
176
157
190
173
147
193
173
143
209
192
164
225
208
182
230
214
185
229
214
183
231
214
185
227
213
181
204
187
136
202
178
113
205
174
108
208
174
111
210
175
111
208
173
111
210
177
112
209
178
111
211
179
110
218
176
108
222
174
106
222
173
105
223
173
105
223
172
105
220
172
100
218
170
101
219
172
104
221
174
104
225
169
96
231
166
91
238
161
82
242
152
67
244
143
57
248
137
52
247
138
53
246
144
63
244
151
68
243
157
72
240
162
78
235
166
83
234
170
85
231
171
85
223
169
82
216
167
83
213
164
86
211
161
88
211
159
91
213
157
96
212
158
94
208
157
90
207
157
85
211
158
77
215
159
71
221
158
67
229
156
65
234
151
60
235
147
55
233
144
58
225
137
54
216
131
52
209
128
58
195
128
57
180
129
62
169
137
67
158
147
74
148
152
76
144
154
79
143
156
82
145
156
80
145
155
77
146
154
74
153
151
71
158
147
69
165
140
67
168
139
67
171
143
70
171
147
74
173
150
75
176
149
72
185
142
67
192
136
56
199
132
51
200
131
50
200
129
56
199
130
59
196
132
66
194
134
72
191
135
77
170
163
98
171
165
99
175
166
101
183
167
103
185
167
103
185
166
102
184
166
101
183
166
97
188
164
92
196
163
89
207
164
88
212
162
84
214
159
80
212
156
80
210
155
81
207
154
83
207
155
87
209
160
88
209
162
88
206
161
87
204
157
84
200
156
84
193
156
84
185
155
83
179
158
86
181
161
89
183
165
91
186
165
92
188
165
96
189
165
97
188
162
93
190
163
91
193
162
89
197
163
88
197
161
85
198
158
83
200
156
85
199
155
86
199
154
86
202
155
88
204
157
89
206
157
89
206
154
88
208
152
85
209
153
83
204
158
80
203
162
83
202
166
91
200
169
101
204
169
102
212
164
101
220
164
99
223
162
96
220
159
92
211
157
85
205
159
81
196
160
84
190
161
86
187
164
89
187
165
93
187
167
97
190
170
100
191
171
101
190
170
100
189
170
98
186
170
98
183
170
97
180
171
99
177
172
104
178
176
111
190
185
132
218
207
179
216
201
178
199
184
160
188
174
151
179
168
146
176
165
143
173
163
139
168
157
131
163
149
122
153
140
106
145
129
96
141
123
91
137
121
88
136
120
87
136
120
87
135
118
88
128
111
84
119
101
75
119
100
77
122
103
81
126
110
86
124
108
83
121
104
77
121
104
76
114
97
69
115
98
69
119
102
73
121
104
74
127
108
76
126
107
75
134
114
82
126
107
74
118
98
65
125
105
69
131
111
74
142
122
87
150
131
98
150
131
100
154
136
106
164
147
121
172
157
134
180
166
144
184
168
144
189
170
145
194
174
145
209
189
160
221
203
174
226
209
179
229
211
182
232
220
193
232
217
192
219
205
166
213
193
146
211
177
120
212
171
110
212
171
109
209
167
106
206
169
106
203
171
108
202
172
110
203
171
108
202
170
104
202
171
105
204
170
106
203
168
105
200
166
101
202
167
104
204
171
107
209
174
108
217
169
100
225
167
92
230
157
80
237
147
68
237
137
60
241
130
55
241
130
55
241
134
59
240
142
62
242
147
66
241
153
73
238
160
78
236
163
73
232
165
73
227
165
73
221
163
76
216
162
81
213
160
86
215
158
89
217
158
93
217
159
94
213
158
89
212
160
86
213
158
79
215
156
71
219
154
66
225
150
62
228
143
56
224
138
56
220
136
56
215
132
54
206
125
52
196
123
52
187
124
57
178
125
58
168
133
63
161
144
71
156
151
78
150
155
83
147
156
83
146
155
82
148
152
79
150
149
73
153
148
68
158
146
69
158
146
72
161
146
75
164
149
77
169
152
78
177
155
80
181
152
76
190
141
66
199
134
57
207
129
51
205
124
50
205
124
52
205
127
56
201
131
61
200
135
68
199
136
74
175
161
98
180
162
100
188
165
105
194
165
108
193
166
108
188
165
106
186
165
103
184
164
99
185
163
95
193
161
92
203
161
91
208
160
89
205
156
83
203
151
79
201
150
81
200
151
84
199
154
88
201
159
90
202
162
91
199
161
89
193
158
85
189
155
83
183
153
81
176
153
81
169
154
85
171
159
89
173
163
92
178
164
93
183
163
93
186
163
92
189
163
91
196
164
91
204
162
88
202
163
85
200
161
82
197
160
81
191
159
85
186
158
92
185
157
93
188
157
95
191
156
92
192
155
91
190
150
86
190
147
83
190
148
80
188
154
82
189
160
86
189
164
90
191
165
96
194
164
96
201
159
94
208
157
90
209
154
82
205
152
76
203
153
76
202
155
78
193
157
82
187
159
83
184
162
87
186
166
93
187
169
98
189
170
98
189
169
96
189
169
96
187
171
99
188
171
99
187
172
100
182
174
102
178
174
107
183
181
118
200
194
150
220
208
183
207
193
167
191
177
151
184
171
146
181
170
148
179
168
146
173
163
139
168
157
131
164
150
123
156
142
111
148
132
101
146
129
98
145
129
96
144
128
95
143
127
94
138
121
92
132
115
88
128
112
88
128
111
89
133
116
96
133
117
94
130
115
89
128
112
84
129
112
84
125
108
80
119
102
76
122
105
79
127
109
81
130
111
79
123
104
72
126
107
74
129
109
76
120
100
67
126
106
72
134
114
80
139
119
86
150
131
98
160
141
110
158
140
110
161
144
117
169
154
131
173
159
138
174
159
135
181
163
138
193
176
150
216
198
172
223
206
180
228
212
186
231
215
188
236
228
207
238
230
216
240
233
221
232
219
199
219
187
144
215
170
113
214
166
107
210
162
103
203
164
104
199
169
111
195
171
116
192
171
114
186
170
108
186
170
106
186
167
103
185
164
100
180
164
99
186
166
99
192
170
102
201
170
105
210
167
99
217
164
91
221
156
83
225
147
74
224
138
64
229
133
60
232
133
60
236
135
63
238
141
65
238
144
66
239
149
70
238
155
72
237
160
69
235
162
69
229
162
68
221
161
72
218
161
78
214
160
83
214
158
84
216
158
87
220
158
86
218
160
84
219
162
83
218
160
78
217
157
71
215
152
66
215
146
63
214
139
58
210
136
60
205
137
61
198
135
60
194
131
59
185
126
58
178
124
58
173
125
59
167
133
65
165
142
73
161
150
82
155
154
87
153
156
87
152
155
86
153
152
83
153
147
75
156
145
71
159
144
71
159
147
75
159
150
79
161
153
81
170
156
84
181
156
84
193
152
82
201
145
75
210
139
67
217
132
59
213
125
55
209
123
52
207
124
55
206
128
58
207
133
63
207
136
66
181
159
97
185
158
99
192
161
104
195
163
107
194
166
110
191
167
110
190
165
108
189
164
103
186
162
98
193
160
95
200
158
91
203
156
89
201
155
85
197
150
81
196
149
83
196
151
87
193
154
90
195
158
92
196
161
92
192
160
89
181
156
83
178
153
80
174
151
78
168
150
78
161
151
83
163
157
89
167
160
93
174
163
94
184
164
95
189
163
94
198
164
93
207
163
91
212
164
88
210
164
86
205
162
81
197
162
81
185
162
85
174
162
90
171
160
92
174
159
92
180
156
91
179
152
88
178
149
84
177
145
82
177
146
80
174
151
84
173
156
87
172
160
88
178
159
89
182
157
88
189
153
86
196
150
80
201
149
73
200
150
71
201
152
74
202
154
77
197
159
81
193
163
84
191
168
89
192
171
95
193
174
99
194
174
98
194
172
97
194
172
98
195
172
100
198
173
101
199
173
101
193
175
99
190
178
107
190
183
122
209
199
162
217
205
182
197
183
156
184
170
143
180
167
142
179
167
144
176
164
141
171
160
135
168
156
130
164
151
125
157
143
114
150
134
106
149
130
101
142
126
94
140
123
91
137
121
89
135
118
89
135
118
92
133
118
91
131
116
90
130
115
89
134
119
90
135
120
90
131
114
86
130
112
85
129
111
84
125
107
82
123
104
79
127
108
81
134
115
83
123
104
74
124
104
74
128
108
77
129
109
77
132
112
79
136
117
84
143
123
91
149
130
98
159
140
109
158
139
109
161
144
117
168
153
130
177
163
143
179
163
141
179
161
138
194
177
152
211
195
170
223
207
181
228
212
186
232
219
194
237
227
209
244
237
220
243
236
222
234
219
196
223
189
139
218
169
108
216
163
102
213
162
102
207
165
108
200
169
117
194
171
122
191
171
120
183
170
116
175
168
107
172
164
101
169
160
97
169
159
96
179
163
98
188
167
100
196
168
103
204
166
98
211
164
93
214
156
86
216
148
79
216
141
70
223
139
69
226
140
69
230
144
70
232
148
70
234
150
71
236
155
73
236
158
74
236
162
76
235
165
77
229
164
73
223
161
73
217
160
76
213
159
77
213
157
78
215
156
81
220
156
79
221
158
78
221
160
77
221
159
75
216
158
72
209
154
70
202
148
68
198
142
66
192
141
69
188
143
71
184
145
71
182
143
70
176
137
67
174
132
64
174
133
66
172
139
73
171
144
78
165
150
86
160
155
91
157
155
91
156
154
89
159
151
85
163
150
80
166
148
75
167
147
75
161
147
75
157
148
77
164
153
83
176
156
87
188
155
88
204
154
89
215
153
89
216
146
80
217
136
69
214
128
62
211
122
53
209
123
54
211
125
56
213
132
58
215
137
60
189
158
90
191
157
92
195
159
96
198
162
100
197
164
104
198
166
108
199
165
106
197
163
102
193
161
95
198
159
93
202
157
89
203
156
85
201
155
84
194
151
82
190
151
86
190
152
91
188
156
92
189
160
95
189
163
95
186
163
92
176
157
85
170
151
79
167
148
76
165
148
76
160
152
82
158
156
87
165
158
91
175
160
93
185
163
95
189
161
96
200
162
93
212
163
88
216
167
89
217
168
89
213
167
85
204
168
83
184
166
83
165
165
87
157
162
91
158
158
87
166
153
84
169
151
81
170
147
78
171
146
79
168
145
78
162
150
83
160
155
87
158
157
88
162
155
84
169
151
82
176
149
81
186
148
78
198
150
76
201
152
76
204
154
76
209
158
78
208
163
78
208
170
84
207
174
88
208
177
92
208
179
95
209
180
99
210
180
101
209
178
102
210
179
101
213
182
103
212
181
104
208
180
101
203
182
104
202
186
120
211
198
158
210
198
176
192
178
152
181
167
140
178
164
138
176
163
138
173
161
136
170
157
132
166
154
128
163
151
125
159
145
116
153
136
108
147
129
100
143
126
96
139
122
92
141
124
94
139
122
94
135
117
92
134
118
93
133
117
92
135
119
94
135
119
94
134
118
92
125
108
83
129
111
86
130
112
87
126
108
83
125
108
83
132
114
87
131
112
83
124
105
78
122
101
76
127
106
78
133
112
82
139
120
88
147
128
97
149
130
102
147
127
101
147
127
100
150
131
103
153
136
111
165
150
127
172
158
135
173
157
132
176
158
132
197
179
152
217
201
176
227
209
183
230
214
190
235
224
203
240
233
217
245
239
225
243
239
226
238
226
205
229
192
145
227
174
107
222
166
95
215
164
98
211
164
110
201
165
115
192
165
118
188
167
117
181
168
116
173
166
112
166
160
103
163
157
98
165
156
94
175
159
96
186
164
99
194
166
101
200
166
99
204
163
95
206
156
89
208
150
83
211
147
78
218
149
79
222
149
78
226
151
76
226
154
76
231
157
79
232
159
81
231
161
82
232
163
82
229
164
79
227
164
77
221
163
77
217
163
77
215
162
76
215
158
74
220
156
76
222
154
73
223
151
71
221
154
70
217
154
70
210
155
71
201
156
76
191
152
77
183
148
76
179
147
78
180
149
81
180
150
83
178
148
81
173
143
78
173
139
72
172
138
71
172
141
76
173
146
81
167
151
87
161
156
91
164
158
92
170
157
86
175
155
80
179
154
77
181
152
71
180
150
71
172
149
70
167
149
71
175
152
80
188
153
86
201
154
90
216
159
98
224
158
101
222
151
95
217
141
84
209
130
71
206
124
59
209
126
50
214
129
51
218
135
52
223
143
55
202
152
74
204
150
76
206
152
81
207
156
90
209
161
96
209
163
99
208
165
99
204
164
94
202
162
91
203
161
89
205
159
84
204
156
81
200
157
85
192
154
88
185
154
91
181
157
97
180
160
96
181
164
99
179
165
98
177
166
95
172
161
90
167
152
82
162
148
77
160
149
77
159
153
83
157
157
88
165
160
93
175
164
95
185
166
98
191
166
101
201
166
99
213
167
94
219
170
88
221
173
88
215
170
84
204
168
81
186
167
82
166
167
88
153
164
91
150
160
86
153
154
80
158
149
77
163
147
74
164
146
75
158
148
79
153
154
83
154
158
87
153
156
85
154
155
85
161
153
83
171
154
85
184
153
86
194
153
82
200
155
79
207
158
78
214
161
76
217
166
75
220
172
79
221
177
81
222
180
86
222
182
90
223
185
96
224
185
99
223
184
100
223
185
100
227
190
104
227
189
105
223
187
104
218
184
105
216
188
124
215
201
167
203
190
167
187
173
146
178
164
137
176
161
135
175
160
134
173
158
132
170
157
131
167
155
129
165
153
127
161
146
117
152
135
107
147
128
100
142
125
95
142
125
96
145
128
98
146
129
101
146
128
103
138
122
97
139
123
98
141
125
101
140
124
100
131
115
92
133
117
94
129
113
90
127
111
88
128
112
88
128
113
89
126
110
86
127
110
85
127
110
83
126
109
82
129
111
83
134
117
85
142
126
97
150
133
108
154
137
113
148
131
109
136
119
96
148
130
107
148
131
108
160
144
121
165
151
129
172
156
132
177
158
132
194
174
144
217
199
172
226
210
184
232
218
195
236
228
208
241
234
218
245
239
226
246
240
229
245
235
222
237
207
172
232
180
116
225
169
97
216
166
98
210
165
108
202
163
111
194
163
116
186
166
116
180
168
116
173
165
112
166
160
105
165
159
102
167
158
96
175
159
96
184
163
97
193
165
100
194
164
100
196
161
97
196
155
90
198
153
87
202
155
88
207
155
88
213
156
87
216
156
84
218
156
82
222
158
83
222
159
85
220
160
84
222
160
83
223
163
84
219
164
82
214
162
79
214
163
78
214
163
75
217
158
71
223
155
68
225
150
64
226
147
65
221
149
65
213
150
66
206
155
75
202
159
80
197
158
82
191
157
84
190
155
84
192
154
86
193
153
88
187
151
87
180
148
85
174
144
78
170
141
75
169
143
78
170
147
81
168
153
84
169
159
88
178
162
86
188
162
78
192
159
71
194
155
65
195
153
59
191
151
63
187
149
63
184
147
63
190
148
70
205
150
81
216
152
91
226
159
103
230
163
112
226
158
108
215
147
95
205
137
81
201
129
62
205
127
49
211
131
47
216
135
48
224
141
50
212
137
55
215
137
60
214
140
66
215
145
74
217
152
82
215
159
88
213
163
88
210
162
85
208
160
82
208
160
81
208
160
81
204
158
79
199
160
83
192
159
89
179
159
92
173
161
99
171
164
100
172
166
100
172
168
100
169
166
98
166
164
93
165
157
88
163
152
83
163
152
82
163
157
86
165
162
92
169
167
98
175
168
99
186
169
99
192
171
101
200
171
102
209
171
102
215
170
91
216
172
87
212
170
83
200
169
83
183
169
85
165
169
87
152
166
91
149
164
91
149
158
83
150
153
77
152
149
74
154
149
76
151
154
80
150
159
84
153
161
88
151
158
87
152
159
90
160
160
90
171
157
90
182
158
89
190
155
86
200
158
85
209
160
81
219
163
77
223
167
76
231
172
73
233
179
77
232
181
79
234
183
84
236
186
91
238
186
95
237
185
96
233
187
96
236
189
99
237
190
100
235
191
103
230
189
107
224
189
124
216
198
169
198
186
162
183
171
145
177
163
136
175
160
133
173
159
133
172
158
132
171
159
133
171
159
134
169
157
132
158
145
117
156
141
113
150
133
105
145
126
94
147
128
96
147
130
98
145
128
99
142
125
98
144
127
99
148
131
104
141
124
99
135
119
95
140
124
100
135
120
96
136
121
98
133
118
96
131
116
95
134
119
98
126
110
89
130
112
89
131
114
88
126
109
81
134
117
87
135
118
88
146
129
103
153
138
113
151
138
115
150
137
116
140
124
104
131
112
90
145
125
101
151
133
108
163
147
124
175
157
132
180
159
130
186
162
130
202
179
150
214
195
170
228
213
191
236
228
208
243
235
221
246
239
225
248
239
226
245
237
226
239
214
185
233
182
122
228
171
98
218
166
99
211
165
106
204
165
112
198
166
119
192
169
122
188
171
120
181
165
111
178
163
104
177
163
101
176
163
97
181
162
96
187
164
98
191
166
99
192
163
99
191
158
96
191
157
93
191
156
90
193
158
91
199
157
90
203
155
88
206
154
85
212
154
83
214
155
85
212
156
85
208
156
84
211
155
85
214
158
85
209
159
82
209
160
79
210
160
76
212
158
73
214
154
69
221
146
61
225
141
57
226
140
60
222
145
64
215
150
66
210
157
74
211
163
79
212
165
83
211
164
85
211
161
83
214
158
86
211
157
88
203
155
89
191
152
90
180
149
85
173
144
81
175
146
85
174
150
87
178
156
85
181
161
82
190
164
76
198
164
69
204
161
65
206
158
59
207
155
53
204
150
52
201
147
54
197
143
54
199
142
57
211
145
70
223
148
87
230
156
103
233
162
112
226
162
116
215
154
105
200
142
84
195
133
65
198
129
51
205
130
45
213
133
45
222
137
48
216
120
35
218
119
40
215
125
49
214
132
60
214
142
67
215
153
73
216
158
74
214
159
72
215
157
70
215
157
69
215
158
71
210
159
71
202
160
76
193
161
83
177
162
89
167
162
97
165
164
99
165
165
97
167
167
97
165
165
95
163
162
90
166
158
87
170
157
85
176
159
83
176
163
86
178
167
92
177
170
96
179
172
99
187
172
99
194
173
97
199
175
99
203
175
102
205
173
94
204
172
89
201
171
84
192
171
84
177
171
87
163
170
87
153
168
93
151
167
95
148
164
91
148
160
86
151
157
82
155
156
81
157
161
84
157
164
87
155
163
89
152
161
92
155
162
94
159
163
93
169
160
92
178
161
91
187
160
91
197
160
89
207
160
83
219
162
79
226
166
70
236
172
67
240
181
74
243
186
77
243
186
78
244
186
80
244
185
83
244
185
84
238
185
86
238
186
90
239
188
93
238
189
95
233
190
105
229
194
137
215
198
171
193
182
155
179
166
140
176
161
133
174
158
129
173
158
129
172
157
128
168
154
126
170
157
129
166
153
125
159
145
115
156
140
111
149
131
101
147
128
96
146
127
95
145
128
96
143
126
97
144
127
100
143
126
98
136
119
93
138
121
97
145
129
104
140
124
99
141
126
102
137
122
99
136
121
98
136
121
98
131
116
93
128
113
90
131
113
90
130
112
88
127
110
83
138
121
94
143
126
99
147
130
105
153
138
113
146
133
110
149
135
112
136
119
97
132
109
87
135
112
88
162
144
118
176
157
131
177
157
130
183
161
134
174
146
117
198
172
144
210
188
164
223
207
185
239
229
210
245
236
220
248
238
223
249
239
223
247
238
222
236
219
189
231
192
135
225
175
99
220
169
96
209
166
100
204
165
109
201
166
117
200
169
119
200
170
117
198
169
109
195
167
104
193
165
101
190
165
97
193
165
98
198
167
101
197
167
101
194
163
99
191
161
98
187
158
93
187
158
90
190
157
88
195
156
86
200
154
86
202
152
85
205
152
85
208
152
87
204
152
86
200
153
86
199
154
88
199
156
87
197
157
84
202
157
81
206
157
77
207
154
73
206
148
65
214
141
59
218
133
57
218
131
58
216
138
63
216
148
69
218
160
78
219
170
84
224
173
87
228
172
89
233
167
88
237
164
92
229
161
91
218
156
92
206
154
94
195
151
91
189
148
89
189
150
93
188
153
94
190
157
88
193
161
81
199
163
67
207
163
59
213
161
55
215
158
50
216
154
47
214
147
44
210
142
45
207
137
45
207
134
47
214
136
58
221
141
76
228
150
97
231
158
108
225
160
115
212
154
106
195
144
83
190
134
65
196
129
51
205
129
46
213
133
48
218
135
49
214
93
27
212
90
28
211
98
36
214
112
44
215
128
52
219
140
56
221
146
57
221
149
57
218
149
54
216
148
53
217
149
54
214
155
59
205
159
69
193
161
76
176
164
84
164
164
95
160
164
97
160
166
95
161
166
93
162
164
91
165
162
88
169
160
86
178
161
84
185
162
79
186
165
81
187
168
86
187
170
87
190
172
87
194
171
89
195
172
88
192
172
90
190
174
96
192
174
95
190
173
89
189
173
85
183
173
86
172
173
89
163
171
88
154
170
94
154
170
98
154
169
92
155
165
88
160
165
87
163
165
87
164
166
89
165
168
90
159
167
92
156
166
99
161
168
99
161
167
96
166
164
93
173
163
92
183
163
94
193
162
91
205
161
85
218
159
79
228
163
71
240
171
69
242
176
73
244
180
75
246
183
74
247
181
73
248
181
76
249
181
78
242
181
83
236
179
87
234
183
94
234
188
104
231
193
126
227
198
156
209
196
171
189
179
149
179
164
136
173
156
126
168
151
119
168
152
118
167
151
117
168
153
120
167
152
119
161
146
113
158
142
110
156
138
107
150
130
99
146
127
95
139
120
89
140
123
91
136
119
89
142
125
98
136
119
94
143
125
102
151
134
111
140
124
99
139
123
99
142
127
104
134
119
95
143
128
105
132
118
92
128
114
89
128
112
88
128
110
88
133
116
92
128
111
85
141
123
98
149
132
106
152
136
110
150
135
110
141
127
103
141
125
100
127
109
85
138
119
94
146
122
98
147
119
97
168
142
116
169
147
122
184
162
138
179
148
121
187
159
135
203
178
156
222
203
182
238
225
207
245
233
216
247
236
219
249
238
220
248
240
224
246
238
224
237
219
195
228
197
148
219
182
114
209
169
104
203
164
101
205
167
104
209
171
105
212
171
104
214
172
102
212
170
101
206
164
98
203
163
95
204
164
96
205
166
99
203
165
101
198
164
100
196
162
100
194
160
96
192
159
93
199
157
88
204
155
87
208
156
89
206
155
91
202
151
91
200
148
90
196
148
89
192
149
87
185
152
90
180
153
86
181
153
83
186
156
82
193
155
79
197
152
73
200
148
65
211
143
61
217
136
57
216
133
57
211
137
62
210
148
71
216
164
81
220
172
85
229
175
87
238
176
87
242
169
87
243
163
89
238
160
90
228
153
91
215
150
92
205
146
90
200
147
93
200
151
97
200
155
89
202
159
82
205
162
73
208
162
58
215
160
49
219
156
45
219
150
42
218
143
41
218
135
40
216
132
42
215
132
43
212
133
40
213
133
49
217
137
65
223
144
88
225
149
102
216
151
106
204
149
99
189
143
80
187
134
64
197
129
52
205
126
47
210
129
49
213
132
51
206
76
23
203
74
21
205
79
25
210
94
34
215
114
41
220
126
46
218
133
47
217
134
44
213
133
44
212
134
44
212
137
46
211
146
48
204
155
60
192
158
68
174
162
81
161
164
88
156
164
93
155
163
94
155
164
87
163
165
89
166
163
86
170
162
84
184
162
85
187
162
80
188
163
79
193
167
79
194
167
76
195
166
77
196
167
80
193
167
80
184
167
84
176
169
91
175
170
90
172
171
87
175
171
85
171
171
86
166
172
87
161
169
86
156
170
92
158
173
93
161
173
93
163
170
92
167
169
93
170
167
93
169
167
92
171
170
93
168
171
94
163
171
95
166
173
98
166
171
97
166
168
95
172
166
95
184
165
93
191
164
92
201
160
85
214
157
77
226
160
73
239
166
73
240
169
77
240
173
78
242
177
74
242
174
72
243
172
68
245
171
71
238
171
77
229
173
87
222
177
95
220
182
107
222
190
126
225
201
163
209
197
173
189
174
150
177
163
131
171
155
121
166
148
113
165
147
111
165
147
111
166
149
114
163
147
112
160
143
109
155
139
106
151
135
102
147
130
98
144
125
95
142
123
93
141
123
93
145
129
101
139
124
98
146
129
103
149
132
106
136
119
93
143
126
100
143
126
101
132
115
90
143
127
102
138
122
96
130
115
89
130
114
90
130
113
91
127
108
89
138
120
99
131
114
89
142
124
99
147
130
105
153
137
112
150
134
109
128
112
87
122
104
81
124
106
83
145
129
103
148
129
104
146
121
98
145
114
91
160
130
107
182
161
135
189
167
143
199
178
154
208
184
162
223
204
182
236
225
203
245
232
212
247
234
217
248
236
218
248
238
219
247
239
222
245
237
220
233
219
189
216
184
121
210
174
103
211
171
99
217
172
99
223
173
99
225
173
100
225
174
97
223
172
94
217
165
90
212
159
82
210
159
84
210
160
89
209
161
92
204
161
93
204
160
94
208
160
95
210
160
97
215
160
94
218
159
96
218
159
97
214
159
98
208
155
98
202
152
94
194
151
91
185
150
89
179
151
91
172
151
84
169
151
78
176
156
81
184
157
80
189
155
75
201
151
65
210
148
63
215
145
61
214
142
60
207
142
67
204
150
72
211
163
80
218
171
86
230
175
88
239
173
85
244
168
83
244
162
87
238
158
90
227
151
91
216
147
92
207
144
91
205
145
94
206
150
93
209
155
90
211
162
79
216
163
66
215
161
50
219
157
44
217
150
42
216
142
40
217
132
39
216
125
37
216
121
37
214
125
41
213
130
43
208
132
48
211
134
58
215
139
81
215
145
95
209
147
97
201
146
95
191
141
80
191
132
67
200
127
56
202
120
49
204
122
54
207
127
60
195
72
24
192
74
25
194
81
30
201
92
37
206
107
45
211
119
48
207
125
48
204
123
43
202
121
44
202
123
47
205
130
50
201
138
48
195
146
56
186
153
63
171
158
77
160
162
86
150
160
92
150
160
92
151
161
86
161
163
85
165
162
82
167
160
81
181
161
83
185
162
80
187
161
75
194
162
74
197
160
69
198
159
68
199
160
72
194
160
73
183
161
79
172
164
87
161
166
87
154
167
83
158
168
83
159
168
82
158
169
85
157
167
84
155
168
90
161
169
92
165
172
94
169
171
94
171
168
94
171
166
92
171
167
93
172
168
91
170
171
93
168
173
96
168
173
97
168
171
95
169
169
95
172
166
93
182
163
90
189
162
88
196
157
83
207
155
79
218
158
81
234
165
83
234
169
87
233
171
87
238
173
83
241
171
78
239
166
70
239
163
71
232
163
71
220
167
84
216
178
104
217
186
128
218
194
146
230
213
188
207
195
172
187
173
146
176
162
130
169
153
119
165
147
113
163
145
109
164
146
110
164
145
109
159
140
104
158
139
102
154
138
105
153
137
104
154
137
105
150
131
101
147
128
98
147
128
98
142
123
96
138
121
96
148
131
105
134
117
91
146
129
104
151
133
110
132
114
91
145
128
105
139
123
99
142
126
102
130
114
90
139
123
101
127
110
91
131
113
92
133
115
92
139
121
98
141
123
100
152
134
111
158
142
117
146
130
105
123
106
81
114
96
72
129
112
88
147
129
104
155
135
110
154
132
108
147
117
96
160
128
108
178
154
131
197
177
152
212
192
167
217
196
172
224
206
183
238
223
202
242
230
207
245
232
212
246
234
215
246
236
217
245
237
220
245
237
220
233
219
193
217
190
132
214
180
108
219
177
102
224
174
96
229
173
93
233
170
89
234
167
83
231
164
80
224
156
75
219
151
73
216
150
73
216
152
77
216
153
82
214
156
85
213
157
88
218
161
92
223
163
96
227
164
97
227
165
101
226
164
101
222
161
100
213
159
101
204
159
99
194
157
95
185
155
93
180
155
93
172
156
90
166
157
86
171
158
83
181
158
82
192
154
76
205
151
67
212
152
66
216
150
64
213
148
64
203
148
70
194
150
73
197
158
81
207
165
84
220
168
84
229
167
82
235
161
81
238
157
82
231
154
83
222
148
85
211
145
87
204
144
88
204
144
91
209
149
91
213
155
87
214
161
75
220
161
61
219
158
45
218
153
40
216
147
41
215
138
39
217
129
39
213
119
38
213
114
38
211
120
42
207
126
46
202
128
50
202
129
56
205
132
73
208
138
85
204
139
91
198
141
91
190
137
78
191
129
68
200
124
57
203
119
52
200
119
55
200
124
65
180
78
32
176
81
32
177
88
37
185
102
45
190
112
53
193
120
57
189
125
57
183
125
53
183
122
52
184
125
53
187
129
57
185
134
55
178
142
59
171
149
65
160
155
78
151
160
89
145
157
91
145
157
92
146
158
86
157
160
80
163
158
78
164
156
78
173
157
80
178
158
79
182
156
71
188
154
66
193
151
61
197
149
60
196
149
63
191
149
67
180
153
73
166
157
80
153
158
83
149
161
82
151
164
81
153
163
78
154
163
81
152
162
80
157
165
88
171
171
96
173
172
97
173
169
94
171
167
92
169
164
90
169
164
88
169
165
87
168
168
90
168
172
94
167
170
94
165
168
92
167
168
92
169
165
90
176
160
85
181
160
83
187
157
81
196
155
80
206
157
87
219
163
88
225
167
93
225
168
93
231
169
87
233
168
82
230
165
75
232
164
77
226
166
87
220
170
95
223
178
104
221
186
123
226
207
168
233
222
203
203
191
169
183
169
140
174
160
129
168
152
120
168
149
116
164
145
111
163
144
110
161
141
106
158
138
101
153
133
98
151
134
101
157
139
106
150
132
100
149
129
98
152
132
102
146
124
96
135
114
89
144
126
101
147
130
106
142
126
100
157
141
116
149
132
110
148
131
110
153
138
116
139
125
102
147
132
110
129
112
90
134
117
99
118
100
84
138
120
99
129
111
90
144
126
106
144
126
105
155
137
116
165
149
126
146
130
107
127
110
86
111
93
69
135
116
92
134
112
89
149
128
105
154
134
111
155
134
112
165
141
119
181
160
136
195
178
152
215
198
173
217
200
175
232
216
192
231
216
194
238
225
200
242
229
208
244
232
212
245
235
216
245
237
219
245
236
222
236
224
204
220
196
148
214
180
113
216
171
95
220
165
84
226
163
80
233
161
74
235
156
66
230
150
61
223
141
57
216
137
57
212
136
59
212
141
65
213
148
73
213
154
79
214
157
83
220
162
89
225
167
95
234
167
99
234
170
104
230
170
104
223
169
103
214
168
103
206
166
103
197
164
101
187
162
98
182
162
98
174
162
96
171
164
94
177
161
88
186
156
83
197
152
76
210
152
69
215
155
67
215
153
66
206
151
65
194
148
71
181
145
73
179
151
77
187
157
82
198
159
83
207
157
79
214
150
77
220
150
80
215
149
79
205
146
78
197
143
79
195
142
81
198
142
86
203
145
85
207
151
78
213
157
68
220
156
57
222
153
47
218
149
44
214
143
44
212
135
41
214
126
40
212
121
41
211
119
43
208
122
47
202
122
47
195
123
50
190
121
51
193
124
63
200
132
75
202
137
87
197
137
87
192
136
77
198
135
67
207
131
58
211
129
52
205
128
55
198
129
62
163
92
43
159
92
42
159
99
45
167
114
54
172
122
60
175
129
64
170
131
65
161
131
62
162
131
61
164
132
63
167
136
65
166
139
65
161
143
66
153
147
69
148
151
77
145
156
86
140
155
90
141
156
91
141
156
89
149
155
78
160
153
75
161
152
76
163
151
77
165
150
78
168
148
70
173
145
63
182
143
58
191
140
59
190
141
63
184
140
66
171
144
72
155
151
78
147
153
79
145
156
80
145
159
81
146
158
80
150
158
80
158
160
82
174
168
92
188
175
102
187
174
101
180
170
96
166
165
89
158
158
83
158
158
81
158
160
82
160
163
85
163
168
89
163
167
92
161
165
90
160
163
89
163
161
87
168
160
85
173
158
82
178
155
81
183
150
79
188
152
84
199
154
86
209
158
91
210
161
93
212
159
86
216
160
82
219
161
79
223
162
78
223
169
88
222
177
105
225
183
118
228
196
149
234
221
198
233
223
207
198
187
165
183
169
141
175
161
131
172
156
124
168
149
117
165
146
113
166
148
115
164
144
111
160
140
106
157
138
103
155
135
102
152
132
99
150
130
97
152
132
99
151
130
100
146
125
97
144
123
98
152
134
110
152
134
112
145
127
102
157
140
114
151
136
111
155
139
117
159
143
122
146
131
109
146
131
109
135
117
96
121
103
84
122
103
87
133
114
97
130
111
94
146
128
109
144
126
106
157
140
119
162
148
126
145
129
112
130
112
90
114
96
72
138
116
93
133
109
88
139
116
96
152
131
110
153
131
110
173
151
128
188
167
142
202
185
159
210
193
167
212
194
169
227
211
186
232
218
192
230
214
192
237
224
202
241
228
209
242
232
214
243
235
218
246
239
219
240
234
211
225
204
159
216
177
107
214
165
88
214
155
78
219
152
69
226
150
63
226
143
54
221
135
50
215
129
48
207
126
50
202
128
54
201
135
61
203
145
68
209
152
74
215
159
81
220
164
89
222
169
95
227
170
97
229
173
103
226
172
104
221
170
102
212
169
100
202
166
98
194
164
97
188
164
98
184
165
97
179
165
95
177
165
93
183
161
89
191
154
82
202
148
74
213
147
69
215
150
66
210
151
68
196
148
68
181
145
70
164
141
70
157
144
73
163
148
79
173
149
80
183
147
77
191
145
74
196
144
74
191
144
74
183
146
76
179
144
76
179
142
76
181
141
81
186
144
81
196
147
73
210
149
67
220
149
59
223
146
49
219
145
47
212
143
50
207
137
48
211
130
46
215
128
45
213
128
48
212
128
52
203
125
52
189
120
53
185
116
53
187
119
57
193
127
65
197
133
75
193
133
76
196
136
71
205
141
66
214
141
58
219
142
52
214
140
54
205
137
58
149
111
57
144
111
55
143
115
57
147
124
62
152
132
66
155
139
73
152
140
75
144
138
71
142
138
70
145
140
73
148
144
77
145
144
79
140
145
78
136
146
76
136
148
79
139
150
85
136
151
86
136
151
86
136
152
86
142
150
77
150
146
68
154
147
70
152
147
72
151
148
77
152
143
71
162
139
65
173
137
62
181
137
63
185
138
66
181
138
66
169
139
70
157
145
77
151
148
77
147
149
76
145
152
79
150
154
82
163
155
82
179
161
88
195
172
100
204
179
107
200
176
104
189
171
97
165
162
85
147
152
78
144
154
81
146
157
83
151
159
85
157
163
89
159
162
90
157
160
88
155
159
87
155
159
85
157
157
82
159
158
81
158
152
77
159
148
74
164
147
83
174
148
86
183
149
90
185
150
91
186
151
89
190
151
85
196
154
83
205
161
84
217
169
93
222
178
111
230
195
145
234
214
187
234
227
208
225
215
195
194
182
158
182
168
142
176
161
132
172
156
125
168
150
118
167
151
119
167
151
119
164
147
114
161
143
110
158
140
107
155
138
104
154
137
103
150
132
99
149
129
96
149
128
98
145
124
94
150
129
101
152
135
108
148
128
103
145
125
99
148
129
101
152
134
108
152
134
110
160
142
119
152
135
111
150
134
109
145
127
103
126
108
87
121
102
84
131
112
95
129
110
93
152
134
115
148
130
110
159
141
121
163
149
127
142
125
108
130
113
90
119
100
76
135
113
90
140
115
95
139
116
95
151
130
109
150
129
105
167
145
119
186
166
139
203
186
160
208
191
165
214
195
170
218
199
175
227
210
185
230
214
191
233
220
198
239
227
208
242
232
214
243
235
218
246
237
222
242
231
211
230
200
150
218
175
98
211
160
82
205
148
77
203
143
69
208
139
60
211
134
54
210
132
52
207
129
50
199
128
52
191
131
57
188
137
62
197
145
66
205
152
68
209
158
75
214
165
85
216
169
91
216
169
93
214
169
95
210
166
94
205
165
93
195
163
91
189
161
87
187
161
88
186
163
91
187
161
90
183
162
89
181
163
90
186
158
88
193
150
80
201
143
72
206
139
68
202
140
65
194
144
67
181
146
72
164
145
73
146
142
71
144
145
78
147
148
85
153
145
83
164
145
82
174
145
82
174
144
77
167
149
75
161
152
78
162
150
79
163
147
79
163
145
83
166
146
81
183
145
77
201
142
69
217
140
62
224
140
55
222
141
56
218
143
57
212
141
54
213
135
52
219
134
51
218
136
52
215
135
52
206
131
55
190
123
56
179
116
56
180
119
58
182
125
60
186
129
67
180
133
67
193
139
64
207
146
62
221
152
55
227
153
50
221
147
51
212
140
52
141
127
67
135
127
66
132
128
65
137
132
68
142
138
75
142
145
78
141
145
81
139
143
77
138
141
73
138
142
75
141
147
82
136
147
86
131
146
85
127
145
81
130
145
79
134
146
80
133
147
80
130
147
81
131
148
83
134
146
78
140
143
68
142
145
66
140
145
69
138
146
75
139
138
67
154
132
65
164
133
65
177
134
63
183
135
65
176
136
65
169
136
65
166
140
70
164
144
73
160
145
74
158
148
78
164
151
84
178
156
86
193
164
93
205
174
104
211
179
110
207
178
105
195
171
97
167
157
83
144
149
79
137
151
83
138
153
88
142
155
92
146
157
91
152
155
88
154
152
86
152
152
84
150
154
83
145
154
82
142
153
84
140
149
75
141
147
73
148
147
81
158
144
84
165
141
85
166
142
85
164
141
84
165
146
85
171
151
87
190
161
88
207
171
102
222
179
113
227
191
139
233
218
194
231
224
207
219
206
182
191
178
152
181
168
143
178
163
135
170
154
124
168
152
120
167
152
121
164
149
118
160
144
112
158
142
110
156
140
108
155
138
107
151
134
103
148
131
99
148
130
97
143
121
90
148
127
96
149
128
100
149
129
103
150
128
103
147
126
99
148
127
100
155
135
108
150
130
104
153
134
108
151
132
106
150
131
105
150
131
103
138
118
93
140
121
98
138
120
100
136
118
100
152
135
117
156
138
120
156
139
121
165
149
128
143
128
106
128
108
84
125
105
79
132
110
87
137
115
95
144
123
102
148
128
105
155
133
109
173
151
127
181
160
130
202
182
154
200
182
155
207
186
161
204
183
160
219
201
178
224
209
186
231
219
197
237
226
206
240
232
212
243
235
218
247
238
223
240
227
202
226
191
135
218
168
88
205
157
77
195
147
75
187
138
68
193
136
65
199
138
63
201
138
60
204
137
57
198
138
62
188
142
64
186
146
67
196
148
65
205
150
64
206
153
67
208
157
73
211
161
79
207
165
84
202
164
86
197
160
86
189
159
83
181
158
81
177
154
78
178
155
80
180
155
82
184
157
85
184
159
84
182
158
84
185
155
83
190
149
78
192
141
72
190
138
69
186
137
68
177
141
71
163
146
75
150
148
78
138
146
79
137
148
85
140
150
88
144
147
87
151
145
87
158
145
84
155
147
81
151
151
79
149
155
81
151
156
85
152
154
86
153
150
86
154
146
83
168
143
77
189
140
72
207
136
64
219
136
58
225
141
59
223
145
59
221
144
57
222
142
56
227
146
58
228
153
61
223
151
58
212
141
54
194
129
55
177
120
56
169
123
59
169
128
63
171
133
69
170
136
68
185
142
65
204
150
60
222
158
56
229
159
52
225
149
46
219
139
49
134
137
76
128
133
70
126
134
66
130
138
70
134
142
76
135
144
79
135
144
82
137
143
77
139
143
70
139
139
71
143
144
78
140
147
83
134
146
83
129
142
78
128
141
74
131
143
74
131
143
75
127
142
76
127
145
80
129
146
80
132
145
74
136
145
71
136
144
72
133
141
72
135
132
66
148
126
64
157
128
66
170
130
64
178
129
62
175
133
64
171
134
64
172
137
68
171
141
74
167
142
75
168
145
81
175
147
85
187
151
87
200
161
93
210
171
102
214
177
107
204
173
100
188
161
88
164
150
78
144
146
78
136
148
82
136
150
88
138
152
92
142
154
89
148
150
85
154
146
80
153
148
77
146
150
78
141
154
81
138
154
84
135
152
79
143
149
75
152
148
77
160
145
80
163
139
79
159
137
77
152
137
77
152
143
83
162
153
88
182
162
82
204
172
95
220
175
108
229
195
151
234
221
199
228
218
200
206
191
166
184
170
145
180
168
142
176
160
133
169
154
124
169
154
122
166
151
120
164
149
118
162
147
117
162
147
117
157
142
112
156
141
113
156
141
113
150
135
106
148
132
100
146
127
97
148
127
97
146
125
96
143
121
96
146
125
99
146
125
98
144
123
97
150
129
102
154
133
106
147
127
100
148
128
101
148
128
101
152
133
104
150
130
104
151
131
107
152
134
111
142
124
104
154
136
118
159
142
124
160
143
125
168
151
131
153
137
114
133
111
88
128
106
81
137
115
91
143
122
101
147
126
104
154
134
109
159
138
112
177
156
128
175
154
124
188
168
139
196
177
150
201
181
156
204
184
161
216
199
176
225
211
189
229
217
197
234
224
204
238
230
210
242
233
217
245
238
225
244
237
221
233
207
174
220
168
87
204
155
71
187
147
75
179
139
69
186
141
71
194
146
71
198
147
66
201
146
62
197
147
67
190
150
69
193
151
70
202
148
63
210
143
57
210
144
57
210
147
62
210
151
67
204
155
74
200
157
78
193
157
81
183
157
82
179
154
78
182
150
79
184
147
78
187
146
77
189
148
77
187
151
76
184
152
72
185
152
70
186
148
71
184
144
74
178
143
74
169
143
71
156
144
76
147
148
81
141
151
86
137
151
88
137
151
91
143
151
93
148
151
93
149
147
91
149
148
87
147
152
86
144
155
85
143
157
86
145
158
90
145
157
91
144
152
86
145
148
83
157
145
81
176
142
75
192
139
68
211
142
63
225
148
61
228
151
60
231
152
61
233
152
60
233
157
64
236
165
68
229
163
63
217
151
57
198
139
57
178
131
61
164
131
64
162
135
70
161
138
73
163
136
71
177
139
66
198
148
61
214
153
54
221
149
50
224
142
45
222
132
47
128
136
78
124
132
69
124
133
65
126
135
67
129
138
71
130
141
79
131
142
82
132
141
74
139
141
65
142
138
65
146
138
70
147
139
75
144
140
77
136
140
75
129
139
71
128
141
70
128
139
72
127
139
74
128
142
79
130
143
81
131
142
79
131
142
76
133
141
74
131
136
70
132
125
65
141
120
62
148
120
63
157
125
62
161
130
59
163
131
59
166
133
61
169
136
67
171
142
77
169
145
80
168
145
83
175
144
84
185
147
84
197
156
88
200
163
92
198
166
94
192
159
87
178
148
76
161
145
73
145
144
77
137
147
82
137
151
89
139
153
93
140
152
87
147
147
83
156
143
76
160
145
73
156
148
77
149
155
82
144
156
85
142
155
85
155
151
79
170
148
76
177
147
80
180
144
81
171
138
77
155
136
77
154
144
82
166
155
89
189
167
91
207
174
101
220
184
126
225
209
181
230
221
204
221
209
186
194
179
152
180
166
140
179
168
141
177
161
134
171
156
126
170
155
123
166
152
121
165
150
119
166
152
123
163
149
121
163
150
122
162
149
122
162
148
122
158
144
117
152
138
109
145
128
100
148
128
99
143
122
93
146
125
99
147
126
99
145
125
97
137
115
88
138
115
89
146
123
97
148
127
100
146
126
99
147
127
100
148
129
100
152
132
107
153
134
109
156
139
114
153
136
113
157
140
121
159
142
124
163
146
128
166
149
129
161
145
122
141
121
96
143
122
96
144
122
99
152
132
108
149
129
104
156
136
109
159
137
111
169
149
116
175
154
124
179
158
128
185
166
139
184
166
141
197
180
156
216
201
178
224
209
190
230
218
200
234
224
206
238
229
210
241
232
216
246
236
221
245
238
222
235
215
186
218
174
109
207
156
76
194
150
76
187
146
70
191
149
71
199
155
70
206
159
69
211
161
67
206
161
68
201
157
66
202
150
64
206
142
55
214
134
48
216
132
47
215
136
52
213
143
58
209
149
68
203
153
74
194
155
78
183
151
80
184
146
76
188
143
72
194
143
68
202
144
66
203
147
65
199
151
64
193
153
59
191
152
59
187
151
67
179
149
70
165
148
75
151
149
83
144
150
86
140
152
90
137
153
95
135
155
97
139
155
97
146
152
96
152
154
99
154
154
99
153
153
96
150
155
94
148
158
93
146
158
92
145
157
94
144
155
95
143
151
88
144
149
83
148
148
86
163
146
81
179
144
74
202
149
67
221
153
62
229
153
58
237
157
61
240
157
62
234
160
64
232
164
64
227
164
62
219
156
64
198
146
66
175
141
67
157
139
69
151
138
74
149
138
74
152
134
71
174
140
70
199
149
67
213
153
59
213
146
52
213
134
50
214
121
59
126
131
71
127
129
63
129
129
58
130
130
62
127
132
67
127
136
72
127
140
78
130
140
75
134
142
64
141
137
59
146
137
64
153
135
67
149
135
72
142
136
71
130
137
70
127
139
72
128
138
70
129
138
75
130
139
80
129
139
81
130
140
79
128
139
75
130
136
72
131
130
69
129
121
65
132
117
60
139
117
60
144
125
65
146
130
65
151
131
63
155
135
60
160
140
69
167
143
82
166
147
87
163
146
87
163
143
83
173
145
79
181
150
77
183
153
78
183
152
78
180
149
76
170
143
71
156
142
72
147
143
76
139
145
82
139
153
93
141
155
94
141
153
91
145
145
78
160
142
71
168
144
69
169
150
77
161
155
83
151
157
85
153
158
88
164
156
81
180
152
79
189
149
80
190
145
78
186
139
74
170
138
76
162
145
78
174
156
84
195
164
92
212
175
110
223
201
168
233
225
206
226
216
198
209
195
170
186
169
143
181
167
140
178
169
141
176
162
135
172
158
129
168
155
123
165
152
120
168
154
125
170
156
129
169
155
128
168
155
128
169
155
129
164
150
124
158
145
118
150
136
109
149
132
106
146
126
100
146
126
99
152
131
104
146
127
98
141
122
93
139
119
91
131
110
83
136
115
88
139
118
89
145
124
94
146
125
95
144
123
95
151
131
105
150
132
107
162
145
120
159
143
123
161
148
131
159
145
126
162
146
126
163
147
129
162
147
130
150
131
108
156
139
113
152
135
110
150
132
106
147
127
100
154
132
102
155
130
99
162
137
106
167
142
111
168
146
115
176
155
130
184
165
143
201
184
163
216
202
183
223
210
191
225
212
193
234
222
202
239
229
209
242
235
216
245
238
219
245
238
225
233
212
185
221
173
109
214
161
86
213
156
83
213
155
76
213
156
70
218
162
67
224
169
64
227
171
68
224
172
69
216
167
67
211
154
61
206
138
50
207
126
44
207
121
43
208
124
45
207
135
51
210
146
60
208
149
67
196
151
76
186
147
77
187
143
72
194
142
66
206
145
62
212
152
62
217
155
58
216
158
58
213
159
56
211
159
60
203
158
65
192
156
69
169
155
79
149
155
84
145
155
92
142
156
94
138
156
96
134
156
99
137
153
98
146
151
96
153
153
98
158
157
100
160
158
105
160
159
103
160
162
103
152
161
100
148
159
97
143
155
92
142
152
89
142
151
88
147
152
90
151
153
88
169
151
80
186
151
71
207
152
61
222
153
56
232
153
58
232
155
59
229
159
64
226
160
64
221
160
62
213
157
64
193
150
69
174
146
73
155
141
77
148
140
77
146
136
77
154
138
75
181
142
73
205
151
72
219
156
69
217
148
63
208
132
65
211
121
70
136
130
64
146
129
59
152
128
54
155
129
55
148
131
59
139
136
67
130
138
75
128
140
76
129
142
73
133
136
59
145
134
59
154
133
64
148
132
66
141
132
68
129
133
67
127
137
70
129
136
70
134
140
80
135
141
85
129
139
81
128
138
77
125
136
72
126
135
70
127
131
67
127
124
65
128
120
64
132
121
65
135
130
69
137
136
71
137
138
69
139
142
69
145
147
80
153
148
88
151
150
92
147
151
92
147
150
85
157
147
79
165
151
77
167
154
75
165
152
70
162
152
71
158
147
74
148
147
77
142
148
80
138
150
87
141
155
98
143
156
98
142
153
94
147
148
79
169
142
69
174
143
71
178
151
81
174
155
87
165
158
89
160
159
93
165
157
88
182
154
81
196
151
81
196
147
77
192
143
76
181
143
76
174
148
81
181
156
88
200
165
99
215
179
126
228
213
189
230
222
205
220
208
188
200
184
157
180
163
134
178
164
136
180
170
144
179
165
140
175
161
134
173
159
130
170
156
127
173
159
132
172
158
131
169
155
128
169
155
128
167
153
126
162
148
121
157
144
117
155
141
114
153
136
110
150
132
105
148
130
103
153
135
107
144
124
99
142
122
97
141
121
95
139
118
91
133
112
85
134
113
85
135
114
86
145
124
96
144
123
94
150
130
104
157
139
115
154
137
114
156
141
119
166
153
134
158
144
125
161
144
124
165
152
133
166
154
135
154
137
113
162
146
120
154
137
111
153
133
108
150
128
101
148
124
94
153
127
98
155
130
100
157
133
103
170
150
119
177
159
132
188
170
148
200
184
163
212
198
178
225
212
193
226
213
194
231
218
199
236
226
206
240
232
213
244
237
219
247
239
225
237
222
198
222
178
120
223
168
98
228
162
90
231
161
76
230
163
65
234
167
60
237
171
55
237
171
56
236
172
61
226
168
62
218
157
59
208
143
53
196
129
48
190
123
51
190
128
54
194
136
58
200
141
64
198
145
66
187
147
73
181
144
74
186
144
73
196
145
64
214
153
59
227
162
60
233
166
61
233
166
59
231
163
54
230
160
55
223
159
59
210
159
68
190
156
80
166
157
83
152
157
91
145
158
95
137
157
97
134
156
98
137
153
98
145
152
96
152
154
95
161
157
98
168
162
107
171
164
110
168
164
109
158
162
103
151
162
101
143
157
93
140
154
89
143
154
90
146
155
92
149
154
92
157
153
85
166
150
74
190
149
64
208
150
62
215
148
61
214
150
58
212
152
60
209
153
63
205
153
64
202
150
67
190
148
74
172
147
77
155
144
81
148
143
82
149
140
79
160
142
78
189
146
76
213
153
76
227
158
78
222
150
76
213
137
81
215
127
85
147
135
61
161
133
58
172
132
54
175
129
50
169
134
57
157
140
64
144
141
70
136
141
73
133
141
72
131
139
65
136
136
64
142
134
65
143
128
66
138
130
67
128
131
66
127
136
71
132
136
74
138
142
85
138
144
88
131
142
82
127
138
77
121
133
68
123
134
69
124
134
69
126
129
69
124
125
68
125
126
70
127
134
74
134
144
80
135
146
80
134
146
80
140
151
90
145
153
95
143
155
99
140
156
100
139
153
96
144
153
90
149
156
89
151
159
86
150
159
80
151
158
80
151
157
81
146
157
82
141
155
87
141
156
94
145
160
103
146
158
102
145
155
97
152
150
81
175
144
70
181
147
76
185
151
83
182
155
88
178
156
92
168
158
97
158
158
91
167
156
80
186
156
79
195
155
80
197
155
83
186
152
81
172
149
74
180
156
87
201
169
116
218
197
163
230
222
207
227
218
200
215
201
180
197
180
153
178
161
130
176
163
136
182
173
149
180
166
143
177
164
138
173
160
132
171
158
130
175
161
135
169
156
129
169
156
128
166
152
124
163
149
120
161
147
119
159
145
117
159
144
118
157
141
115
153
137
109
152
137
109
154
138
110
146
128
103
147
127
103
139
119
93
134
113
86
137
116
89
137
116
91
137
116
91
136
115
91
140
119
93
145
125
100
159
141
118
160
143
121
156
141
118
161
147
128
164
149
130
163
147
127
173
161
141
167
155
135
158
142
118
161
145
119
154
137
112
151
131
106
146
123
97
144
119
92
153
128
101
148
123
96
155
133
104
171
153
124
178
161
135
196
179
156
198
183
161
214
199
179
220
208
187
227
215
195
231
219
199
236
226
207
238
231
213
242
236
219
247
239
224
240
228
209
219
189
152
223
170
105
234
164
88
235
164
79
236
166
66
242
168
58
245
167
50
246
168
51
243
170
53
234
169
58
225
162
59
207
152
56
186
140
59
176
134
62
173
136
64
178
141
67
185
143
70
182
147
69
174
147
70
170
145
71
174
145
69
188
148
65
213
158
63
230
167
60
239
169
62
240
165
59
238
158
52
235
155
52
228
155
56
218
155
65
202
153
76
179
156
82
159
158
90
151
161
97
140
157
97
136
155
97
139
153
97
144
154
94
151
156
93
162
157
96
172
162
105
176
164
112
172
164
112
161
161
103
154
162
99
146
160
94
143
157
91
146
158
93
152
155
94
154
155
94
153
155
87
157
151
76
171
149
72
182
145
69
190
145
67
188
145
61
185
146
60
183
145
65
185
147
70
190
147
75
185
148
81
173
148
82
155
145
83
150
145
86
154
145
83
166
143
81
192
145
77
216
153
79
231
157
84
223
152
82
214
138
84
216
128
87
160
142
64
170
141
63
179
139
58
184
136
55
178
139
60
169
145
67
154
146
70
143
144
71
138
140
69
135
141
69
133
142
69
136
139
70
135
132
68
128
130
68
127
132
69
130
137
73
135
139
78
140
147
87
140
149
89
131
147
85
125
144
78
119
137
68
122
140
71
124
141
76
125
135
75
123
132
72
125
133
74
128
139
78
136
149
86
138
152
89
138
152
90
141
154
93
148
157
101
146
159
104
143
160
105
141
160
101
145
159
99
145
161
99
144
163
96
143
166
93
149
166
94
151
168
96
148
165
93
142
160
95
144
161
102
148
163
106
149
163
106
146
158
99
157
152
79
174
147
74
182
150
80
188
152
85
185
153
87
181
157
92
172
159
98
158
160
93
155
157
81
169
157
76
185
159
81
195
162
89
191
162
92
181
160
90
181
160
91
194
169
115
218
203
175
227
217
200
221
210
190
213
200
178
196
182
156
177
162
131
176
163
139
183
175
153
179
167
144
177
167
141
174
163
136
174
162
136
174
162
135
170
159
132
167
155
126
163
148
117
162
147
118
162
147
118
161
145
117
161
145
119
159
143
116
159
143
115
155
138
110
154
137
110
151
135
109
147
128
103
139
119
93
136
116
89
133
113
86
139
119
94
139
119
94
142
122
97
140
118
95
145
125
101
150
132
109
156
140
117
160
143
124
159
142
124
158
141
123
162
145
127
174
159
140
174
159
138
160
146
123
162
146
124
152
134
109
149
129
104
141
120
94
150
126
101
149
126
99
145
122
95
161
140
113
175
158
133
181
164
138
198
182
159
200
185
163
206
191
169
221
209
185
227
215
193
231
218
199
239
229
210
241
233
216
241
234
217
244
239
224
241
230
212
210
184
139
215
165
95
228
165
86
228
163
79
233
161
64
241
157
52
246
151
43
248
152
39
247
157
44
240
167
53
227
165
60
207
155
61
180
148
66
162
144
72
162
144
76
164
145
77
167
147
73
162
146
71
157
146
70
153
146
72
159
148
70
178
153
66
205
158
63
224
162
55
235
159
52
236
151
49
231
142
45
229
143
50
224
146
56
220
149
65
207
154
77
188
154
85
170
158
96
163
160
99
161
159
100
160
156
96
162
156
96
160
157
95
157
158
93
160
159
93
173
160
100
180
162
109
176
165
112
166
161
102
160
161
94
156
160
88
154
159
90
154
159
93
156
156
97
154
158
94
151
157
88
152
154
81
157
153
82
159
149
79
165
149
75
161
148
69
159
148
64
165
147
70
173
148
77
177
147
82
178
147
84
172
147
86
160
147
85
159
148
89
163
147
87
168
143
82
183
141
75
200
140
75
214
142
79
215
143
85
212
134
85
213
127
88
174
147
69
175
145
68
176
142
66
180
141
65
178
145
68
171
151
73
156
152
73
143
148
68
140
142
67
136
146
73
135
147
78
131
143
76
128
139
75
125
135
74
127
136
73
135
142
75
139
144
79
142
150
87
144
153
91
137
154
86
130
151
74
129
147
69
129
147
76
133
150
86
132
145
82
131
142
80
132
141
79
136
147
84
141
153
92
144
158
96
143
157
95
144
158
96
149
158
99
146
160
102
146
163
106
149
166
108
150
166
111
148
167
111
145
168
108
144
170
104
151
173
105
158
176
105
156
172
99
150
166
99
149
164
102
153
164
102
155
167
102
150
164
96
154
158
85
167
157
85
177
156
91
184
155
90
184
155
88
179
158
90
170
159
95
155
160
90
150
158
83
156
158
75
169
160
80
188
165
91
189
164
96
183
165
98
183
167
106
202
185
143
224
211
186
220
210
188
214
200
180
201
189
164
188
174
145
173
159
127
177
164
140
184
176
154
177
168
147
179
171
146
176
167
142
177
165
140
176
164
140
169
157
131
167
155
126
165
150
120
161
146
114
158
143
112
161
146
115
161
146
117
160
145
116
158
142
112
157
141
110
156
140
109
152
137
107
151
133
104
149
130
102
147
129
101
142
124
96
142
122
96
137
117
92
142
122
97
144
122
99
142
122
99
148
131
107
153
136
115
157
140
121
158
141
123
156
139
121
158
141
123
170
155
132
173
158
137
168
153
134
167
150
131
153
134
113
147
127
104
147
125
102
152
128
105
146
125
101
149
128
103
167
147
122
182
166
140
184
167
141
197
182
157
200
186
161
205
191
166
212
200
176
224
212
190
228
216
197
229
219
201
232
224
207
238
230
214
243
238
223
236
226
207
203
182
140
199
162
101
203
160
90
207
158
79
216
151
67
230
146
59
238
139
49
242
138
40
242
143
43
235
156
52
223
162
65
207
159
71
189
156
78
173
154
83
172
155
85
169
152
82
159
150
77
148
148
76
143
149
79
143
152
83
147
150
78
169
154
74
191
157
70
210
151
60
220
142
51
218
131
46
208
127
42
202
133
50
204
141
61
209
149
71
203
153
84
192
154
94
182
157
102
180
157
102
189
159
105
194
157
103
192
158
103
184
158
101
172
159
96
166
157
90
176
155
93
181
155
99
175
156
101
168
155
93
166
154
86
164
156
85
162
159
91
159
160
98
157
157
100
153
156
94
148
155
90
149
155
88
149
154
86
150
154
91
144
153
87
143
150
79
144
151
77
148
150
78
158
152
83
171
149
86
174
146
88
171
148
90
168
148
88
175
151
87
175
150
87
167
145
82
169
140
72
177
133
73
187
129
76
196
133
85
200
133
89
199
129
89
184
150
73
177
149
73
172
147
74
167
143
75
166
149
79
160
153
80
148
158
76
143
153
71
140
146
69
138
152
79
138
154
89
134
151
87
130
148
84
136
146
82
138
147
81
139
148
78
143
148
81
150
150
84
151
154
90
152
160
83
152
161
73
151
159
71
146
157
78
145
159
90
144
156
92
141
152
88
139
150
86
144
155
93
146
159
97
145
160
98
143
159
96
142
157
95
145
159
98
147
162
103
149
165
108
151
168
113
153
171
116
154
172
119
151
172
115
148
172
109
160
177
108
169
180
104
169
175
99
162
170
94
161
166
93
164
165
94
165
168
95
160
168
92
156
166
96
161
167
102
171
165
102
176
162
99
175
161
95
174
161
96
166
161
96
153
159
90
145
156
85
152
160
80
162
162
80
179
165
91
185
170
104
177
171
104
182
174
119
208
195
160
220
208
183
215
203
183
210
196
175
196
182
156
180
165
135
170
155
122
179
170
146
182
174
154
177
170
150
181
175
152
180
172
148
177
166
143
173
163
137
172
161
135
170
159
131
161
147
118
159
144
114
162
147
117
160
145
114
156
141
109
156
141
109
157
142
109
155
139
107
154
139
106
150
134
103
152
134
102
146
127
94
143
125
94
148
129
98
147
128
98
141
121
95
138
118
93
144
125
101
140
121
97
146
129
106
156
142
120
150
136
115
156
140
121
154
138
119
158
142
121
173
158
133
172
158
137
178
164
145
163
147
126
145
127
105
155
134
110
150
129
105
151
129
105
145
123
99
156
136
112
169
152
126
182
166
140
182
166
140
193
178
153
199
185
161
206
191
167
210
195
174
218
204
183
220
206
185
225
214
194
231
221
205
239
230
217
242
237
223
228
219
197
188
178
127
181
162
98
179
160
88
187
159
85
199
153
79
211
144
71
222
136
56
230
136
48
236
144
53
235
155
63
230
163
73
223
166
81
218
169
88
215
172
91
212
175
90
202
169
87
177
161
79
148
149
80
141
150
85
143
153
87
149
154
86
166
156
85
178
155
79
194
145
69
200
135
60
193
129
52
185
130
50
177
139
57
183
149
72
193
156
85
193
157
96
191
156
106
188
159
110
191
158
107
200
158
107
203
156
104
201
156
105
190
158
105
178
159
98
171
155
91
178
154
93
181
152
95
173
152
94
166
151
87
166
153
84
167
156
88
165
158
95
161
158
100
157
156
100
150
153
94
144
152
90
145
154
90
146
151
86
145
152
89
142
152
88
141
150
86
142
151
85
143
151
85
148
153
86
163
150
88
170
148
92
168
149
92
178
151
88
188
153
89
184
155
89
173
147
86
162
138
74
159
134
72
164
130
74
175
131
82
180
133
87
184
135
89
197
151
66
179
150
72
165
151
80
159
151
86
153
152
89
149
155
92
140
157
86
146
156
77
154
154
72
154
157
80
149
162
94
145
161
95
153
157
88
162
155
81
160
157
80
153
154
75
153
151
73
163
151
77
168
155
87
174
163
85
177
169
81
175
168
82
167
163
84
161
163
92
155
162
94
153
162
95
150
160
96
149
160
98
148
161
99
146
162
99
145
161
98
142
158
95
143
159
98
147
162
103
149
164
107
149
166
109
155
172
117
158
175
123
156
175
119
156
175
113
169
178
104
177
179
101
180
176
100
174
171
91
171
168
88
168
168
90
166
168
92
168
170
96
161
170
105
160
170
112
167
169
112
169
169
111
167
167
106
165
166
104
161
165
102
151
162
96
146
161
94
149
161
90
155
164
90
164
166
96
169
170
107
167
174
109
174
175
125
202
193
160
210
198
175
212
199
180
201
189
165
189
175
149
176
160
129
169
153
123
176
168
144
179
172
150
180
173
153
182
176
153
178
170
147
173
162
139
174
164
137
168
158
131
163
152
125
161
147
118
160
145
117
157
142
113
154
139
110
151
136
106
150
135
104
152
137
107
151
136
105
151
136
105
149
133
103
141
123
92
132
112
81
125
106
75
125
106
75
137
118
87
139
119
93
134
114
89
142
124
100
142
124
100
145
128
104
151
135
113
150
134
112
146
130
109
152
136
114
167
151
126
166
151
123
167
154
130
169
156
135
154
137
116
153
135
111
153
134
110
146
127
103
151
132
108
150
129
105
161
143
117
173
157
131
178
162
136
186
170
144
194
179
155
198
183
160
205
190
167
207
192
169
208
194
171
213
199
176
221
209
186
230
220
202
239
231
217
241
239
228
235
231
215
194
186
143
176
172
115
163
168
100
164
163
93
175
159
90
187
151
84
207
142
66
230
142
61
238
146
64
240
154
70
239
159
74
241
166
79
242
176
84
245
186
87
245
191
85
235
185
83
210
174
81
172
161
80
145
152
83
142
154
89
151
158
92
163
158
95
171
157
92
178
152
86
177
140
75
170
139
69
166
143
68
160
150
72
167
157
81
181
162
94
185
163
103
183
159
108
184
159
110
189
158
106
196
156
102
201
154
94
199
154
96
187
156
101
175
160
100
169
158
96
174
154
94
176
152
95
169
152
94
162
149
88
161
152
87
162
155
90
161
156
92
156
154
93
153
153
94
146
149
90
141
147
85
143
148
84
143
146
83
143
147
85
145
151
89
146
152
90
145
153
86
149
152
87
156
154
90
162
153
91
166
152
91
171
149
84
186
150
80
195
156
87
187
154
88
170
148
87
154
142
77
148
139
75
151
138
78
160
139
85
165
141
89
170
143
92
192
151
62
172
151
65
158
154
73
154
155
83
147
154
88
144
154
92
142
156
92
156
157
74
176
156
71
180
158
81
169
163
91
167
165
91
180
165
81
185
161
71
180
161
73
169
158
69
165
155
62
176
150
67
181
152
80
185
162
81
186
170
82
186
171
88
177
168
89
168
165
91
164
164
91
162
167
98
158
167
102
154
164
103
153
165
104
148
164
101
146
162
99
144
160
98
145
161
99
145
160
101
149
164
104
148
163
102
156
169
115
161
177
125
163
178
124
163
177
117
170
178
107
185
175
94
197
173
93
194
169
90
188
166
86
186
167
89
179
167
92
172
170
98
163
172
103
157
169
110
161
168
111
163
169
110
162
169
107
158
169
107
156
170
108
152
168
105
154
169
109
151
166
104
152
167
103
158
166
105
162
170
111
167
177
120
189
189
146
214
200
173
212
199
179
207
194
174
193
181
155
182
168
142
173
157
127
170
155
126
178
170
147
176
169
144
180
174
154
181
175
152
178
171
147
175
165
142
169
160
133
164
154
127
163
152
125
159
146
117
159
144
115
156
141
112
152
138
109
152
136
109
155
140
112
153
137
109
150
134
107
148
133
105
144
128
101
140
122
93
135
116
86
131
111
84
127
107
79
124
105
76
129
109
83
137
117
93
142
124
100
142
124
100
144
126
102
148
131
107
139
121
97
148
131
108
143
127
103
159
143
117
163
149
119
163
149
123
173
160
137
158
141
120
153
135
111
152
135
111
160
143
120
159
143
120
155
137
111
159
143
117
179
164
137
182
165
140
173
157
131
190
175
151
197
182
159
199
184
161
202
188
162
202
187
162
208
195
169
217
206
181
227
218
197
238
233
218
242
238
225
234
221
201
211
188
139
194
173
114
178
167
102
160
163
95
155
160
92
172
153
87
202
148
72
231
148
66
239
148
65
240
149
63
241
148
58
249
158
58
253
172
60
253
184
67
254
193
72
249
191
74
231
183
76
199
170
77
165
161
85
150
157
85
156
157
90
170
155
96
179
155
98
176
156
96
164
151
88
160
153
85
156
156
85
154
161
90
159
164
93
169
164
99
170
162
104
167
158
104
169
158
105
176
158
102
179
156
97
178
152
86
174
150
86
167
155
93
160
162
98
160
165
103
165
162
99
165
157
98
159
156
98
154
155
94
149
153
88
150
152
87
152
152
88
153
153
88
150
154
91
149
152
89
145
147
85
143
144
82
144
142
81
145
144
84
147
147
87
150
150
90
155
150
85
162
149
87
170
151
91
170
154
93
171
155
90
173
148
79
182
148
76
189
154
86
181
152
96
166
148
96
154
145
88
147
144
83
146
143
85
152
143
88
156
145
91
161
147
94
178
153
70
159
151
64
146
154
64
145
154
77
145
154
85
143
154
91
140
154
89
164
153
71
182
151
69
186
153
77
180
159
89
185
162
86
194
163
74
195
162
68
188
159
64
179
155
58
174
152
52
186
147
54
184
147
63
187
153
72
186
163
80
182
167
85
172
163
85
164
162
90
162
162
92
164
165
99
164
168
106
159
167
107
156
167
105
152
166
103
147
163
101
146
162
103
145
163
101
148
163
101
150
162
100
150
161
96
157
170
113
163
178
126
166
181
132
162
178
123
174
176
105
196
168
91
202
165
85
203
161
81
202
159
84
198
161
88
191
164
86
177
166
91
168
168
99
158
166
103
152
164
106
152
163
102
156
167
105
155
169
109
155
170
109
154
169
107
159
172
110
157
169
109
154
167
107
152
165
104
159
168
112
167
175
119
185
184
140
206
191
163
205
189
165
198
183
159
187
171
147
180
164
139
173
157
131
169
156
130
177
166
141
177
168
145
180
172
149
179
171
148
176
169
145
174
167
140
166
159
131
160
150
123
161
150
121
156
145
114
155
142
113
153
140
111
155
142
114
154
143
116
151
140
111
149
134
105
146
130
102
147
131
102
145
129
99
144
127
98
141
124
95
135
117
89
131
110
83
131
109
84
130
107
83
123
98
75
127
105
82
138
118
94
132
113
90
143
123
102
140
123
100
137
121
96
142
122
98
160
146
122
155
143
116
152
133
108
157
142
117
154
140
118
149
132
108
150
132
107
148
129
104
154
135
110
151
130
105
154
135
109
164
146
119
173
155
129
171
156
130
181
167
141
188
174
148
194
180
154
200
186
160
204
190
164
206
192
166
213
200
175
224
212
190
236
228
210
240
239
230
238
221
202
228
183
132
217
173
109
199
164
99
175
158
89
161
154
85
175
149
83
202
145
71
224
144
66
231
145
63
227
139
61
224
127
45
236
130
36
252
150
37
254
162
45
253
171
47
251
176
57
238
176
64
212
170
74
180
167
82
155
159
85
165
152
87
185
149
87
193
151
90
191
156
93
173
158
91
158
161
93
152
163
95
154
165
98
156
166
102
159
167
104
157
161
102
154
157
100
156
156
100
159
158
100
159
157
96
155
152
88
154
151
87
156
156
91
158
164
101
163
170
112
165
170
110
165
167
109
164
164
108
158
163
107
151
160
99
155
159
92
161
157
85
160
155
88
161
158
91
159
157
92
154
152
91
149
147
90
147
144
83
149
144
86
151
146
87
152
148
86
161
146
83
170
144
80
174
148
89
177
154
97
174
155
92
169
147
75
171
144
71
175
146
84
169
152
100
163
148
99
157
148
93
149
146
87
145
147
87
147
148
88
151
148
91
161
151
98
162
155
85
148
156
77
133
153
70
130
149
73
138
152
82
140
154
89
141
153
93
156
149
82
173
144
66
179
145
69
176
152
80
186
160
79
194
160
70
192
156
60
178
152
58
176
151
56
178
147
46
184
141
42
187
141
52
181
144
61
171
153
72
160
157
80
154
153
81
153
153
84
158
156
89
163
163
100
163
166
106
160
169
110
159
170
110
155
169
110
150
163
105
152
162
105
151
161
102
154
162
103
156
161
103
156
163
101
163
172
114
166
175
123
165
182
129
166
179
122
177
169
96
197
157
80
208
154
74
210
151
69
210
153
75
203
153
77
194
158
84
185
163
88
176
167
95
162
165
98
149
162
99
146
162
99
151
167
104
148
165
103
147
165
101
147
165
99
153
168
103
151
166
103
150
164
104
152
164
105
162
168
107
171
170
109
194
187
144
201
188
158
196
179
151
188
172
143
182
166
138
175
160
132
168
153
125
167
154
127
176
165
140
177
169
146
178
170
147
179
171
148
175
167
143
172
165
138
167
160
131
160
150
123
160
149
120
153
142
111
156
145
118
155
144
117
161
150
123
158
146
120
154
143
114
154
140
111
150
135
106
150
135
106
153
138
111
155
141
113
148
133
106
142
125
97
136
117
90
132
112
87
129
108
84
126
102
79
125
103
80
138
118
94
135
117
93
136
116
95
137
119
97
134
118
93
140
121
97
161
147
124
153
136
112
146
127
104
141
120
98
141
122
99
145
124
100
139
114
90
130
105
80
141
116
91
135
109
83
149
125
98
157
135
107
171
154
127
179
163
138
185
171
145
188
174
148
192
178
152
197
183
157
201
187
161
212
198
173
218
205
183
222
211
191
232
223
206
240
236
224
244
231
215
234
186
141
231
169
104
211
156
91
188
145
78
172
143
74
179
144
77
195
140
70
207
139
69
201
138
70
195
132
68
199
128
60
223
129
55
241
133
46
243
137
43
238
140
43
238
151
49
239
167
65
221
171
75
194
172
93
170
162
97
175
150
90
194
143
83
207
145
85
210
152
87
197
157
87
178
160
87
159
164
89
156
167
97
161
171
107
164
172
111
159
166
108
153
159
103
148
157
98
152
160
102
154
158
101
156
153
96
158
152
96
161
158
102
161
166
109
165
172
116
167
174
115
170
173
116
168
169
114
164
168
115
168
166
106
189
166
97
200
167
91
197
165
88
194
168
97
189
169
98
177
163
94
160
152
89
154
148
88
157
148
90
159
148
88
156
146
84
162
142
75
170
139
76
176
145
89
177
152
98
169
154
91
161
145
70
156
141
65
158
144
81
161
150
96
161
148
98
159
148
94
154
147
89
154
149
91
154
149
91
154
147
92
160
151
97
156
157
88
146
157
88
131
152
80
129
149
69
139
151
71
148
154
82
149
155
91
147
151
85
153
143
71
159
145
74
164
151
82
180
158
81
185
156
72
176
155
66
160
152
71
161
150
68
175
143
63
178
138
49
179
137
46
171
144
56
155
152
72
137
152
80
136
150
82
137
147
81
148
155
91
155
163
101
154
163
104
157
166
109
158
168
111
155
168
113
152
162
107
152
157
101
154
157
99
156
157
99
161
162
105
163
164
106
165
170
111
168
175
119
158
176
120
161
173
111
173
163
86
192
143
64
199
139
60
196
140
60
196
147
69
193
147
70
186
156
81
183
164
88
175
170
101
164
171
106
149
166
104
146
167
103
149
170
105
146
168
103
139
159
94
137
158
89
141
158
90
143
160
94
145
162
99
155
165
102
171
163
96
185
170
108
199
185
151
195
182
154
188
171
138
177
159
127
172
155
122
168
152
121
164
149
118
165
153
126
178
167
143
177
168
144
172
164
139
178
169
147
174
165
142
174
166
140
168
160
132
159
149
121
157
146
117
152
141
111
158
148
121
158
148
122
159
148
122
158
145
119
152
140
111
148
135
107
150
137
109
152
139
111
155
142
116
151
139
112
150
137
110
147
132
103
144
127
99
141
124
97
134
116
90
126
105
81
131
110
87
128
108
84
141
121
98
139
118
97
140
123
100
133
116
91
135
115
92
151
137
114
153
140
116
159
146
122
147
128
105
132
110
86
123
100
76
125
103
77
139
118
90
145
124
95
140
120
90
149
130
100
156
137
107
166
149
121
175
159
133
183
168
142
187
173
147
186
172
146
191
177
150
199
185
159
214
200
175
222
209
187
222
210
191
230
221
203
240
233
219
236
224
208
224
180
137
224
160
92
208
143
77
190
132
67
178
137
68
180
143
76
185
140
71
183
136
69
176
140
81
168
138
80
175
135
74
209
139
75
220
133
64
219
135
62
210
130
61
216
137
58
228
159
68
218
171
83
203
177
108
184
168
111
176
157
98
192
143
83
207
144
80
215
149
80
216
148
72
204
150
71
186
158
78
172
166
89
168
174
103
171
179
116
167
177
119
158
166
111
150
160
102
153
161
104
155
160
106
156
155
103
163
156
107
165
160
112
162
166
115
164
172
117
165
174
117
171
175
119
172
173
118
168
172
118
184
172
113
208
174
106
223
174
99
224
171
95
217
175
99
213
177
101
199
172
95
182
161
86
171
156
89
164
154
91
161
152
87
157
147
79
159
143
71
168
142
78
172
147
94
167
151
97
155
153
88
142
146
74
142
143
72
149
145
82
155
146
91
157
147
93
157
147
89
153
144
85
155
145
88
155
145
89
155
146
90
154
146
90
157
152
82
151
155
85
139
154
82
130
148
70
145
147
67
161
150
77
163
155
85
154
151
86
145
147
77
142
149
80
152
152
87
167
156
87
170
156
77
153
152
68
147
153
73
154
156
78
171
151
78
176
148
70
171
147
62
160
149
63
148
156
81
137
153
89
137
151
89
136
148
87
142
154
95
147
159
101
150
161
102
152
163
104
154
165
108
152
163
108
152
161
106
151
155
99
151
151
92
153
153
90
157
162
103
164
168
109
163
170
110
163
173
112
152
171
111
150
168
95
162
158
77
181
140
60
184
139
60
178
146
65
172
150
70
173
149
73
168
155
82
167
165
95
163
172
107
159
174
112
152
171
112
151
171
112
151
171
110
148
169
106
136
158
92
132
152
82
135
152
80
137
153
77
141
155
86
152
157
91
172
157
89
187
165
105
200
185
153
191
176
145
183
166
132
172
155
121
169
151
118
163
147
114
163
148
118
165
154
127
176
165
143
171
161
135
173
162
137
180
169
150
174
163
139
171
160
135
164
153
126
160
149
121
152
141
113
153
142
114
152
142
116
157
146
121
156
145
119
151
137
110
146
132
105
145
131
105
144
130
104
157
143
117
154
141
115
155
142
116
151
137
110
144
127
99
141
124
96
136
119
90
131
112
85
127
106
82
126
106
83
128
107
83
137
114
91
137
116
92
133
115
91
138
120
97
132
110
89
145
129
105
153
139
115
162
147
123
145
128
104
131
110
85
121
100
76
135
114
89
140
121
93
140
121
90
141
123
93
154
136
106
157
138
108
156
136
106
163
146
117
172
156
128
178
163
135
182
167
138
186
171
141
195
180
152
207
192
166
211
198
172
217
206
182
228
218
197
239
232
219
236
224
203
209
165
115
205
144
77
199
126
63
190
125
61
191
142
72
194
152
79
192
152
78
182
143
79
170
138
83
165
143
91
164
143
84
186
145
82
199
141
72
195
141
70
181
138
71
191
145
70
206
161
79
208
177
100
204
182
120
191
171
120
184
162
109
184
151
91
196
155
92
212
155
89
225
149
71
219
142
53
207
148
63
195
161
77
189
173
96
185
181
116
174
180
124
163
172
120
150
163
108
148
159
101
150
159
101
152
155
104
162
159
113
163
161
116
161
164
114
156
165
111
158
167
110
168
170
110
172
168
113
170
167
113
184
170
113
213
175
111
230
173
102
231
170
96
228
175
94
226
176
94
214
175
90
204
170
88
197
170
94
188
166
93
185
161
85
178
154
74
171
151
79
170
149
91
170
153
102
164
153
99
147
150
86
137
145
74
143
145
79
151
148
88
156
147
89
153
147
85
146
143
79
145
140
77
147
138
79
148
141
84
150
145
85
149
144
82
158
151
77
154
156
81
144
157
81
134
150
74
146
145
67
164
148
69
166
154
80
155
151
84
141
150
83
133
150
83
138
151
87
151
157
94
154
156
83
141
150
68
135
152
69
148
160
88
160
161
96
167
160
91
160
158
81
150
157
77
139
158
87
137
157
95
138
155
94
139
153
94
142
156
97
143
158
99
147
161
101
152
163
104
155
166
109
150
164
106
151
163
104
148
156
96
145
149
84
146
149
80
152
161
96
162
172
111
163
175
113
159
173
113
149
168
105
143
164
92
149
157
76
160
149
64
165
151
66
158
159
71
157
162
78
162
157
80
163
159
87
156
164
96
152
169
107
155
174
115
155
175
119
156
175
119
155
175
116
151
171
109
141
159
95
135
151
82
134
148
77
138
149
72
141
147
75
144
145
80
160
148
86
170
154
100
193
181
152
189
173
142
178
159
126
169
149
116
168
148
115
161
145
113
161
146
116
163
152
125
176
165
143
172
162
136
177
166
145
179
168
148
171
160
133
165
152
125
166
153
128
162
150
124
155
144
116
149
138
110
152
139
113
155
142
116
151
138
111
149
135
108
146
132
105
148
134
108
154
140
114
154
140
114
150
135
107
153
138
110
152
136
108
147
130
102
135
118
90
126
108
78
120
100
73
123
99
76
130
108
85
132
107
85
126
100
78
140
116
94
134
113
90
134
115
91
136
114
90
143
128
102
144
128
102
151
134
109
133
116
90
124
106
80
121
102
77
137
118
89
136
117
86
136
117
84
143
123
92
144
124
93
146
125
94
139
113
83
153
130
101
167
149
119
178
161
130
181
164
134
184
167
138
187
170
139
195
178
148
202
186
159
212
199
173
226
213
190
239
231
217
236
228
209
211
175
130
208
150
91
208
138
70
213
147
72
223
163
81
226
173
90
219
170
87
209
161
87
189
146
86
179
143
91
168
147
88
165
148
80
170
148
78
165
146
77
163
145
75
171
151
79
188
165
87
207
178
104
212
176
114
205
160
110
196
149
97
192
151
91
196
162
103
211
160
94
226
150
70
231
143
49
225
145
51
217
153
59
210
165
78
203
174
100
181
174
116
156
167
119
139
154
103
138
151
97
139
150
96
139
147
97
150
152
107
156
155
110
153
157
107
142
152
98
147
155
93
157
158
93
163
157
98
161
160
103
166
161
103
191
164
104
204
159
101
211
154
90
221
158
89
222
163
88
214
168
85
211
170
89
209
174
98
204
172
96
208
168
82
199
162
76
185
157
83
173
156
101
171
159
107
163
157
104
148
150
89
140
148
81
150
152
90
158
154
99
157
153
94
150
149
86
141
142
76
136
136
71
140
137
76
145
142
82
146
144
81
147
145
80
154
158
74
152
161
76
145
158
79
135
153
79
135
147
73
148
147
66
151
149
69
141
148
75
140
151
85
131
149
82
132
150
85
144
155
93
150
156
87
141
151
76
137
152
75
143
157
91
151
164
102
156
165
100
153
163
93
142
159
85
133
156
88
138
160
97
142
158
96
142
159
97
140
158
99
140
158
99
147
158
95
155
164
105
158
169
114
153
168
110
149
163
104
145
158
96
142
152
84
146
154
81
151
163
95
159
170
106
162
176
115
156
173
113
150
170
105
140
163
91
138
158
78
144
158
73
151
161
73
150
163
74
153
165
82
158
163
84
161
163
85
155
163
93
150
165
101
153
168
110
158
175
121
159
178
122
158
179
121
152
173
111
143
163
99
140
158
93
143
156
93
146
152
85
148
149
82
142
139
80
154
151
95
166
163
115
193
182
151
188
173
142
175
156
124
165
145
110
160
139
106
156
139
107
157
142
112
165
152
125
173
163
139
170
162
138
175
166
146
173
163
139
169
157
129
165
152
126
167
154
128
167
154
127
162
150
123
155
143
115
151
138
112
154
141
115
158
146
120
158
147
121
152
141
115
153
143
115
151
140
112
149
135
108
144
128
101
146
130
103
145
128
101
148
131
104
135
118
92
109
90
64
110
90
64
122
101
77
124
103
79
136
114
91
127
104
81
125
101
79
135
114
91
134
115
90
137
120
92
153
139
115
155
142
116
140
124
99
135
118
93
123
106
81
117
100
72
120
103
71
129
112
79
132
115
81
135
116
83
146
125
93
149
126
95
144
118
90
158
135
106
168
149
118
177
158
126
178
159
127
181
162
129
185
168
135
193
177
145
203
187
159
208
192
167
221
207
182
235
227
210
244
235
217
221
191
151
218
161
103
223
151
79
232
160
81
240
178
93
248
187
104
242
185
98
229
175
92
213
165
98
195
160
107
182
162
109
167
155
91
159
154
84
157
151
83
166
147
80
173
149
81
197
166
86
219
177
92
227
169
93
222
144
87
208
133
78
213
151
85
217
168
102
224
166
96
233
159
76
237
151
55
233
149
50
229
149
47
222
159
60
210
166
77
185
167
97
152
158
102
134
150
95
133
147
92
137
149
93
136
147
91
139
146
96
147
150
99
144
150
98
138
147
91
137
146
85
148
150
84
155
152
91
151
156
97
150
156
96
165
160
101
175
157
103
192
156
98
208
151
98
208
155
94
200
157
85
201
167
90
201
170
98
199
165
90
209
160
72
202
160
77
185
157
86
167
155
97
165
160
107
159
157
104
148
153
96
146
153
93
155
158
100
162
161
108
160
159
103
149
155
93
143
147
81
137
139
74
142
143
81
149
148
87
149
147
85
148
146
82
149
161
74
150
164
79
145
161
84
134
155
82
129
149
77
132
149
73
131
145
67
129
148
72
136
153
85
133
153
84
129
150
84
144
159
100
151
162
98
147
156
89
142
154
83
146
158
96
150
162
101
152
163
101
148
161
94
141
158
87
137
159
90
139
161
94
146
161
99
146
164
101
141
160
99
141
158
95
150
157
89
157
163
103
160
170
114
152
169
108
148
161
95
145
156
84
144
157
78
147
160
84
150
165
91
156
167
96
157
170
108
155
173
112
151
172
106
145
169
97
134
160
82
135
159
78
143
164
82
148
167
85
152
168
84
151
166
78
152
162
79
150
161
94
153
166
105
157
172
113
162
179
121
165
183
124
162
181
124
156
177
118
149
170
110
152
171
111
157
170
111
158
165
103
157
158
95
142
137
80
154
154
103
177
176
136
191
181
152
181
166
136
169
149
117
160
138
101
157
135
102
158
142
109
155
140
110
160
147
120
169
158
133
167
159
136
175
166
143
171
160
133
169
155
126
163
149
120
159
145
116
165
154
127
165
155
129
164
154
128
161
150
123
156
145
117
159
148
121
160
148
123
157
145
120
150
139
111
149
137
109
142
127
100
147
130
104
143
126
100
142
125
99
145
128
102
133
117
91
127
108
83
125
105
80
122
102
78
120
98
75
132
110
87
119
96
74
121
97
75
129
108
85
133
115
90
140
126
96
163
150
126
151
136
111
134
112
89
124
100
78
114
96
72
110
93
63
115
99
67
122
105
74
129
112
81
137
119
88
140
120
89
144
122
92
140
114
87
150
125
98
157
137
105
163
142
110
173
153
120
177
158
124
185
169
136
193
178
147
200
183
156
209
191
167
219
203
179
230
222
203
247
237
220
237
217
189
232
198
159
231
180
128
237
174
109
245
190
130
247
193
127
244
196
128
235
196
139
224
198
153
224
206
179
225
214
189
204
192
157
200
188
142
179
168
111
173
153
89
186
154
87
212
168
86
235
176
78
242
166
66
231
140
60
221
133
66
233
152
77
243
169
91
246
167
89
245
162
73
245
163
65
240
158
57
233
149
46
227
153
46
219
160
65
200
165
83
179
162
86
162
155
82
150
151
87
145
154
95
139
154
92
136
149
83
144
154
84
143
153
91
139
152
91
139
154
86
144
155
86
151
156
94
148
157
93
145
158
92
154
161
100
165
163
108
183
162
107
195
159
108
194
160
101
182
158
89
181
161
92
177
158
95
173
145
81
184
143
67
187
152
80
170
153
90
151
147
86
150
150
94
150
155
100
147
155
99
149
157
100
156
162
107
161
164
112
162
164
110
152
161
100
146
151
87
142
144
79
148
149
87
150
152
90
149
148
85
153
148
84
137
156
72
141
163
79
139
160
85
132
155
84
125
152
79
129
150
77
136
146
68
139
147
68
133
154
84
133
155
85
128
149
81
141
162
96
151
166
99
151
160
93
149
158
91
157
166
107
160
168
111
153
165
105
147
161
97
143
157
90
141
161
90
145
166
96
154
169
105
150
167
108
144
164
101
146
160
92
157
161
85
161
166
97
160
169
103
158
161
89
167
147
73
169
144
62
162
153
67
153
164
85
147
167
90
154
165
95
154
165
95
153
171
107
156
176
111
155
178
106
145
166
91
139
162
87
140
164
89
144
168
92
144
167
88
142
165
86
146
163
87
151
166
102
157
170
112
159
174
115
162
180
117
169
184
122
167
185
128
159
179
123
156
176
120
158
176
121
159
174
119
163
172
114
161
167
107
149
150
93
147
145
101
184
180
148
189
178
152
177
162
131
164
142
108
156
132
93
153
130
96
157
140
108
158
143
113
161
148
121
167
157
132
166
157
134
175
163
139
174
160
132
167
152
120
163
147
114
160
144
111
160
144
114
161
145
116
156
141
111
153
142
112
154
143
113
156
144
115
155
141
115
144
130
103
147
134
106
151
136
109
134
118
92
137
120
94
137
120
94
140
123
97
140
123
97
134
117
91
124
106
80
111
92
67
117
97
72
114
89
67
113
89
67
116
92
69
119
95
73
126
105
82
132
113
89
140
125
96
159
145
121
134
114
90
128
109
85
127
109
86
121
104
80
108
91
61
110
94
64
116
99
71
126
109
80
133
117
88
141
122
94
146
125
97
147
121
94
146
116
90
151
127
95
159
136
103
168
145
111
176
156
124
187
170
140
192
176
147
203
186
159
209
191
167
220
204
179
230
221
202
247
237
221
252
237
218
249
236
215
244
225
195
243
221
190
245
226
200
245
225
199
245
229
202
248
235
219
248
237
223
250
241
232
248
242
230
246
238
226
240
231
214
216
207
176
191
177
128
196
163
96
223
168
80
239
173
70
241
163
60
229
144
60
217
136
59
235
154
72
253
170
84
254
170
88
253
168
81
252
169
81
251
164
69
241
158
59
231
162
62
225
171
82
219
181
104
214
186
115
200
180
115
185
176
121
176
175
128
167
174
125
164
169
116
168
169
117
167
169
121
162
167
116
156
164
112
157
165
106
154
161
102
150
164
101
145
161
98
154
167
106
163
172
118
176
170
118
188
168
118
183
165
108
172
163
95
165
161
90
153
151
90
137
133
82
147
139
86
160
153
100
156
153
98
141
146
84
139
145
84
141
152
98
147
158
104
149
158
103
152
160
106
160
165
114
163
167
116
149
160
101
146
155
91
146
151
85
152
149
88
163
150
91
174
153
94
188
160
100
126
151
71
130
154
74
134
155
82
131
152
78
128
149
75
137
149
73
165
140
65
171
137
62
154
148
72
134
153
74
126
149
72
136
161
86
149
167
92
148
160
83
148
160
90
165
173
120
169
179
128
159
171
115
149
165
102
143
162
96
146
166
96
159
173
105
164
175
111
161
169
110
149
163
102
150
161
90
162
163
87
166
167
92
164
161
88
167
148
74
180
136
65
189
129
55
177
141
60
159
159
73
149
168
88
157
171
100
159
165
98
151
164
95
160
176
108
160
175
106
154
170
99
144
165
93
139
164
92
137
164
85
134
161
84
139
163
94
146
168
103
152
170
109
154
175
119
157
177
117
159
181
107
163
183
113
170
185
126
160
179
115
157
177
117
154
172
112
152
170
109
157
169
110
160
170
105
159
164
103
148
144
101
188
182
150
188
176
149
173
157
127
163
141
106
155
133
94
156
135
101
154
137
105
156
141
111
161
147
121
164
152
128
166
155
133
176
165
141
172
157
130
165
146
114
157
137
102
158
135
100
154
133
98
144
125
90
137
117
82
143
127
96
143
128
96
145
130
99
148
133
103
149
134
107
153
139
112
143
128
102
131
114
88
124
103
79
124
102
78
129
108
84
133
115
89
132
117
91
119
103
77
108
91
65
108
87
63
106
84
60
110
88
64
114
91
67
128
104
80
126
105
80
132
110
82
131
113
83
149
135
107
145
130
104
137
121
95
119
100
76
115
97
73
98
80
56
110
93
68
117
100
74
126
109
83
135
120
91
139
122
95
143
124
97
149
128
103
151
130
103
158
137
108
150
128
97
165
141
110
179
159
128
190
172
144
195
179
152
207
190
164
212
195
169
219
203
178
231
218
197
246
236
220
254
239
220
253
239
217
254
240
222
253
241
223
252
242
225
252
242
230
252
242
230
252
243
231
252
242
231
252
244
233
252
245
235
252
245
235
252
245
235
246
240
227
233
228
210
221
200
161
228
179
107
232
171
80
230
158
71
215
144
65
199
137
55
219
150
64
251
168
80
254
177
89
253
176
93
253
175
92
254
178
87
249
175
83
242
179
96
232
187
122
232
202
153
233
210
170
218
202
162
202
192
156
204
192
161
200
193
159
198
192
157
200
192
158
200
192
161
194
186
157
188
184
151
185
182
144
175
174
131
165
170
123
163
170
120
167
175
126
167
176
128
166
168
122
166
164
118
163
163
108
152
157
93
150
157
92
152
156
98
147
150
101
153
155
114
158
164
118
154
160
101
138
149
81
138
149
91
145
155
103
151
162
110
149
161
102
150
159
98
161
162
112
164
165
112
156
161
97
148
155
89
150
150
84
171
150
88
193
155
98
206
166
113
213
173
114
125
151
71
126
152
71
130
151
76
135
147
73
134
145
74
145
146
78
177
129
65
195
116
55
182
124
57
160
140
65
144
149
70
138
155
71
150
160
72
156
156
71
159
157
76
173
177
118
173
183
133
160
176
119
149
169
106
148
167
103
151
171
104
166
180
116
171
181
118
162
171
108
147
156
91
147
156
84
160
159
85
166
158
88
166
150
79
168
140
70
182
137
70
186
133
65
178
137
61
160
153
63
145
166
78
150
169
96
155
166
95
146
162
83
147
163
86
151
167
93
148
165
93
141
162
91
139
163
91
131
155
77
132
155
83
144
164
104
148
168
111
148
169
111
149
173
115
151
173
110
151
174
96
156
177
100
164
180
116
155
174
101
153
171
100
161
165
98
178
169
103
178
172
113
175
175
112
159
164
98
158
158
108
196
189
159
188
175
149
167
151
119
159
137
102
151
129
90
153
131
98
156
136
105
155
138
109
160
146
118
162
150
124
165
155
130
173
162
136
167
152
123
163
144
110
157
134
95
151
126
88
143
117
82
138
114
82
150
129
99
153
138
109
155
141
111
152
137
107
151
136
106
147
131
105
148
132
106
135
119
93
135
116
90
123
101
77
120
98
74
121
99
75
123
105
80
128
113
86
119
104
77
107
90
64
102
81
56
102
80
57
108
86
62
115
93
69
132
111
86
131
113
88
129
110
81
136
119
89
146
135
106
145
130
104
130
113
87
121
102
77
114
96
72
104
86
63
106
88
65
113
95
72
123
105
82
128
113
87
137
120
95
140
121
97
146
128
102
156
138
109
157
138
108
151
129
98
160
135
104
175
155
124
188
170
142
199
183
157
210
195
170
213
198
173
216
200
175
230
216
195
247
237
221
253
237
219
252
237
215
255
240
222
253
241
223
252
242
226
253
242
227
253
241
225
252
239
224
253
241
227
252
242
230
252
244
234
253
246
236
253
246
236
251
245
238
248
245
239
240
237
224
234
216
188
219
182
129
206
157
88
191
155
79
177
146
65
190
148
65
230
166
77
241
174
81
238
173
91
239
174
100
252
179
105
252
186
111
248
190
128
242
194
151
239
206
176
242
213
188
227
201
173
215
189
160
225
191
165
217
191
166
205
192
166
204
192
166
203
191
166
197
184
162
194
185
157
191
183
153
182
174
143
175
169
133
168
165
127
170
171
133
161
166
126
153
153
112
155
156
105
149
158
97
142
155
96
142
153
98
150
154
103
163
162
114
168
171
126
161
170
120
150
164
105
146
160
99
146
159
102
153
163
108
157
164
108
157
162
98
150
154
85
155
155
93
165
162
98
166
166
97
158
161
95
152
152
83
176
149
86
200
158
103
212
169
118
216
174
118
135
154
78
136
154
78
135
150
78
138
144
77
146
151
92
148
157
94
171
134
69
192
102
45
191
91
40
185
116
60
174
141
75
167
142
66
177
140
57
191
143
51
198
157
61
192
178
103
177
183
126
152
171
108
144
168
99
151
168
106
152
170
106
164
180
117
167
179
116
159
167
101
145
152
83
144
153
81
155
157
85
158
153
83
160
146
71
156
143
67
165
147
74
172
149
77
166
149
74
155
156
71
139
165
76
139
164
85
143
159
84
138
155
76
139
155
81
142
157
86
139
157
85
136
158
86
135
158
84
131
154
76
132
154
85
143
161
102
144
164
103
141
166
98
146
171
105
149
172
108
148
170
100
150
169
100
156
171
104
156
172
92
150
168
90
174
168
95
197
174
110
196
181
127
186
183
127
155
162
101
173
175
131
200
192
166
183
169
143
168
153
118
155
133
98
149
128
90
153
132
98
154
133
102
152
134
104
153
137
107
155
143
115
165
155
130
175
163
136
171
156
125
167
149
116
163
144
110
160
139
104
154
131
96
153
133
101
161
146
117
161
148
119
157
144
115
149
135
106
146
131
101
146
129
103
141
124
98
137
119
93
142
123
98
138
117
93
121
100
76
115
95
71
115
98
72
113
97
71
112
96
71
105
87
62
101
81
56
113
91
67
112
90
66
112
91
67
120
101
76
126
110
84
121
104
74
132
117
87
151
139
111
139
124
98
135
119
93
115
97
73
107
89
65
107
89
66
94
77
55
102
85
63
115
98
76
126
110
85
134
117
92
142
124
100
145
128
103
145
129
100
144
124
95
142
119
89
155
130
99
170
150
120
184
166
137
200
185
157
215
202
177
227
214
191
224
210
186
230
219
198
246
237
221
252
236
219
253
237
215
251
238
220
252
239
222
251
240
223
251
238
220
250
236
217
250
236
217
252
238
222
251
240
225
251
242
230
251
245
234
253
246
236
252
247
238
252
248
238
250
247
237
245
242
231
222
212
189
192
180
136
172
167
95
167
163
83
165
152
81
194
155
83
204
156
77
196
161
83
212
165
95
239
169
108
242
176
122
248
184
143
246
184
150
243
193
162
243
193
167
220
178
144
209
166
124
222
166
128
202
162
126
181
165
128
168
162
121
170
168
125
167
164
123
167
167
128
173
173
135
176
175
138
166
165
125
159
159
117
162
164
124
143
147
105
141
141
93
154
156
99
163
162
86
168
165
93
157
155
94
159
161
111
169
169
120
168
171
122
162
172
119
160
171
116
160
167
115
154
163
107
155
162
105
163
164
103
165
162
94
158
154
79
144
148
73
156
159
80
165
170
94
160
166
101
155
158
94
163
149
85
181
155
98
190
164
111
192
167
106
137
156
84
141
158
87
133
153
80
139
150
85
151
156
101
148
158
99
158
135
72
180
98
44
179
84
40
180
98
51
172
126
62
169
136
68
187
135
62
210
139
48
221
159
60
212
175
90
186
177
109
155
168
105
145
167
95
152
168
106
154
170
108
153
173
109
157
171
106
152
159
92
147
154
87
148
155
88
149
156
89
150
157
87
146
150
71
135
145
65
139
143
68
158
149
79
158
159
80
149
161
81
136
162
80
136
158
83
138
155
85
139
154
83
139
153
89
137
152
86
133
153
82
134
157
84
139
157
86
137
156
82
136
157
87
139
157
95
135
154
91
134
159
89
154
172
109
159
174
111
157
170
105
155
168
104
160
171
104
154
169
95
146
166
97
170
169
96
189
169
100
193
178
125
183
181
130
142
154
98
186
183
148
202
191
167
179
165
136
162
146
112
152
132
97
151
131
96
158
138
104
154
135
103
153
134
102
154
137
105
152
138
111
170
159
138
177
164
139
172
157
128
164
147
114
162
142
108
159
138
101
161
138
104
164
144
112
162
145
114
160
144
114
154
138
108
145
129
99
136
119
90
131
110
85
123
103
77
123
104
80
144
127
104
144
127
103
135
118
94
123
106
82
112
96
70
101
85
59
97
80
57
102
85
61
109
92
66
107
87
62
108
88
63
121
102
77
130
113
87
124
107
81
122
105
75
131
114
85
131
113
87
129
109
85
127
108
84
109
90
66
101
85
59
107
90
68
93
78
57
101
86
65
115
100
79
122
106
82
128
111
87
138
120
97
140
119
96
131
107
83
137
111
86
135
110
80
155
130
99
169
146
114
181
160
127
193
175
143
208
193
166
227
214
191
236
225
204
237
227
209
245
237
223
248
235
219
250
233
211
248
235
216
250
235
218
248
233
213
247
230
209
247
230
209
248
233
214
249
236
217
248
238
221
249
240
225
251
243
230
251
245
234
253
246
235
252
246
237
251
247
239
248
247
235
244
239
225
213
209
181
179
183
126
166
171
95
160
162
94
174
158
99
171
151
87
160
153
82
180
156
90
204
157
107
210
160
115
229
169
130
237
170
135
229
171
131
232
168
126
208
155
106
185
149
89
193
146
92
177
144
88
157
146
90
145
146
88
144
155
96
148
158
101
144
154
98
153
163
109
164
172
121
152
160
108
151
158
107
150
154
109
132
135
87
152
154
92
189
174
97
206
180
92
203
174
93
180
161
94
170
164
111
164
166
115
160
167
114
161
169
115
165
172
116
168
171
120
161
164
107
163
161
101
183
167
110
193
167
105
180
154
84
142
148
71
140
151
72
146
158
84
148
161
98
143
158
95
142
148
80
158
150
87
167
159
97
165
162
91
136
152
83
139
155
86
131
154
83
138
153
91
147
157
104
139
155
100
145
135
77
164
104
56
170
117
69
168
124
71
159
122
57
152
132
63
173
145
75
201
150
73
215
157
67
203
165
75
176
167
86
152
159
98
145
160
89
147
165
100
150
167
107
147
164
102
145
161
96
143
157
88
147
158
97
147
158
97
146
158
95
145
160
100
138
155
89
124
147
71
121
144
68
147
152
82
147
157
81
139
158
81
138
156
83
136
150
79
137
150
82
139
152
85
134
150
88
129
149
84
126
149
77
124
150
80
140
158
94
142
156
94
135
152
89
140
155
93
138
155
92
135
157
91
154
169
108
166
174
114
169
173
112
164
172
111
162
172
109
148
167
102
142
162
104
157
162
95
168
156
86
176
166
109
174
175
125
149
158
108
197
187
158
198
187
161
176
162
133
161
146
111
156
136
101
148
128
93
150
130
96
154
135
103
154
135
103
150
133
100
155
141
114
176
166
144
177
164
139
168
153
124
166
149
116
165
145
111
161
140
103
159
137
101
158
135
101
154
132
100
153
134
102
147
128
96
144
125
94
138
119
91
131
108
83
121
99
75
133
114
92
138
121
100
144
129
107
145
130
109
130
115
92
117
103
79
101
87
63
95
78
55
99
81
57
109
92
66
107
91
65
112
96
70
128
111
86
132
115
89
120
103
78
120
103
76
125
108
82
122
104
80
118
98
75
118
98
75
119
101
77
112
97
74
111
96
76
95
80
60
98
83
62
111
96
75
116
101
79
134
119
98
141
124
103
140
121
100
140
119
96
136
111
87
143
117
91
161
135
106
169
145
114
182
160
128
198
179
146
209
192
163
224
208
183
236
224
201
241
232
213
247
239
224
248
238
223
247
230
207
247
231
209
246
229
207
244
228
203
246
228
205
247
231
209
246
232
213
247
234
216
248
237
220
248
238
222
250
240
225
251
242
230
252
244
232
252
247
235
251
247
237
250
247
238
248
245
236
233
231
214
191
192
154
163
171
102
157
166
101
163
166
111
160
161
103
149
157
95
154
158
92
171
161
105
173
159
107
190
161
111
197
156
109
194
156
102
192
157
94
181
154
88
152
148
79
156
149
81
160
155
89
158
157
93
155
156
94
150
161
97
156
170
107
150
163
98
148
161
99
154
167
107
141
155
94
143
157
100
138
148
99
132
140
79
178
169
88
211
180
93
213
179
95
206
164
89
192
162
99
172
161
105
165
160
106
163
158
102
166
159
99
164
158
91
170
156
100
178
160
102
182
167
107
212
186
131
214
171
115
189
150
88
154
154
91
138
152
87
138
155
86
138
158
92
133
153
86
138
149
81
149
152
86
150
159
87
145
160
88
143
157
88
136
153
83
127
151
80
132
140
87
141
157
108
143
162
108
151
154
99
162
128
81
165
142
88
164
151
96
160
140
79
148
139
75
146
146
82
166
150
82
184
157
81
172
161
78
159
162
82
141
148
87
143
149
86
141
160
96
146
165
107
143
162
100
141
160
97
140
160
89
140
165
102
142
162
108
147
164
107
152
165
116
145
161
103
132
155
83
126
154
77
141
155
79
134
151
78
138
156
84
140
151
79
138
144
70
141
145
73
139
147
75
134
148
80
125
149
76
124
148
74
124
148
77
133
151
93
149
163
110
148
162
109
143
158
104
145
160
99
146
163
102
147
165
102
158
170
107
163
169
106
161
167
107
158
169
106
149
166
103
145
161
107
159
164
101
159
154
88
168
155
94
160
162
105
167
170
131
211
199
174
194
181
156
175
160
132
162
146
112
151
133
97
146
128
92
146
127
91
147
127
94
150
132
99
151
136
104
164
153
128
180
167
144
173
158
131
169
152
122
168
150
116
161
141
105
152
129
93
142
119
82
144
121
85
146
122
88
151
131
98
151
132
100
149
131
102
146
126
101
139
118
93
133
113
90
135
118
95
134
119
97
143
130
107
146
134
112
129
118
96
124
112
88
107
92
69
97
79
56
101
82
58
105
86
61
106
90
65
118
102
76
126
109
84
128
110
85
119
101
76
117
99
74
121
103
78
127
108
85
120
102
78
121
105
80
126
111
86
123
108
86
114
100
80
87
72
53
97
82
62
114
99
80
129
117
97
133
120
100
138
125
105
141
126
104
130
113
89
134
112
88
145
122
95
159
137
107
172
151
122
186
166
135
198
178
148
205
186
153
216
198
169
229
213
188
240
229
208
244
239
221
249
239
228
242
225
205
241
222
198
241
223
200
244
227
204
245
229
209
245
229
212
248
232
215
248
235
218
247
236
219
248
237
220
249
238
221
250
240
225
251
242
228
251
245
232
251
247
235
251
247
237
249
246
238
239
238
226
199
201
168
154
167
102
155
166
103
162
167
114
156
164
108
145
159
98
138
158
87
142
156
91
152
162
102
163
165
106
159
154
93
157
154
87
146
156
83
147
157
80
135
154
85
155
160
88
197
172
86
207
176
90
190
168
93
172
165
94
155
170
103
143
162
94
142
156
92
146
160
98
147
156
96
134
153
96
124
142
87
152
156
88
185
166
77
193
165
81
186
150
81
194
145
75
185
154
87
170
156
94
172
153
95
177
144
84
182
142
77
166
132
63
175
130
76
193
149
97
190
164
105
220
194
140
214
177
120
191
155
98
160
158
100
143
156
93
144
159
91
138
157
90
132
152
79
144
157
87
148
155
90
146
157
89
139
156
89
150
158
92
135
152
83
125
148
77
129
128
75
146
156
101
151
162
107
150
160
110
149
157
101
144
153
90
140
150
90
144
146
82
145
148
88
141
152
97
137
148
85
143
145
74
152
157
84
156
162
90
145
148
84
148
151
89
146
158
96
145
165
105
139
164
101
140
165
105
148
166
87
165
171
94
173
173
102
184
175
100
199
181
107
193
176
97
188
176
85
166
168
78
137
154
71
126
149
80
148
156
90
161
150
75
167
145
76
165
148
82
157
151
78
153
153
75
154
161
76
142
156
72
141
152
76
153
158
92
147
159
101
159
169
122
162
173
127
150
169
115
153
172
114
151
172
113
155
173
116
154
167
111
156
162
101
154
161
94
149
167
97
150
167
112
160
170
115
167
161
99
168
155
94
151
154
90
173
174
139
203
192
166
186
173
147
172
157
127
161
144
110
151
133
97
142
124
89
143
124
89
145
126
93
151
134
102
153
139
110
169
160
136
175
162
136
171
156
126
166
148
117
161
141
108
157
136
100
151
128
90
147
123
87
139
115
79
147
123
87
149
129
96
152
133
102
157
140
111
156
139
113
148
132
106
141
123
100
138
123
100
134
120
97
141
126
104
142
131
109
134
122
101
126
114
90
112
97
74
95
78
54
97
80
56
105
87
63
111
95
69
119
104
78
126
109
84
123
106
82
127
110
86
122
104
80
121
104
80
126
108
84
125
108
83
124
109
84
116
103
77
127
115
92
123
110
90
87
73
54
102
87
68
119
104
85
126
113
94
133
120
101
137
123
104
132
117
96
127
111
88
138
119
95
152
131
105
161
141
112
171
150
121
183
163
131
197
176
147
203
181
150
207
185
151
220
201
169
237
222
196
245
235
217
249
240
227
244
231
215
236
215
192
240
222
198
242
226
205
244
228
210
244
228
212
245
230
213
244
231
213
244
231
214
245
233
215
246
235
217
248
236
221
248
238
223
249
241
226
250
243
231
251
245
233
250
245
235
246
243
233
219
220
195
163
171
121
149
161
98
152
159
99
151
161
99
148
163
105
141
161
96
133
153
87
146
160
98
155
166
105
147
159
98
150
159
101
139
156
91
141
157
79
167
164
81
197
167
77
227
175
68
235
175
75
224
167
77
211
169
87
183
168
94
158
161
88
142
152
89
149
155
96
154
158
104
123
143
88
130
141
80
156
154
85
171
161
88
160
149
84
148
116
56
171
117
51
172
133
61
178
141
66
186
143
69
189
136
69
184
126
67
156
118
49
164
109
56
182
128
78
174
150
88
211
193
134
219
188
135
188
155
104
152
150
90
139
150
86
138
154
85
138
153
88
138
155
82
151
165
90
146
157
92
148
158
95
149
161
95
142
155
89
136
148
83
133
149
83
138
137
86
143
154
99
138
153
88
143
158
103
127
155
89
123
152
82
120
144
79
129
146
78
141
150
87
145
156
102
136
153
99
129
147
83
132
148
83
141
157
95
143
153
84
140
151
83
144
155
91
143
157
97
139
162
98
157
164
97
208
178
74
225
178
63
227
177
62
232
178
63
243
187
79
241
185
80
239
187
80
231
184
79
210
175
71
176
163
79
168
149
87
176
147
80
179
152
89
181
159
89
195
173
89
212
181
87
228
185
89
215
176
87
189
161
79
215
180
101
210
180
102
194
165
97
208
181
124
174
175
123
165
178
126
162
179
120
165
182
128
160
175
124
161
165
105
150
153
79
143
157
83
152
160
103
159
170
108
163
165
96
158
160
98
139
150
86
182
182
151
198
187
161
181
167
139
169
154
122
159
142
106
154
136
100
145
127
91
142
124
89
147
130
98
153
138
108
156
142
116
168
158
135
175
163
134
171
156
126
170
152
121
168
148
115
164
143
107
159
136
98
157
133
96
152
128
92
152
128
92
154
134
101
158
139
108
160
144
115
162
147
121
154
138
112
151
135
111
145
129
106
139
125
102
132
117
94
139
128
106
137
126
104
119
107
83
116
101
78
96
81
57
107
92
66
111
96
70
115
99
73
122
106
80
124
108
82
125
110
85
130
115
90
131
116
90
129
114
88
127
112
86
127
112
87
129
116
90
121
110
84
118
108
84
127
116
95
99
86
67
98
83
64
113
98
79
122
109
90
134
121
102
130
117
99
120
104
87
138
121
101
143
125
103
154
136
111
165
147
120
174
153
125
180
159
127
204
184
157
217
200
173
225
207
182
232
218
197
240
228
208
243
233
214
247
239
223
242
234
222
232
212
190
236
218
194
238
221
200
237
221
203
240
224
208
242
226
210
241
227
207
243
228
209
244
231
211
245
234
215
246
234
219
248
236
220
247
237
220
247
240
225
249
241
228
250
243
232
249
245
234
239
237
224
186
188
155
146
157
99
142
152
86
144
158
94
149
166
111
147
163
107
131
155
88
149
159
98
163
160
103
157
154
92
171
149
97
175
142
86
179
144
74
211
167
72
222
161
57
225
159
55
225
149
59
219
142
54
226
156
69
228
172
91
204
171
98
148
155
92
145
149
91
134
136
89
108
127
74
136
143
83
160
153
88
172
166
109
154
157
98
136
133
65
137
115
55
137
100
42
159
111
51
164
104
42
175
112
49
177
121
56
167
125
45
159
105
38
163
111
51
154
135
69
180
170
107
188
162
108
151
121
73
132
129
77
133
147
90
128
152
88
137
150
94
144
156
91
151
164
94
148
159
99
153
162
103
155
161
97
123
144
67
134
147
82
127
146
80
136
148
96
134
148
95
115
140
71
134
152
93
133
155
97
117
146
80
132
154
95
131
149
84
135
151
86
137
151
87
136
148
82
142
157
101
140
153
93
135
154
92
136
159
93
136
153
85
139
153
88
128
147
80
133
151
87
147
151
84
212
166
57
232
167
45
228
159
44
230
156
38
230
157
47
229
158
53
222
152
50
221
159
54
227
174
63
227
180
77
195
162
82
168
149
79
173
152
88
191
167
77
223
175
72
223
177
77
218
159
71
207
147
58
198
143
58
195
159
89
241
184
103
223
182
89
239
193
108
207
170
110
186
172
119
184
178
122
177
181
120
187
182
122
178
171
100
153
158
76
144
159
76
147
158
85
153
160
90
153
165
88
150
173
98
146
161
103
189
188
152
195
182
157
179
166
135
170
154
122
162
145
111
152
134
95
144
126
89
144
126
91
145
129
98
151
137
108
156
144
118
170
157
131
177
162
133
174
159
128
168
151
116
166
146
108
164
140
105
163
140
103
163
139
104
163
139
105
162
138
104
162
140
105
163
142
112
169
150
123
165
149
122
160
146
120
161
148
122
150
136
110
141
127
101
131
115
90
139
127
101
139
127
102
112
100
76
110
95
72
99
84
61
112
98
73
114
100
74
114
100
74
119
104
78
121
107
81
124
110
84
129
115
89
131
117
91
132
118
92
130
116
90
126
114
88
128
116
91
126
114
89
115
103
82
114
106
86
100
89
70
95
81
62
105
92
73
123
110
91
136
123
104
114
100
83
119
104
86
141
126
105
148
133
109
157
141
116
171
152
128
178
156
132
189
167
141
206
185
159
226
207
184
235
222
200
239
228
208
243
231
213
247
236
219
247
237
221
245
236
220
228
211
189
232
212
188
232
212
188
234
215
191
234
217
195
235
219
198
237
221
204
239
225
208
242
229
212
244
230
213
243
231
213
244
235
215
244
236
218
246
237
221
248
239
222
249
242
228
251
245
231
248
244
233
208
208
183
156
170
119
150
161
109
154
166
115
142
160
105
143
155
96
146
153
85
172
147
90
180
142
84
173
135
74
192
119
66
200
112
57
196
127
55
223
162
59
226
155
56
225
148
55
224
137
60
219
134
48
225
150
53
221
152
55
206
158
74
145
148
91
121
126
78
112
125
72
109
130
67
121
141
75
155
150
87
171
160
105
158
155
89
147
149
74
154
143
78
146
129
69
143
125
71
129
98
53
138
89
41
146
87
39
161
104
46
174
125
48
163
127
48
140
135
63
151
153
89
145
130
72
122
104
51
117
117
62
128
150
96
125
151
95
133
151
89
143
154
91
142
151
88
148
154
100
156
159
109
148
151
90
96
131
42
123
149
87
128
150
90
133
148
92
123
141
82
106
135
63
122
144
81
125
151
91
117
144
79
132
152
80
140
159
109
132
155
95
134
153
86
135
145
69
130
146
80
135
151
96
135
152
94
134
158
91
126
151
76
131
156
86
120
141
73
121
143
76
117
137
71
148
138
55
216
160
64
235
148
46
233
139
36
230
145
46
229
153
56
215
143
45
220
148
46
218
154
54
215
162
61
215
167
70
174
153
66
204
168
70
226
183
72
232
181
78
223
162
67
196
146
55
218
152
57
206
142
59
164
139
63
218
165
80
218
173
74
227
186
90
202
150
78
203
132
75
218
144
78
203
148
81
222
144
87
228
145
83
214
146
77
191
156
70
161
157
68
144
156
77
144
156
72
145
166
81
146
162
102
192
187
156
191
177
154
176
163
131
169
153
121
161
144
111
154
138
100
147
131
96
143
126
93
145
129
98
149
135
106
155
143
117
170
157
131
175
160
132
171
154
119
165
146
110
164
142
106
166
142
106
164
140
104
159
135
100
159
135
102
166
142
108
166
144
109
168
147
117
172
152
126
171
154
129
166
152
128
169
155
130
157
143
117
142
128
102
138
122
97
135
122
96
140
128
103
111
99
75
92
77
54
98
83
61
114
100
75
112
98
71
114
100
74
117
103
77
114
100
74
120
106
80
124
110
84
128
114
88
126
112
86
129
115
89
126
114
88
125
113
87
122
110
85
116
104
83
108
99
79
91
80
61
86
73
54
100
87
68
128
115
96
123
110
92
108
94
76
129
113
95
145
130
110
154
139
115
163
147
122
175
156
132
175
156
129
207
188
161
215
196
170
220
204
179
232
217
193
240
227
203
239
226
203
242
229
209
245
235
216
243
234
218
221
203
184
220
198
173
222
199
175
224
202
177
226
206
182
228
211
188
234
216
197
233
217
197
232
217
199
237
222
206
237
225
208
240
232
212
244
236
217
246
237
221
248
240
223
249
241
227
249
243
230
248
243
232
229
228
210
179
186
155
153
168
126
166
171
124
169
165
105
174
155
88
175
154
93
175
142
92
165
140
77
161
135
64
189
134
69
206
120
58
206
132
60
225
160
55
231
162
49
229
159
57
217
135
57
221
131
55
225
144
47
220
147
44
204
144
58
147
129
74
121
132
76
114
138
78
118
142
77
140
139
74
175
137
83
193
143
91
194
147
96
178
141
81
155
129
67
144
136
66
123
136
71
116
128
71
135
135
82
129
113
63
117
95
47
155
135
63
149
144
62
128
143
74
140
154
93
135
139
78
133
138
75
117
132
65
126
146
89
116
143
82
116
141
72
131
147
81
137
137
79
149
148
98
154
153
103
154
150
101
82
133
23
107
147
63
134
160
109
133
151
99
119
141
74
110
141
64
122
146
80
118
145
81
116
143
79
129
146
79
128
150
94
127
149
93
139
152
85
141
155
83
125
146
75
136
148
83
130
147
89
124
149
80
120
148
67
122
150
71
127
144
68
125
144
67
123
148
77
138
140
74
183
151
72
224
150
60
224
132
44
219
122
40
208
147
71
192
145
65
204
144
50
194
141
56
182
138
59
205
163
74
210
167
63
231
179
66
233
188
72
233
174
70
198
145
54
199
135
49
214
126
47
202
141
66
174
138
66
194
148
69
209
157
59
208
160
87
193
159
87
216
131
54
234
139
46
217
129
52
214
132
64
231
131
67
248
136
66
246
155
64
220
167
70
194
162
84
209
157
95
176
153
78
167
172
124
199
190
163
189
175
151
175
163
132
168
153
121
162
145
112
154
140
104
149
135
101
144
128
96
143
128
97
147
133
104
151
139
112
170
156
130
169
154
124
163
145
107
158
137
100
159
136
100
159
136
100
158
134
98
157
133
98
165
141
107
166
142
108
169
147
112
169
148
116
175
156
129
169
152
128
172
157
135
173
159
135
164
150
125
146
132
106
139
124
99
136
124
98
138
127
101
124
113
90
84
70
47
96
82
60
112
99
75
110
97
71
115
101
75
115
101
75
114
101
76
113
99
73
117
103
77
121
107
81
122
108
82
127
113
87
127
115
89
122
111
85
119
108
84
102
90
69
99
90
71
84
73
55
74
61
43
106
93
74
125
112
94
111
98
80
117
103
86
135
120
103
148
134
114
156
142
119
170
153
129
184
165
141
195
179
151
206
189
163
225
209
183
229
214
188
234
218
193
237
222
196
239
225
199
240
225
200
242
231
209
243
233
217
219
203
184
211
187
161
215
190
164
218
193
168
220
198
174
223
205
181
226
207
187
229
212
192
228
212
193
231
217
201
236
225
207
239
230
211
242
233
215
243
234
217
246
236
219
246
238
223
247
241
227
247
242
230
240
238
225
191
194
174
142
156
110
167
154
90
194
152
81
198
141
67
187
142
84
169
154
103
150
153
96
139
144
72
174
144
81
176
109
61
171
120
56
211
152
52
231
161
37
226
153
41
203
132
43
213
140
66
222
149
70
212
136
60
203
132
58
210
154
80
161
146
82
117
139
72
132
147
84
152
129
74
151
99
62
141
90
56
149
108
63
144
120
65
135
132
76
134
145
80
114
140
71
126
146
96
138
155
107
124
135
76
127
135
78
128
135
71
133
144
78
133
146
85
141
150
94
140
146
93
138
150
91
128
145
83
119
140
80
107
135
67
113
141
69
122
144
74
126
132
74
141
143
93
150
146
93
157
149
108
93
126
22
99
144
48
115
146
82
125
151
86
127
155
78
108
141
66
120
146
75
118
145
75
127
150
92
130
150
94
118
143
81
146
150
93
165
141
80
163
151
82
139
153
82
145
157
83
124
140
68
112
130
61
119
143
72
112
146
69
116
143
66
128
140
64
141
146
73
171
128
58
192
127
50
185
157
56
185
140
52
205
125
36
181
129
47
182
153
86
163
148
77
141
135
57
141
142
68
193
164
75
198
160
69
231
173
60
231
179
57
212
156
53
166
138
46
203
127
42
221
142
57
200
157
90
169
144
73
164
142
66
216
154
59
174
151
58
208
151
89
225
142
70
215
124
55
185
103
39
156
110
34
183
103
35
207
117
47
229
129
56
246
155
80
233
142
82
220
126
69
209
144
73
190
177
141
198
187
162
186
173
146
175
162
132
167
153
120
162
146
112
156
140
106
151
135
103
150
133
103
143
128
97
146
131
100
148
135
106
170
155
128
166
151
116
160
140
103
161
138
102
160
136
100
162
139
103
161
136
100
160
136
101
169
145
110
166
142
107
169
147
110
171
150
118
178
160
131
173
157
131
177
162
138
177
163
140
171
156
133
149
134
111
137
123
98
135
123
98
133
123
98
123
114
91
96
85
63
96
83
64
108
96
75
110
98
74
115
102
76
113
102
76
113
104
77
109
97
71
110
98
72
114
100
74
116
102
76
121
107
80
127
116
90
123
114
90
114
106
84
93
83
63
87
80
61
73
63
46
67
56
39
106
95
74
126
114
97
107
95
78
121
109
91
138
125
106
151
138
119
155
141
121
168
152
130
191
173
149
206
188
164
217
200
173
228
212
185
234
216
192
235
219
194
237
221
195
240
224
198
238
222
196
239
225
201
245
232
213
220
207
188
205
181
155
209
183
158
210
185
162
214
191
169
219
201
179
223
205
188
226
210
192
227
214
196
234
222
205
238
228
210
238
229
213
238
229
212
239
230
211
241
231
212
242
234
216
245
238
222
247
240
226
244
240
228
201
199
176
149
164
114
143
143
78
160
130
66
156
90
33
178
122
65
164
156
99
153
146
96
165
141
82
174
111
64
145
120
69
146
142
69
196
155
49
214
147
36
217
125
28
187
113
33
168
130
60
177
136
77
176
133
76
220
142
64
226
143
83
173
138
67
156
141
69
148
138
82
132
102
61
130
97
59
121
96
48
121
116
59
119
126
67
128
138
85
138
151
90
125
139
78
144
155
110
138
150
104
129
145
84
126
145
88
120
136
74
132
142
86
139
148
92
142
151
94
148
153
100
137
142
85
135
145
87
122
146
80
105
133
67
108
134
67
133
138
77
130
129
74
123
139
83
142
147
82
142
142
93
131
137
45
91
136
39
115
139
77
109
134
74
108
147
50
104
143
67
119
148
71
128
155
81
135
158
103
135
152
96
113
145
72
135
158
88
157
126
69
166
114
58
150
140
77
156
151
82
132
142
63
120
130
60
130
141
77
126
149
83
113
138
73
135
141
80
166
144
74
195
126
64
204
149
77
215
162
68
150
137
44
167
116
31
158
130
44
169
155
62
131
149
74
144
151
89
142
150
83
173
152
71
154
137
75
179
155
76
218
169
68
178
149
49
191
156
54
216
155
52
220
159
61
188
172
112
156
152
90
147
139
66
200
142
65
157
155
50
173
152
75
178
139
72
172
121
61
165
96
42
147
115
43
148
100
35
174
111
47
216
132
62
208
115
48
204
103
37
213
106
48
220
150
74
201
180
141
194
183
158
182
169
142
172
159
129
165
151
118
159
144
110
154
138
104
152
136
104
149
133
103
144
129
98
143
128
97
152
138
109
168
153
127
165
149
115
162
142
105
162
140
103
160
137
100
158
136
96
156
132
93
157
133
95
164
140
103
166
142
105
168
146
109
175
154
122
177
159
129
177
161
133
180
166
139
178
164
140
175
160
137
153
138
115
146
131
109
136
125
102
129
119
96
115
106
83
96
84
62
95
82
62
103
91
69
108
96
72
111
100
78
109
102
74
114
106
76
110
98
72
110
98
72
112
99
74
113
99
75
118
103
79
119
107
84
124
113
93
108
100
80
84
74
54
79
71
52
60
50
34
70
59
42
111
100
80
121
112
93
112
103
85
128
118
99
145
132
113
151
138
119
159
145
125
177
162
139
198
180
157
208
188
163
217
197
169
228
209
178
229
210
181
236
216
187
238
221
194
238
222
196
239
223
197
238
221
196
242
227
206
227
212
192
202
178
152
200
174
149
208
188
165
217
197
176
217
198
180
218
199
184
221
204
189
227
213
197
235
222
208
235
225
210
236
227
211
239
230
212
239
231
211
240
229
210
239
231
213
243
235
219
245
236
221
246
239
226
213
209
188
158
164
115
130
139
78
136
118
53
162
108
42
159
129
61
183
148
92
173
126
77
171
110
60
141
119
66
125
131
76
118
133
63
151
136
53
173
136
64
187
119
57
164
108
53
133
124
62
148
128
65
190
148
73
217
141
57
195
129
66
200
140
48
184
145
66
138
130
68
127
99
48
147
125
71
150
135
82
150
146
96
136
145
87
120
135
63
117
133
54
126
136
68
144
152
100
139
151
102
132
151
94
115
138
82
118
132
77
135
149
102
147
150
106
140
149
93
137
151
93
130
138
66
135
134
69
150
159
96
118
136
77
122
130
73
146
131
82
133
138
84
129
144
88
135
151
88
146
154
96
145
151
88
107
139
45
110
139
65
110
131
86
98
134
56
98
139
64
109
143
66
131
158
87
128
155
93
130
149
88
111
140
58
120
159
72
127
152
82
130
141
83
117
128
60
126
141
73
129
139
66
133
118
58
150
127
70
136
147
80
127
142
79
154
133
75
188
137
77
180
138
69
134
145
81
136
148
73
131
141
70
161
127
52
156
146
55
133
154
75
136
147
79
142
142
76
145
150
85
147
144
64
136
135
80
143
162
124
143
157
103
145
152
74
198
148
63
206
158
57
222
164
58
172
159
96
141
145
92
131
142
63
150
145
69
148
155
66
127
158
56
153
142
71
166
115
49
156
108
49
160
123
54
175
125
53
205
136
66
205
118
42
188
111
51
188
99
49
208
107
56
222
156
77
203
181
133
190
179
152
179
167
139
171
158
128
164
149
116
159
142
108
151
135
101
147
131
98
146
130
98
148
132
101
145
131
101
152
140
111
165
150
119
163
145
110
158
137
98
155
132
93
156
131
93
154
130
91
151
126
88
155
132
95
163
140
102
166
143
106
173
150
115
174
154
122
179
160
129
172
156
127
179
164
137
180
167
141
176
161
138
160
145
123
149
139
117
141
132
110
129
121
98
100
91
69
90
81
58
93
82
62
95
84
63
98
87
65
106
97
76
107
100
72
112
106
75
107
98
70
109
98
72
111
97
72
112
98
73
114
100
75
113
101
79
122
113
92
105
98
79
78
69
51
61
53
35
51
42
26
70
61
44
111
102
82
117
106
89
122
111
94
131
121
103
143
132
114
146
134
115
169
156
135
200
184
162
201
184
160
206
186
158
210
189
158
217
195
162
224
202
167
231
209
175
238
219
189
239
223
195
241
225
197
239
223
197
240
226
204
229
214
194
189
166
141
204
181
157
211
192
169
205
189
166
211
188
170
210
191
175
219
202
187
224
210
195
228
216
201
231
219
205
233
224
208
236
226
210
239
228
210
239
227
209
238
227
210
243
232
215
243
234
217
244
237
222
221
216
195
155
157
105
136
146
86
111
119
65
148
136
64
145
146
72
186
124
68
171
126
71
155
147
97
138
137
77
123
130
66
116
126
71
137
128
86
157
155
108
133
130
73
137
137
79
128
145
79
165
154
70
214
163
52
193
134
60
167
128
72
203
116
33
189
153
73
141
139
58
175
130
63
191
138
73
189
150
106
171
146
105
138
151
88
110
131
55
123
141
82
124
141
80
143
153
102
141
147
93
139
148
94
111
132
72
128
136
86
153
165
126
143
148
108
132
143
87
124
143
81
131
142
61
133
137
63
155
157
97
139
147
87
148
142
95
142
140
85
114
133
71
136
146
100
132
143
86
140
147
81
135
155
104
110
139
68
111
140
60
106
130
73
103
132
68
100
139
56
105
137
64
123
147
88
136
149
87
130
144
84
106
135
51
117
152
61
130
149
86
118
142
83
103
118
50
129
148
79
126
151
83
122
136
81
134
139
82
140
146
83
137
141
72
123
142
50
184
126
56
171
143
59
136
146
73
138
149
58
121
147
58
125
150
74
147
154
73
155
147
70
183
135
68
173
137
80
153
144
77
173
148
92
179
130
85
130
144
108
120
153
92
141
161
91
147
150
90
177
158
93
205
158
80
152
137
80
136
134
83
126
133
49
133
152
61
134
151
77
108
152
40
131
145
64
153
132
60
167
149
77
188
151
76
189
131
49
163
134
56
193
129
62
174
129
64
180
105
45
197
105
40
211
149
70
198
177
132
186
175
147
173
162
134
167
155
124
163
148
115
160
143
109
152
136
102
147
131
97
148
132
99
150
134
103
147
134
105
154
142
113
160
146
113
155
136
100
153
131
90
150
127
86
153
127
89
154
128
91
152
126
89
156
132
95
166
143
107
169
146
109
168
144
109
175
154
120
173
154
122
178
161
133
181
165
138
182
168
142
178
164
139
165
150
129
153
145
125
148
140
120
132
124
103
93
85
64
84
76
54
91
81
60
91
80
60
93
82
62
97
89
68
102
95
70
103
96
69
103
95
67
105
93
68
106
94
69
107
95
70
109
96
72
105
96
74
111
104
84
100
94
75
75
66
49
54
46
29
46
37
21
73
65
48
108
100
80
121
112
95
129
119
102
133
123
106
138
129
111
150
138
119
173
160
138
192
177
153
201
184
159
207
187
157
217
196
164
217
194
161
218
195
160
219
194
158
227
205
171
237
220
189
236
222
194
238
223
197
239
225
203
234
220
201
200
180
159
204
182
159
197
177
154
199
179
157
197
174
156
207
189
173
217
200
185
217
203
189
222
209
193
224
211
195
225
214
197
229
217
199
231
217
197
230
218
193
230
217
192
237
225
202
239
229
211
243
235
219
232
225
208
168
170
129
152
163
110
132
143
98
147
147
79
162
148
79
168
136
79
154
146
89
161
171
125
137
146
92
128
136
59
133
140
79
146
154
105
177
180
142
154
164
112
138
150
90
140
151
88
202
169
64
223
151
40
220
144
53
165
126
66
196
92
33
213
130
58
158
141
52
198
109
50
210
101
41
204
114
70
156
141
94
108
132
61
138
138
89
143
155
106
127
145
77
143
147
94
143
147
88
129
135
77
111
129
61
127
139
88
151
167
131
145
159
119
143
153
102
117
129
72
120
133
56
121
132
58
136
139
73
129
150
82
120
139
73
126
148
84
131
132
68
160
135
78
131
142
75
132
150
85
131
156
111
108
142
69
129
157
102
114
140
81
106
134
62
106
139
56
106
135
66
120
145
87
133
147
89
149
159
109
120
139
75
109
134
56
128
141
69
107
132
59
86
108
42
116
140
66
138
154
89
119
143
94
128
139
83
145
134
76
154
135
69
121
147
50
178
117
51
173
132
63
143
150
89
139
142
62
160
142
65
129
149
51
137
161
75
192
149
60
195
148
69
169
145
69
135
133
73
156
150
96
150
147
97
120
137
91
117
149
83
131
158
88
128
155
78
151
160
100
151
130
62
126
90
43
129
143
80
123
137
68
132
161
63
137
161
97
103
151
36
120
145
65
131
149
75
150
157
84
169
157
92
173
132
59
144
140
74
176
141
81
172
122
58
170
115
32
188
125
41
192
146
59
182
166
122
175
164
136
169
158
130
158
145
115
158
142
110
157
140
107
152
136
102
148
132
99
148
132
98
149
134
103
149
135
106
149
137
108
157
142
109
155
136
101
153
131
90
152
129
88
149
124
85
148
122
85
151
125
88
160
134
98
163
137
102
163
138
102
169
144
107
173
150
114
176
155
122
177
160
131
182
167
140
183
169
143
180
165
141
168
153
132
160
152
134
154
146
128
139
131
113
97
89
70
79
71
51
84
74
54
85
75
55
89
78
58
85
77
56
93
85
64
96
88
66
100
93
65
99
88
63
98
87
65
103
93
70
105
94
73
105
98
78
103
98
79
93
88
71
73
64
47
54
45
28
44
35
19
76
67
50
109
101
81
126
119
101
132
124
107
131
123
105
138
129
111
154
142
123
171
158
134
188
173
147
203
187
159
199
179
149
212
190
158
220
198
166
219
198
165
220
193
156
225
198
160
234
213
180
235
221
194
236
221
195
238
224
202
237
225
207
216
200
181
199
178
155
195
171
150
192
164
145
207
185
167
212
194
178
215
198
183
219
204
190
221
205
190
221
206
191
222
210
190
224
210
187
223
208
183
228
213
187
229
214
188
232
217
193
236
224
205
239
230
211
237
229
213
182
183
148
159
171
115
165
172
125
159
149
79
146
141
66
164
156
101
155
130
75
145
141
92
150
158
117
122
134
55
144
158
80
160
163
86
170
176
111
165
175
118
153
172
110
139
154
85
217
169
60
230
155
50
225
134
46
166
121
64
163
84
38
195
102
41
148
142
61
196
158
101
202
120
69
187
105
55
128
132
71
125
137
83
142
140
88
142
145
94
127
139
70
139
144
84
148
160
108
140
155
98
105
127
58
131
148
91
148
160
118
137
153
104
124
140
85
116
120
63
129
139
72
112
118
51
124
137
67
109
136
71
123
146
85
118
143
74
117
116
54
149
110
46
159
137
76
144
143
85
126
155
90
106
138
61
127
156
105
122
154
100
119
148
83
122
146
81
126
143
91
129
155
103
132
150
98
127
143
91
113
124
73
100
113
46
108
118
53
90
104
52
111
131
80
105
135
60
121
140
76
109
139
76
123
146
93
120
138
71
125
138
76
115
146
57
140
118
48
144
140
78
128
152
91
114
135
57
137
140
76
126
149
64
127
166
60
134
147
62
153
147
80
137
144
79
120
142
80
123
136
71
144
141
66
131
142
70
119
146
63
139
146
81
143
145
76
156
160
102
130
123
51
126
124
57
118
145
79
129
151
91
130
159
80
142
174
96
99
143
44
121
145
73
117
133
71
130
145
73
153
160
95
166
152
82
128
140
85
151
146
78
167
110
44
163
125
35
182
135
44
175
146
70
172
164
121
175
167
139
165
151
122
164
149
117
153
138
105
151
135
103
152
137
106
147
132
101
143
128
96
145
130
98
149
135
104
152
140
111
159
144
113
157
138
104
153
130
89
147
124
83
148
124
85
153
127
90
160
134
97
160
133
95
159
131
93
161
133
95
166
143
109
176
156
123
181
161
130
180
161
133
181
164
138
185
169
146
183
168
145
168
156
132
164
157
139
159
152
134
145
137
119
101
93
75
74
66
47
73
65
46
77
69
50
83
75
56
80
72
53
84
76
57
90
83
62
95
92
64
91
84
61
93
83
65
96
88
69
103
95
76
101
95
76
101
94
76
87
80
62
69
62
44
59
48
32
50
38
22
80
71
54
115
107
89
129
122
105
134
127
109
135
127
110
139
129
111
161
149
130
184
170
148
188
171
146
199
181
152
205
184
155
204
181
150
216
192
161
223
200
168
218
196
158
221
198
159
231
209
175
237
220
192
239
224
199
237
224
201
236
224
204
215
201
183
200
181
162
190
165
148
202
183
167
212
195
179
221
205
189
211
195
179
218
202
187
221
206
189
222
211
192
226
217
196
229
217
195
227
213
189
228
213
187
228
213
188
232
217
192
234
221
198
235
224
203
233
224
207
172
176
142
162
170
121
161
168
120
175
156
98
151
137
67
147
136
75
152
138
80
152
143
81
160
159
110
135
136
65
134
145
73
152
145
59
152
157
57
151
159
80
156
169
99
143
158
80
176
139
53
220
153
59
231
159
60
184
120
47
136
106
44
153
124
57
153
130
61
162
145
70
205
142
94
185
133
86
149
138
83
135
134
82
137
142
89
140
144
91
130
127
77
144
136
94
153
155
106
147
152
99
101
121
60
129
140
85
128
141
86
116
135
68
121
134
73
131
134
78
138
147
69
138
143
70
127
139
68
117
140
84
105
125
69
119
140
74
120
122
59
132
125
52
155
121
67
172
121
82
119
153
75
111
144
56
119
145
87
124
151
98
127
148
94
131
142
94
137
148
101
130
162
102
135
159
112
140
163
114
121
135
87
113
119
71
96
103
56
74
87
42
107
132
87
116
141
89
108
129
69
98
131
61
115
147
88
113
139
75
116
141
85
115
146
74
106
133
63
106
135
67
114
147
81
102
131
57
116
135
68
117
145
66
124
164
51
131
160
70
130
142
92
111
130
73
119
145
82
121
147
67
126
139
78
104
120
51
121
129
43
132
84
36
126
66
33
151
120
68
148
155
98
112
142
77
106
133
72
116
144
74
115
147
74
131
166
65
95
134
39
121
147
81
117
135
77
119
139
75
138
158
102
140
157
115
113
136
83
146
164
81
147
134
66
152
136
62
182
143
66
159
145
89
168
166
132
172
164
133
161
148
116
161
147
114
158
143
110
143
128
96
148
133
102
149
134
103
143
129
97
142
127
94
149
134
104
155
143
113
159
144
111
154
135
99
151
128
87
150
127
86
153
129
89
157
131
94
161
135
98
156
131
94
155
130
93
163
138
102
172
149
115
180
159
127
186
166
135
181
161
133
180
163
137
188
172
147
182
168
144
173
161
140
168
161
143
162
155
137
151
144
126
110
102
83
67
59
41
70
62
43
69
61
42
80
72
54
75
67
48
79
71
52
82
74
55
82
77
52
92
87
61
90
82
63
87
79
60
97
89
70
98
91
73
93
86
68
80
73
55
66
58
40
60
48
32
57
45
29
88
78
62
118
111
93
134
127
109
136
129
111
135
128
110
140
131
113
172
160
141
190
176
155
192
176
151
201
183
153
204
183
154
205
182
151
218
193
162
225
202
169
228
206
170
229
205
170
232
210
180
239
221
197
243
227
202
243
230
206
240
229
208
222
209
191
193
175
155
194
174
157
213
199
183
214
198
185
215
202
188
222
209
194
221
208
193
230
217
200
229
216
197
226
214
192
230
217
193
228
212
187
228
211
185
225
209
183
230
214
188
234
219
194
233
220
197
229
220
200
181
183
147
168
170
122
164
160
113
159
149
86
172
134
79
163
126
74
157
146
89
167
141
75
186
161
94
155
148
80
133
149
82
133
154
87
139
149
83
144
145
82
131
130
71
135
139
63
138
144
58
176
151
87
245
197
75
235
172
62
197
140
54
168
135
61
165
132
74
139
146
65
180
136
78
168
140
89
167
154
108
166
157
107
172
166
122
171
162
118
159
141
103
169
158
116
156
159
95
162
163
112
136
145
91
159
158
108
152
150
99
127
138
74
138
146
88
173
166
118
145
154
86
140
148
76
162
162
107
145
148
95
130
132
76
137
141
80
135
131
68
128
125
59
123
101
52
161
86
55
113
140
72
99
131
48
109
136
79
121
147
94
116
147
83
129
151
98
129
148
93
120
152
91
108
137
88
125
154
102
111
128
76
105
108
61
79
87
46
102
112
65
94
118
69
129
143
100
110
120
68
114
140
71
125
140
74
140
148
68
99
122
48
109
143
70
102
132
64
101
130
58
111
141
77
95
124
56
109
130
66
110
138
67
113
146
48
131
162
69
131
147
94
116
134
70
105
128
52
115
140
62
113
132
65
100
120
64
108
129
55
128
96
37
116
55
12
140
102
55
133
146
94
122
140
86
102
123
58
113
145
69
108
142
73
122
156
59
93
130
27
114
140
77
107
130
71
120
129
77
128
138
81
119
143
85
115
137
80
133
151
80
156
165
105
165
157
102
150
147
85
135
145
96
152
159
119
166
158
124
163
149
114
160
145
111
153
142
108
150
135
102
141
123
93
142
127
96
139
123
91
138
123
90
140
125
94
152
138
108
154
140
106
148
130
92
147
124
84
144
120
80
150
126
86
157
131
94
161
135
98
160
135
99
165
141
105
173
149
113
174
151
116
172
151
117
182
161
129
179
159
130
179
161
135
190
173
147
185
170
146
176
164
145
172
165
147
164
157
139
152
144
126
121
113
94
63
54
36
71
63
44
66
58
39
73
64
46
66
57
39
73
64
46
74
64
46
73
65
43
89
87
59
84
77
56
84
76
57
80
73
54
91
84
67
79
72
55
72
65
47
65
56
39
63
52
35
67
56
39
95
87
69
121
113
95
131
124
106
133
126
108
137
129
111
149
139
121
175
163
144
187
173
152
197
181
156
200
182
154
203
183
155
205
182
152
214
190
157
222
198
163
225
202
168
222
198
162
226
204
170
236
218
188
242
225
198
243
229
205
240
228
207
219
206
187
195
177
159
208
194
178
219
209
195
216
203
191
217
205
191
227
215
202
230
219
205
231
221
203
234
220
202
228
213
191
231
215
191
231
214
188
224
205
179
221
202
174
220
201
173
227
210
183
230
216
191
228
219
197
181
183
146
172
171
124
152
149
94
147
149
61
185
121
57
173
117
57
152
139
73
186
144
80
219
172
91
186
166
86
157
170
110
146
152
91
134
138
79
139
145
87
132
129
81
128
123
60
136
138
81
158
162
108
209
155
56
231
158
46
213
131
36
224
131
66
165
152
81
145
147
75
149
147
84
181
160
123
184
172
130
175
166
118
187
175
133
194
179
143
181
173
131
155
157
91
170
168
115
153
150
104
120
142
65
153
148
102
155
141
105
149
133
84
185
168
130
171
162
116
154
152
85
183
144
77
175
139
78
171
154
95
147
146
85
129
138
65
120
132
69
122
137
61
127
109
54
148
85
51
137
156
101
108
126
72
90
114
51
130
154
111
118
149
90
124
153
89
124
150
85
122
149
80
117
146
88
114
141
85
174
166
80
158
146
69
108
108
70
137
135
64
143
139
57
139
134
69
128
130
59
173
154
60
211
168
55
214
169
56
187
159
62
115
147
66
114
141
75
108
127
64
100
126
64
91
122
53
110
124
73
116
130
75
113
131
67
119
148
66
119
138
78
128
148
84
103
119
54
108
129
60
114
131
70
86
113
62
117
139
75
119
123
45
118
102
42
114
99
44
111
121
63
102
118
67
128
148
73
100
130
63
84
116
49
94
127
48
86
121
31
113
137
60
101
129
66
125
136
83
148
148
94
117
138
79
90
126
40
111
139
55
149
157
89
200
171
108
155
148
83
123
147
97
139
153
109
162
153
117
159
142
106
156
140
103
144
132
96
116
109
74
133
125
89
127
111
79
129
116
82
131
115
81
136
120
88
150
135
107
156
140
109
149
132
97
146
124
87
148
124
86
149
124
85
147
121
84
155
129
92
161
136
100
166
142
106
169
144
108
173
147
112
171
145
110
176
150
116
181
158
127
182
161
132
188
169
142
188
173
148
178
167
147
171
164
146
167
160
142
150
143
125
123
116
97
74
64
47
67
56
38
69
58
40
68
57
39
65
54
37
64
53
36
66
56
38
65
57
37
78
77
49
75
70
46
74
66
48
74
67
50
82
75
57
77
70
53
58
49
32
66
55
37
69
59
38
80
72
52
98
90
71
119
111
93
126
119
100
135
127
108
140
130
112
152
139
121
169
156
138
188
174
152
196
181
156
207
190
164
213
195
168
214
192
161
222
197
162
226
200
164
229
205
170
231
207
173
232
209
176
234
213
182
238
218
187
240
224
200
237
223
202
215
200
182
207
192
179
218
206
194
220
210
198
225
215
203
221
209
195
230
218
204
237
226
211
235
225
209
237
225
207
236
223
200
235
220
195
230
213
188
220
202
174
219
198
169
221
199
168
226
208
178
227
212
186
227
216
193
187
191
155
172
178
129
161
163
99
163
165
91
173
126
50
154
138
73
163
158
95
196
158
98
191
153
90
186
173
131
165
171
125
143
162
98
129
137
82
146
151
89
154
150
91
137
136
62
129
136
80
157
168
111
172
158
81
169
154
45
212
132
33
208
134
49
187
147
59
146
152
79
125
142
72
163
152
105
158
157
105
152
157
105
149
152
94
153
158
107
144
158
116
126
145
66
159
157
115
145
158
107
135
154
65
140
149
97
138
151
91
150
153
87
176
170
118
145
139
81
145
147
84
154
141
77
159
138
88
152
151
101
130
118
53
129
132
63
116
129
67
121
144
58
143
130
67
156
80
51
120
145
84
131
137
95
112
135
61
128
153
88
128
156
101
113
146
64
120
147
79
114
139
63
112
139
79
119
148
89
177
157
60
216
183
84
212
184
80
222
188
65
201
165
59
187
148
55
202
157
56
174
141
63
216
150
49
208
148
51
221
154
54
138
150
66
109
139
78
101
125
66
128
146
83
121
138
78
125
128
85
125
128
69
120
134
73
93
117
52
93
110
52
116
136
65
112
133
56
104
125
62
138
151
108
97
118
58
110
137
65
111
137
56
102
108
34
105
92
30
106
116
56
91
123
60
109
140
54
93
118
59
99
129
62
91
122
49
90
119
44
126
142
71
120
142
87
120
145
89
136
142
86
132
149
95
80
105
29
89
119
35
108
127
56
148
140
90
118
130
69
105
136
77
129
141
93
160
148
111
155
136
98
151
134
94
153
132
95
133
124
87
84
89
48
116
113
77
115
105
73
129
113
79
129
113
81
142
127
100
153
138
107
151
134
99
151
129
92
147
123
85
143
118
79
151
125
89
158
132
95
162
136
98
165
138
100
169
142
105
171
143
105
174
146
108
177
150
113
180
155
120
183
160
126
188
167
138
189
172
146
180
168
145
173
166
148
164
157
139
152
145
127
115
108
89
82
72
54
63
52
34
69
58
40
67
56
38
64
53
35
56
45
27
58
49
30
56
45
29
67
65
36
73
70
42
71
61
44
66
55
40
69
62
45
75
68
50
58
50
33
68
56
38
82
72
46
84
76
54
100
92
73
117
109
90
129
119
101
139
129
111
140
130
110
143
131
109
167
154
133
186
171
148
184
167
141
203
183
155
216
196
164
214
189
154
223
195
156
223
196
157
230
205
168
233
209
174
233
210
177
233
212
181
236
216
183
239
223
196
236
222
200
210
196
180
216
206
194
219
209
198
221
211
199
223
213
201
227
215
201
230
218
204
231
219
206
235
225
209
235
223
204
236
223
200
231
216
191
224
208
182
212
192
161
205
182
149
210
187
152
221
200
169
229
212
184
229
218
193
189
187
150
163
170
113
155
166
99
174
166
121
164
156
104
162
170
119
162
157
104
175
146
97
167
140
93
190
179
148
142
161
111
153
169
107
148
148
96
157
146
91
166
163
106
147
149
85
146
159
103
149
161
104
176
183
119
137
161
64
176
128
43
218
117
45
178
155
69
160
156
91
129
153
72
143
154
94
148
161
104
151
161
100
124
145
88
132
157
107
128
154
81
137
159
93
145
157
104
142
166
111
143
166
92
147
151
95
161
163
110
154
170
99
155
171
100
149
148
95
145
145
94
123
145
88
143
164
106
143
146
98
152
131
81
127
134
76
125
128
55
129
138
75
136
139
89
119
107
56
115
147
83
122
133
70
115
138
65
118
147
54
122
152
80
108
138
71
114
147
70
110
128
67
111
128
74
128
140
90
142
149
97
184
151
46
231
173
58
234
177
55
182
135
48
192
143
50
208
146
54
141
135
83
195
143
74
197
139
43
221
135
45
184
156
64
120
126
66
119
142
90
130
146
81
138
152
69
130
134
82
130
125
75
118
129
75
102
125
79
80
95
50
114
127
62
118
142
74
115
135
78
148
159
116
144
144
74
122
149
70
124
149
86
108
130
62
103
102
40
93
107
47
93
123
56
119
142
59
108
127
67
112
141
77
94
124
50
96
122
55
144
143
84
138
153
92
141
145
93
127
140
81
120
134
76
89
90
39
109
127
56
111
145
55
89
113
58
92
121
65
92
119
55
125
136
81
160
148
109
152
134
95
150
132
92
147
131
92
149
131
97
133
121
86
84
88
51
105
103
72
125
112
78
131
114
82
137
123
95
151
136
106
153
137
104
150
128
92
149
125
89
151
126
88
159
134
96
156
130
91
152
123
85
162
133
94
169
140
100
170
140
102
172
144
105
176
150
111
179
152
116
183
159
123
187
165
133
189
172
144
183
170
145
174
165
146
164
156
138
148
142
121
112
104
84
79
70
52
65
54
37
64
52
35
61
49
33
62
50
34
57
46
29
55
45
26
57
45
30
58
52
26
75
73
42
66
55
36
66
54
36
66
56
37
74
62
44
72
60
41
67
56
40
89
80
50
87
76
57
102
92
73
116
106
88
129
117
97
134
122
102
136
125
104
140
129
107
160
147
125
181
165
140
193
174
148
197
175
142
209
186
153
218
194
157
213
186
146
221
192
151
225
198
159
235
211
176
237
216
182
236
216
185
237
217
186
238
221
191
237
222
200
218
207
192
223
214
204
216
207
195
221
210
198
225
216
203
232
220
209
232
219
207
239
226
212
241
230
214
241
227
209
237
223
201
232
216
191
226
209
183
219
201
170
207
184
151
209
183
147
212
188
154
223
206
177
218
206
178
181
184
134
169
171
110
158
174
111
201
198
162
167
162
109
150
156
85
168
162
101
171
150
101
173
152
92
157
153
101
139
144
87
145
164
96
152
159
94
160
148
93
156
161
102
158
167
115
145
155
92
147
160
106
168
175
109
145
166
96
143
147
69
200
131
48
155
152
78
152
153
85
133
150
76
133
154
78
145
166
98
142
156
93
134
158
107
137
161
94
128
149
86
145
169
109
133
151
86
131
155
93
149
168
111
156
176
121
146
159
105
153
161
112
144
161
89
167
184
135
152
170
121
136
159
97
142
147
87
137
153
89
151
149
94
124
127
60
173
154
72
144
139
85
146
137
78
132
136
70
117
140
83
117
133
65
120
144
79
117
141
63
116
147
68
110
134
76
113
141
56
124
140
66
129
131
51
131
118
63
136
135
74
135
122
51
159
130
69
203
141
51
148
123
39
181
135
56
163
141
68
159
125
48
155
159
116
171
138
50
207
128
44
187
148
65
150
138
77
108
127
75
122
148
105
113
129
58
128
133
70
140
135
79
131
135
74
122
142
86
119
142
82
120
143
94
131
155
88
144
154
97
144
148
93
161
161
98
120
146
58
133
138
84
163
177
144
144
133
99
109
114
59
115
142
78
113
128
61
134
139
83
125
137
77
100
118
53
103
130
64
144
160
74
153
169
77
143
140
79
128
141
71
88
111
59
76
83
42
109
127
63
100
132
63
99
130
77
116
130
80
112
117
65
133
135
84
154
141
102
153
135
101
149
133
96
148
133
97
148
133
99
143
130
95
128
115
81
67
77
42
90
95
60
131
118
87
134
119
91
147
132
103
152
136
104
152
131
97
155
132
96
156
132
94
163
139
101
163
137
97
162
132
95
170
140
102
168
139
98
168
141
101
175
148
108
178
151
112
179
149
112
178
151
114
188
165
131
189
171
140
187
173
146
176
164
143
167
156
138
143
135
112
116
108
87
76
68
49
67
56
40
60
48
32
59
47
31
58
47
27
56
45
27
55
43
25
58
45
30
57
47
27
76
75
44
59
49
28
68
57
39
65
55
35
91
83
59
81
67
46
79
71
47
88
81
54
93
81
63
99
88
70
109
98
80
120
108
86
129
117
95
136
124
103
141
130
109
154
141
118
182
166
141
199
180
151
199
176
140
196
166
123
209
179
139
209
178
138
212
183
141
220
193
153
232
207
171
235
212
178
233
213
181
231
211
180
235
216
184
238
222
197
216
204
188
212
202
191
213
202
190
222
211
199
232
224
211
240
235
222
239
230
216
238
228
212
236
222
205
233
218
195
232
216
191
223
206
180
220
200
172
224
209
182
219
202
173
212
190
158
210
186
154
221
203
175
215
202
171
171
177
125
171
176
117
145
163
92
183
192
149
172
172
112
159
167
104
173
178
133
167
172
127
171
170
107
140
150
79
160
165
97
153
161
91
146
149
70
133
145
70
139
149
79
160
164
112
164
166
105
164
164
111
166
174
120
145
163
91
173
179
136
173
141
87
149
147
84
145
161
83
145
155
85
129
157
76
126
148
85
128
149
83
141
145
89
141
161
106
158
174
128
149
163
121
151
168
108
134
152
80
121
135
64
138
160
107
150
172
113
142
160
102
148
168
104
151
171
120
157
174
128
132
154
89
124
138
87
133
147
77
161
151
98
144
139
69
142
142
77
135
148
103
128
123
68
121
141
83
112
135
66
116
137
59
121
141
74
125
144
70
114
145
64
110
137
78
125
149
78
117
142
56
107
127
64
114
114
66
128
131
79
148
160
119
165
155
103
186
143
77
123
133
45
148
138
61
132
151
83
151
124
47
155
152
103
164
155
89
170
134
51
166
148
82
135
136
73
103
125
75
101
122
80
126
150
100
115
129
54
135
132
76
138
151
83
127
151
69
120
144
76
121
145
84
149
166
116
142
154
97
138
145
84
141
149
100
105
125
50
144
133
79
169
167
136
178
176
145
180
145
93
129
142
76
126
135
77
143
150
93
141
151
79
112
134
62
99
126
66
147
175
75
121
141
57
114
130
63
135
161
69
109
125
71
108
123
79
104
133
80
116
144
99
128
156
110
138
163
120
129
150
107
143
140
101
131
129
78
148
140
100
151
137
103
149
135
101
149
135
103
145
128
95
136
122
84
116
109
75
63
71
40
104
101
73
130
116
88
147
132
103
152
137
105
154
136
100
152
131
95
160
137
99
163
139
101
169
143
103
170
141
103
167
137
98
167
138
97
169
146
105
170
143
104
176
145
107
181
149
111
175
146
107
188
163
127
190
170
137
188
172
142
179
164
142
166
154
135
152
142
117
119
111
90
87
79
61
65
54
38
58
46
30
58
46
30
68
58
33
59
48
28
56
44
28
52
39
23
52
42
25
69
70
39
57
52
29
62
53
37
66
56
38
114
113
81
101
88
64
97
94
56
73
67
47
94
84
65
95
84
66
103
92
74
110
98
76
126
114
92
128
116
95
148
137
116
169
155
132
186
171
146
193
175
140
195
173
135
199
169
130
201
171
131
209
179
138
214
185
143
222
195
155
228
203
165
234
210
173
238
215
181
235
215
183
233
214
180
238
221
194
224
210
192
207
194
181
224
212
199
235
224
212
238
229
217
236
228
213
234
224
208
233
219
202
228
213
190
228
212
185
229
211
184
222
203
175
214
193
163
214
194
163
223
203
172
211
190
160
210
187
159
219
198
171
231
212
187
223
212
183
213
205
168
184
180
129
189
192
149
190
187
134
177
174
117
171
176
128
164
173
127
161
164
103
150
165
95
156
157
97
164
163
105
150
158
89
152
166
82
152
161
83
151
148
93
157
156
101
167
164
109
154
158
104
158
169
113
135
147
87
169
180
135
178
175
105
222
197
98
210
191
97
141
148
82
127
145
79
137
145
79
132
120
54
135
135
82
130
141
73
136
150
102
166
184
136
169
182
123
141
156
89
122
143
77
144
163
107
149
171
111
152
166
113
146
160
104
141
158
115
129
145
92
128
151
98
130
142
68
140
138
68
117
122
57
129
147
93
132
148
104
119
128
77
144
145
97
112
137
57
124
141
72
130
147
75
123
143
64
112
138
62
118
137
79
110
128
62
126
152
55
105
133
54
113
115
67
119
128
71
135
159
124
150
151
98
138
110
51
110
124
58
132
121
65
125
132
68
116
118
59
138
152
88
146
151
102
143
150
89
153
146
98
133
135
75
140
163
111
125
148
95
134
152
87
121
149
61
150
158
85
132
161
76
126
151
66
153
164
111
136
157
85
130
148
93
148
161
109
144
150
84
144
148
90
116
130
61
133
132
73
156
164
126
188
194
165
164
157
104
153
143
87
156
150
97
162
153
78
180
151
58
120
130
57
103
133
66
134
158
67
99
122
46
119
141
64
123
151
71
118
150
100
118
148
98
112
132
76
101
128
62
97
126
61
107
135
72
115
139
79
121
125
86
137
139
96
123
125
81
142
136
98
137
133
92
149
134
102
144
127
94
129
115
80
130
115
80
103
98
66
79
88
58
115
110
79
142
127
100
153
138
108
152
134
101
151
131
92
154
133
90
162
137
97
164
141
100
165
136
97
163
132
94
170
139
101
166
150
100
170
143
101
172
142
104
179
149
111
169
142
102
178
150
111
184
164
124
189
174
143
185
168
145
166
155
133
152
138
112
114
103
79
78
69
53
65
55
39
53
44
27
52
43
25
79
79
42
58
48
26
52
43
27
46
36
23
45
36
20
51
49
25
68
71
38
50
41
25
70
59
38
133
138
111
97
89
60
90
85
52
84
73
51
82
71
54
93
82
65
93
81
64
108
95
78
114
102
79
124
112
90
148
139
117
175
163
139
194
178
151
188
171
135
193
170
134
203
175
142
196
168
125
206
175
134
210
179
137
217
185
143
219
190
148
228
202
168
235
213
179
239
219
188
233
214
182
235
217
187
235
220
198
223
212
199
234
224
214
232
219
208
225
211
198
228
212
196
222
206
187
218
201
180
213
194
169
214
193
166
219
201
173
225
207
179
213
195
166
205
182
151
210
184
152
212
190
158
211
188
158
213
188
161
225
199
167
232
214
182
241
223
195
236
220
189
232
213
180
222
202
159
209
193
150
187
180
134
169
173
116
158
151
102
154
146
86
150
143
88
155
157
105
150
162
106
147
160
72
157
159
102
167
159
113
145
148
89
143
135
85
180
173
124
164
170
114
162
173
125
150
155
93
223
177
79
247
196
108
246
178
99
224
137
75
208
103
60
158
138
84
125
134
68
146
148
89
136
150
80
133
148
92
139
154
98
154
168
118
159
175
114
147
159
104
132
156
83
138
166
109
138
152
86
141
149
90
120
129
84
130
140
90
119
140
69
141
145
61
130
150
85
122
139
78
128
157
103
117
134
85
146
158
118
130
138
88
115
133
50
121
140
70
125
148
80
138
156
89
134
154
87
139
154
96
125
132
76
160
166
97
115
144
54
124
144
81
111
135
84
123
149
106
125
144
75
107
113
54
113
139
53
138
146
70
122
146
73
125
136
83
124
125
68
151
152
109
143
157
106
135
127
74
151
138
89
131
156
84
134
149
86
122
136
78
106
129
64
121
143
80
142
165
99
133
162
80
144
169
75
138
164
78
131
145
74
142
153
90
145
166
104
143
153
96
130
154
80
121
142
85
143
158
106
162
166
121
158
171
129
155
142
69
139
140
78
157
140
66
170
142
57
116
134
62
111
135
71
123
137
62
117
147
68
133
158
91
128
151
86
105
138
74
103
129
65
99
118
55
107
132
67
107
128
64
100
123
60
112
127
71
110
114
71
140
135
98
148
147
108
128
137
96
99
114
70
127
122
81
136
120
86
120
108
67
119
108
71
114
104
71
95
92
58
82
87
53
126
116
85
153
135
104
153
135
98
145
138
87
148
136
88
155
135
94
163
140
99
167
137
99
166
138
99
169
141
102
158
147
95
162
138
95
165
136
98
172
146
107
167
144
98
170
144
99
183
160
121
190
171
137
190
174
148
172
160
137
144
132
102
116
109
76
71
65
45
61
51
37
53
44
27
50
42
24
92
98
55
58
50
27
46
36
22
42
35
17
45
38
21
46
41
20
83
84
48
89
84
57
103
106
67
141
153
122
93
95
60
105
99
72
128
115
98
99
88
71
86
75
57
89
78
56
104
89
71
117
103
79
118
105
82
145
135
114
181
170
146
195
179
151
186
169
133
192
169
134
187
157
120
188
157
116
188
156
111
195
162
116
203
170
124
213
181
139
220
191
157
227
203
169
236
215
185
241
221
194
235
218
191
237
223
198
234
223
207
224
212
198
220
205
189
215
198
180
226
209
193
224
207
188
225
209
187
214
197
170
205
183
153
207
183
151
216
194
162
217
197
166
194
169
135
194
166
129
202
178
145
203
177
148
196
165
131
214
182
145
221
198
163
234
212
180
232
211
179
232
207
173
224
196
153
219
189
148
206
182
134
195
178
125
176
152
102
188
166
119
178
168
109
154
145
91
134
144
92
143
160
85
178
181
139
153
154
99
156
148
90
140
140
78
170
156
114
177
173
128
168
177
134
168
161
96
221
160
66
235
156
65
223
135
56
224
90
48
208
63
40
191
128
88
157
160
118
142
143
98
149
155
105
149
152
103
123
132
73
160
164
108
156
156
95
157
172
123
148
169
106
140
166
110
148
164
104
150
151
97
111
109
60
137
137
87
132
149
91
147
159
99
126
143
72
133
146
90
118
144
93
144
161
122
126
135
99
123
133
87
116
135
60
129
147
86
119
141
80
127
137
71
139
146
88
150
165
116
152
158
106
157
160
91
112
132
53
132
140
59
88
121
73
100
132
80
110
141
67
106
125
55
116
140
60
132
150
49
133
144
70
131
144
80
143
155
100
138
150
100
126
138
71
145
144
80
149
156
100
126
150
70
136
154
75
120
139
69
120
142
76
113
141
74
127
140
78
135
156
93
139
164
96
146
171
96
133
157
90
143
149
79
153
164
109
140
145
94
129
155
93
125
148
93
138
154
87
139
157
103
156
173
137
135
146
92
149
161
114
137
155
85
153
166
96
124
147
87
127
141
80
144
148
72
136
160
83
128
156
89
133
156
95
108
134
60
104
133
48
96
120
55
110
134
70
100
117
55
108
130
81
85
101
48
95
112
54
129
127
82
146
137
98
141
132
92
133
137
97
95
107
61
106
104
67
116
117
69
116
112
73
114
98
66
122
108
73
126
130
89
125
123
77
143
134
89
151
134
94
143
148
86
141
138
86
154
147
101
160
148
104
160
134
94
164
136
96
173
148
109
154
149
95
157
134
91
163
133
96
168
144
103
168
147
97
170
149
97
180
155
117
190
167
132
188
172
144
174
163
137
146
135
106
116
111
77
81
77
46
65
55
37
56
48
29
50
43
23
95
106
59
56
51
27
41
32
20
39
33
17
65
63
34
62
53
34
79
85
43
102
120
70
109
120
69
143
159
126
110
124
86
77
70
47
90
78
62
93
80
65
89
79
60
111
104
76
119
104
83
135
121
96
119
105
81
156
146
123
185
174
149
185
169
140
180
162
127
187
164
128
184
154
114
181
149
108
175
141
96
184
149
109
192
157
116
194
162
115
210
181
139
203
179
136
227
202
165
236
216
185
239
223
195
236
221
195
227
216
198
220
210
196
226
214
199
230
216
199
234
218
200
238
221
201
239
223
201
228
214
187
210
189
155
198
170
133
201
175
138
205
183
151
202
177
140
188
159
119
195
170
135
179
150
120
171
133
94
199
161
118
207
181
141
219
192
155
219
186
147
214
176
134
207
166
117
210
166
117
203
163
105
192
168
106
180
150
110
198
165
121
196
164
109
168
165
104
162
155
98
154
162
94
166
172
135
166
169
128
173
175
136
138
135
69
147
130
83
161
153
112
156
162
116
174
147
72
195
143
72
203
103
29
190
149
90
189
105
63
184
112
63
162
130
90
183
167
131
169
160
117
147
158
117
141
142
102
132
142
85
137
152
72
155
150
91
159
174
127
150
163
114
150
170
112
141
161
109
154
156
103
117
110
53
149
143
92
125
139
84
149
167
114
133
149
64
121
136
66
107
130
85
146
164
131
132
139
99
128
143
89
115
130
60
126
140
84
117
137
84
126
134
70
149
152
91
129
144
86
152
160
110
139
147
75
124
143
62
115
138
46
87
114
58
116
133
74
114
142
76
101
123
55
120
134
64
136
148
57
139
145
68
155
159
97
179
175
128
153
150
94
133
136
74
149
143
91
143
154
79
146
161
91
143
147
77
135
140
70
137
149
86
121
145
84
120
135
66
135
140
76
124
144
80
145
157
79
134
154
92
136
152
73
144
157
99
138
154
94
131
153
100
164
183
131
137
154
90
159
178
136
152
170
134
129
147
85
142
156
90
160
171
116
152
169
103
137
166
79
140
159
95
141
151
87
136
155
102
130
149
92
117
137
69
111
127
72
107
128
62
114
136
72
104
125
61
93
112
50
106
116
49
97
112
34
89
110
36
94
103
43
116
116
66
134
131
89
146
142
98
117
125
74
79
98
54
110
121
70
133
127
86
135
117
88
136
118
81
149
150
102
134
140
87
137
128
76
157
140
97
134
145
81
132
136
84
133
141
90
148
153
102
160
143
89
160
129
88
160
138
95
150
148
95
160
134
94
159
134
91
164
146
101
155
136
84
170
151
96
175
149
106
183
162
122
187
170
134
181
171
139
148
145
106
98
96
63
99
98
59
93
84
55
84
75
44
57
55
30
90
106
57
67
65
35
34
29
17
50
47
24
95
105
51
67
67
28
105
124
68
102
117
65
95
90
55
132
144
107
123
147
109
74
70
46
72
63
47
84
69
60
86
78
59
107
108
78
104
94
65
97
85
63
122
111
85
164
155
127
173
158
130
180
161
128
169
150
112
171
149
108
180
150
110
180
148
106
178
145
101
186
152
108
185
151
108
187
153
108
197
170
128
193
169
122
213
183
146
222
199
166
238
220
191
235
221
195
228
219
199
232
222
206
231
218
201
234
219
201
234
218
193
240
222
195
238
218
187
237
219
189
236
217
186
216
191
159
192
167
126
200
175
141
193
170
136
185
157
118
181
156
121
152
123
94
156
115
74
186
140
91
192
164
118
197
159
112
195
159
109
188
144
96
182
133
83
182
130
78
181
135
78
168
132
72
143
113
64
157
113
63
171
133
85
181
161
91
195
169
73
153
156
74
155
167
111
140
150
80
151
163
102
169
174
129
143
136
79
160
151
110
146
156
97
150
130
72
181
160
116
167
116
64
167
111
72
173
122
80
157
116
64
133
115
67
152
128
94
179
177
140
169
182
151
147
158
102
123
142
69
140
140
75
151
141
91
147
148
90
156
162
120
135
143
83
138
150
101
145
143
86
127
106
59
152
135
86
126
135
70
144
160
78
130
146
62
113
124
56
118
139
96
140
156
122
135
136
93
127
139
89
124
140
72
125
138
77
116
123
74
119
126
72
130
132
76
123
132
72
125
142
91
144
160
104
136
155
87
127
149
73
138
152
88
141
144
82
133
148
89
116
128
69
138
136
78
140
139
70
134
136
58
166
161
111
157
158
103
142
139
77
133
146
90
158
159
109
131
140
71
141
157
89
144
158
101
141
145
87
146
142
83
130
148
87
126
144
72
150
159
84
133
146
88
143
157
85
126
137
73
136
145
84
128
145
85
135
156
92
130
148
91
143
166
107
133
149
89
152
164
115
154
163
114
140
152
67
127
138
67
138
145
89
144
149
91
139
163
88
144
159
101
150
156
104
123
145
84
123
138
85
127
138
84
124
130
86
125
136
81
122
132
71
109
117
50
103
112
52
123
128
73
139
150
87
119
131
71
87
96
41
121
124
67
132
131
72
153
146
90
124
123
73
96
112
61
110
129
65
110
116
71
126
119
87
134
125
86
163
163
115
148
159
105
134
131
77
148
139
90
121
142
76
116
133
72
113
135
73
128
152
92
145
149
89
159
139
89
168
157
107
153
157
104
164
140
93
153
139
91
154
145
93
153
133
82
166
149
96
162
158
96
171
166
105
181
169
122
173
172
129
151
160
103
101
98
73
91
95
62
110
112
68
120
111
68
86
83
49
96
118
58
98
106
53
53
47
30
50
51
22
120
143
75
114
134
70
116
133
77
93
89
56
100
90
65
134
149
106
129
157
113
86
88
50
105
102
72
91
87
60
106
108
75
118
127
87
94
92
52
92
82
59
120
109
75
156
148
115
158
148
109
162
148
102
151
136
90
153
134
91
160
131
91
165
132
90
174
141
98
178
146
99
185
153
104
189
154
109
178
163
117
173
155
106
207
178
142
214
188
153
226
205
171
235
220
192
236
225
204
236
223
203
234
218
194
225
208
178
212
195
155
219
194
161
215
186
144
214
184
141
230
204
167
235
212
181
206
181
148
188
159
124
184
158
122
170
143
101
160
138
100
137
110
83
137
104
65
165
130
80
175
145
97
178
133
91
169
133
79
165
127
77
160
122
74
159
119
73
144
109
59
139
99
49
112
85
42
126
95
46
167
143
86
152
156
84
175
164
91
148
154
85
141
156
81
153
161
72
148
156
58
143
141
91
172
180
131
140
152
110
153
173
122
133
136
80
144
144
91
155
139
88
179
71
32
166
109
56
134
128
63
133
110
64
134
114
74
159
152
116
162
168
119
146
156
105
130
138
76
136
117
72
146
124
83
157
144
96
140
133
85
146
141
90
129
130
73
129
113
70
121
99
57
107
104
53
132
141
66
122
132
64
118
134
47
112
121
61
124
145
92
114
127
90
119
124
81
104
111
67
115
129
67
128
138
81
134
144
95
142
150
95
131
131
81
127
129
72
127
148
96
131
151
94
141
161
108
137
148
92
133
140
82
141
138
84
131
143
85
129
136
81
147
145
88
151
147
84
143
140
70
148
146
87
138
148
88
144
149
103
139
150
101
137
144
85
117
129
74
125
131
65
150
158
100
134
147
97
115
138
73
126
142
79
158
169
112
149
161
91
148
158
108
124
151
98
102
128
61
127
142
86
119
141
79
135
151
85
132
142
78
128
144
76
143
154
85
140
149
89
144
153
85
145
155
63
162
166
111
146
147
98
148
157
96
143
169
110
150
162
115
149
154
96
139
156
92
138
159
88
146
156
93
132
136
75
135
144
91
130
136
77
132
136
66
117
124
68
121
139
77
137
159
88
144
155
86
104
111
56
119
120
68
146
145
81
156
145
77
134
124
70
111
122
68
106
128
62
121
134
76
103
108
62
134
135
87
140
152
99
124
147
86
139
153
91
141
147
87
130
148
85
116
135
67
119
139
74
116
145
86
138
157
103
146
135
80
165
165
118
161
176
128
175
171
114
157
158
104
161
152
99
169
155
104
152
149
86
152
161
93
154
151
91
164
164
122
156
171
120
149
159
100
107
97
78
91
83
57
122
122
75
149
142
89
142
139
88
126
148
79
143
153
83
70
66
38
99
112
69
131
160
93
133
153
96
114
117
69
112
114
70
104
96
69
144
161
123
136
164
110
110
113
65
140
143
96
121
130
87
112
127
82
121
141
92
111
118
68
107
98
61
139
132
82
142
135
92
134
144
85
149
140
93
148
132
86
146
128
83
166
135
96
173
145
103
174
145
103
186
162
113
183
159
103
188
157
110
145
149
97
185
173
129
211
186
149
217
196
158
218
195
162
228
208
178
228
211
188
222
201
176
208
181
152
201
178
136
201
181
134
214
189
154
211
183
143
195
165
116
211
178
131
226
199
161
215
191
158
190
164
128
168
143
110
177
154
113
156
140
98
130
114
86
133
107
73
143
127
80
152
137
79
152
125
73
162
144
97
156
148
98
149
143
89
141
131
83
128
118
63
123
103
41
107
86
41
122
111
53
146
146
87
145
160
83
165
152
88
120
139
72
136
150
85
155
141
89
148
143
75
136
129
56
128
116
71
139
154
108
173
188
142
144
153
89
130
149
91
142
138
91
161
121
77
139
121
63
128
122
55
129
134
83
167
140
99
149
147
103
143
152
105
137
151
105
142
134
80
160
148
82
143
121
80
154
144
105
147
143
88
157
147
99
134
133
76
120
108
65
118
99
56
115
109
55
131
137
72
115
124
42
105
116
45
116
133
67
117
136
76
124
129
88
124
129
79
113
121
79
130
137
80
129
132
77
134
147
85
148
159
108
150
154
110
134
143
67
133
150
91
143
150
91
141
155
101
151
159
108
141
147
89
140
136
77
131
137
81
131
133
83
141
144
85
153
150
89
142
153
93
149
148
74
136
133
70
128
142
86
131
149
80
128
138
63
134
139
80
115
132
62
124
135
71
127
141
96
129
155
102
132
152
93
144
157
104
137
150
94
146
169
122
134
164
116
103
129
70
141
149
98
128
138
81
128
143
71
141
152
79
123
131
65
133
143
68
127
149
78
125
149
73
129
145
58
153
153
100
138
138
81
148
164
110
135
159
106
139
155
93
151
161
90
151
163
98
137
162
91
139
153
85
128
143
77
145
158
105
143
156
75
131
141
73
143
152
87
144
158
92
125
148
70
136
151
84
133
143
71
130
132
69
160
155
102
156
147
82
138
136
71
119
136
73
115
138
70
136
145
75
139
150
81
137
142
85
123
142
80
117
140
72
144
162
102
126
145
79
127
150
84
111
137
64
120
136
72
111
142
82
142
154
107
151
136
88
159
160
105
155
170
121
167
177
120
150
161
104
140
144
85
165
170
115
151
144
81
150
156
90
171
170
122
169
180
146
153
170
113
144
153
95
123
113
84
116
113
67
142
145
85
165
166
123
153
154
96
149
161
100
167
180
117
116
130
91
129
157
102
129
152
89
139
155
104
123
141
79
141
159
98
132
121
81
149
161
120
166
164
126
161
157
111
149
163
101
153
177
131
112
124
78
121
148
93
117
127
68
118
113
69
128
126
76
137
146
84
134
151
76
143
137
86
153
138
84
148
133
81
161
148
104
166
164
107
175
158
103
174
162
99
179
168
111
174
166
116
133
154
102
196
181
139
226
200
157
214
195
154
217
194
163
218
198
169
211
195
163
198
177
137
202
170
133
204
181
140
212
192
153
236
212
182
227
207
171
209
187
143
221
193
153
212
182
141
203
177
139
206
181
148
181
155
123
156
141
103
159
153
110
152
140
105
148
133
97
149
146
87
140
157
105
142
148
112
124
116
84
100
93
53
123
140
74
128
142
77
132
148
79
123
132
48
113
105
41
125
140
68
136
145
83
142
158
95
137
142
88
117
136
63
115
137
67
130
121
66
149
144
81
126
133
66
129
140
78
133
156
87
162
170
115
136
144
94
139
154
84
144
127
69
128
123
65
141
123
70
123
113
58
126
144
95
159
157
105
159
153
107
147
149
105
141
148
105
151
149
89
160
161
95
148
136
97
139
133
85
135
132
72
127
121
67
120
120
58
123
122
76
104
89
44
123
121
64
140
147
91
109
116
50
125
125
70
139
151
93
122
140
80
110
117
74
119
125
76
152
150
109
124
137
84
134
146
86
134
148
76
132
151
87
146
161
110
120
141
62
115
137
77
126
142
79
138
158
86
139
154
95
131
148
79
127
136
67
125
135
77
123
133
81
126
139
74
133
140
78
144
154
99
150
156
81
132
140
64
127
137
68
127
142
65
131
147
69
129
143
77
105
123
58
123
131
76
117
131
81
134
151
107
127
141
90
125
137
84
119
131
70
123
151
94
123
152
102
103
134
68
122
139
84
116
128
73
108
132
64
127
146
74
117
125
66
113
122
52
119
142
68
118
144
72
133
145
71
134
131
72
145
151
89
152
169
116
147
161
104
139
161
79
151
166
93
137
156
88
129
153
79
137
150
70
136
159
89
136
147
79
155
151
80
149
156
84
149
158
87
168
172
112
137
154
66
137
159
85
130
152
77
127
137
72
149
139
84
154
153
87
134
147
75
130
148
77
125
148
76
141
150
85
138
149
90
147
155
95
123
147
73
116
136
65
147
165
112
136
156
95
122
148
76
110
136
62
106
121
56
101
135
72
141
156
99
160
156
96
163
161
101
155
160
104
168
176
128
145
164
103
144
153
86
136
145
90
134
131
71
142
158
87
159
173
126
166
182
145
159
163
104
157
166
113
157
155
116
128
127
78
149
146
78
166
171
117
151
160
106
162
172
119
164
181
131
127
152
94
128
155
94
140
149
90
148
159
108
133
162
92
147
174
107
122
127
81
162
166
120
162
168
112
136
150
87
145
165
102
164
189
149
123
148
94
124
152
89
135
143
87
143
146
93
138
139
85
141
166
82
155
163
73
146
141
83
143
140
79
147
155
96
161
169
121
155
156
88
153
162
89
155
163
87
170
169
108
163
162
106
140
160
113
193
188
149
221
198
154
193
182
129
192
183
139
201
192
157
196
189
151
194
181
140
199
175
133
189
176
133
201
185
142
237
213
180
211
199
156
190
178
127
223
204
165
221
200
163
196
173
130
204
186
144
197
176
141
150
138
101
135
132
95
147
133
102
158
150
108
136
155
89
152
159
86
124
125
71
140
146
78
104
108
59
119
134
87
135
158
100
126
154
88
127
151
74
122
134
60
114
136
69
135
152
75
151
159
94
156
156
104
161
164
98
122
150
77
128
130
79
155
147
91
136
128
77
129
139
74
125
132
66
149
144
89
131
142
88
139
158
81
144
145
78
123
132
65
130
128
69
111
115
65
125
144
97
136
156
98
154
158
118
152
165
122
138
151
91
144
157
76
152
158
106
138
124
80
150
142
86
143
139
89
122
119
72
122
125
71
139
146
97
111
95
55
135
145
97
109
126
69
107
125
51
125
137
82
121
144
82
114
140
67
111
126
70
93
114
67
103
111
75
130
147
99
129
142
85
121
142
71
116
133
64
119
135
65
110
137
65
98
123
69
102
128
63
119
145
79
128
155
85
120
137
58
126
135
59
129
135
67
134
133
72
144
139
71
135
149
92
123
143
87
135
141
82
120
122
57
119
126
58
113
135
66
132
140
69
106
118
64
103
124
66
124
138
78
123
134
81
117
128
78
126
138
86
116
123
70
123
136
79
121
141
73
112
138
73
102
135
58
109
135
77
102
123
66
94
112
57
109
132
68
108
128
62
111
114
58
116
145
58
129
159
83
132
143
78
136
137
70
149
157
87
140
156
90
124
150
78
140
160
76
148
165
101
137
152
87
127
145
72
127
145
65
134
150
77
140
147
79
148
140
74
154
151
79
142
154
75
163
169
104
150
164
88
131
160
66
115
147
63
118
132
65
144
141
77
138
143
67
126
140
68
142
154
83
136
160
82
143
150
84
131
145
85
147
162
95
125
154
69
136
152
77
152
168
112
144
160
101
134
157
81
119
148
68
117
141
66
101
133
58
127
150
80
151
153
80
151
155
86
151
157
86
156
163
109
151
160
102
149
159
103
121
137
71
116
125
63
133
155
84
134
160
104
147
168
121
152
146
91
161
162
109
173
179
126
158
162
103
164
165
103
148
164
97
150
166
112
159
175
126
148
166
121
130
159
90
132
154
87
126
140
75
132
148
79
124
155
78
124
156
81
124
144
88
147
157
108
138
163
92
134
157
82
136
146
84
166
190
151
131
159
105
123
149
87
137
145
86
169
168
123
148
162
116
132
153
76
155
168
85
158
156
87
148
147
84
139
156
96
136
151
87
153
167
80
151
165
83
147
167
87
142
160
91
156
164
109
150
167
121
178
182
136
220
200
160
165
162
102
167
179
137
191
189
147
172
176
128
192
186
138
200
191
140
170
168
123
175
168
116
219
192
152
184
179
133
164
163
102
202
194
151
236
219
187
227
206
172
183
177
128
186
184
142
167
160
110
138
142
94
148
151
108
159
173
124
160
161
109
157
167
77
133
133
65
137
149
87
122
139
74
121
136
87
135
160
107
120
147
83
124
154
76
138
155
76
135
152
70
145
160
84
147
158
89
158
150
99
151
156
87
139
154
87
133
148
92
148
149
89
172
162
88
180
155
64
150
147
86
148
145
93
137
151
87
130
140
66
139
147
77
143
157
90
142
149
83
112
132
78
130
144
95
133
144
90
158
157
109
137
145
92
142
152
91
138
146
74
160
159
110
141
141
80
142
149
92
158
158
119
137
156
88
137
156
82
143
149
97
143
148
105
152
166
121
132
146
99
107
129
62
134
152
95
133
158
96
118
138
67
139
152
92
123
135
90
136
135
100
143
169
119
132
157
101
112
135
73
115
136
75
102
118
50
109
133
76
117
142
95
102
119
66
103
121
60
104
128
65
115
121
51
120
124
49
152
135
57
196
143
74
219
148
85
206
145
87
198
146
83
193
144
88
157
136
71
117
132
54
103
119
53
138
142
72
132
137
75
116
142
67
123
150
85
124
139
82
122
127
68
130
136
78
118
130
77
120
137
81
126
141
62
116
144
60
109
143
64
113
132
74
106
127
67
95
116
57
107
129
63
117
138
65
126
134
67
118
144
55
127
159
76
133
151
78
140
147
80
143
155
86
131
153
83
130
155
88
138
148
78
147
161
102
148
150
89
134
152
70
121
141
69
139
149
84
153
154
94
144
152
87
149
142
80
147
153
72
136
150
75
145
156
88
136
157
81
122
150
73
121
128
62
139
133
70
131
137
64
131
152
80
136
153
79
125
149
65
133
145
75
126
146
77
137
152
85
118
149
68
133
156
83
142
158
96
134
160
96
130
152
85
132
154
90
128
146
76
104
132
52
116
145
65
133
143
71
153
157
95
155
167
90
152
173
114
135
154
95
131
150
86
139
160
83
143
158
94
124
144
76
126
154
85
142
156
92
157
152
91
164
166
103
151
162
100
154
155
94
175
174
118
153
167
105
141
164
105
146
168
117
137
158
104
133
161
88
129
148
72
129
145
76
122
145
76
127
154
86
133
156
83
131
151
89
146
160
100
139
159
80
140
161
89
141
147
76
155
176
132
126
155
96
116
147
77
129
145
79
162
161
110
152
164
111
136
159
85
146
162
78
161
168
97
155
165
99
132
155
92
121
149
80
142
161
79
135
156
84
130
158
83
139
163
101
151
168
119
136
162
112
158
169
109
190
180
125
152
163
109
153
170
127
179
179
136
154
164
104
172
170
104
171
168
105
176
166
120
166
168
118
217
204
161
158
166
109
180
179
124
171
173
117
195
198
153
230
218
187
179
178
132
176
183
131
184
180
128
168
178
134
160
170
122
139
153
77
154
152
78
146
156
80
160
170
103
157
177
119
138
156
88
126
144
88
125
151
100
117
145
86
129
156
87
138
155
72
130
148
67
152
161
88
161
163
100
165
161
111
139
159
78
135
153
67
137
162
101
149
152
89
186
158
88
179
147
61
145
147
68
153
159
98
150
153
97
154
161
116
154
169
120
139
159
93
144
157
102
123
142
89
127
141
75
134
140
81
143
149
90
138
149
86
146
159
101
148
159
106
165
172
120
154
162
96
145
160
113
126
146
70
161
184
116
169
175
122
136
133
80
145
166
118
156
168
132
143
159
121
113
140
86
128
151
86
140
161
104
138
151
95
137
152
91
157
167
113
143
155
99
139
158
101
130
157
94
116
145
78
117
143
82
99
116
59
100
121
63
101
129
66
113
127
65
102
107
56
87
89
37
179
138
70
195
125
75
210
134
71
219
148
68
219
125
71
219
120
71
240
127
80
247
140
99
206
137
81
153
135
59
119
119
58
123
140
72
121
131
68
108
133
66
120
148
83
109
130
68
129
144
79
119
133
72
112
133
71
112
135
65
136
151
59
122
149
61
118
143
75
119
126
68
115
129
61
118
135
68
125
138
63
122
144
64
129
153
69
122
154
62
113
138
54
128
142
64
149
155
91
141
158
91
122
149
79
141
155
95
146
148
91
142
163
106
129
152
85
126
149
82
136
147
75
130
147
76
150
157
94
150
149
86
147
148
81
155
143
60
139
152
65
134
147
78
129
151
81
126
149
74
139
142
73
126
126
50
127
137
70
148
162
105
150
161
92
127
152
64
119
143
66
125
149
73
138
153
87
129
152
84
131
149
81
135
143
74
142
159
96
131
147
86
136
159
106
137
153
88
124
138
58
124
151
73
137
156
86
155
159
95
162
169
91
158
178
118
137
161
100
122
150
74
128
153
71
126
148
78
138
156
89
125
150
79
141
157
85
158
163
101
158
165
99
142
159
88
129
144
76
150
149
84
150
157
90
142
164
101
134
161
96
134
157
98
137
163
94
135
158
74
149
163
97
134
150
89
148
166
109
146
169
102
148
158
102
164
176
124
146
166
96
140
161
93
139
154
91
138
157
97
123
146
72
112
141
67
128
157
94
145
143
82
143
143
76
141
153
75
147
162
84
162
171
114
169
179
124
130
152
86
128
149
80
132
147
77
130
156
95
127
151
89
147
165
112
140
163
118
128
160
108
142
156
86
154
163
99
146
165
114
139
156
102
152
162
108
150
158
98
157
154
94
145
151
90
154
157
106
140
161
104
163
175
123
136
159
91
162
178
122
155
167
109
164
173
111
185
186
139
153
168
106
162
170
113
164
170
109
135
154
92
161
170
111
150
163
97
151
156
83
137
153
77
164
174
123
160
177
132
167
174
119
146
160
105
133
154
100
118
140
80
128
151
80
127
143
58
132
150
79
135
153
86
167
170
107
154
150
86
139
156
75
131
147
69
127
146
79
147
157
99
160
150
101
134
141
68
130
142
73
142
139
98
150
156
109
160
160
115
162
168
112
145
158
103
143
153
93
149
161
103
140
157
80
136
145
85
132
146
79
135
149
78
136
139
78
167
173
133
164
178
131
156
177
112
144
170
106
145
162
74
152
161
89
166
167
110
143
145
91
141
154
99
131
145
98
151
164
120
148
170
129
131
149
89
129
144
85
145
162
110
142
157
102
137
161
109
148
162
115
130
151
82
120
139
72
114
141
76
121
148
94
126
145
94
109
129
67
101
126
52
120
137
82
102
115
67
97
98
47
182
117
51
210
101
55
213
103
50
213
147
60
180
141
68
191
140
86
230
121
76
243
124
85
212
130
76
220
146
84
176
124
74
137
147
92
121
138
74
120
139
76
113
141
76
100
126
61
109
133
72
122
143
86
108
129
65
113
140
64
133
157
66
127
149
73
116
135
72
116
124
71
122
127
75
127
134
76
130
137
70
130
145
76
125
154
69
130
162
78
131
155
86
127
145
67
131
147
75
134
154
85
119
144
78
133
147
90
138
156
97
138
165
107
128
150
81
133
153
90
139
153
78
128
150
81
145
157
98
155
150
90
157
152
82
151
149
70
131
146
58
130
152
82
121
148
76
127
153
86
143
154
90
137
141
64
137
151
89
158
169
115
165
175
117
136
159
83
123
145
73
122
141
73
144
164
103
139
159
88
139
155
73
135
145
78
128
147
84
131
155
88
138
163
108
147
157
100
141
143
71
128
146
76
125
148
82
154
161
100
154
161
86
154
167
96
134
163
88
121
153
69
127
157
73
129
153
78
144
162
95
127
153
77
144
165
96
144
157
94
156
165
95
149
169
95
132
154
85
145
152
80
141
160
80
138
167
91
134
156
86
141
162
103
140
158
91
127
156
76
142
163
105
148
159
104
163
172
115
149
165
101
155
158
94
154
157
89
137
162
79
142
162
95
144
160
102
130
148
81
126
144
64
123
148
71
128
157
93
138
150
82
137
150
67
134
148
65
142
160
77
151
170
100
148
168
106
122
149
71
130
146
76
136
154
93
125
151
98
150
167
118
146
164
110
129
156
103
133
157
105
157
159
95
145
158
98
144
159
99
146
158
94
152
163
106
167
171
124
141
153
83
135
150
82
120
146
78
124
155
82
127
154
83
138
162
103
157
180
130
144
166
111
146
162
105
157
170
111
148
172
102
161
176
123
162
173
121
139
158
84
163
171
117
152
164
111
137
152
86
136
151
82
151
162
105
162
177
125
175
180
137
148
164
111
158
178
123
133
149
89
131
152
76
129
148
71
137
149
80
136
141
72
141
152
87
144
151
83
136
148
77
118
141
68
109
133
64
127
148
84
155
152
103
147
151
95
136
148
81
141
141
90
146
146
92
151
157
97
154
167
94
152
167
103
148
160
90
141
161
102
118
142
74
121
138
66
147
162
101
142
153
88
127
135
66
155
170
126
147
161
113
143
165
103
132
153
97
136
145
81
136
151
94
138
152
99
132
146
86
126
146
69
132
155
93
139
159
106
137
155
106
136
156
89
123
146
87
142
168
122
146
169
123
120
142
89
147
159
113
121
143
72
118
141
61
106
136
65
120
149
99
133
158
111
122
144
89
109
126
70
112
129
84
89
95
55
96
96
47
169
135
62
203
130
61
191
107
49
183
130
55
157
140
61
154
144
87
190
116
61
188
113
64
174
110
61
195
112
63
182
112
71
141
142
88
118
137
69
126
142
78
106
131
67
108
130
66
107
129
68
122
141
83
120
138
73
117
142
62
135
158
80
124
136
75
101
111
58
90
92
54
104
102
65
112
111
65
132
141
86
129
148
88
129
156
90
142
168
103
142
164
107
136
156
90
125
148
77
131
156
90
122
147
82
133
154
92
140
165
102
133
163
101
124
148
86
138
160
104
137
151
90
122
144
75
128
145
81
150
150
86
150
150
80
139
141
66
124
136
49
134
154
80
120
149
79
126
155
89
134
152
83
146
156
77
152
166
96
150
166
104
149
165
110
143
162
102
142
154
96
127
143
84
140
160
108
146
160
106
140
153
93
125
138
78
118
138
72
125
155
91
129
152
96
132
150
88
146
159
94
145
157
101
142
156
100
149
159
100
154
165
100
144
155
84
124
155
74
126
156
76
125
154
68
138
158
77
139
153
91
126
152
80
136
161
86
133
156
87
149
160
89
137
160
81
121
151
76
134
154
80
132
161
74
133
164
77
136
158
88
138
155
89
127
147
78
125
154
77
148
163
109
165
169
110
158
162
84
150
162
76
156
160
87
154
165
76
135
159
74
132
150
80
127
147
79
121
143
73
127
141
66
148
160
94
128
152
84
136
159
93
129
152
79
132
150
74
138
150
66
153
170
90
150
171
104
136
162
92
141
160
97
142
160
98
121
147
84
131
154
93
127
150
85
127
151
87
135
157
104
155
160
104
143
155
93
149
163
94
140
157
89
147
163
109
156
165
118
140
152
77
130
154
73
118
148
70
149
155
71
157
157
79
129
150
86
137
162
101
156
178
122
159
179
125
146
160
91
137
166
83
162
173
118
153
169
113
128
151
74
161
174
118
162
177
128
149
168
113
133
147
86
142
151
85
150
163
85
161
172
109
155
167
109
154
164
103
156
162
98
134
147
78
123
147
77
133
148
82
147
142
80
139
151
90
145
160
108
143
160
103
122
144
79
96
122
58
111
132
57
146
151
89
149
169
120
128
153
87
124
145
79
127
141
81
147
149
91
148
156
83
146
165
97
138
159
83
146
163
100
129
151
88
129
148
75
158
170
108
141
157
92
137
161
94
157
169
124
160
171
124
135
155
99
128
149
88
136
144
89
132
152
91
128
155
88
140
158
95
133
155
76
132
159
90
124
152
93
125
147
86
128
149
79
132
160
100
136
164
112
160
172
128
153
161
111
141
157
103
123
148
82
121
151
67
122
157
65
121
151
89
123
151
103
125
154
101
118
144
85
121
140
79
98
99
52
103
103
57
128
132
68
156
138
62
158
133
56
149
133
57
138
122
48
132
148
82
157
128
63
146
138
73
154
113
65
161
107
57
150
132
81
144
149
92
122
132
61
120
135
70
107
131
68
120
141
81
127
142
84
132
143
84
130
152
80
113
134
55
124
143
74
104
114
60
94
107
60
85
96
52
100
112
66
112
127
77
128
141
88
128
142
86
127
146
92
144
163
106
150
165
111
141
157
99
127
151
88
131
156
89
128
151
81
131
148
78
139
160
97
138
162
104
131
153
80
140
161
80
145
163
86
126
153
76
122
145
70
136
149
77
135
148
78
137
143
70
157
150
66
149
151
73
144
161
99
143
160
97
141
153
84
142
149
69
145
165
88
150
171
111
141
164
108
139
159
102
140
154
94
131
145
83
137
147
92
146
151
101
152
158
107
146
154
94
124
145
70
125
157
87
126
149
88
126
152
92
131
151
90
145
158
103
154
164
112
142
147
85
145
154
91
139
150
82
128
155
78
140
165
88
128
150
73
151
161
98
155
160
113
130
152
83
127
159
70
133
158
88
139
154
91
133
156
80
117
150
68
124
156
77
121
156
65
125
153
61
132
149
72
134
149
70
120
144
64
127
159
79
145
160
107
162
162
113
156
153
97
164
167
113
161
170
111
145
164
80
132
154
76
123
141
70
128
150
76
122
148
80
142
149
87
158
166
106
139
157
93
133
153
97
126
152
90
131
150
84
139
147
65
145
162
79
149
167
103
159
177
124
154
170
109
137
154
85
124
145
74
116
140
69
127
153
75
133
158
81
135
161
98
148
164
110
138
152
80
137
154
72
132
150
79
141
162
105
138
161
100
131
151
83
135
161
86
147
147
73
204
159
71
204
179
88
150
166
97
127
151
84
137
162
98
143
167
106
143
164
97
130
164
75
146
158
103
138
156
100
123
142
73
136
146
80
146
166
116
147
171
120
140
151
97
159
160
106
164
167
105
158
167
106
167
177
129
150
158
94
151
156
89
150
156
89
131
150
85
129
150
83
142
144
86
146
153
97
138
159
110
139
158
107
134
151
93
109
130
68
128
144
84
145
162
98
154
173
131
147
165
116
141
156
106
141
150
98
132
147
88
150
163
101
141
155
98
129
139
73
143
152
91
146
157
104
152
165
102
133
150
79
131
154
83
151
174
107
165
178
131
150
164
113
139
164
113
128
154
90
143
151
91
133
148
75
139
156
85
132
155
94
133
157
94
128
154
94
132
158
96
132
157
96
130
157
87
115
144
77
141
165
112
154
162
113
139
148
97
131
154
102
138
151
81
122
146
69
127
163
66
123
153
79
127
148
97
137
159
107
131
156
97
139
156
86
127
128
71
125
130
75
116
136
75
119
135
67
132
140
66
152
159
96
157
160
102
134
156
93
140
151
82
138
152
83
154
140
79
150
134
70
145
157
101
145
156
96
128
136
63
124
142
73
123
142
82
142
161
103
143
154
92
145
145
83
137
150
85
116
125
60
107
120
56
100
118
59
106
123
69
112
129
73
114
133
78
129
151
104
133
150
99
138
148
92
140
150
97
153
166
111
158
167
109
146
156
91
132
154
93
131
157
88
128
148
73
133
143
72
138
153
88
140
160
100
131
156
85
141
160
80
144
165
88
127
153
73
125
149
70
135
151
75
141
157
90
148
156
95
153
154
90
154
156
92
162
172
123
152
163
113
137
147
90
141
151
87
138
161
92
143
169
104
142
167
104
134
159
95
127
151
86
126
143
76
141
149
84
137
147
85
143
153
99
158
166
116
132
151
81
127
153
86
141
163
107
147
172
125
150
168
118
150
162
110
143
160
106
131
149
76
142
150
79
151
156
99
149
160
101
143
158
93
133
153
81
148
159
104
149
155
90
127
146
72
124
154
65
129
154
85
140
162
103
128
156
81
124
150
71
131
159
87
122
153
68
127
148
61
128
141
61
122
137
53
130
157
66
135
169
76
141
158
101
142
150
93
151
152
98
166
160
116
156
167
104
131
156
78
130
155
77
133
158
75
127
155
67
128
155
87
147
156
97
138
151
82
131
147
81
134
154
99
124
152
89
130
151
82
144
152
79
135
146
70
124
140
62
137
152
75
146
155
83
139
156
80
125
147
71
123
141
63
133
156
73
132
161
73
133
157
76
145
157
90
126
144
69
132
146
63
129
145
68
125
147
83
132
152
95
126
148
87
156
152
85
175
143
69
186
139
57
168
151
73
151
166
107
130
151
93
113
137
71
125
152
83
156
179
132
141
168
95
146
163
107
140
156
104
134
149
92
124
139
78
137
159
101
140
168
108
142
152
97
179
173
129
167
169
119
160
165
114
158
164
115
157
163
111
151
152
89
146
149
70
135
151
74
135
157
84
139
134
75
149
142
89
140
159
106
144
163
110
132
142
82
125
142
87
138
150
96
137
153
91
148
167
121
157
171
122
138
148
101
146
157
105
123
144
87
141
151
95
130
144
85
138
149
85
136
148
93
145
155
104
155
165
106
141
155
91
132
153
86
138
162
89
155
167
117
156
163
110
138
157
101
126
147
81
145
147
86
138
150
74
133
151
73
128
146
84
134
147
95
134
155
100
144
169
114
139
165
110
125
154
81
109
136
63
119
139
81
141
157
103
131
150
98
130
156
107
139
157
92
125
150
81
126
162
70
124
155
70
131
145
84
139
153
93
142
160
105
150
164
102
143
154
83
136
147
77
126
138
76
122
134
71
126
133
66
140
149
90
153
170
114
132
155
92
127
145
73
142
150
86
152
163
99
139
152
85
141
158
99
137
153
93
124
139
75
117
139
73
121
142
82
130
155
92
136
158
89
141
147
89
128
145
88
124
140
82
95
114
52
99
126
60
118
138
81
126
147
87
123
145
84
134
160
113
142
165
119
142
158
104
141
158
99
148
167
110
153
165
104
148
155
89
136
159
103
131
160
89
130
149
73
135
142
72
131
139
68
127
144
83
127
153
87
140
156
88
142
156
84
131
144
66
130
146
67
134
148
70
140
155
86
144
155
91
146
155
93
151
157
97
147
152
102
132
140
90
125
131
78
130
139
89
135
149
95
138
158
92
141
163
101
138
163
103
133
157
101
133
146
90
139
152
87
134
158
85
137
158
86
146
160
101
139
156
96
135
154
95
143
163
110
147
163
115
152
167
114
156
174
127
140
161
112
131
149
78
152
162
93
160
166
120
153
168
109
144
165
86
139
159
84
143
161
102
149
160
86
138
154
78
130
152
71
122
150
69
129
159
90
123
151
76
129
154
81
149
172
109
133
158
81
135
151
67
132
143
62
125
137
52
127
151
61
139
166
78
157
171
114
151
161
103
146
153
99
158
156
101
140
146
85
126
144
74
137
155
77
143
165
76
134
160
65
128
150
80
133
148
87
129
146
78
131
146
78
137
159
103
126
155
95
137
160
96
151
162
98
138
146
81
116
140
62
127
150
65
128
144
62
128
147
68
124
144
63
128
138
61
126
144
65
115
145
63
126
141
65
145
151
79
133
145
65
137
147
66
128
151
67
121
146
73
133
148
86
120
129
63
148
144
75
162
141
73
154
148
75
155
161
102
145
163
111
130
152
90
122
143
71
131
146
74
137
150
89
153
168
109
157
169
121
151
155
106
149
149
93
139
150
94
133
156
95
143
167
99
153
162
106
178
177
137
171
170
126
146
152
99
135
144
81
153
155
97
164
164
108
160
156
98
146
157
85
139
161
89
145
150
91
148
149
92
146
166
109
153
169
115
146
151
98
142
154
110
143
153
101
144
153
100
149
158
109
140
151
96
128
137
83
143
150
98
119
135
78
134
141
77
127
141
72
124
137
74
130
151
90
139
154
101
149
158
111
137
150
93
125
150
84
135
158
83
160
162
113
150
156
101
135
152
94
131
153
88
136
144
85
122
148
73
124
149
74
137
150
92
143
153
104
131
152
99
135
163
108
143
170
124
121
151
85
120
140
74
125
139
80
130
150
96
140
159
110
151
169
125
131
156
97
125
151
89
125
157
67
137
168
86
139
152
88
133
144
81
144
159
102
152
166
112
136
153
85
143
154
90
143
153
92
131
141
77
133
140
73
134
148
78
132
154
89
124
146
80
119
139
65
135
149
85
145
164
104
134
150
83
134
146
78
130
148
86
119
142
82
114
133
74
111
134
75
126
155
82
147
169
99
143
158
99
123
146
89
119
148
89
101
130
63
106
134
66
118
139
82
122
145
88
123
150
87
120
149
84
134
161
104
137
159
103
129
155
94
133
157
94
136
157
92
131
152
87
132
160
107
131
156
88
133
153
78
131
142
72
121
133
61
125
142
81
129
149
86
136
149
87
149
162
97
148
152
87
140
145
77
129
139
68
131
147
70
136
150
78
142
150
87
139
146
90
134
141
84
124
128
71
135
134
73
132
140
75
133
143
85
138
148
91
138
154
98
131
157
101
134
157
106
141
153
100
142
154
90
142
165
92
147
168
93
144
157
85
130
150
82
136
150
94
142
152
100
145
151
99
138
153
93
150
168
117
136
156
104
135
150
93
159
167
117
157
172
119
147
172
97
147
174
94
152
172
103
149
168
101
148
164
101
152
167
101
142
161
88
124
146
67
124
154
76
130
155
90
135
157
93
157
175
128
137
163
98
124
148
69
134
152
76
141
154
72
134
154
69
134
155
72
162
174
110
149
156
103
134
137
80
142
149
93
132
144
81
131
153
70
136
148
73
128
146
67
130
152
62
123
142
65
119
140
64
126
150
68
133
153
78
135
158
101
139
164
113
138
162
101
145
161
96
140
148
82
124
149
64
131
163
61
134
159
72
128
148
71
124
141
65
119
132
62
118
133
63
110
132
59
120
136
65
134
143
72
134
144
62
135
149
65
129
147
64
133
149
70
134
148
77
132
151
74
140
155
80
152
148
82
144
150
85
144
160
104
142
160
105
137
155
87
134
149
70
144
151
75
142
144
79
162
167
120
152
160
109
146
147
89
139
127
74
135
142
88
131
147
90
144
149
83
164
162
110
177
169
128
161
154
103
135
144
85
131
138
69
140
144
71
163
164
102
164
160
108
145
150
92
134
154
79
143
159
88
151
169
100
143
170
99
145
163
96
137
154
98
140
161
112
142
152
94
156
155
102
155
159
111
138
146
94
128
137
77
125
140
78
111
133
69
132
140
79
128
137
69
124
135
69
134
148
80
138
149
92
128
140
90
124
142
82
118
147
70
125
149
72
143
155
100
140
157
102
132
155
99
138
159
97
130
145
81
109
133
62
124
139
75
143
151
98
135
145
92
120
140
83
119
145
87
136
164
116
128
153
102
114
136
75
118
133
72
131
148
94
161
177
136
152
167
122
129
151
93
120
141
81
122
146
67
131
157
81
129
145
86
129
140
86
137
149
96
146
157
107
139
157
94
143
158
98
145
158
99
144
151
91
139
147
81
129
147
75
123
148
80
122
146
77
129
143
74
141
148
85
144
154
94
135
146
84
138
148
87
128
150
91
116
142
82
115
132
72
115
133
74
127
153
81
137
157
81
133
144
83
116
140
82
119
147
86
109
137
70
106
137
70
112
133
76
123
144
88
130
151
91
123
146
76
129
155
89
142
166
111
141
167
114
131
152
89
128
153
87
125
152
88
126
153
94
124
150
83
125
149
78
117
135
65
119
134
63
138
151
89
138
148
88
131
138
76
145
157
91
154
157
97
144
144
86
132
138
72
137
150
79
141
154
79
142
151
74
134
141
76
133
140
77
128
130
67
134
132
68
129
136
66
133
141
75
135
138
82
135
146
101
130
152
106
133
154
101
148
159
105
152
161
100
145
163
95
151
169
98
148
161
89
133
151
84
134
146
86
143
151
97
144
151
94
142
156
99
141
162
101
130
154
88
141
157
102
154
166
117
145
168
93
136
169
68
149
178
105
164
183
136
164
179
128
153
170
113
152
173
112
155
168
107
153
166
99
138
160
85
135
159
86
143
163
98
166
181
140
141
162
101
116
148
63
126
148
65
138
154
71
139
158
79
135
148
65
158
169
92
149
150
90
139
140
77
140
142
83
131
139
73
129
153
69
127
145
61
114
132
48
122
144
53
127
146
61
133
155
70
125
152
64
122
149
78
136
154
96
150
164
110
142
157
103
140
155
92
132
148
79
128
145
68
134
153
66
125
153
66
124
144
74
122
137
71
132
141
79
142
149
88
121
135
65
123
135
63
140
147
74
136
151
66
137
148
66
137
144
71
140
147
72
139
150
70
129
150
69
142
154
82
149
150
78
145
152
80
148
158
102
140
147
85
140
148
73
147
151
73
153
157
85
154
161
93
151
158
102
139
151
92
138
142
80
129
126
67
122
129
66
130
134
81
141
131
79
138
129
72
158
162
99
152
167
112
134
146
85
132
137
65
139
145
72
154
161
99
164
167
108
144
153
86
125
145
74
133
158
78
138
164
83
147
169
98
148
166
104
131
156
96
134
153
92
141
156
84
145
154
89
160
163
103
175
176
126
157
161
110
128
149
90
109
135
71
123
136
76
127
133
73
126
137
70
132
148
78
130
146
86
129
136
79
126
136
73
123
143
70
125
153
73
134
150
89
129
139
84
134
153
99
153
166
109
144
153
91
124
131
64
140
138
83
148
144
94
142
149
91
129
137
74
118
138
78
137
164
114
134
161
111
121
145
83
124
138
73
142
159
108
143
165
118
117
143
89
125
142
87
120
137
78
127
145
78
126
147
75
119
140
70
124
138
77
132
144
87
141
151
94
146
156
99
146
156
102
145
155
101
145
150
91
137
146
81
123
142
75
119
146
83
123
149
86
136
146
81
148
151
90
155
158
100
148
153
97
150
158
105
135
153
98
123
142
82
129
137
75
125
139
70
123
147
77
127
147
73
130
141
76
127
143
88
137
152
95
130
147
81
113
136
72
109
131
72
129
147
90
139
153
98
138
155
92
133
155
91
147
171
121
144
168
124
130
148
89
132
152
90
132
153
92
137
152
93
135
149
88
126
144
81
115
132
65
123
130
62
142
144
82
137
138
81
136
137
73
144
153
84
150
154
90
144
141
83
139
140
84
149
158
100
150
161
94
145
158
87
134
148
80
129
144
72
129
139
67
131
136
68
128
137
72
131
137
68
141
139
75
139
141
90
136
145
104
141
153
104
156
165
112
156
163
105
143
156
93
138
153
93
150
160
108
147
160
107
143
152
97
161
167
118
150
156
96
141
156
86
140
165
91
134
164
79
132
156
79
138
159
82
138
170
67
132
171
57
136
166
96
149
170
125
156
178
126
156
177
116
149
167
104
141
160
88
160
176
105
157
176
109
152
173
110
149
169
107
160
175
128
138
151
90
119
136
61
125
145
66
135
150
75
142
157
87
141
146
66
153
163
74
147
158
86
143
149
79
153
149
86
145
141
76
127
144
62
134
150
59
128
147
56
131
152
59
137
152
65
138
158
78
119
148
65
125
149
79
143
161
93
138
147
77
141
140
80
142
146
86
126
146
75
127
138
69
131
138
69
119
131
62
114
129
66
119
133
69
139
146
87
151
152
96
138
136
75
137
143
72
140
154
79
146
156
79
138
147
73
147
156
97
155
160
98
145
146
72
129
144
66
140
148
79
141
146
68
135
151
69
134
145
84
140
145
77
129
136
63
120
124
54
128
139
72
131
153
79
136
154
86
127
142
76
133
140
76
144
153
93
126
146
89
130
142
93
139
137
87
140
134
77
140
151
87
140
157
95
143
151
90
148
148
87
150
148
88
147
151
88
145
155
97
126
138
73
132
142
78
139
152
80
128
152
71
133
152
87
145
159
105
130
143
86
137
145
82
137
154
82
135
153
85
143
161
96
158
170
114
146
149
95
131
141
80
120
146
75
123
138
73
135
131
73
136
139
71
131
150
81
124
144
86
129
137
71
127
138
69
123
142
69
133
158
88
137
154
97
129
145
81
123
143
69
134
141
80
140
147
93
125
133
79
123
121
71
134
131
80
137
148
85
132
140
69
127
145
79
135
161
109
130
159
103
126
152
81
132
145
83
143
155
103
132
149
97
109
132
81
127
145
91
121
136
80
122
135
77
129
146
83
130
153
85
127
146
76
128
142
82
134
145
90
147
155
105
153
163
119
143
155
105
136
146
87
139
148
89
124
141
83
113
140
79
121
147
87
135
147
85
140
150
87
151
158
102
152
156
101
151
157
103
132
150
90
128
141
75
134
135
66
131
137
65
126
143
72
135
147
81
139
142
80
142
147
91
149
152
97
141
148
81
128
139
74
121
133
71
128
141
78
136
148
87
137
152
88
133
148
81
141
156
103
151
171
130
140
160
109
136
155
94
142
155
96
146
154
96
142
151
91
130
147
82
121
138
69
134
135
68
144
144
83
141
139
81
141
137
74
146
150
82
145
152
82
137
141
74
138
138
83
148
157
99
149
159
99
147
157
93
136
151
82
131
150
76
135
147
72
134
140
72
126
138
74
134
141
74
149
144
82
145
144
90
134
138
93
144
153
107
156
167
119
151
161
105
137
149
88
129
144
87
142
150
102
152
161
115
156
163
115
162
169
124
160
167
112
152
160
92
144
163
90
136
168
78
131
164
64
136
166
65
137
174
57
129
168
63
125
159
91
126
156
98
142
166
117
152
172
115
143
157
91
130
146
72
147
161
79
161
173
101
160
178
121
156
176
126
150
168
110
131
148
80
125
140
69
131
144
71
144
153
74
156
155
76
166
157
78
151
159
75
135
156
80
139
145
70
157
151
81
147
148
77
133
146
65
143
153
60
145
158
61
145
164
64
143
158
70
141
158
86
126
153
77
132
156
83
142
158
95
140
142
76
143
136
76
139
143
80
125
144
71
134
146
79
136
146
84
118
135
74
119
134
71
130
138
75
126
136
69
139
140
82
147
134
83
140
142
77
141
154
84
141
154
75
134
147
68
149
159
100
158
165
109
132
138
69
125
138
65
138
144
72
141
144
68
134
142
69
131
141
81
141
149
88
127
139
75
119
137
68
123
146
79
121
146
72
128
145
72
129
144
75
134
146
82
133
143
84
127
142
92
139
156
108
143
152
91
153
151
92
147
154
95
141
147
85
143
144
83
163
159
108
161
156
106
148
149
88
137
146
82
123
132
68
141
150
84
147
157
89
133
151
77
122
143
74
132
139
81
128
128
66
138
145
81
140
151
88
146
159
96
149
163
106
156
164
107
157
151
98
148
149
93
146
160
100
136
147
85
140
138
79
135
137
79
132
152
95
132
153
97
127
138
65
124
133
61
118
135
60
125
150
78
131
154
90
135
157
83
132
154
70
131
142
70
145
151
96
147
153
106
120
116
70
122
125
69
128
137
77
127
143
70
132
155
86
126
152
92
113
144
76
122
146
78
135
150
97
131
148
97
127
139
88
117
129
75
128
149
96
121
135
81
123
131
76
127
138
84
136
157
96
130
153
81
122
143
73
126
142
84
153
166
122
166
179
146
146
163
115
129
143
86
140
152
101
129
150
96
113
142
83
121
144
86
127
142
79
130
146
82
139
154
95
142
151
93
137
149
88
128
148
84
140
150
86
146
142
79
133
134
68
126
138
71
136
146
83
140
144
84
142
143
86
150
149
93
148
148
90
148
149
89
150
150
91
137
144
79
125
138
70
124
139
70
130
140
74
136
140
81
147
159
109
148
162
113
141
153
92
145
154
94
149
155
96
146
152
90
137
148
78
134
146
73
141
148
78
150
153
94
149
149
90
153
150
87
149
154
84
144
152
75
138
144
66
139
141
71
140
146
80
150
152
94
152
155
93
136
149
81
127
147
74
134
145
73
136
142
77
133
139
77
139
140
76
145
137
81
138
137
80
133
138
83
144
154
108
153
167
120
144
156
102
136
147
89
138
143
90
145
150
100
154
166
120
165
174
131
164
172
126
160
169
120
155
163
111
147
155
98
140
163
90
135
167
70
141
173
62
142
178
69
131
167
79
121
153
89
118
152
87
127
156
104
145
165
109
149
159
97
139
148
90
139
146
85
149
155
94
144
151
94
149
159
103
141
155
90
130
152
74
136
150
75
133
145
67
152
148
71
180
153
65
185
159
68
156
156
67
137
149
63
154
148
63
171
151
74
161
148
75
152
147
74
148
148
65
149
157
61
146
166
66
137
155
72
131
149
76
126
148
77
137
160
94
142
157
99
142
145
80
143
145
82
134
148
81
122
144
70
136
152
85
139
156
97
122
145
85
135
145
82
141
149
81
126
139
66
130
130
67
134
123
70
132
135
76
136
147
79
133
146
66
130
142
68
139
150
88
148
162
102
120
137
68
124
140
70
132
146
77
134
138
72
132
131
70
134
143
83
143
153
95
130
145
84
122
144
74
126
152
81
132
151
80
126
138
76
129
145
84
131
145
85
131
140
83
126
139
82
125
147
90
140
155
92
149
154
93
158
158
103
148
147
92
145
140
81
162
154
101
152
153
97
139
146
82
132
140
75
125
134
67
133
144
72
141
151
85
136
149
80
133
133
63
148
129
52
153
138
55
148
151
74
146
150
87
145
147
89
145
149
97
151
154
100
159
153
100
158
156
105
156
159
106
140
147
87
142
149
92
139
149
96
134
154
99
132
154
94
132
142
75
123
139
68
114
139
56
117
141
62
125
148
79
129
152
88
130
152
81
133
149
76
141
153
88
137
143
88
120
118
67
124
130
70
117
128
67
121
138
69
131
152
92
128
156
89
101
133
69
122
144
87
136
153
105
116
142
93
111
132
79
122
129
74
129
150
96
126
139
88
133
140
84
126
135
82
124
146
84
123
154
72
120
151
60
125
151
79
156
175
129
167
185
152
146
166
116
125
141
82
129
148
90
121
148
90
117
145
85
129
145
89
126
141
77
122
143
74
126
146
83
128
143
81
124
139
77
130
145
83
153
158
104
151
151
99
137
141
85
125
141
75
120
137
67
122
136
73
128
135
78
146
148
93
150
153
97
145
149
88
144
145
88
143
141
82
129
137
67
116
131
59
124
132
69
138
137
80
148
148
93
153
149
98
145
141
85
141
144
84
144
151
89
147
150
85
145
151
79
143
152
80
142
152
84
147
151
93
148
151
93
150
153
88
145
156
88
144
154
86
145
152
82
148
149
77
142
142
74
151
148
88
151
154
89
134
149
81
126
148
77
130
145
76
138
148
84
138
145
83
143
142
83
143
138
83
139
140
81
140
144
87
145
152
102
148
159
110
138
151
98
139
147
96
152
153
103
149
150
100
161
172
127
165
176
136
161
170
126
154
168
125
153
172
129
154
170
122
148
164
106
141
163
85
141
170
75
141
173
84
132
162
88
124
147
85
120
146
82
119
149
84
132
153
89
143
151
92
151
158
111
152
160
111
149
152
103
151
152
101
138
145
82
127
142
70
128
150
69
138
154
74
138
146
71
158
140
71
195
140
55
211
148
53
193
148
53
173
144
52
175
133
54
185
133
62
179
139
68
163
143
72
149
141
69
147
147
70
142
150
69
132
146
71
128
145
74
127
145
80
136
154
98
138
152
95
140
147
85
143
151
89
134
150
82
129
147
71
138
154
85
145
163
108
130
147
89
137
146
82
138
149
81
124
138
61
124
126
57
130
127
70
129
137
78
131
144
79
133
144
72
130
141
76
132
143
82
132
149
84
123
144
72
127
148
72
131
151
75
126
139
71
122
130
66
127
133
67
138
143
79
128
140
77
119
140
76
122
143
74
130
143
77
129
146
86
132
148
90
138
149
90
140
150
94
132
145
86
134
153
95
133
151
94
140
152
95
152
154
99
143
145
86
141
138
77
141
140
79
137
148
86
134
147
88
128
138
79
133
139
76
136
143
73
137
148
82
135
135
70
135
106
39
148
102
18
159
132
33
156
155
64
156
154
87
146
144
82
146
146
89
148
143
87
147
144
84
146
150
86
140
143
82
136
142
81
146
157
103
142
155
106
128
147
87
131
149
87
142
148
89
125
143
67
116
144
58
118
143
61
125
142
72
121
142
85
129
151
87
130
149
78
131
147
73
122
132
62
127
129
67
140
140
85
123
120
70
126
133
79
132
148
93
125
146
87
103
130
75
118
141
84
130
150
95
124
148
93
115
139
83
114
125
63
123
143
84
125
141
88
131
146
90
122
143
81
115
147
64
116
155
54
121
158
57
129
160
86
153
174
127
162
180
144
142
162
112
123
145
80
122
144
74
119
142
77
119
137
76
127
137
80
123
138
74
116
138
67
115
139
74
114
139
77
115
137
76
127
139
79
145
144
91
147
143
91
140
146
91
132
150
86
113
133
64
109
132
69
123
139
81
148
146
97
157
154
101
142
149
84
138
144
84
141
139
80
132
138
68
120
133
63
120
127
67
129
129
74
142
138
85
149
140
88
142
132
79
135
133
75
136
138
76
142
139
77
148
148
83
147
153
84
142
150
85
148
148
93
151
147
94
148
146
86
144
153
90
146
158
101
147
158
104
152
158
103
148
152
93
150
155
91
146
154
88
129
146
79
124
146
76
130
149
79
136
153
87
139
152
90
144
147
89
144
145
87
144
148
92
146
152
97
145
154
100
145
156
104
139
152
99
144
153
102
153
158
107
147
149
97
142
154
104
148
163
118
150
161
114
148
161
114
152
169
123
157
175
130
152
166
115
144
164
99
140
161
90
136
159
88
131
155
83
127
146
75
121
142
78
120
144
78
124
142
78
132
140
81
148
148
98
155
159
108
159
163
114
154
157
107
135
145
83
129
145
73
136
153
76
142
157
77
147
149
76
161
137
69
195
132
52
215
138
47
210
140
48
193
129
45
193
123
45
201
133
50
196
139
59
166
136
66
158
146
87
155
151
95
143
148
86
128
143
74
125
141
75
126
140
80
132
144
90
137
148
91
140
152
95
141
154
96
139
148
87
139
148
79
142
153
85
146
156
103
134
147
88
136
143
77
133
141
75
126
134
64
128
131
65
133
136
76
128
141
77
129
141
78
131
141
76
128
138
77
128
139
79
131
143
83
129
145
83
132
150
77
132
152
72
121
141
68
117
131
63
129
132
64
132
133
70
124
136
76
117
138
77
117
134
69
119
131
70
125
143
85
129
147
89
141
152
91
143
154
97
135
149
90
132
150
93
123
141
83
125
139
79
135
143
83
141
140
79
140
133
75
139
139
81
132
145
88
131
143
88
127
136
77
137
138
82
142
142
85
137
146
87
137
133
76
131
99
40
129
84
15
137
107
24
147
144
59
149
150
80
136
136
72
133
131
76
143
138
86
151
149
95
149
149
92
151
147
95
154
154
101
146
149
102
136
142
92
128
139
80
135
145
84
145
154
89
126
147
63
118
147
58
126
150
64
131
145
67
127
142
77
134
148
85
136
148
89
127
140
78
120
133
69
128
134
76
140
137
86
133
122
74
131
133
79
137
149
89
142
154
98
124
145
89
113
139
79
120
146
83
130
153
89
119
139
79
124
137
73
115
134
78
118
137
79
121
145
77
112
142
68
110
140
60
119
149
68
127
154
78
135
157
97
147
165
118
148
165
124
136
156
108
122
149
84
120
145
73
126
141
71
128
132
70
126
132
74
122
137
76
117
138
71
112
136
74
108
135
76
109
134
76
128
140
83
137
137
76
130
127
67
131
130
74
126
136
74
115
128
65
112
132
72
122
139
83
133
137
82
150
140
87
150
147
90
145
147
88
140
145
84
132
141
71
124
135
69
127
132
75
133
131
79
138
134
83
142
132
82
137
128
77
140
133
79
136
130
75
140
131
76
143
138
79
141
142
77
145
147
84
153
148
94
157
144
95
156
145
95
148
149
85
142
149
85
140
148
94
145
155
108
149
160
110
149
162
106
139
152
91
123
142
76
120
141
71
125
144
75
128
149
82
133
151
89
141
149
92
142
149
92
144
152
100
145
156
101
147
161
105
143
158
104
138
151
98
138
147
94
144
151
97
140
146
89
134
140
85
136
145
94
141
147
93
137
147
89
143
152
97
150
161
110
153
160
109
147
159
102
143
155
93
138
152
89
131
147
82
129
143
75
125
141
78
123
142
77
123
138
75
127
137
77
138
141
82
148
143
91
158
157
109
152
158
107
135
148
85
134
150
78
140
155
79
146
159
79
149
156
84
149
144
78
167
135
70
183
133
60
179
119
46
178
114
42
201
136
52
220
162
68
212
158
71
179
141
73
162
150
94
157
160
108
143
154
98
125
143
79
122
138
77
127
136
82
136
142
90
137
147
90
136
149
89
134
148
85
139
148
87
140
149
87
139
152
87
143
156
98
142
153
91
139
144
77
133
137
72
135
134
76
132
131
75
127
136
79
120
137
79
125
138
81
127
138
80
126
135
77
126
134
78
129
138
84
133
144
93
135
148
88
131
149
78
123
145
75
129
143
80
139
137
78
136
133
82
124
137
84
115
133
76
117
129
69
120
131
76
120
140
86
122
145
88
131
147
84
128
145
84
123
142
82
118
136
79
118
134
75
122
137
75
128
139
76
130
135
67
135
134
72
135
139
82
129
144
90
126
141
85
126
135
74
140
139
83
144
141
88
131
138
84
121
129
76
121
111
56
119
98
44
122
106
45
132
129
53
134
130
59
130
122
59
128
124
65
142
144
88
160
157
108
161
153
109
161
151
110
149
139
99
125
118
79
126
122
73
129
129
73
133
137
77
134
150
75
121
147
57
119
149
54
127
154
65
124
148
61
124
141
68
140
152
96
142
156
107
131
147
90
121
133
76
121
130
74
142
145
94
149
143
92
137
144
83
136
148
81
147
154
96
137
148
94
117
133
76
116
137
67
117
139
64
120
133
71
131
146
84
118
136
78
111
135
66
110
140
57
102
137
49
106
133
61
123
141
79
131
149
94
136
154
100
139
154
100
133
148
98
125
142
93
121
148
88
123
145
78
127
137
74
131
129
72
127
135
78
127
143
83
119
140
73
112
138
75
117
143
85
121
141
89
126
141
89
128
138
70
131
132
67
134
132
75
129
132
75
116
132
72
116
134
75
120
137
80
121
132
71
139
136
79
151
145
91
148
148
93
141
147
86
131
142
75
128
137
72
130
138
81
135
141
87
142
139
88
145
133
85
143
134
85
145
142
87
142
135
81
140
131
79
138
129
77
129
128
72
142
134
80
151
140
88
154
141
89
152
141
87
149
144
81
141
143
75
138
144
88
135
146
97
136
146
95
137
144
90
128
140
81
120
139
75
126
141
75
130
143
74
125
146
77
129
151
85
137
150
92
145
151
99
144
151
100
142
152
97
143
156
100
140
154
99
135
146
90
129
141
81
131
143
83
143
148
92
146
146
92
143
148
96
141
150
97
136
147
90
138
146
87
146
151
95
150
153
103
149
156
101
143
155
97
139
151
94
133
145
87
125
140
78
124
139
76
124
139
74
128
141
75
130
142
74
132
140
73
136
136
77
142
147
90
142
153
92
134
145
75
134
146
72
139
149
75
147
154
80
144
152
81
141
146
84
148
141
85
151
132
69
147
114
49
158
116
45
190
141
57
205
159
67
202
157
71
175
139
72
157
140
84
151
154
100
135
153
96
122
142
81
126
141
83
131
141
87
138
145
92
139
144
87
141
148
87
138
149
87
136
148
86
134
149
88
133
150
85
140
157
98
148
159
101
142
146
90
138
138
80
141
137
82
134
137
82
122
139
85
116
134
81
120
137
84
121
140
84
125
137
82
127
136
81
123
136
83
127
141
91
129
144
90
125
144
80
125
146
83
138
151
96
143
143
93
133
133
84
121
133
81
114
134
74
115
131
71
118
133
78
120
133
84
127
142
87
125
140
79
121
138
80
117
135
77
114
130
75
116
130
73
119
137
74
123
137
70
128
136
66
130
138
75
124
134
76
121
137
79
118
138
77
124
137
73
142
142
84
145
142
91
129
135
84
118
127
75
117
124
72
119
123
73
119
122
67
122
117
56
127
115
51
132
122
61
132
135
68
141
151
90
156
154
104
157
145
103
139
127
86
110
101
60
99
88
50
107
103
55
117
112
65
128
129
76
133
149
72
122
146
61
119
148
61
116
150
60
122
149
60
150
163
96
165
172
124
147
160
110
132
150
89
127
139
77
128
139
78
139
146
88
136
143
86
128
140
75
130
143
66
140
148
79
138
149
93
128
140
82
120
139
65
117
138
61
121
132
67
130
143
76
122
141
77
115
141
61
105
137
43
105
136
47
111
133
64
124
145
87
138
158
105
138
155
100
130
143
84
120
132
78
118
132
79
123
143
82
128
147
82
130
139
77
130
133
76
127
135
78
123
140
78
116
139
67
115
143
74
129
152
100
130
148
102
125
138
86
124
134
72
130
134
73
143
141
85
147
148
94
134
146
91
120
139
82
116
135
75
121
135
71
136
139
78
141
143
85
141
142
87
138
145
84
131
143
75
130
142
71
134
144
82
141
148
93
150
147
96
151
140
92
148
143
92
142
146
92
141
142
90
138
136
84
132
130
78
126
124
71
141
128
78
151
134
85
151
138
84
146
139
81
142
142
79
140
146
85
141
151
98
140
148
97
137
136
82
127
126
68
119
129
71
123
137
76
134
142
80
135
146
80
127
145
80
125
146
83
131
146
90
138
148
98
140
148
96
137
146
92
136
147
91
135
146
89
130
141
82
126
138
76
132
145
84
148
152
97
153
154
103
150
154
102
149
155
101
142
149
95
140
147
93
140
147
95
143
151
99
144
154
102
140
156
106
137
152
102
130
145
93
125
140
80
126
139
74
130
141
74
128
141
72
126
141
70
127
140
70
133
139
77
135
144
84
133
145
80
128
138
70
134
139
72
139
140
75
145
144
80
144
148
83
141
143
84
145
137
82
146
134
72
143
125
58
147
125
53
160
138
67
160
137
67
158
132
65
149
122
67
145
128
77
141
142
88
131
147
91
121
141
81
123
138
82
131
141
89
136
145
94
138
145
90
149
156
97
144
155
95
133
150
88
122
146
81
122
147
80
135
156
96
144
158
105
141
148
99
140
141
87
136
135
79
131
138
82
129
142
89
125
138
84
124
137
83
118
138
83
121
137
82
126
138
83
123
134
80
125
138
86
126
140
88
126
143
90
128
148
90
137
149
95
137
138
88
129
130
80
117
128
75
115
134
76
112
132
74
115
130
75
117
126
75
118
128
75
125
136
76
126
138
83
118
133
79
117
130
74
116
127
70
119
135
74
124
137
75
127
136
72
125
136
75
119
132
74
113
132
71
114
136
74
121
140
78
135
143
86
137
144
89
124
134
82
117
129
77
119
133
81
123
140
86
120
136
80
123
124
68
119
119
55
115
127
63
118
136
73
131
142
78
144
142
83
143
137
86
128
122
71
106
104
53
96
91
46
99
100
50
106
108
59
124
125
75
130
139
78
128
138
73
126
141
75
119
143
68
125
143
62
159
161
97
165
165
117
152
159
108
146
158
101
143
153
98
136
148
87
126
139
75
124
137
76
130
143
76
132
144
65
123
138
62
126
141
77
129
144
83
121
138
69
117
135
64
122
135
73
129
145
82
116
136
69
114
139
61
109
139
52
114
139
57
122
141
68
124
149
83
135
157
96
135
153
86
123
134
70
111
122
63
112
124
66
124
138
75
131
147
83
137
147
85
134
142
83
129
136
80
124
133
71
115
133
58
110
134
60
122
144
88
129
144
95
127
138
82
124
132
76
124
132
74
134
133
79
147
144
93
142
147
96
129
138
84
120
132
70
122
135
68
132
140
76
133
142
81
132
142
86
130
146
84
128
145
78
133
145
80
139
149
91
149
156
102
153
152
101
151
142
93
138
137
84
129
140
86
129
138
87
129
133
82
126
130
79
127
130
77
141
132
82
153
140
92
155
141
94
148
143
91
142
145
90
138
147
93
139
151
102
137
148
97
141
138
87
129
129
73
120
128
71
128
135
76
137
139
79
137
144
81
129
143
81
125
144
84
128
145
91
132
146
96
136
143
92
132
141
88
131
140
84
130
138
81
124
135
75
124
137
76
133
145
85
145
150
94
149
153
103
152
155
102
149
150
96
146
148
96
143
150
100
140
150
101
134
147
93
135
149
97
131
150
99
131
149
98
127
145
92
129
143
84
133
141
77
133
139
72
128
139
69
121
138
64
125
140
71
130
140
77
131
142
80
133
144
79
136
145
78
138
144
82
140
143
84
147
147
88
146
148
88
147
147
89
150
141
87
146
139
78
140
135
67
134
131
61
131
135
69
130
132
66
135
128
70
142
126
74
143
129
78
139
139
87
129
142
88
119
136
79
117
131
77
126
136
85
134
144
93
137
146
91
144
151
94
139
149
91
123
142
81
115
140
77
122
144
79
135
151
93
137
154
106
138
148
105
134
138
88
128
130
74
127
137
80
133
143
90
132
141
87
125
134
80
117
133
83
121
137
84
125
139
83
128
137
82
125
136
84
124
137
88
129
143
99
130
148
96
133
145
91
132
136
84
127
130
78
118
129
75
117
136
80
115
135
79
112
128
73
110
117
66
113
118
67
128
133
76
130
138
85
120
133
81
119
130
73
122
131
73
125
138
80
126
136
80
124
133
76
121
132
75
118
133
74
113
134
72
115
138
75
116
140
79
125
142
85
125
141
84
111
128
74
111
128
74
119
137
82
122
140
86
118
134
82
116
124
69
112
118
58
111
125
65
112
134
70
132
143
79
144
149
86
141
140
81
130
130
71
118
121
61
108
107
55
103
109
55
102
111
58
111
114
65
113
117
67
119
127
68
124
137
75
121
135
71
113
127
52
127
137
69
147
149
96
150
159
116
146
159
118
141
152
104
127
139
80
120
132
68
129
137
77
137
142
77
128
137
67
111
131
57
118
136
70
127
145
82
126
141
78
120
136
71
127
143
84
126
148
86
103
113
53
112
127
56
120
138
57
127
143
62
130
142
67
126
139
69
127
144
69
129
139
57
122
129
58
117
127
67
118
130
69
124
134
72
132
146
82
137
151
89
135
146
87
132
137
83
127
129
68
118
132
62
107
129
54
116
135
71
133
142
86
132
140
81
122
131
71
121
131
71
130
136
75
140
140
80
143
139
86
138
135
79
129
132
69
128
133
68
130
135
77
133
140
88
133
144
91
133
147
91
128
143
83
135
146
86
140
148
94
148
154
103
148
150
99
144
142
90
132
132
77
125
137
81
124
135
81
122
130
78
120
128
76
126
132
77
145
137
83
154
140
93
153
139
94
147
142
94
138
143
91
135
145
91
134
146
94
138
146
95
139
138
86
130
131
76
120
126
70
132
133
76
138
135
78
138
139
80
129
140
80
124
142
84
127
143
90
131
144
93
129
136
86
133
140
88
133
140
86
131
138
84
126
136
80
124
139
80
129
144
85
135
148
90
141
149
96
146
147
94
145
143
89
144
146
97
140
150
103
134
149
99
129
143
91
129
141
88
126
143
91
125
142
91
123
140
87
130
143
85
135
142
81
134
137
72
130
135
67
125
133
65
126
134
72
129
137
77
130
139
79
134
143
81
142
150
88
145
153
95
143
150
93
144
149
90
146
148
86
145
144
85
150
147
90
146
145
86
139
140
78
131
137
70
128
134
69
130
133
71
136
132
76
139
133
79
139
134
83
133
137
84
128
138
83
120
132
75
118
129
75
126
136
84
135
142
91
141
146
93
137
140
86
126
133
77
117
131
72
115
134
74
125
140
81
133
144
86
134
147
97
131
140
95
128
135
85
126
132
78
128
136
82
130
140
87
127
137
85
121
132
79
121
134
84
123
137
82
126
139
81
126
138
83
124
137
87
124
136
88
129
140
95
132
144
93
131
142
86
126
137
81
122
132
77
122
132
80
121
137
84
120
137
82
112
130
75
111
120
68
118
122
71
132
133
77
128
136
83
121
132
81
120
130
77
120
131
75
124
135
81
119
130
77
116
125
72
118
127
72
116
128
70
111
129
68
115
133
70
113
134
71
115
136
80
112
136
78
100
125
68
106
126
71
116
132
79
117
132
80
112
127
76
112
122
68
113
117
62
108
118
61
111
125
65
127
139
74
135
145
79
130
136
72
131
131
70
133
127
67
132
123
66
121
120
62
112
119
63
113
120
66
114
120
66
115
125
64
122
135
71
129
136
69
120
128
55
119
129
59
129
134
77
130
143
96
133
152
109
124
141
92
115
128
73
116
127
69
129
132
75
130
131
73
121
130
66
110
128
58
111
129
57
121
140
68
120
137
71
121
141
78
123
146
82
116
144
79
106
109
53
114
122
59
122
133
64
124
137
66
124
134
64
119
130
58
123
136
58
135
141
60
136
140
71
134
142
82
136
145
85
132
139
80
133
143
83
136
149
88
134
146
87
132
143
86
126
138
76
125
139
72
122
138
67
127
139
68
138
142
79
138
141
82
132
139
78
128
139
77
129
140
77
131
137
70
133
133
72
136
131
74
136
132
74
136
134
75
137
136
82
141
142
94
139
144
96
137
145
94
127
138
84
134
143
90
137
145
93
142
148
97
136
140
89
131
135
81
127
133
77
127
141
81
128
138
80
126
135
80
125
134
79
129
137
81
142
137
82
148
136
89
146
135
89
140
135
87
134
136
85
128
138
84
132
143
91
136
144
93
142
141
89
136
137
83
127
133
76
131
132
75
140
137
80
137
135
80
129
137
80
122
136
79
123
136
82
126
136
84
128
134
85
132
139
87
137
144
90
135
143
88
130
141
85
124
142
82
123
143
82
124
141
81
132
142
85
132
138
84
135
141
87
138
148
98
138
150
105
130
146
97
127
140
88
127
139
86
122
139
85
119
136
82
119
136
82
126
141
86
133
142
83
135
136
78
130
131
73
125
129
70
125
130
74
127
131
74
129
135
75
133
141
80
139
148
90
141
152
98
140
150
95
141
150
93
143
146
87
144
145
85
148
148
89
148
148
91
141
144
84
134
142
77
129
138
75
129
134
74
130
133
77
132
136
82
131
137
84
128
135
81
125
133
78
120
130
74
117
128
73
125
135
83
134
138
88
139
140
89
133
134
80
120
124
68
115
122
65
117
127
70
123
130
73
133
135
80
132
138
86
126
133
84
124
133
78
127
135
81
130
136
82
127
135
80
122
134
80
118
133
82
122
136
86
125
135
82
125
134
79
127
138
88
123
140
94
123
140
93
125
137
86
127
136
85
123
133
81
121
132
79
119
128
76
121
130
78
122
135
83
118
135
79
112
131
73
116
125
70
120
127
72
126
130
74
121
131
80
121
131
83
121
130
79
118
130
78
118
131
81
115
127
80
112
121
70
114
123
70
111
121
65
108
120
61
112
125
64
112
128
67
109
132
75
101
132
72
96
124
66
99
122
66
108
127
72
112
126
75
112
123
73
116
121
68
113
117
62
106
120
60
111
125
65
120
132
67
121
134
65
115
129
60
127
123
60
137
115
58
136
116
58
129
120
61
118
122
66
119
123
70
115
120
68
111
122
65
118
128
69
126
128
68
121
125
59
113
120
57
112
124
69
112
130
76
113
133
81
111
127
74
112
123
68
117
126
69
123
128
71
118
126
66
117
127
62
118
126
64
112
124
58
112
125
55
112
128
65
119
140
80
119
142
79
113
138
71
120
128
68
123
133
72
122
135
73
116
132
71
114
127
66
111
125
60
118
133
63
133
142
69
140
145
79
144
149
93
144
148
93
141
144
90
139
145
88
137
146
87
135
146
87
137
150
93
133
150
90
133
148
84
133
145
77
135
144
74
137
137
73
134
133
74
136
138
76
134
147
80
131
147
82
128
138
74
120
125
64
123
127
67
129
132
73
134
131
77
136
133
83
140
137
91
141
141
96
137
141
93
131
137
87
132
141
87
133
140
85
133
139
85
130
137
83
128
136
80
130
140
84
129
144
84
130
142
82
130
141
82
131
140
82
133
140
82
140
136
80
141
134
82
140
134
85
135
132
82
132
133
81
129
137
83
130
142
91
131
140
89
136
138
86
135
137
82
135
142
85
135
138
82
136
135
80
130
130
74
123
131
75
118
131
76
119
132
78
125
134
82
129
137
87
133
140
88
136
141
89
132
138
84
129
136
80
126
139
79
127
144
83
123
139
79
121
134
74
119
131
76
125
137
85
131
146
98
135
150
104
131
144
94
128
140
88
125
136
82
119
134
79
117
132
76
117
133
78
122
137
82
128
138
81
131
136
80
129
132
77
127
129
76
126
132
78
127
133
76
127
132
72
131
136
77
135
143
87
139
147
92
140
146
89
141
147
87
142
147
89
144
148
88
146
150
89
146
150
91
142
148
88
135
144
82
128
138
77
126
134
74
127
138
80
126
137
82
124
134
80
121
129
75
120
127
75
120
130
76
117
127
73
119
129
75
128
133
82
130
132
81
124
126
73
115
120
64
111
117
61
113
119
62
119
123
66
127
129
73
124
129
74
118
125
72
118
127
73
125
133
79
127
132
77
126
132
76
122
134
79
119
137
84
123
137
84
127
135
83
131
136
85
132
143
97
127
146
101
121
141
91
118
132
77
118
127
74
114
126
74
112
123
71
116
124
73
118
125
74
119
130
77
116
131
75
115
132
74
120
130
74
119
128
70
119
127
73
116
128
77
119
130
80
118
126
76
117
127
79
117
130
83
114
128
82
114
126
76
113
123
71
111
121
67
111
120
63
112
125
65
108
128
67
103
128
70
97
126
68
95
123
65
99
122
66
108
126
73
116
129
80
120
128
80
123
127
74
118
124
69
109
126
67
112
130
68
120
132
70
114
129
63
107
128
59
120
118
55
129
107
51
128
108
54
123
116
61
117
122
68
113
116
65
109
114
64
107
118
65
115
121
69
119
118
69
118
118
66
113
116
64
109
119
65
111
123
68
108
121
67
111
121
68
117
125
71
119
127
71
119
128
67
118
126
62
125
127
65
129
126
69
114
117
61
110
118
62
112
124
68
118
134
78
116
132
75
113
129
67
123
129
64
127
136
78
125
138
83
116
134
77
113
129
70
114
129
65
119
130
65
128
135
67
136
140
79
139
143
92
137
142
91
141
147
94
141
146
90
141
147
89
136
144
86
141
151
94
139
153
97
137
151
91
138
151
87
139
147
84
130
133
74
125
126
69
129
130
71
131
142
77
132
147
83
130
141
80
122
129
72
119
126
70
121
128
72
124
125
73
125
124
75
132
130
83
136
137
90
135
138
91
135
142
93
138
147
94
138
144
90
132
139
85
132
140
87
131
139
86
130
140
87
122
139
80
124
139
78
127
138
78
134
139
81
136
136
80
137
130
76
137
133
78
136
136
82
134
136
82
130
134
80
127
135
84
129
144
97
125
144
96
125
139
88
129
137
83
136
144
87
137
143
87
132
135
80
124
130
73
120
131
75
120
133
79
123
135
81
127
136
83
130
138
86
132
137
85
133
137
83
128
133
76
125
130
72
127
136
76
129
142
80
127
142
80
122
134
75
115
129
74
119
134
82
125
142
93
129
144
95
133
143
91
130
140
87
127
136
81
121
131
75
119
129
72
119
131
74
121
135
77
126
139
81
128
137
80
127
135
80
130
134
83
126
134
80
126
134
77
128
133
75
130
135
76
133
141
83
137
143
87
139
144
86
140
146
83
141
147
85
142
148
87
142
148
88
141
146
87
138
143
85
131
141
80
125
137
75
122
136
74
123
139
78
124
136
79
121
130
75
117
124
70
118
125
73
122
131
80
120
130
76
116
127
70
116
123
70
122
127
74
119
124
70
112
121
63
111
120
61
112
120
61
116
123
64
121
128
70
118
127
70
114
123
67
115
124
68
120
127
69
123
128
70
126
130
72
125
134
77
124
138
82
126
138
83
126
134
80
131
136
84
132
145
96
125
144
97
118
135
82
115
130
74
116
128
70
113
126
72
111
122
68
114
122
69
114
122
69
115
126
73
115
131
76
120
135
81
122
135
81
119
132
75
114
129
75
113
129
77
112
128
74
112
126
73
115
126
77
116
129
81
113
128
80
111
127
76
112
127
74
115
127
72
114
125
68
111
128
67
107
129
69
100
124
66
95
121
65
95
122
64
104
125
69
116
132
80
126
139
92
128
138
89
126
133
81
121
131
77
116
133
76
117
135
76
124
133
75
120
131
71
111
127
67
112
121
61
119
113
55
121
111
55
118
118
62
115
122
69
111
115
65
111
116
65
110
118
64
112
116
66
116
116
68
115
116
67
110
115
64
107
116
63
111
120
67
114
122
70
118
124
73
119
125
72
117
125
67
115
126
64
122
128
62
127
127
68
127
122
70
118
116
66
113
115
65
111
120
68
120
130
78
118
128
77
111
121
65
122
119
62
123
127
72
126
137
83
124
137
83
119
130
76
120
129
69
123
129
69
129
129
71
137
141
82
139
147
97
135
147
96
133
146
91
139
148
91
138
143
83
138
144
84
144
152
94
145
154
98
141
152
95
141
152
95
140
148
90
127
135
79
120
125
71
121
122
68
122
130
71
129
139
81
132
143
87
130
140
86
126
134
83
121
130
78
119
126
72
121
123
73
126
123
77
131
134
87
133
139
91
135
143
93
141
150
97
141
147
93
136
143
93
136
144
95
134
142
94
129
141
90
120
140
79
116
133
69
120
132
72
130
130
74
132
126
71
133
123
70
134
131
76
134
139
82
129
138
79
125
134
76
123
134
80
126
143
93
125
147
98
122
142
88
123
139
77
131
142
84
135
143
86
130
137
81
126
134
79
120
133
80
126
138
83
130
139
84
129
136
82
131
136
84
133
136
82
133
136
78
129
135
74
127
132
74
130
135
76
131
139
77
130
140
78
125
134
76
119
130
76
120
134
82
121
140
88
127
140
90
132
140
87
132
139
85
130
138
81
125
131
73
124
130
72
122
130
71
123
135
75
126
141
80
130
143
86
134
143
91
132
139
89
130
138
86
127
134
80
129
133
77
131
136
77
136
143
86
139
145
88
141
146
86
142
148
82
140
147
79
136
142
79
132
137
79
130
135
79
128
133
77
125
134
74
122
136
74
120
139
75
123
138
76
122
135
75
118
128
70
118
125
71
121
128
77
124
133
81
122
132
79
117
127
71
115
123
66
116
121
65
114
120
63
111
122
61
113
125
63
115
125
65
117
127
67
121
131
71
123
132
75
122
131
72
122
131
68
121
129
64
123
128
66
125
130
71
127
135
76
128
138
80
128
137
80
127
136
79
129
139
82
129
144
90
123
140
88
118
132
77
116
131
72
118
134
72
119
131
74
117
125
70
117
124
70
114
123
70
111
127
72
114
134
79
120
137
84
122
137
84
115
132
79
111
131
76
110
133
77
108
132
76
112
134
78
114
128
77
114
127
78
110
125
74
107
125
73
110
126
72
113
127
72
112
125
68
108
128
66
104
130
68
99
124
66
98
120
65
97
120
64
109
128
73
122
136
85
132
144
98
129
139
91
124
136
84
121
135
81
121
137
83
126
138
84
132
136
81
125
132
75
114
131
69
110
124
60
116
116
57
121
115
60
121
120
66
116
123
70
118
122
71
117
120
70
113
117
61
111
115
62
112
115
65
111
115
65
108
115
64
109
116
66
111
118
68
115
120
70
115
118
68
113
117
64
112
118
61
110
121
58
119
124
59
131
125
64
133
117
64
126
113
63
115
113
64
111
119
68
115
127
76
112
123
74
105
117
63
124
118
64
125
124
68
125
134
77
129
138
84
125
134
79
124
131
76
127
131
75
129
130
74
140
142
85
140
150
98
140
156
106
134
151
99
131
146
89
131
140
82
133
142
79
142
149
90
146
152
98
145
154
102
140
152
94
141
150
93
132
139
83
123
129
75
117
123
63
120
127
66
127
136
77
133
143
91
135
145
100
133
141
97
125
134
84
121
131
77
121
130
77
123
129
78
125
132
79
130
141
88
133
146
93
137
150
94
140
149
97
141
148
106
140
149
107
139
150
106
133
149
96
123
139
79
117
132
65
120
131
64
127
128
66
131
124
69
131
119
67
132
127
73
137
144
89
131
144
85
127
138
78
123
132
75
122
134
80
118
138
81
117
137
76
119
138
73
124
138
78
127
139
84
126
136
84
126
136
82
127
137
83
131
140
84
133
140
85
133
138
83
137
136
82
138
137
80
139
140
79
138
142
81
139
145
88
141
146
94
141
147
91
133
140
80
127
131
73
122
129
73
123
133
79
122
134
82
123
131
80
125
130
78
130
134
79
132
137
79
131
136
75
127
134
72
124
133
70
124
135
73
128
141
79
133
145
89
139
148
96
138
144
95
132
140
87
127
134
80
126
132
75
128
135
76
133
141
83
137
147
86
140
150
80
143
151
79
140
146
76
134
139
77
128
132
76
127
123
71
124
123
69
120
128
70
121
133
71
120
137
72
124
136
75
122
132
72
118
127
68
122
130
72
128
136
81
127
137
82
123
134
80
116
131
69
116
124
63
112
115
58
113
114
57
115
121
59
118
127
64
118
129
68
121
132
72
126
137
77
130
138
80
129
138
74
129
139
69
128
140
67
123
135
69
123
133
75
125
135
78
126
138
81
126
140
81
126
139
80
128
140
81
131
142
84
130
141
84
124
134
78
121
133
77
121
139
80
125
134
76
123
131
73
120
126
74
116
125
72
110
126
72
115
133
81
121
136
85
122
132
82
119
130
79
112
130
75
111
135
77
109
135
78
112
136
81
115
133
79
115
129
75
112
124
69
108
121
65
107
121
66
110
122
68
109
122
65
107
128
68
107
132
72
103
127
72
101
121
72
105
121
67
110
128
73
121
133
82
126
135
87
124
134
83
125
137
85
127
140
92
122
138
90
126
138
88
134
139
87
126
137
80
115
135
69
114
129
59
120
121
59
123
117
62
124
123
72
116
125
73
117
124
74
116
122
70
112
119
62
111
118
62
108
115
61
110
116
65
112
118
68
113
120
69
114
121
70
112
118
68
110
113
64
108
111
60
108
114
57
111
118
56
137
125
55
153
129
61
151
124
65
136
117
62
119
115
62
111
119
66
110
121
72
103
115
67
102
114
65
125
125
68
125
131
71
126
135
76
128
138
80
130
139
81
130
139
82
132
139
81
131
136
76
137
141
82
140
150
96
139
155
106
133
157
109
127
148
96
128
141
85
133
142
81
144
147
91
145
147
95
142
151
102
136
150
96
139
149
94
133
141
86
124
134
77
119
132
64
119
132
60
126
140
76
132
146
92
132
147
100
130
142
96
125
134
86
125
134
83
125
134
81
125
132
77
123
130
73
126
138
82
135
150
96
140
156
101
143
159
107
143
158
116
142
157
114
145
157
113
137
151
98
127
137
79
123
130
66
123
129
64
131
131
72
134
128
75
135
122
72
136
131
79
139
146
93
136
150
92
133
144
86
123
130
73
118
125
68
114
126
65
113
128
65
117
134
71
122
136
76
125
135
81
128
137
86
126
138
85
132
144
91
141
147
95
144
145
94
141
140
90
140
134
85
137
131
82
137
132
83
144
140
92
150
148
102
151
150
106
150
150
104
142
143
92
128
129
74
123
127
71
121
128
72
120
127
74
119
122
71
122
124
72
127
129
74
132
134
77
132
136
75
130
137
75
128
138
74
126
138
75
126
141
79
130
145
86
136
147
92
138
146
94
130
139
86
126
133
77
124
129
72
125
131
72
129
135
74
133
141
77
135
145
73
137
147
76
136
143
78
133
137
77
132
132
77
131
124
73
127
123
70
121
123
68
120
127
69
121
133
71
123
134
74
121
130
70
124
132
73
129
139
82
133
142
87
133
142
88
129
140
80
122
136
68
117
129
61
109
115
54
107
108
51
114
117
58
119
124
65
120
130
71
122
133
75
128
139
81
130
138
80
130
140
72
130
142
65
131
144
64
127
141
71
122
135
79
121
135
80
122
138
82
124
139
80
127
137
80
130
136
80
137
140
85
137
140
85
130
136
80
125
135
77
123
138
78
129
141
80
129
136
76
124
126
74
120
124
73
114
126
73
115
132
80
122
136
85
125
134
85
122
131
79
113
131
74
111
136
76
110
137
79
114
138
81
118
138
81
115
132
75
111
126
66
109
123
59
109
119
59
109
118
61
109
120
66
110
131
73
112
136
79
106
130
75
104
124
73
106
126
74
107
125
74
113
123
74
118
123
73
125
127
76
127
133
82
127
136
87
124
137
89
127
141
96
127
139
89
121
140
82
113
137
68
112
131
61
118
126
64
121
124
67
119
128
70
111
125
72
112
124
72
115
124
71
113
123
65
110
120
62
108
116
61
110
117
65
111
118
69
112
119
68
112
119
68
110
117
66
111
115
65
111
113
60
113
111
54
133
119
52
163
125
52
175
126
56
167
123
63
146
117
64
122
114
62
107
114
62
100
113
63
98
112
62
101
114
64
125
131
70
120
132
69
123
132
71
125
135
75
130
140
80
132
143
84
135
145
84
132
140
77
135
143
79
138
148
90
138
151
100
135
156
106
131
149
95
131
144
89
134
142
83
144
143
91
144
145
93
137
147
100
131
148
97
133
146
92
132
140
88
130
144
84
127
146
71
123
144
60
126
148
68
128
150
81
131
151
92
129
146
95
127
138
90
123
133
84
125
135
82
125
134
76
122
130
70
121
133
74
136
151
95
143
162
108
147
168
118
145
169
124
143
163
119
145
160
114
139
151
98
129
134
78
126
126
66
126
127
67
136
134
77
140
133
82
141
129
81
143
138
89
140
148
96
137
150
95
133
143
87
124
128
71
122
122
64
117
122
59
116
126
63
121
135
73
133
143
85
138
145
93
146
150
103
149
152
106
151
154
107
153
152
106
149
146
101
144
137
93
142
130
89
134
121
83
127
114
79
136
123
88
147
136
101
149
142
107
150
144
106
143
137
94
130
128
78
123
125
70
121
125
68
121
124
70
123
122
69
126
124
72
128
127
73
132
131
75
129
133
73
127
134
73
128
139
76
126
141
77
124
141
79
124
140
79
127
141
83
129
141
86
128
137
83
125
131
75
122
126
70
122
126
68
124
128
64
127
132
65
128
136
65
128
139
71
129
138
77
132
134
76
135
130
76
133
127
74
128
124
71
123
120
69
121
123
70
122
130
73
123
135
75
124
134
75
130
140
83
135
146
92
136
146
95
137
144
93
134
143
78
128
141
67
119
133
61
111
119
56
106
108
53
114
115
60
116
118
62
118
126
69
122
133
77
127
139
83
125
134
76
127
137
67
130
141
62
133
147
71
131
143
81
124
138
85
118
136
82
117
137
81
122
137
77
127
134
78
131
130
77
139
136
83
139
136
83
133
135
79
125
133
74
123
136
74
127
141
76
130
137
74
128
126
73
123
122
72
120
128
77
119
134
83
124
137
86
127
136
86
124
134
80
116
134
75
112
136
74
113
139
79
115
140
81
118
140
80
116
136
74
111
129
67
111
125
65
116
123
67
116
119
67
114
125
72
113
132
77
114
137
83
109
131
77
104
125
72
103
128
76
106
125
74
111
120
71
120
120
70
131
125
75
129
128
77
122
127
77
122
132
82
131
141
91
131
141
87
123
140
79
115
134
66
112
126
60
112
123
64
115
127
67
111
129
67
107
125
69
107
123
69
111
125
69
113
125
67
112
123
65
111
119
64
110
117
65
109
116
66
106
113
62
107
115
63
108
116
64
111
118
63
115
115
60
129
112
55
155
118
48
178
122
47
187
117
48
173
113
54
152
109
59
132
108
61
111
107
58
100
106
55
100
109
57
109
116
65
128
135
73
118
131
69
118
127
68
122
130
71
126
134
79
129
140
85
133
147
87
133
147
83
135
146
77
133
144
80
133
145
87
132
148
93
132
146
91
136
143
89
136
139
86
142
139
88
143
145
98
134
145
99
127
146
97
123
138
86
134
144
92
136
154
92
137
159
85
130
157
72
124
153
62
126
150
73
132
153
86
131
151
92
127
143
90
125
139
85
125
138
83
127
138
81
127
133
73
121
132
70
129
146
85
140
162
107
147
170
122
146
170
123
141
165
119
142
159
109
138
148
94
129
131
75
127
125
68
131
128
71
139
133
78
145
136
85
144
137
88
142
140
92
136
147
91
135
146
90
129
140
83
130
132
76
137
134
80
135
137
81
133
138
81
138
146
88
144
149
96
150
151
105
160
158
116
165
161
121
164
160
120
164
159
122
162
154
118
155
145
110
150
136
102
138
123
91
126
111
82
120
104
79
122
105
83
131
117
91
135
122
91
131
120
84
125
118
72
120
119
69
118
122
67
124
127
72
130
127
74
134
130
75
130
128
72
129
130
73
129
132
77
125
134
75
125
139
76
125
141
79
126
142
80
121
137
75
119
135
75
122
137
80
126
136
76
126
131
73
122
125
67
117
121
62
120
121
60
124
125
58
124
129
62
122
131
67
124
131
71
130
127
72
132
122
70
131
123
69
126
121
66
121
118
65
120
124
72
120
131
78
121
138
80
125
141
84
131
148
93
133
147
96
138
146
97
137
141
90
136
137
78
130
139
68
121
132
64
114
122
61
110
115
61
112
117
66
116
118
66
117
124
68
120
131
74
123
136
81
123
134
76
126
137
69
132
143
69
137
149
82
135
146
90
130
141
90
116
137
81
114
137
78
123
137
76
127
133
77
132
129
78
136
131
80
135
133
78
134
132
77
128
132
72
124
137
69
125
137
69
127
133
68
127
126
73
126
124
75
123
131
80
122
134
84
126
136
85
126
135
83
125
135
80
118
134
77
114
133
75
115
135
78
116
139
81
116
140
77
114
134
71
115
133
73
117
129
71
124
128
75
127
126
77
124
132
80
120
135
81
118
135
80
111
129
75
105
125
73
107
130
78
114
129
80
119
128
79
129
130
80
134
128
78
129
124
74
124
122
73
125
127
79
128
135
83
129
139
83
124
135
75
116
125
65
112
117
61
112
119
65
113
124
68
109
126
66
106
125
62
107
125
65
108
126
68
109
125
68
113
122
67
114
118
65
113
115
64
112
115
63
105
113
59
106
115
58
105
117
57
108
118
58
121
114
58
139
106
52
165
107
46
180
107
45
180
101
45
170
96
48
156
96
51
141
96
55
122
102
54
108
103
52
106
110
57
114
117
65
128
136
70
118
131
70
115
123
68
119
126
71
122
128
76
125
136
83
132
145
88
134
148
86
134
148
79
131
145
76
128
142
75
125
143
78
128
142
82
134
141
85
134
136
84
136
133
87
139
140
97
132
142
98
125
143
96
117
132
81
127
142
88
134
155
93
140
165
93
137
165
82
127
156
69
125
150
72
130
151
81
133
150
90
132
145
91
127
141
85
127
140
83
129
140
81
129
136
76
123
134
72
121
139
76
132
157
96
141
168
109
142
169
109
137
163
108
136
154
99
134
142
83
129
133
74
130
131
74
133
133
76
136
133
77
138
136
80
136
138
84
135
142
89
132
146
89
131
145
89
132
145
89
141
145
93
148
146
97
145
148
96
144
146
95
145
147
95
147
146
98
151
147
104
157
149
112
165
154
119
162
152
116
157
147
114
153
142
110
146
133
101
139
124
94
133
119
87
131
116
85
124
108
82
117
100
77
109
92
70
104
90
64
113
104
71
118
115
70
118
120
70
118
125
71
123
129
70
130
131
74
135
133
76
132
133
75
127
131
71
126
133
73
125
136
76
123
138
77
125
141
79
125
141
79
121
137
76
118
134
72
120
136
73
123
137
74
123
132
70
120
125
65
112
116
57
115
116
55
118
121
53
120
128
59
117
128
64
120
127
67
127
124
69
128
116
65
127
117
64
122
119
64
117
118
63
115
122
69
117
130
77
118
137
81
124
143
87
130
148
93
132
146
93
135
139
90
135
132
83
134
126
75
129
128
73
122
126
68
118
123
68
115
119
68
116
118
68
116
120
67
116
124
68
118
129
72
117
129
75
124
132
76
130
136
76
136
141
76
142
147
83
136
144
86
131
141
84
118
138
75
116
137
71
123
137
74
128
135
76
132
131
78
133
130
78
136
132
78
138
134
78
131
134
71
125
136
67
121
133
65
123
129
65
125
125
71
126
129
78
126
134
83
126
136
85
130
138
86
131
137
83
126
134
79
118
130
74
113
130
72
114
132
72
117
138
77
117
137
75
116
133
74
120
134
78
124
133
76
129
134
80
131
133
82
128
138
83
125
138
82
122
133
77
116
130
75
115
130
77
119
136
83
124
138
87
130
140
88
134
142
87
134
134
79
131
124
71
129
121
72
133
126
78
133
136
87
129
135
83
122
128
74
116
116
64
114
112
63
114
115
67
115
124
69
114
129
66
110
129
64
109
127
65
110
126
67
110
122
66
112
120
65
116
119
66
118
120
65
119
122
62
114
123
59
109
120
56
106
117
55
110
114
56
130
110
58
148
98
51
161
91
41
165
87
38
166
86
38
165
82
41
160
85
46
151
90
52
138
100
56
127
106
56
125
112
53
120
119
62
127
137
69
119
132
69
113
122
66
116
125
70
120
129
76
125
136
82
130
142
86
137
149
89
136
150
82
129
146
73
124
143
67
119
139
66
120
138
72
125
136
76
129
133
81
130
129
86
131
136
94
128
139
97
122
139
91
111
128
75
116
134
77
126
149
86
134
160
86
131
159
78
125
150
75
124
143
75
123
142
77
127
140
80
130
140
85
124
136
78
123
135
75
126
138
77
128
136
76
124
135
73
121
136
73
126
152
88
134
165
99
134
163
95
131
159
96
130
150
91
130
138
77
131
135
77
130
137
78
132
142
82
134
141
82
132
138
80
136
142
86
136
147
91
132
146
91
129
143
88
127
139
86
135
140
91
144
143
98
146
147
102
143
143
97
139
139
92
137
133
90
135
129
90
136
126
92
139
127
94
139
126
93
132
120
88
126
113
83
126
112
84
125
113
81
132
120
85
137
125
89
132
117
83
121
105
74
110
93
65
99
86
55
108
107
68
117
123
76
117
127
76
119
132
76
120
130
70
125
129
69
128
129
68
127
130
68
124
130
67
121
130
66
121
134
72
118
135
76
120
137
76
122
137
75
122
139
74
121
139
72
119
137
68
121
137
70
121
132
66
118
125
62
114
118
58
115
118
54
115
120
53
118
127
60
117
129
66
121
127
69
128
125
70
130
121
67
124
121
64
115
122
64
113
121
64
112
122
67
113
129
74
116
135
81
122
141
88
127
145
90
132
143
90
136
137
87
135
128
80
130
116
72
126
116
72
119
118
67
116
118
66
115
117
67
116
116
67
116
120
68
116
124
67
120
127
71
122
129
76
130
128
79
136
134
80
142
136
78
143
141
78
137
143
76
130
140
73
124
138
69
121
137
65
127
138
70
131
136
74
135
134
78
137
133
80
140
134
80
140
135
79
132
134
70
124
134
62
119
129
63
121
126
65
124
126
72
124
131
78
125
137
85
127
139
87
133
139
88
132
136
84
126
134
80
119
129
73
117
128
71
118
131
71
120
134
76
122
136
78
121
134
78
123
136
80
128
137
81
129
137
81
129
137
81
127
139
79
124
136
76
123
133
75
121
133
77
121
137
82
128
145
91
133
148
94
134
147
91
130
143
84
129
136
76
131
129
73
136
129
77
140
134
86
135
138
90
128
133
82
118
124
72
114
116
65
115
114
65
115
117
69
114
123
67
117
133
67
116
136
67
115
134
67
114
130
68
114
126
68
116
124
68
122
129
73
124
132
72
126
134
69
119
131
62
115
125
57
118
122
57
128
114
58
142
103
56
146
87
47
150
77
37
150
79
36
149
80
36
155
74
36
159
80
45
156
91
57
150
107
62
145
114
58
145
117
51
133
121
56
123
137
69
116
129
65
111
123
62
113
124
66
119
130
72
128
138
81
135
145
86
139
150
89
138
149
84
130
147
76
122
143
68
118
140
66
116
137
67
119
133
71
123
133
79
128
134
88
124
135
91
121
134
90
114
131
79
112
129
74
112
130
69
118
142
72
126
153
75
127
154
77
130
147
78
131
141
79
128
140
80
128
138
79
126
134
79
121
129
72
119
130
70
120
133
73
122
131
73
122
132
71
121
132
70
126
148
86
130
160
95
129
160
90
126
156
87
126
149
83
127
139
76
136
141
84
136
145
89
136
146
90
137
145
90
135
142
88
137
140
88
134
143
89
128
139
87
123
133
83
118
127
80
119
124
80
128
129
88
131
133
91
126
129
85
117
120
74
108
108
66
100
97
58
96
90
54
91
83
51
89
81
49
89
80
49
89
80
51
88
79
51
91
85
51
105
100
63
128
123
83
131
123
82
124
113
75
115
104
68
108
100
63
111
115
73
121
132
86
122
136
86
122
137
83
120
132
74
119
128
66
124
128
66
123
129
66
121
129
66
118
127
62
114
126
63
115
130
69
117
132
69
121
136
70
122
140
70
122
142
70
121
141
69
120
137
67
121
133
66
120
127
64
117
122
61
117
122
59
116
123
56
117
126
62
119
130
70
122
130
73
128
129
72
131
129
71
125
128
67
118
128
67
118
129
69
117
129
71
117
129
74
119
134
80
122
138
84
125
140
85
129
138
84
134
135
83
133
129
79
129
116
71
122
110
67
110
110
60
109
109
59
111
110
61
112
110
63
118
120
70
121
126
71
127
130
75
131
131
81
133
132
84
139
135
82
149
137
79
152
141
77
151
145
72
150
147
67
148
147
63
147
145
60
149
145
67
151
145
72
153
145
78
152
144
80
148
142
79
142
137
73
131
133
66
124
133
61
125
131
68
125
128
70
125
129
74
123
134
78
122
138
83
126
142
87
136
142
91
131
136
85
125
133
77
121
129
73
124
131
74
127
135
78
128
137
82
127
136
83
126
136
83
125
137
84
128
140
83
126
139
79
125
137
76
124
136
74
122
134
72
124
134
74
125
138
80
124
143
85
127
149
91
130
151
91
130
147
86
126
140
78
128
137
74
134
135
75
139
134
80
139
136
86
132
133
86
124
129
78
116
124
69
115
121
65
117
119
65
119
124
70
120
130
71
121
136
72
120
140
71
120
137
68
122
137
69
121
135
72
127
138
79
127
142
84
127
144
82
126
140
75
127
138
65
139
132
62
148
128
62
153
119
63
150
100
56
139
80
44
135
71
35
133
77
37
139
80
37
146
74
37
150
82
48
150
96
62
155
111
65
158
114
57
162
113
51
152
116
53
119
134
71
112
127
64
105
120
57
109
121
58
118
130
67
128
137
77
136
145
85
139
148
85
137
146
83
130
143
79
121
140
73
118
141
68
116
139
67
116
135
70
123
137
82
130
141
94
127
138
92
123
136
90
113
129
76
112
129
74
116
134
73
117
143
73
123
154
72
127
158
75
129
149
79
133
145
83
129
142
82
129
139
80
126
134
78
119
127
73
114
124
70
116
128
73
121
130
74
122
132
74
123
134
73
125
145
83
127
155
91
127
155
87
123
153
82
126
150
78
129
145
78
136
144
87
140
150
98
137
146
96
135
142
93
134
138
88
132
131
83
129
134
84
121
129
80
107
115
69
97
103
62
93
97
60
94
99
59
97
104
61
96
105
59
99
108
59
97
103
55
88
92
47
83
83
43
77
77
41
77
77
41
79
80
42
79
80
40
76
78
35
80
87
37
92
100
47
107
115
61
121
126
73
122
123
73
114
114
67
114
113
67
113
120
75
123
139
94
126
145
96
121
141
89
122
137
80
118
129
69
123
130
70
124
132
72
123
133
72
121
129
68
116
125
62
116
125
61
121
133
65
123
138
68
124
143
69
124
145
70
123
144
69
120
137
65
121
133
67
120
128
68
116
124
65
116
124
62
115
125
60
117
129
66
118
131
73
122
131
74
124
131
72
124
131
69
122
133
67
120
133
69
123
136
74
123
133
73
125
132
76
125
135
81
126
136
82
127
137
82
130
138
81
132
136
81
130
129
77
129
119
73
119
110
66
108
107
60
110
109
62
113
112
65
113
112
64
118
120
70
126
129
74
134
134
81
134
132
83
137
136
86
145
139
84
161
143
83
172
152
80
179
155
74
182
157
68
181
157
63
179
155
59
179
154
63
180
157
70
181
159
76
177
157
78
166
151
76
150
142
68
133
133
62
123
130
62
126
129
67
125
130
72
122
130
73
119
133
73
117
136
77
122
141
82
132
141
86
130
137
83
129
135
77
126
133
75
130
135
78
134
138
85
133
139
87
133
140
90
132
141
90
129
141
89
125
140
83
121
136
76
121
135
73
124
136
74
124
136
74
127
139
77
129
143
81
131
150
89
133
152
90
132
149
85
127
142
78
125
140
75
133
141
76
143
139
77
144
131
77
136
126
76
128
126
79
121
127
76
115
127
71
117
127
68
117
125
66
117
127
68
123
134
74
125
136
76
124
139
75
126
140
71
129
142
70
130
145
77
129
146
85
129
148
91
126
145
85
126
143
79
140
140
70
157
132
68
161
129
65
160
118
61
150
98
54
134
78
45
124
77
41
123
87
44
126
85
41
132
79
41
130
95
52
133
108
63
149
115
66
162
111
59
167
105
52
155
102
49
118
133
76
107
126
66
102
119
57
109
120
57
119
129
65
128
135
72
135
141
78
138
144
81
136
142
81
129
140
79
123
139
76
121
140
74
118
140
71
118
135
71
125
138
81
133
142
92
131
142
94
129
139
87
120
132
75
117
131
72
117
135
72
118
142
72
122
151
73
127
159
75
129
153
81
129
150
82
127
145
82
128
140
81
126
135
78
120
129
75
113
123
70
114
124
71
120
129
72
125
134
77
130
139
81
131
145
85
129
151
87
124
151
84
123
149
80
124
147
76
132
148
81
138
146
87
139
149
95
136
146
94
133
140
89
130
132
83
125
122
76
119
121
75
107
113
67
86
94
51
79
87
46
76
85
43
81
93
47
89
102
53
94
108
57
94
108
57
95
107
54
90
99
48
88
95
46
92
100
54
99
107
63
98
109
62
96
106
57
95
104
52
95
108
48
103
120
56
106
124
59
108
124
61
113
124
67
111
119
68
114
122
72
118
128
78
125
139
89
127
144
92
125
143
89
125
139
82
127
134
78
130
134
79
130
137
80
130
139
81
129
138
78
126
133
71
122
128
64
123
132
64
124
139
66
124
143
69
124
145
70
124
145
70
124
139
72
122
133
72
118
126
71
117
125
69
117
127
67
114
125
65
116
129
70
117
132
73
121
130
73
121
130
73
120
130
70
120
134
69
119
135
70
122
140
76
127
138
77
131
135
77
127
134
79
127
135
78
128
137
78
132
139
80
129
136
77
129
132
77
131
125
79
125
120
71
117
116
67
119
119
69
119
120
71
118
118
68
121
122
71
129
128
78
135
134
84
134
132
83
137
135
83
156
141
83
173
149
83
186
158
83
195
160
75
198
162
68
199
163
64
201
162
62
203
163
67
202
167
74
201
169
77
195
166
74
183
159
69
164
148
61
141
134
56
127
129
58
123
128
64
122
130
70
119
131
69
116
132
71
114
133
74
116
135
76
123
137
79
128
137
78
128
137
77
129
136
76
133
138
80
135
139
84
133
140
87
137
142
94
136
144
95
132
144
91
122
141
81
118
135
73
120
135
73
125
139
76
131
143
78
135
147
82
137
149
87
139
152
91
140
152
92
139
151
86
130
144
77
130
145
78
145
144
78
152
139
76
147
130
74
136
123
73
129
127
78
126
136
83
122
135
80
119
133
75
121
133
73
120
133
72
124
136
76
127
137
78
127
141
80
128
139
74
128
139
69
129
142
75
128
144
82
126
145
83
125
142
81
129
140
79
143
138
75
157
132
71
160
128
64
158
116
57
145
100
53
131
90
53
123
91
52
119
96
51
119
92
47
117
92
46
117
105
55
123
114
62
135
114
64
151
109
60
160
100
55
152
93
49
115
133
78
105
125
67
99
120
59
105
121
58
117
128
65
127
134
71
133
139
75
135
142
78
131
139
77
126
138
77
121
138
77
119
136
75
117
135
72
119
132
71
124
134
75
131
138
83
134
141
88
131
141
85
126
137
79
125
139
79
122
139
76
122
142
74
123
147
73
126
153
74
128
155
81
126
151
80
124
143
77
125
138
77
123
133
73
120
131
73
117
128
71
116
127
70
121
132
75
128
139
81
134
144
86
134
147
88
128
148
84
121
147
79
120
146
75
122
146
73
127
145
75
135
145
83
133
146
87
132
142
87
130
138
83
124
128
74
115
113
63
108
108
59
98
102
53
88
95
47
85
94
47
85
95
45
91
104
51
96
111
55
99
114
58
102
117
61
103
117
62
98
110
56
99
110
56
106
118
65
115
127
77
114
128
77
113
128
74
111
123
68
106
124
59
111
130
61
115
133
64
113
128
65
110
125
67
113
126
70
118
129
74
124
133
79
125
136
80
129
142
85
127
143
84
127
141
79
131
138
78
134
137
83
135
141
88
136
144
89
135
145
82
133
140
76
130
134
70
127
132
67
126
136
67
125
141
67
127
144
68
127
144
69
128
143
75
128
139
77
125
134
76
123
131
75
119
129
70
116
127
67
118
131
70
118
134
72
122
133
75
122
133
75
119
131
71
120
135
70
121
138
72
120
138
74
128
139
78
134
137
78
132
135
80
130
136
77
130
139
78
130
140
78
128
138
76
128
136
76
131
131
79
131
132
76
129
133
75
125
132
74
123
130
72
121
125
70
121
124
72
127
130
80
134
137
87
136
139
89
143
139
84
162
143
79
180
148
75
195
157
75
205
161
68
210
162
62
212
162
60
214
163
59
216
166
62
216
170
70
214
173
74
209
172
74
198
166
66
182
154
57
161
140
52
145
132
53
131
129
62
124
131
70
118
134
69
114
132
69
110
130
68
112
130
70
119
133
72
125
136
74
126
138
75
128
138
76
130
137
76
132
136
79
134
138
84
139
143
93
136
143
92
128
141
86
118
137
77
115
132
70
123
136
74
132
143
81
138
148
84
141
151
87
143
153
92
145
155
95
145
155
98
143
154
92
136
149
85
133
150
84
147
147
77
156
140
77
152
136
80
143
137
85
136
139
91
132
144
93
129
140
87
123
135
78
126
136
76
127
136
77
131
137
79
133
136
79
132
136
78
129
134
74
125
131
69
124
133
71
124
135
75
127
141
80
125
139
78
127
138
78
132
135
73
138
131
68
143
123
61
141
114
56
137
109
59
131
107
63
127
110
65
118
108
61
111
105
55
108
103
52
111
114
61
120
122
68
128
123
69
135
114
63
138
102
55
137
98
52
108
127
73
103
125
67
101
125
65
105
127
65
116
131
69
125
134
71
131
138
74
133
139
75
125
136
73
119
134
72
118
136
76
116
132
76
117
130
73
118
129
70
120
129
69
128
134
74
134
138
78
132
141
81
129
141
81
128
142
82
124
141
78
125
141
76
125
143
73
127
148
73
129
150
76
128
146
76
126
141
74
125
138
76
125
135
73
125
136
76
126
137
78
122
134
75
124
137
78
129
143
84
133
147
88
136
150
91
128
150
85
120
147
76
117
144
69
119
143
67
120
140
68
126
140
75
127
142
80
130
142
81
131
141
80
127
134
74
122
122
65
115
114
60
106
109
56
100
105
53
97
105
52
96
107
50
103
117
56
105
120
59
110
126
65
113
129
68
111
128
69
110
124
66
110
123
66
115
129
72
122
136
81
123
140
85
120
137
81
118
133
76
118
131
71
120
130
69
122
132
69
117
129
67
110
127
67
113
129
69
120
131
71
126
133
73
129
136
74
133
141
78
134
143
78
137
141
76
141
138
77
146
138
81
148
143
86
150
147
88
149
148
85
146
143
79
139
135
72
130
130
69
125
130
65
126
139
66
128
145
67
130
147
68
133
148
76
135
147
80
133
142
83
130
138
82
124
135
75
123
134
73
121
134
72
120
135
72
122
135
76
123
137
78
122
136
75
122
137
72
123
140
74
125
142
77
129
140
78
135
139
80
137
139
82
133
137
77
130
139
75
129
141
76
129
142
76
129
142
77
132
138
79
135
143
80
136
147
80
130
142
75
125
138
71
122
130
69
123
130
76
128
136
84
136
145
92
137
145
92
147
144
84
166
143
73
183
144
63
199
150
61
211
155
57
216
155
53
217
153
51
220
154
50
222
160
50
222
166
58
221
170
64
218
171
68
208
168
61
198
158
53
182
147
51
167
139
52
151
134
57
135
133
63
123
132
65
117
129
66
111
126
64
112
125
64
117
130
68
121
136
71
126
141
75
127
140
74
127
136
72
128
133
74
135
135
80
138
140
88
133
141
87
125
137
80
114
133
72
114
131
69
127
139
77
136
145
84
144
150
87
145
152
89
144
151
91
148
154
96
149
155
101
147
155
95
142
151
86
138
150
82
139
148
81
147
147
88
152
147
96
150
150
103
143
151
103
137
149
99
132
142
91
131
140
83
133
140
82
137
140
83
139
138
82
138
134
80
136
130
76
126
124
69
120
121
67
124
127
72
128
133
77
130
139
79
129
140
80
127
138
78
124
136
75
123
131
68
130
125
64
132
120
64
133
120
68
131
121
71
127
124
74
115
119
69
109
115
63
110
114
63
115
123
70
125
128
76
131
131
78
126
123
69
121
113
60
122
106
56
100
122
62
102
123
63
106
128
68
108
132
70
115
136
75
121
137
74
126
139
74
127
138
74
120
137
74
116
135
73
116
138
78
113
134
77
112
131
75
111
129
70
116
129
68
125
132
68
127
136
70
130
143
80
128
145
84
127
146
84
127
146
84
128
145
79
128
144
74
128
145
73
126
146
73
128
144
74
127
141
76
125
139
74
127
138
72
128
140
73
130
142
77
129
141
76
126
141
78
125
143
81
129
148
88
130
152
91
126
149
83
119
148
75
117
145
68
117
143
65
120
141
69
123
140
74
124
140
78
128
145
82
131
145
82
131
140
75
127
133
67
121
124
59
115
115
56
110
113
57
108
116
54
109
120
58
114
128
62
118
132
67
122
137
74
120
137
75
120
135
76
119
134
75
119
134
75
121
135
76
127
140
84
127
142
87
125
139
85
123
135
81
127
134
80
129
134
77
129
132
75
123
130
72
118
133
71
121
134
70
126
134
69
130
133
67
135
133
69
141
135
71
147
137
71
151
135
71
157
135
76
160
135
78
165
142
82
165
145
81
166
147
83
164
145
81
155
139
75
142
133
73
129
132
70
130
140
70
129
147
70
131
149
68
136
150
74
140
151
77
140
148
85
137
144
84
132
142
81
128
139
76
124
138
73
122
138
73
123
138
75
125
140
77
126
141
78
127
141
77
127
141
76
130
142
77
130
140
77
134
139
80
138
138
82
135
140
78
129
140
73
128
141
76
129
145
78
132
145
80
133
146
78
135
148
78
134
152
80
130
147
75
125
141
69
124
136
70
127
138
80
132
142
88
134
147
94
139
147
90
148
146
79
167
142
69
184
140
59
197
140
53
209
140
49
216
138
46
217
138
43
219
139
42
222
143
43
223
152
46
222
158
49
222
162
54
216
164
55
207
160
52
197
154
52
186
147
54
171
141
54
153
136
60
136
131
63
121
128
62
114
125
62
114
126
65
116
131
69
120
138
74
124
143
79
126
141
76
128
138
74
131
137
77
136
139
80
133
138
79
129
136
78
122
133
73
111
129
67
116
133
71
134
141
82
141
145
84
148
149
90
148
148
89
145
145
87
149
148
92
151
150
96
149
151
92
143
150
85
135
148
83
137
149
87
145
152
95
151
152
101
152
156
106
146
154
106
138
148
96
130
142
87
133
141
85
137
141
85
141
142
85
141
138
82
143
133
82
138
129
78
126
121
71
124
122
73
133
133
83
138
138
88
136
140
85
131
140
81
127
138
78
126
136
75
123
131
71
122
126
67
127
125
70
129
127
74
128
126
77
125
126
77
118
125
74
117
121
69
118
122
70
123
126
74
128
130
77
128
133
80
122
130
74
119
124
68
118
118
64
99
121
55
101
123
60
106
128
68
108
132
70
114
140
77
120
142
76
123
140
74
123
138
74
118
135
72
116
135
73
116
137
77
113
137
79
110
135
77
111
133
73
115
130
68
124
133
69
127
139
69
128
144
77
128
148
84
128
150
86
130
152
88
131
151
84
128
148
77
127
147
74
126
145
72
128
143
74
128
142
75
127
141
73
127
139
70
128
141
72
130
143
74
130
143
75
125
143
79
122
142
80
125
147
86
128
150
89
126
150
83
123
148
77
124
147
74
122
143
69
119
140
68
122
140
74
124
140
78
126
146
82
129
146
82
130
142
76
128
137
69
123
130
59
121
122
55
117
121
57
117
126
56
120
132
62
123
137
68
126
140
72
128
143
79
126
143
85
126
141
82
127
142
83
128
143
83
128
142
81
129
143
84
130
144
88
130
141
88
128
138
85
132
136
85
135
137
84
136
136
82
130
134
78
123
136
74
124
137
71
129
135
68
134
132
66
141
132
68
149
132
68
155
130
67
161
127
69
166
128
69
171
130
72
175
137
77
177
142
79
180
145
82
177
145
81
171
143
78
159
140
74
143
138
74
133
138
73
132
147
74
136
150
72
138
152
74
141
154
74
141
151
79
139
147
82
133
143
81
130
143
79
126
142
77
122
141
75
121
140
73
128
143
77
132
144
79
133
144
80
132
143
80
128
139
76
128
137
77
131
136
79
134
137
81
133
142
79
129
141
73
128
141
73
130
146
76
132
148
79
133
149
79
134
151
78
133
151
76
129
147
72
125
141
68
128
141
72
132
144
79
134
143
83
135
146
89
141
146
85
156
145
74
175
141
63
192
138
54
203
137
50
213
135
44
219
132
42
221
134
41
221
134
39
223
137
38
221
138
40
221
143
43
220
150
47
220
158
50
216
162
53
210
161
54
201
156
54
190
150
57
174
142
58
159
138
59
141
136
59
126
132
65
122
133
71
119
134
72
120
138
75
125
142
79
130
142
78
133
142
78
132
141
78
134
140
77
130
136
73
125
134
70
120
131
67
117
130
67
123
133
75
138
138
84
144
142
85
150
146
90
147
143
85
144
139
83
146
141
86
148
143
88
145
143
86
142
144
84
138
148
87
141
151
92
151
156
103
155
155
107
150
154
106
143
151
103
134
144
93
128
140
85
130
139
83
132
140
82
138
139
82
143
139
83
143
134
82
139
129
78
135
127
77
135
127
80
143
138
90
143
142
92
138
142
91
133
142
86
127
139
78
126
136
75
125
133
73
125
130
71
127
133
75
126
132
77
125
128
77
123
126
76
122
125
75
122
124
70
122
125
71
123
127
73
124
131
77
122
132
76
119
132
76
119
128
74
120
125
72
