P3
# Created by GIMP version 2.10.34 PNM plug-in
100 100
255
174
180
152
174
180
152
173
179
151
173
179
151
173
179
151
173
179
151
173
179
151
173
179
151
173
179
151
173
179
151
173
179
151
172
178
150
173
179
151
173
179
150
171
179
148
171
180
150
172
179
150
172
180
150
171
180
149
171
180
149
171
180
151
171
180
151
171
180
151
171
180
151
171
180
151
171
180
151
171
180
151
171
180
151
171
180
151
171
180
151
171
180
151
173
180
151
171
180
151
171
180
151
171
180
151
171
180
151
171
180
151
171
180
151
172
180
150
173
181
150
171
180
151
171
180
151
172
181
152
171
180
151
171
180
151
172
181
152
172
181
152
172
181
152
172
181
152
172
181
150
174
180
152
172
181
152
172
181
152
173
180
152
172
180
152
172
181
152
174
180
152
174
180
152
173
180
152
173
180
151
255
255
255
255
255
255
255
255
255
255
255
255
255
255
255
255
255
255
255
255
255
255
255
255
255
255
255
255
255
255
255
255
255
255
255
255
255
255
255
255
255
255
255
255
255
255
255
255
255
255
255
255
255
255
255
255
255
255
255
255
255
255
255
255
255
255
255
255
255
255
255
255
255
255
255
255
255
255
255
255
255
255
255
255
255
255
255
255
255
255
255
255
255
255
255
255
255
255
255
255
255
255
255
255
255
255
255
255
255
255
255
255
255
255
255
255
255
255
255
255
174
180
151
174
180
152
174
180
152
173
179
151
173
179
151
173
179
151
173
179
151
173
179
151
173
179
151
173
179
151
173
179
151
173
179
151
172
179
150
172
179
149
172
179
149
171
179
150
171
180
151
172
179
150
171
180
150
170
179
149
171
180
151
170
179
150
170
179
150
171
180
151
171
180
151
171
180
151
171
180
151
171
180
151
171
180
151
171
180
151
171
180
151
171
180
151
171
180
151
171
180
151
171
180
151
171
180
150
171
180
151
171
180
151
171
180
151
171
180
151
171
180
151
171
180
151
171
180
151
171
180
151
171
180
151
171
180
151
171
180
151
172
181
151
172
181
151
172
181
150
172
181
152
172
180
152
172
181
151
173
180
149
172
180
151
173
180
152
174
180
152
174
180
152
174
180
152
174
180
152
255
255
255
255
255
255
255
255
255
255
255
255
255
255
255
255
255
255
255
255
255
255
255
255
255
255
255
255
255
255
255
255
255
255
255
255
255
255
255
255
255
255
255
255
255
255
255
255
255
255
255
255
255
255
255
255
255
255
255
255
255
255
255
255
255
255
255
255
255
255
255
255
255
255
255
255
255
255
255
255
255
255
255
255
255
255
255
255
255
255
255
255
255
255
255
255
255
255
255
255
255
255
255
255
255
255
255
255
255
255
255
255
255
255
255
255
255
255
255
255
172
179
149
173
179
151
173
179
151
173
179
151
173
179
151
173
179
151
173
179
151
172
178
150
173
179
151
172
178
150
173
179
151
172
178
150
170
179
150
172
179
149
173
179
151
171
179
149
170
179
150
173
179
151
171
179
151
171
180
149
170
179
150
171
180
150
170
179
150
170
179
150
171
180
151
171
180
151
171
180
151
171
180
151
171
180
151
171
180
151
171
180
151
171
180
151
171
180
150
170
179
150
170
179
150
171
180
149
171
180
151
171
180
151
171
180
151
171
180
151
171
180
151
171
180
151
171
180
151
171
180
151
171
180
151
171
180
151
171
180
151
171
180
150
172
181
150
172
181
150
172
180
151
173
180
152
173
180
152
173
179
151
172
179
151
173
180
152
171
180
151
171
180
151
174
180
152
172
180
151
255
255
255
255
255
255
255
255
255
255
255
255
255
255
255
255
255
255
255
255
255
255
255
255
255
255
255
255
255
255
255
255
255
255
255
255
255
255
255
255
255
255
255
255
255
255
255
255
255
255
255
255
255
255
255
255
255
255
255
255
255
255
255
255
255
255
255
255
255
255
255
255
255
255
255
255
255
255
255
255
255
255
255
255
255
255
255
255
255
255
255
255
255
255
255
255
255
255
255
255
255
255
255
255
255
255
255
255
255
255
255
255
255
255
255
255
255
255
255
255
172
178
149
173
179
150
174
180
152
173
179
151
173
179
151
173
179
151
172
178
150
172
178
150
172
178
150
172
178
150
171
178
150
172
178
150
172
179
150
172
178
150
172
179
151
171
179
149
170
179
150
171
179
149
171
179
150
170
179
150
170
179
150
170
179
149
170
179
150
171
180
151
170
179
150
171
180
151
171
180
151
171
180
151
171
180
149
170
179
150
171
180
149
170
179
150
170
179
150
170
179
150
171
180
151
170
179
150
170
179
150
170
179
150
171
180
151
171
180
150
171
180
151
171
180
151
171
180
150
171
180
151
171
180
151
171
180
151
171
180
151
171
180
150
171
180
149
171
180
150
171
180
151
173
179
151
173
179
151
173
180
151
171
180
152
171
180
151
171
180
151
173
180
152
174
180
152
173
179
151
255
255
255
255
255
255
255
255
255
255
255
255
255
255
255
255
255
255
255
255
255
255
255
255
255
255
255
255
255
255
255
255
255
255
255
255
255
255
255
255
255
255
255
255
255
255
255
255
255
255
255
255
255
255
255
255
255
255
255
255
255
255
255
255
255
255
255
255
255
255
255
255
255
255
255
255
255
255
255
255
255
255
255
255
255
255
255
255
255
255
255
255
255
255
255
255
255
255
255
255
255
255
255
255
255
255
255
255
255
255
255
255
255
255
255
255
255
255
255
255
172
178
150
173
179
151
173
179
151
173
179
151
173
179
151
173
179
151
172
178
150
172
178
150
172
178
150
172
178
150
171
178
149
169
178
149
170
179
150
170
179
150
170
179
149
170
179
150
170
179
150
171
179
150
170
179
150
170
179
150
170
179
150
170
179
150
170
179
150
170
179
150
170
179
150
170
179
150
170
179
150
170
179
149
170
179
150
170
179
150
170
179
150
170
179
149
170
179
148
170
179
149
170
179
150
170
179
150
170
179
150
170
179
150
170
179
150
171
180
149
171
180
149
171
180
150
171
180
150
171
180
149
171
180
149
171
180
150
171
180
150
171
180
149
171
180
149
171
180
150
171
180
150
172
179
151
173
179
151
172
179
151
171
180
151
171
180
149
171
180
150
173
179
151
174
180
152
173
179
150
255
255
255
255
255
255
255
255
255
255
255
255
255
255
255
255
255
255
255
255
255
255
255
255
255
255
255
255
255
255
255
255
255
255
255
255
255
255
255
255
255
255
255
255
255
255
255
255
255
255
255
255
255
255
255
255
255
255
255
255
255
255
255
255
255
255
255
255
255
255
255
255
255
255
255
255
255
255
255
255
255
255
255
255
255
255
255
255
255
255
255
255
255
255
255
255
255
255
255
255
255
255
255
255
255
255
255
255
255
255
255
255
255
255
255
255
255
255
255
255
172
178
150
173
179
151
173
179
151
172
178
150
172
178
150
172
178
150
172
178
150
172
178
150
172
178
150
172
178
150
172
178
150
172
178
150
171
178
150
171
178
150
169
178
149
169
178
149
170
179
150
170
179
150
170
179
150
170
179
150
170
179
150
170
179
150
169
178
149
170
179
150
169
178
149
169
178
149
170
179
149
170
179
149
170
179
149
169
178
148
169
178
149
170
179
150
169
178
147
170
179
148
170
179
149
170
179
150
170
179
150
170
179
150
170
179
150
170
179
149
170
179
150
170
179
150
170
179
150
171
180
149
171
180
149
170
179
148
171
180
149
171
180
149
171
180
149
171
179
150
172
179
151
171
179
151
172
179
151
171
179
151
171
180
151
172
179
151
173
179
151
173
179
151
173
179
151
173
179
150
255
255
255
255
255
255
255
255
255
255
255
255
255
255
255
255
255
255
255
255
255
255
255
255
255
255
255
255
255
255
255
255
255
255
255
255
255
255
255
255
255
255
255
255
255
255
255
255
255
255
255
255
255
255
255
255
255
255
255
255
255
255
255
255
255
255
255
255
255
255
255
255
255
255
255
255
255
255
255
255
255
255
255
255
255
255
255
255
255
255
255
255
255
255
255
255
255
255
255
255
255
255
255
255
255
255
255
255
255
255
255
255
255
255
255
255
255
255
255
255
172
178
150
172
178
150
172
178
150
172
178
150
172
178
150
172
178
150
172
178
150
172
178
150
172
178
150
172
178
150
172
178
150
172
178
150
171
178
149
171
178
148
169
178
148
169
178
149
169
178
149
170
179
149
170
179
150
170
179
149
169
178
148
169
178
149
169
178
149
170
179
149
169
178
148
169
178
148
169
178
149
169
178
148
169
178
148
169
178
149
169
178
149
169
178
149
169
178
149
169
178
149
170
179
149
170
179
150
169
178
149
169
178
149
169
178
149
170
179
149
170
179
150
170
179
150
170
179
150
170
179
148
170
179
148
171
179
148
171
179
148
170
179
148
170
179
150
170
179
150
171
179
149
172
179
149
171
180
150
170
179
150
170
180
150
172
179
151
173
179
151
173
179
151
172
179
151
172
179
150
255
255
255
255
255
255
255
255
255
255
255
255
255
255
255
255
255
255
255
255
255
255
255
255
255
255
255
255
255
255
255
255
255
255
255
255
255
255
255
255
255
255
255
255
255
255
255
255
255
255
255
255
255
255
255
255
255
255
255
255
255
255
255
255
255
255
255
255
255
255
255
255
255
255
255
255
255
255
255
255
255
255
255
255
255
255
255
255
255
255
255
255
255
255
255
255
255
255
255
255
255
255
255
255
255
255
255
255
255
255
255
255
255
255
255
255
255
255
255
255
172
178
150
172
178
150
172
178
150
171
177
149
172
178
150
172
178
150
172
178
150
172
178
150
172
178
150
172
178
150
171
177
149
170
178
149
169
178
149
169
178
148
169
178
148
169
178
149
169
178
148
169
178
148
169
178
149
169
178
148
169
178
147
169
178
147
169
178
147
169
178
148
169
178
149
169
178
149
169
178
149
169
178
149
169
178
148
168
177
148
168
177
148
169
178
149
169
178
149
169
178
149
169
179
149
169
178
149
169
178
149
169
178
149
169
178
149
170
179
150
169
178
149
170
179
150
170
179
149
170
179
148
170
179
148
172
179
148
171
179
148
170
179
148
170
179
149
170
179
149
170
179
149
172
179
150
171
179
150
172
178
150
172
179
151
171
179
150
173
179
151
173
179
151
173
179
151
173
179
150
255
255
255
255
255
255
255
255
255
255
255
255
255
255
255
255
255
255
255
255
255
255
255
255
255
255
255
255
255
255
255
255
255
255
255
255
255
255
255
255
255
255
255
255
255
255
255
255
255
255
255
255
255
255
255
255
255
255
255
255
255
255
255
255
255
255
255
255
255
255
255
255
255
255
255
255
255
255
255
255
255
255
255
255
255
255
255
255
255
255
255
255
255
255
255
255
255
255
255
255
255
255
255
255
255
255
255
255
255
255
255
255
255
255
255
255
255
255
255
255
172
178
150
172
178
150
171
177
149
171
177
149
171
177
149
171
177
149
172
178
150
172
178
150
171
177
149
171
177
149
171
177
149
169
177
149
169
178
149
169
178
148
169
178
148
169
178
147
169
178
147
170
178
147
169
178
147
169
178
148
169
178
147
169
178
147
168
177
147
168
177
148
168
177
148
168
177
148
168
177
148
168
177
148
168
177
148
168
177
148
168
177
148
168
177
148
169
178
149
169
178
149
168
177
148
168
177
148
168
177
148
169
178
148
169
178
149
169
178
148
169
178
149
169
178
149
169
178
149
170
179
148
170
179
148
170
179
148
171
179
148
171
179
148
170
179
150
170
179
149
171
179
148
172
178
149
172
178
150
173
179
151
172
179
150
172
179
150
173
179
151
173
179
151
173
179
151
172
178
150
255
255
255
255
255
255
255
255
255
255
255
255
255
255
255
255
255
255
255
255
255
255
255
255
255
255
255
255
255
255
255
255
255
255
255
255
255
255
255
255
255
255
255
255
255
255
255
255
255
255
255
255
255
255
255
255
255
255
255
255
255
255
255
255
255
255
255
255
255
255
255
255
255
255
255
255
255
255
255
255
255
255
255
255
255
255
255
255
255
255
255
255
255
255
255
255
255
255
255
255
255
255
255
255
255
255
255
255
255
255
255
255
255
255
255
255
255
255
255
255
171
177
149
172
178
150
171
177
149
171
177
149
171
177
149
172
178
150
171
177
149
171
177
149
171
177
149
171
177
149
171
177
149
169
177
148
168
177
148
169
178
149
169
178
148
169
178
148
169
178
147
169
178
147
169
178
147
169
178
148
168
177
148
168
177
148
168
177
148
167
176
147
168
177
148
167
176
147
167
176
147
167
176
147
168
177
148
168
177
148
168
177
148
168
177
147
168
177
148
169
178
149
168
177
148
167
176
147
168
177
147
168
177
147
168
177
148
168
177
148
169
178
147
169
178
148
170
178
147
170
179
148
169
178
148
170
179
149
170
179
149
170
179
148
170
179
148
170
179
148
170
179
149
171
179
150
170
178
150
172
179
150
172
178
150
172
178
150
173
179
151
173
179
151
173
179
151
172
178
150
255
255
255
255
255
255
255
255
255
255
255
255
255
255
255
255
255
255
255
255
255
255
255
255
255
255
255
255
255
255
255
255
255
255
255
255
255
255
255
255
255
255
255
255
255
255
255
255
255
255
255
255
255
255
255
255
255
255
255
255
255
255
255
255
255
255
255
255
255
255
255
255
255
255
255
255
255
255
255
255
255
255
255
255
255
255
255
255
255
255
255
255
255
255
255
255
255
255
255
255
255
255
255
255
255
255
255
255
255
255
255
255
255
255
255
255
255
255
255
255
171
177
149
171
177
149
171
177
149
171
177
149
171
177
149
171
177
149
171
177
149
171
177
149
171
177
149
170
177
149
167
176
147
171
176
151
178
180
157
171
176
150
168
177
148
169
178
149
169
178
149
169
178
147
168
177
148
168
177
148
167
176
147
167
176
147
167
176
147
167
176
147
166
175
146
166
175
146
166
175
146
166
175
146
167
176
147
166
175
146
167
176
147
167
176
146
167
176
147
167
176
147
167
176
147
167
176
147
167
176
147
166
176
147
167
176
147
167
176
147
168
177
148
168
177
148
170
178
147
170
178
147
169
178
149
170
179
150
170
179
150
171
179
148
171
179
148
170
179
149
170
179
150
170
179
150
170
179
150
172
178
150
172
178
150
171
177
149
172
178
150
172
178
150
171
177
149
171
177
149
255
255
255
255
255
255
255
255
255
255
255
255
255
255
255
255
255
255
255
255
255
255
255
255
255
255
255
255
255
255
255
255
255
255
255
255
255
255
255
255
255
255
255
255
255
255
255
255
255
255
255
255
255
255
255
255
255
255
255
255
255
255
255
255
255
255
255
255
255
255
255
255
255
255
255
255
255
255
255
255
255
255
255
255
255
255
255
255
255
255
255
255
255
255
255
255
255
255
255
255
255
255
255
255
255
255
255
255
255
255
255
255
255
255
255
255
255
255
255
255
170
176
148
170
176
148
171
177
149
171
177
149
171
177
149
171
177
149
171
177
149
171
177
149
170
176
148
167
175
147
190
181
166
208
188
183
204
182
182
198
177
176
170
156
150
176
175
156
168
177
148
168
177
148
168
177
148
167
176
147
166
174
145
164
173
143
163
171
141
163
171
142
163
172
142
163
172
143
163
172
143
164
173
144
164
173
144
164
173
143
164
172
143
164
173
143
164
173
144
165
173
144
164
172
143
164
172
142
162
171
141
162
171
140
162
170
140
164
172
141
164
172
141
165
174
144
168
177
147
169
178
147
169
178
148
169
178
149
170
179
149
171
178
147
171
178
147
170
179
149
170
179
149
170
178
148
170
179
148
171
178
149
172
178
150
172
178
150
172
178
150
172
178
150
172
178
150
171
177
149
255
255
255
255
255
255
255
255
255
255
255
255
255
255
255
255
255
255
255
255
255
255
255
255
255
255
255
255
255
255
255
255
255
255
255
255
255
255
255
255
255
255
255
255
255
255
255
255
255
255
255
255
255
255
255
255
255
255
255
255
255
255
255
255
255
255
255
255
255
255
255
255
255
255
255
255
255
255
255
255
255
255
255
255
255
255
255
255
255
255
255
255
255
255
255
255
255
255
255
255
255
255
255
255
255
255
255
255
255
255
255
255
255
255
255
255
255
255
255
255
171
177
149
171
177
149
171
177
149
171
177
149
171
177
149
171
177
149
171
177
149
170
176
148
167
176
146
191
179
167
205
182
179
199
175
176
184
159
164
146
122
135
128
107
119
175
156
155
169
176
149
168
177
148
167
176
147
165
174
144
186
187
140
228
222
144
240
231
148
240
230
143
236
227
141
227
221
140
211
209
142
201
202
142
201
202
142
201
201
139
208
206
132
227
222
131
233
226
131
235
227
133
238
231
134
242
234
134
246
235
132
247
236
135
245
235
140
239
229
139
246
236
147
233
225
145
178
182
141
168
176
146
169
178
148
169
178
149
169
179
148
170
178
147
170
178
147
169
178
149
169
178
148
169
178
147
169
178
147
171
178
149
172
178
150
171
178
150
172
178
150
172
178
150
171
177
149
171
177
149
255
255
255
255
255
255
255
255
255
255
255
255
255
255
255
255
255
255
255
255
255
255
255
255
255
255
255
255
255
255
255
255
255
255
255
255
255
255
255
255
255
255
255
255
255
255
255
255
255
255
255
255
255
255
255
255
255
255
255
255
255
255
255
255
255
255
255
255
255
255
255
255
255
255
255
255
255
255
255
255
255
255
255
255
255
255
255
255
255
255
255
255
255
255
255
255
255
255
255
255
255
255
255
255
255
255
255
255
255
255
255
255
255
255
255
255
255
255
255
255
171
177
150
171
177
149
172
178
150
171
177
149
172
178
150
171
177
149
171
177
149
171
178
150
180
178
158
203
180
177
195
171
172
162
138
145
129
106
118
128
104
118
160
137
145
163
140
142
170
174
149
168
177
148
167
176
147
173
178
139
247
232
130
251
235
121
248
233
128
235
216
120
231
209
117
220
202
129
207
193
133
206
194
133
215
201
120
216
198
112
212
196
119
206
191
128
202
187
125
206
191
129
214
200
126
235
217
116
246
225
99
247
227
104
250
232
113
250
232
115
250
231
116
246
227
120
212
203
136
167
176
145
169
178
149
169
178
148
169
178
147
169
178
148
169
178
149
169
178
149
169
178
149
169
178
147
170
178
147
170
177
148
172
178
150
170
178
149
171
177
149
172
178
150
171
177
149
171
177
149
255
255
255
255
255
255
255
255
255
255
255
255
255
255
255
255
255
255
255
255
255
255
255
255
255
255
255
255
255
255
255
255
255
255
255
255
255
255
255
255
255
255
255
255
255
255
255
255
255
255
255
255
255
255
255
255
255
255
255
255
255
255
255
255
255
255
255
255
255
255
255
255
255
255
255
255
255
255
255
255
255
255
255
255
255
255
255
255
255
255
255
255
255
255
255
255
255
255
255
255
255
255
255
255
255
255
255
255
255
255
255
255
255
255
255
255
255
255
255
255
170
176
149
171
177
149
171
177
149
171
177
149
171
177
149
171
177
149
171
177
149
171
176
150
197
178
172
186
162
163
169
145
148
169
144
150
177
153
159
117
94
108
174
150
158
177
155
158
166
162
145
169
177
147
168
177
147
180
179
140
245
222
114
245
222
100
249
227
107
251
230
108
246
228
113
241
224
115
242
225
113
244
228
112
248
232
117
252
236
115
250
234
108
252
234
102
252
231
94
250
226
82
250
225
84
248
223
83
245
219
77
242
214
78
240
213
79
238
212
83
230
205
91
218
195
97
185
178
132
167
177
146
169
178
149
170
179
148
170
179
149
173
178
152
171
178
151
169
179
149
169
178
149
170
178
147
170
178
147
171
178
148
171
178
149
169
178
149
171
177
149
171
178
149
171
177
149
171
177
148
255
255
255
255
255
255
255
255
255
255
255
255
255
255
255
255
255
255
255
255
255
255
255
255
255
255
255
255
255
255
255
255
255
255
255
255
255
255
255
255
255
255
255
255
255
255
255
255
255
255
255
255
255
255
255
255
255
255
255
255
255
255
255
255
255
255
255
255
255
255
255
255
255
255
255
255
255
255
255
255
255
255
255
255
255
255
255
255
255
255
255
255
255
255
255
255
255
255
255
255
255
255
255
255
255
255
255
255
255
255
255
255
255
255
255
255
255
255
255
255
171
177
149
170
176
148
171
177
149
171
177
149
171
177
149
171
177
149
171
177
149
177
175
154
196
173
172
185
161
162
182
158
163
155
132
141
141
117
128
140
116
129
155
130
139
144
119
130
157
134
140
173
165
152
170
162
151
150
132
127
200
175
99
222
194
81
227
199
72
232
204
77
238
211
82
238
210
77
243
215
80
246
219
81
246
219
82
244
216
79
241
210
74
231
199
63
229
194
57
225
190
58
214
179
56
214
179
55
214
180
60
212
180
63
213
182
65
203
175
74
167
146
78
122
102
71
139
121
118
174
167
154
172
177
152
155
149
138
149
136
134
148
126
136
161
144
149
169
157
155
171
172
153
171
178
148
170
178
147
170
178
148
171
177
149
171
177
149
169
178
149
169
178
149
171
177
148
171
177
147
255
255
255
255
255
255
255
255
255
255
255
255
255
255
255
255
255
255
255
255
255
255
255
255
255
255
255
255
255
255
255
255
255
255
255
255
255
255
255
255
255
255
255
255
255
255
255
255
255
255
255
255
255
255
255
255
255
255
255
255
255
255
255
255
255
255
255
255
255
255
255
255
255
255
255
255
255
255
255
255
255
255
255
255
255
255
255
255
255
255
255
255
255
255
255
255
255
255
255
255
255
255
255
255
255
255
255
255
255
255
255
255
255
255
255
255
255
255
255
255
170
177
150
169
177
148
168
177
148
170
177
149
170
177
149
168
177
148
168
177
149
174
171
152
190
166
166
156
131
138
133
110
120
100
79
91
67
49
63
110
94
102
131
110
119
145
123
134
158
136
145
154
130
141
139
116
128
136
113
122
98
74
69
148
127
76
177
153
75
192
163
70
195
165
64
197
165
62
197
166
59
199
166
59
201
169
57
202
168
56
197
165
57
192
163
66
178
151
66
150
124
58
129
103
50
129
105
51
123
100
50
115
93
48
109
90
52
82
65
55
74
55
62
91
69
78
143
122
129
143
121
132
116
97
105
115
94
106
113
91
106
117
94
111
136
113
128
164
143
153
175
155
163
173
164
158
172
179
150
170
178
148
169
178
149
168
177
148
169
178
148
169
178
149
171
177
149
171
177
148
255
255
255
255
255
255
255
255
255
255
255
255
255
255
255
255
255
255
255
255
255
255
255
255
255
255
255
255
255
255
255
255
255
255
255
255
255
255
255
255
255
255
255
255
255
255
255
255
255
255
255
255
255
255
255
255
255
255
255
255
255
255
255
255
255
255
255
255
255
255
255
255
255
255
255
255
255
255
255
255
255
255
255
255
255
255
255
255
255
255
255
255
255
255
255
255
255
255
255
255
255
255
255
255
255
255
255
255
255
255
255
255
255
255
255
255
255
255
255
255
169
177
151
168
177
149
168
177
148
168
177
148
168
177
148
168
177
148
168
177
148
165
164
144
165
142
145
118
95
109
100
78
92
122
102
109
160
137
144
177
153
161
169
145
156
167
144
154
152
129
141
142
118
132
142
118
131
150
127
137
140
115
124
106
81
92
78
56
65
77
61
52
89
72
47
103
84
46
103
84
44
99
80
44
100
81
45
101
82
47
83
67
45
61
46
40
57
40
44
61
43
48
63
45
50
64
46
53
68
48
56
74
53
64
83
61
73
89
68
81
103
79
96
119
95
112
142
120
133
128
105
119
126
104
118
98
76
92
77
59
73
117
93
110
123
99
115
138
115
129
126
103
119
140
118
133
145
134
134
170
178
152
168
178
148
169
178
149
168
177
148
168
177
148
169
178
149
168
177
148
255
255
255
255
255
255
255
255
255
255
255
255
255
255
255
255
255
255
255
255
255
255
255
255
255
255
255
255
255
255
255
255
255
255
255
255
255
255
255
255
255
255
255
255
255
255
255
255
255
255
255
255
255
255
255
255
255
255
255
255
255
255
255
255
255
255
255
255
255
255
255
255
255
255
255
255
255
255
255
255
255
255
255
255
255
255
255
255
255
255
255
255
255
255
255
255
255
255
255
255
255
255
255
255
255
255
255
255
255
255
255
255
255
255
255
255
255
255
255
255
168
177
149
168
177
148
168
177
148
168
177
148
169
178
149
169
178
149
169
178
149
168
173
147
147
125
129
153
130
139
183
158
165
162
138
145
172
148
156
172
149
156
171
149
156
165
142
151
159
136
147
150
127
139
153
129
143
142
117
131
150
126
138
131
105
121
116
90
109
102
80
94
94
72
84
83
62
74
77
57
68
73
55
65
75
57
67
77
57
69
83
63
75
95
72
87
100
77
93
106
83
98
105
82
98
109
85
102
114
90
107
119
95
112
125
101
118
128
103
121
132
107
126
133
109
127
140
117
131
135
113
126
114
92
107
81
61
75
69
52
66
83
63
75
98
77
89
126
106
114
143
121
131
131
108
122
124
102
116
144
138
131
169
180
150
169
178
149
168
177
148
168
178
149
168
178
148
168
177
147
255
255
255
255
255
255
255
255
255
255
255
255
255
255
255
255
255
255
255
255
255
255
255
255
255
255
255
255
255
255
255
255
255
255
255
255
255
255
255
255
255
255
255
255
255
255
255
255
255
255
255
255
255
255
255
255
255
255
255
255
255
255
255
255
255
255
255
255
255
255
255
255
255
255
255
255
255
255
255
255
255
255
255
255
255
255
255
255
255
255
255
255
255
255
255
255
255
255
255
255
255
255
255
255
255
255
255
255
255
255
255
255
255
255
255
255
255
255
255
255
169
178
150
170
179
150
170
179
150
170
179
150
170
179
150
170
179
150
170
180
150
171
181
151
162
156
141
172
147
152
140
118
127
182
158
164
174
149
156
164
141
151
168
146
155
170
147
155
160
136
147
164
141
151
138
114
129
130
105
124
137
113
130
137
114
129
135
111
126
137
113
129
135
110
127
130
105
123
131
106
126
128
104
124
127
103
123
128
104
124
130
105
126
132
107
129
126
100
122
130
104
126
129
103
125
124
100
120
122
98
119
126
101
122
126
101
122
134
110
128
141
117
131
138
114
129
143
119
133
132
109
123
114
92
108
51
39
47
63
48
60
71
53
66
67
50
61
66
48
58
80
60
71
106
84
93
118
97
106
129
111
117
173
181
153
170
181
149
170
181
150
170
180
150
170
181
150
170
181
150
255
255
255
255
255
255
255
255
255
255
255
255
255
255
255
255
255
255
255
255
255
255
255
255
255
255
255
255
255
255
255
255
255
255
255
255
255
255
255
255
255
255
255
255
255
255
255
255
255
255
255
255
255
255
255
255
255
255
255
255
255
255
255
255
255
255
255
255
255
255
255
255
255
255
255
255
255
255
255
255
255
255
255
255
255
255
255
255
255
255
255
255
255
255
255
255
255
255
255
255
255
255
255
255
255
255
255
255
255
255
255
255
255
255
255
255
255
255
255
255
185
192
162
186
193
162
186
193
162
185
194
163
185
194
163
185
194
162
183
194
161
184
194
161
186
195
162
166
162
145
181
159
160
185
161
165
173
148
153
177
153
159
167
144
153
161
138
148
161
138
149
144
120
135
135
112
127
141
118
133
146
124
138
137
115
130
138
113
130
139
113
129
141
117
133
139
115
132
143
120
137
132
108
128
126
101
122
129
104
125
129
105
125
130
106
126
126
101
122
125
100
121
126
101
122
124
100
121
124
102
121
128
105
125
132
107
126
135
111
127
142
119
132
141
117
132
139
115
129
137
114
128
130
107
122
109
90
102
36
26
32
50
37
46
55
38
50
59
42
52
64
47
56
68
48
57
96
75
80
111
92
95
180
188
157
180
190
157
181
189
158
180
189
158
181
189
158
181
189
159
255
255
255
255
255
255
255
255
255
255
255
255
255
255
255
255
255
255
255
255
255
255
255
255
255
255
255
255
255
255
255
255
255
255
255
255
255
255
255
255
255
255
255
255
255
255
255
255
255
255
255
255
255
255
255
255
255
255
255
255
255
255
255
255
255
255
255
255
255
255
255
255
255
255
255
255
255
255
255
255
255
255
255
255
255
255
255
255
255
255
255
255
255
255
255
255
255
255
255
255
255
255
255
255
255
255
255
255
255
255
255
255
255
255
255
255
255
255
255
255
174
184
154
175
184
155
176
184
155
176
185
155
177
185
155
177
186
155
177
186
155
177
187
154
178
187
157
180
174
159
185
162
165
172
147
153
172
147
153
164
141
148
156
133
142
155
132
143
137
113
127
127
104
120
140
117
131
145
124
136
144
121
135
136
114
129
135
112
128
143
120
134
137
115
129
144
121
136
147
126
139
141
119
133
130
107
124
132
107
126
132
108
126
135
110
129
123
98
118
117
92
113
119
95
116
118
95
115
126
103
122
127
104
122
133
109
128
138
114
130
142
118
132
143
120
134
135
112
125
126
102
117
128
105
120
136
113
126
91
74
84
31
22
27
29
20
25
46
31
41
52
37
46
59
40
49
72
56
59
142
141
124
184
192
161
183
191
159
184
191
159
183
191
160
183
191
160
182
190
161
255
255
255
255
255
255
255
255
255
255
255
255
255
255
255
255
255
255
255
255
255
255
255
255
255
255
255
255
255
255
255
255
255
255
255
255
255
255
255
255
255
255
255
255
255
255
255
255
255
255
255
255
255
255
255
255
255
255
255
255
255
255
255
255
255
255
255
255
255
255
255
255
255
255
255
255
255
255
255
255
255
255
255
255
255
255
255
255
255
255
255
255
255
255
255
255
255
255
255
255
255
255
255
255
255
255
255
255
255
255
255
255
255
255
255
255
255
255
255
255
182
191
161
182
191
161
180
190
160
181
190
160
179
188
159
176
185
156
173
182
153
171
181
151
179
174
158
182
158
160
176
151
155
170
146
152
160
136
144
159
136
144
158
136
143
150
127
139
127
103
119
132
108
124
143
120
133
144
121
134
138
115
129
143
120
135
141
119
131
145
124
136
141
120
132
145
123
137
139
118
130
139
117
129
146
124
136
142
120
134
124
101
117
127
103
120
115
91
110
114
90
111
115
92
112
120
96
115
122
99
118
127
103
122
125
100
119
128
104
122
138
115
129
143
120
133
136
114
128
122
99
116
120
98
113
131
108
121
126
105
115
65
50
59
41
30
38
28
19
26
119
118
106
167
173
149
179
188
159
181
190
160
179
189
159
180
190
159
179
189
158
177
187
157
177
186
157
176
185
156
255
255
255
255
255
255
255
255
255
255
255
255
255
255
255
255
255
255
255
255
255
255
255
255
255
255
255
255
255
255
255
255
255
255
255
255
255
255
255
255
255
255
255
255
255
255
255
255
255
255
255
255
255
255
255
255
255
255
255
255
255
255
255
255
255
255
255
255
255
255
255
255
255
255
255
255
255
255
255
255
255
255
255
255
255
255
255
255
255
255
255
255
255
255
255
255
255
255
255
255
255
255
255
255
255
255
255
255
255
255
255
255
255
255
255
255
255
255
255
255
99
110
99
91
102
93
88
98
90
85
96
90
85
95
90
84
94
89
85
95
91
99
104
100
175
155
156
160
137
140
161
139
143
164
141
147
161
138
147
161
138
147
158
135
145
134
111
124
136
114
126
147
124
136
148
125
136
145
121
134
147
124
136
142
119
131
142
120
132
149
127
139
141
119
132
136
115
127
134
112
124
141
121
131
154
134
141
139
120
130
136
114
128
126
103
120
113
90
108
111
88
106
116
92
110
124
101
117
117
96
113
120
96
115
123
98
117
120
95
114
128
104
119
147
123
136
143
121
134
135
112
127
121
97
115
131
109
123
134
113
121
93
75
86
62
47
58
58
44
55
93
80
85
133
125
121
91
99
91
89
100
92
88
99
92
88
97
91
87
97
92
87
97
92
88
97
93
85
94
92
255
255
255
255
255
255
255
255
255
255
255
255
255
255
255
255
255
255
255
255
255
255
255
255
255
255
255
255
255
255
255
255
255
255
255
255
255
255
255
255
255
255
255
255
255
255
255
255
255
255
255
255
255
255
255
255
255
255
255
255
255
255
255
255
255
255
255
255
255
255
255
255
255
255
255
255
255
255
255
255
255
255
255
255
255
255
255
255
255
255
255
255
255
255
255
255
255
255
255
255
255
255
255
255
255
255
255
255
255
255
255
255
255
255
255
255
255
255
255
255
81
91
92
82
92
92
82
92
92
83
94
93
83
94
94
84
95
93
84
95
94
115
114
112
182
157
161
177
152
156
172
147
152
170
147
153
165
143
150
158
136
144
145
122
133
141
118
129
152
131
138
151
128
136
154
132
140
151
131
139
148
125
136
147
124
135
146
124
136
151
130
139
147
127
137
134
113
124
139
119
127
146
126
133
141
123
130
139
119
130
130
109
122
130
108
123
127
105
120
119
97
111
116
94
109
118
96
112
115
92
111
114
91
111
117
94
113
121
96
115
126
103
118
150
127
139
147
124
136
146
123
135
136
113
128
138
115
129
152
129
138
126
105
114
80
62
73
75
58
72
94
76
88
77
61
71
104
103
103
86
93
94
87
93
95
88
94
95
90
95
96
90
95
96
90
96
97
88
94
95
255
255
255
255
255
255
255
255
255
255
255
255
255
255
255
255
255
255
255
255
255
255
255
255
255
255
255
255
255
255
255
255
255
255
255
255
255
255
255
255
255
255
255
255
255
255
255
255
255
255
255
255
255
255
255
255
255
255
255
255
255
255
255
255
255
255
255
255
255
255
255
255
255
255
255
255
255
255
255
255
255
255
255
255
255
255
255
255
255
255
255
255
255
255
255
255
255
255
255
255
255
255
255
255
255
255
255
255
255
255
255
255
255
255
255
255
255
255
255
255
84
90
92
84
91
93
83
90
93
83
90
93
83
90
93
82
89
92
83
88
90
159
145
145
169
146
148
172
148
151
179
155
158
172
149
153
158
136
144
148
126
136
155
133
142
149
126
135
147
125
134
148
127
135
148
127
135
152
131
139
146
124
133
146
125
133
152
130
140
144
122
132
147
127
135
142
120
130
145
123
131
148
128
133
144
124
131
150
130
137
125
106
117
127
107
118
136
115
128
120
99
112
112
92
106
130
109
122
125
103
118
120
98
113
111
87
105
118
95
112
125
102
118
144
122
133
150
128
139
147
125
137
137
115
128
135
112
126
153
132
140
147
125
133
113
92
103
101
81
94
89
70
85
94
76
88
116
105
109
106
106
104
106
109
106
108
110
108
108
110
108
109
111
109
110
112
109
107
109
106
255
255
255
255
255
255
255
255
255
255
255
255
255
255
255
255
255
255
255
255
255
255
255
255
255
255
255
255
255
255
255
255
255
255
255
255
255
255
255
255
255
255
255
255
255
255
255
255
255
255
255
255
255
255
255
255
255
255
255
255
255
255
255
255
255
255
255
255
255
255
255
255
255
255
255
255
255
255
255
255
255
255
255
255
255
255
255
255
255
255
255
255
255
255
255
255
255
255
255
255
255
255
255
255
255
255
255
255
255
255
255
255
255
255
255
255
255
255
255
255
85
91
92
85
90
93
85
90
93
85
90
93
85
90
93
84
89
92
129
124
123
176
155
158
180
158
160
180
158
160
176
154
157
169
147
150
149
127
135
151
128
136
152
130
137
158
135
143
154
133
139
152
131
140
144
122
133
148
128
136
150
130
138
149
129
136
147
127
135
143
123
132
142
123
132
136
116
126
142
121
129
149
130
135
141
122
129
140
119
126
117
98
107
117
98
108
131
110
121
121
99
112
122
102
114
125
106
116
132
111
122
133
112
122
128
107
119
128
107
120
125
103
117
134
113
125
149
128
137
146
125
134
144
123
134
141
119
130
148
126
136
152
131
139
134
114
123
98
78
90
93
73
86
86
68
81
103
88
96
108
108
107
102
104
103
104
106
104
104
106
103
104
106
103
105
107
104
102
106
103
255
255
255
255
255
255
255
255
255
255
255
255
255
255
255
255
255
255
255
255
255
255
255
255
255
255
255
255
255
255
255
255
255
255
255
255
255
255
255
255
255
255
255
255
255
255
255
255
255
255
255
255
255
255
255
255
255
255
255
255
255
255
255
255
255
255
255
255
255
255
255
255
255
255
255
255
255
255
255
255
255
255
255
255
255
255
255
255
255
255
255
255
255
255
255
255
255
255
255
255
255
255
255
255
255
255
255
255
255
255
255
255
255
255
255
255
255
255
255
255
85
90
93
84
89
92
83
88
91
83
88
91
82
87
91
80
86
88
155
141
139
169
147
148
170
147
150
162
139
144
171
150
152
163
141
144
154
132
138
142
119
129
137
114
125
153
130
138
141
119
129
156
133
142
143
121
131
146
124
135
150
128
136
140
120
127
139
118
126
141
121
128
140
120
126
133
114
122
141
122
130
143
124
131
140
122
129
128
108
116
119
100
111
123
104
115
127
108
116
132
111
122
125
104
116
131
111
121
139
119
126
137
117
126
129
110
120
125
105
117
124
102
116
133
111
124
136
113
125
146
125
134
145
123
133
144
123
133
149
128
137
140
119
128
141
120
130
119
98
110
104
84
95
94
75
88
91
73
85
124
117
119
97
101
99
98
101
98
100
102
100
101
103
100
102
104
101
101
103
100
255
255
255
255
255
255
255
255
255
255
255
255
255
255
255
255
255
255
255
255
255
255
255
255
255
255
255
255
255
255
255
255
255
255
255
255
255
255
255
255
255
255
255
255
255
255
255
255
255
255
255
255
255
255
255
255
255
255
255
255
255
255
255
255
255
255
255
255
255
255
255
255
255
255
255
255
255
255
255
255
255
255
255
255
255
255
255
255
255
255
255
255
255
255
255
255
255
255
255
255
255
255
255
255
255
255
255
255
255
255
255
255
255
255
255
255
255
255
255
255
85
90
92
84
90
92
84
89
92
83
88
91
82
87
90
96
96
97
172
152
152
156
136
135
152
131
132
157
135
139
166
144
146
170
148
150
158
136
141
141
118
127
146
124
133
140
117
127
151
128
136
148
125
133
154
133
141
152
132
139
141
120
128
145
125
131
150
129
134
147
127
134
142
123
132
140
119
127
134
114
121
130
109
116
126
105
112
128
108
114
120
102
112
128
109
117
130
110
116
136
116
123
134
114
123
130
112
119
135
116
124
140
121
127
135
115
124
122
102
114
126
105
117
128
106
118
139
116
128
137
115
127
136
115
127
143
121
133
149
126
136
145
124
133
140
120
129
130
109
119
124
104
113
112
92
102
93
73
86
133
119
125
97
99
97
96
99
96
98
101
98
101
103
100
102
104
101
101
103
100
255
255
255
255
255
255
255
255
255
255
255
255
255
255
255
255
255
255
255
255
255
255
255
255
255
255
255
255
255
255
255
255
255
255
255
255
255
255
255
255
255
255
255
255
255
255
255
255
255
255
255
255
255
255
255
255
255
255
255
255
255
255
255
255
255
255
255
255
255
255
255
255
255
255
255
255
255
255
255
255
255
255
255
255
255
255
255
255
255
255
255
255
255
255
255
255
255
255
255
255
255
255
255
255
255
255
255
255
255
255
255
255
255
255
255
255
255
255
255
255
86
92
92
85
91
91
85
90
92
84
89
92
84
88
91
132
123
124
175
153
154
167
145
147
164
142
144
158
136
140
167
145
148
163
141
144
158
136
140
146
124
131
142
119
128
150
128
133
154
131
136
149
127
134
143
123
130
139
118
126
142
122
130
143
123
129
149
128
133
140
120
128
137
119
129
139
122
131
134
114
122
139
118
124
130
108
115
132
111
116
131
111
116
129
110
116
135
115
120
143
123
128
138
117
123
133
113
120
138
119
126
139
120
127
128
108
118
126
107
118
135
115
125
130
108
120
130
109
121
138
117
128
136
116
128
138
117
129
149
127
136
151
130
139
143
122
130
141
120
128
134
113
122
130
110
118
108
88
99
131
113
121
118
113
114
93
98
95
96
99
96
98
100
97
100
102
99
99
101
98
255
255
255
255
255
255
255
255
255
255
255
255
255
255
255
255
255
255
255
255
255
255
255
255
255
255
255
255
255
255
255
255
255
255
255
255
255
255
255
255
255
255
255
255
255
255
255
255
255
255
255
255
255
255
255
255
255
255
255
255
255
255
255
255
255
255
255
255
255
255
255
255
255
255
255
255
255
255
255
255
255
255
255
255
255
255
255
255
255
255
255
255
255
255
255
255
255
255
255
255
255
255
255
255
255
255
255
255
255
255
255
255
255
255
255
255
255
255
255
255
86
92
92
85
91
92
85
90
92
84
90
93
83
88
91
146
133
133
177
153
155
179
154
158
163
140
145
164
141
145
155
133
137
150
128
133
151
130
135
146
124
128
155
132
137
158
136
140
155
134
138
152
131
137
149
129
134
143
122
128
135
114
122
131
112
121
129
109
119
133
114
120
139
119
127
136
119
126
137
118
125
137
117
123
136
115
119
131
112
118
131
112
118
132
114
120
134
115
121
138
120
126
135
117
125
138
119
126
136
117
125
138
118
127
130
109
121
131
111
121
141
121
129
140
119
128
133
112
122
137
115
125
139
118
128
140
118
128
152
130
138
154
131
141
156
133
141
156
134
142
143
122
129
141
120
127
130
109
118
130
110
120
121
112
115
90
93
92
93
96
95
96
98
97
98
100
98
97
99
97
255
255
255
255
255
255
255
255
255
255
255
255
255
255
255
255
255
255
255
255
255
255
255
255
255
255
255
255
255
255
255
255
255
255
255
255
255
255
255
255
255
255
255
255
255
255
255
255
255
255
255
255
255
255
255
255
255
255
255
255
255
255
255
255
255
255
255
255
255
255
255
255
255
255
255
255
255
255
255
255
255
255
255
255
255
255
255
255
255
255
255
255
255
255
255
255
255
255
255
255
255
255
255
255
255
255
255
255
255
255
255
255
255
255
255
255
255
255
255
255
84
90
91
83
89
91
83
88
91
83
88
91
81
88
88
153
137
134
162
141
140
156
134
137
155
133
137
160
135
140
152
129
134
146
123
128
141
119
126
147
125
129
150
128
132
159
138
143
156
136
139
148
127
133
146
125
132
146
125
131
141
121
128
139
120
128
134
115
123
135
115
121
138
118
124
129
112
123
133
115
124
136
116
123
141
121
125
131
113
120
136
116
122
131
113
117
134
116
121
135
118
124
140
120
125
139
118
123
134
115
121
137
118
124
138
118
125
141
120
127
130
110
117
139
119
125
139
119
126
144
123
131
141
120
129
149
127
136
156
133
141
154
131
138
162
139
145
155
133
138
150
127
133
147
126
131
135
114
123
125
104
115
129
116
120
87
91
90
90
94
93
94
96
95
95
98
97
95
97
95
255
255
255
255
255
255
255
255
255
255
255
255
255
255
255
255
255
255
255
255
255
255
255
255
255
255
255
255
255
255
255
255
255
255
255
255
255
255
255
255
255
255
255
255
255
255
255
255
255
255
255
255
255
255
255
255
255
255
255
255
255
255
255
255
255
255
255
255
255
255
255
255
255
255
255
255
255
255
255
255
255
255
255
255
255
255
255
255
255
255
255
255
255
255
255
255
255
255
255
255
255
255
255
255
255
255
255
255
255
255
255
255
255
255
255
255
255
255
255
255
83
88
91
82
88
90
82
88
89
81
87
89
81
85
87
159
142
139
155
134
132
156
135
136
118
97
103
136
114
119
137
116
121
135
114
119
135
112
119
122
101
109
125
105
112
146
125
128
153
132
137
130
113
116
95
82
84
68
60
60
113
99
103
137
117
126
137
118
124
140
119
124
137
117
125
134
117
127
135
116
125
131
111
118
131
112
118
133
114
119
129
111
117
132
112
118
130
112
121
134
113
120
137
117
122
136
117
124
133
114
120
137
117
121
140
119
123
143
123
129
115
99
104
80
69
70
104
90
92
136
118
123
151
129
136
155
134
140
155
133
139
150
127
134
162
139
145
155
133
138
156
133
139
142
119
126
130
107
117
120
98
109
146
129
132
84
88
87
88
92
91
90
94
93
92
95
94
93
95
94
255
255
255
255
255
255
255
255
255
255
255
255
255
255
255
255
255
255
255
255
255
255
255
255
255
255
255
255
255
255
255
255
255
255
255
255
255
255
255
255
255
255
255
255
255
255
255
255
255
255
255
255
255
255
255
255
255
255
255
255
255
255
255
255
255
255
255
255
255
255
255
255
255
255
255
255
255
255
255
255
255
255
255
255
255
255
255
255
255
255
255
255
255
255
255
255
255
255
255
255
255
255
255
255
255
255
255
255
255
255
255
255
255
255
255
255
255
255
255
255
82
88
88
82
87
88
81
87
89
81
86
88
104
102
103
156
137
133
145
124
127
139
118
121
155
134
137
142
119
127
137
115
123
130
107
116
141
119
125
138
117
125
140
120
125
118
104
104
62
53
53
29
27
23
35
32
28
41
37
33
94
83
86
138
118
125
137
119
125
136
116
123
135
116
125
134
116
124
139
119
124
137
117
121
131
111
118
130
110
114
132
114
119
133
114
121
131
112
119
140
119
125
134
114
122
136
117
124
140
120
125
132
112
119
135
115
121
139
117
124
90
79
81
40
37
34
38
36
34
37
35
33
73
64
64
121
105
108
156
135
140
152
130
137
155
133
138
154
132
137
156
133
138
147
125
130
137
115
120
137
115
120
152
133
135
87
89
89
86
90
89
88
92
91
89
93
92
91
93
92
255
255
255
255
255
255
255
255
255
255
255
255
255
255
255
255
255
255
255
255
255
255
255
255
255
255
255
255
255
255
255
255
255
255
255
255
255
255
255
255
255
255
255
255
255
255
255
255
255
255
255
255
255
255
255
255
255
255
255
255
255
255
255
255
255
255
255
255
255
255
255
255
255
255
255
255
255
255
255
255
255
255
255
255
255
255
255
255
255
255
255
255
255
255
255
255
255
255
255
255
255
255
255
255
255
255
255
255
255
255
255
255
255
255
255
255
255
255
255
255
81
86
89
81
86
89
81
86
89
79
85
86
116
111
110
163
143
141
135
115
119
143
121
128
130
107
114
144
120
127
130
107
118
138
116
126
123
106
110
93
82
84
40
35
32
36
34
30
38
36
33
36
33
29
49
44
43
97
86
89
133
117
123
134
117
125
136
117
124
126
107
116
127
107
116
132
113
122
135
115
121
135
115
121
128
110
116
124
105
113
133
113
118
130
111
117
133
113
119
130
111
118
134
113
120
137
118
123
134
115
121
126
107
115
130
110
117
133
113
119
132
116
119
84
75
75
39
36
33
45
42
39
46
44
40
40
38
34
45
41
38
105
91
93
148
128
132
152
130
136
157
135
139
147
126
130
132
112
118
131
110
116
154
134
135
101
100
100
84
88
88
86
90
90
87
90
89
86
90
89
255
255
255
255
255
255
255
255
255
255
255
255
255
255
255
255
255
255
255
255
255
255
255
255
255
255
255
255
255
255
255
255
255
255
255
255
255
255
255
255
255
255
255
255
255
255
255
255
255
255
255
255
255
255
255
255
255
255
255
255
255
255
255
255
255
255
255
255
255
255
255
255
255
255
255
255
255
255
255
255
255
255
255
255
255
255
255
255
255
255
255
255
255
255
255
255
255
255
255
255
255
255
255
255
255
255
255
255
255
255
255
255
255
255
255
255
255
255
255
255
80
85
88
80
85
88
79
84
87
78
83
87
136
127
125
165
144
144
142
120
125
143
121
124
127
104
112
115
93
99
137
114
121
120
102
109
37
34
31
40
38
34
44
41
38
46
42
41
93
84
85
121
105
109
140
121
127
135
115
121
137
115
123
136
115
122
127
107
113
125
106
115
129
110
119
126
106
116
126
107
114
128
110
117
133
115
119
132
114
119
129
110
116
130
113
121
134
115
122
130
111
119
131
110
117
133
114
121
123
104
113
123
102
111
131
111
119
130
112
117
132
111
117
142
121
126
143
125
128
126
110
113
92
84
84
46
44
40
46
45
40
45
44
39
53
48
45
136
117
122
148
126
132
156
134
137
140
119
125
131
111
116
155
136
135
122
116
116
82
86
88
85
89
90
86
90
89
86
89
88
255
255
255
255
255
255
255
255
255
255
255
255
255
255
255
255
255
255
255
255
255
255
255
255
255
255
255
255
255
255
255
255
255
255
255
255
255
255
255
255
255
255
255
255
255
255
255
255
255
255
255
255
255
255
255
255
255
255
255
255
255
255
255
255
255
255
255
255
255
255
255
255
255
255
255
255
255
255
255
255
255
255
255
255
255
255
255
255
255
255
255
255
255
255
255
255
255
255
255
255
255
255
255
255
255
255
255
255
255
255
255
255
255
255
255
255
255
255
255
255
79
84
87
80
85
88
79
84
87
77
83
85
145
131
129
164
144
144
152
131
134
156
134
138
140
118
124
120
98
107
128
105
112
130
112
116
46
41
39
92
82
83
125
108
112
148
128
133
135
114
121
130
110
116
125
105
112
126
106
113
127
104
112
129
108
115
127
107
114
123
102
109
124
105
113
126
108
117
128
109
116
131
113
118
141
121
128
136
116
124
137
117
125
132
112
121
131
111
120
128
108
115
130
111
120
124
104
114
108
89
100
115
95
107
122
102
112
122
103
110
132
113
120
133
112
118
138
118
123
141
120
126
150
128
135
147
129
133
121
108
109
71
64
62
51
49
44
125
108
112
154
132
138
159
138
141
149
128
133
141
121
125
155
136
136
147
133
133
80
85
85
83
87
87
85
89
88
85
88
87
255
255
255
255
255
255
255
255
255
255
255
255
255
255
255
255
255
255
255
255
255
255
255
255
255
255
255
255
255
255
255
255
255
255
255
255
255
255
255
255
255
255
255
255
255
255
255
255
255
255
255
255
255
255
255
255
255
255
255
255
255
255
255
255
255
255
255
255
255
255
255
255
255
255
255
255
255
255
255
255
255
255
255
255
255
255
255
255
255
255
255
255
255
255
255
255
255
255
255
255
255
255
255
255
255
255
255
255
255
255
255
255
255
255
255
255
255
255
255
255
80
84
87
79
84
87
79
84
87
76
82
85
148
134
131
157
137
137
134
113
115
137
115
118
138
115
121
141
118
125
138
116
123
146
125
132
147
127
132
143
121
127
138
115
123
130
109
116
133
111
120
132
112
118
123
102
108
122
102
107
118
96
101
111
93
97
111
93
98
123
102
108
125
105
114
129
110
117
129
111
117
130
110
117
130
111
118
142
122
128
122
108
112
142
123
131
146
125
131
145
124
130
139
119
127
127
107
117
120
100
111
118
97
107
100
85
91
106
88
97
135
115
120
137
116
121
141
120
127
144
123
130
155
133
138
154
133
138
157
136
141
158
136
141
140
121
125
147
127
133
135
114
121
162
140
144
150
130
133
157
137
139
159
139
140
160
143
143
78
82
83
82
86
87
84
88
87
83
86
85
255
255
255
255
255
255
255
255
255
255
255
255
255
255
255
255
255
255
255
255
255
255
255
255
255
255
255
255
255
255
255
255
255
255
255
255
255
255
255
255
255
255
255
255
255
255
255
255
255
255
255
255
255
255
255
255
255
255
255
255
255
255
255
255
255
255
255
255
255
255
255
255
255
255
255
255
255
255
255
255
255
255
255
255
255
255
255
255
255
255
255
255
255
255
255
255
255
255
255
255
255
255
255
255
255
255
255
255
255
255
255
255
255
255
255
255
255
255
255
255
78
83
86
79
84
87
78
83
86
76
82
84
140
125
124
130
110
112
142
120
122
129
107
111
136
113
117
144
122
126
130
108
116
143
121
125
147
127
130
131
111
118
132
111
118
122
101
110
124
103
112
134
113
119
130
109
114
122
103
107
118
99
103
98
82
85
41
37
36
109
94
97
125
106
113
130
111
118
131
112
118
132
113
120
122
104
111
85
76
77
35
32
31
93
83
83
138
120
125
140
121
127
133
113
120
124
104
113
113
95
104
94
81
86
30
27
25
114
96
104
133
113
121
134
113
120
140
118
125
144
123
128
145
123
128
152
130
134
149
126
132
153
131
136
152
129
135
148
126
131
137
115
122
154
132
136
154
133
135
150
129
132
157
136
137
152
133
135
97
95
96
82
87
87
84
88
88
82
86
85
255
255
255
255
255
255
255
255
255
255
255
255
255
255
255
255
255
255
255
255
255
255
255
255
255
255
255
255
255
255
255
255
255
255
255
255
255
255
255
255
255
255
255
255
255
255
255
255
255
255
255
255
255
255
255
255
255
255
255
255
255
255
255
255
255
255
255
255
255
255
255
255
255
255
255
255
255
255
255
255
255
255
255
255
255
255
255
255
255
255
255
255
255
255
255
255
255
255
255
255
255
255
255
255
255
255
255
255
255
255
255
255
255
255
255
255
255
255
255
255
78
83
86
78
83
86
78
83
86
75
81
83
144
129
128
132
114
115
162
141
142
144
122
126
139
117
120
135
113
117
127
106
113
142
122
124
142
122
124
134
114
119
133
113
119
117
97
107
125
103
114
137
116
122
130
110
116
131
112
116
123
104
109
128
108
115
99
87
91
35
31
31
62
55
56
82
72
75
89
78
80
72
64
65
42
36
34
105
81
73
174
128
116
104
80
74
45
39
37
67
59
58
81
72
72
72
63
63
41
37
35
37
32
32
112
98
100
127
106
113
128
108
116
133
112
121
136
113
120
141
118
124
141
119
125
147
126
129
145
124
126
151
128
135
155
133
137
154
133
136
151
128
133
149
127
131
159
137
140
133
112
118
148
126
129
145
126
129
106
103
103
80
84
86
82
86
87
82
85
85
255
255
255
255
255
255
255
255
255
255
255
255
255
255
255
255
255
255
255
255
255
255
255
255
255
255
255
255
255
255
255
255
255
255
255
255
255
255
255
255
255
255
255
255
255
255
255
255
255
255
255
255
255
255
255
255
255
255
255
255
255
255
255
255
255
255
255
255
255
255
255
255
255
255
255
255
255
255
255
255
255
255
255
255
255
255
255
255
255
255
255
255
255
255
255
255
255
255
255
255
255
255
255
255
255
255
255
255
255
255
255
255
255
255
255
255
255
255
255
255
77
82
85
77
82
85
77
82
85
74
80
82
121
107
109
147
128
128
158
136
137
145
123
126
152
130
133
144
121
126
135
112
118
140
118
123
136
115
119
118
98
106
124
103
110
115
93
103
116
94
105
136
116
122
135
115
121
128
108
113
128
108
113
125
105
111
125
106
113
102
89
91
117
90
83
163
118
106
167
121
109
183
133
121
203
149
135
213
150
134
208
144
130
212
151
136
205
150
136
175
139
124
157
142
124
166
123
111
125
97
89
105
91
95
126
106
114
126
105
112
59
85
50
58
82
51
51
78
46
47
73
44
46
71
43
41
67
37
35
60
32
32
56
29
26
52
24
22
48
20
29
54
27
26
52
24
27
52
24
27
51
22
21
48
17
28
54
26
85
89
63
94
98
67
91
96
63
90
94
63
82
73
103
83
73
103
83
73
103
82
73
103
82
73
103
82
73
103
82
73
103
82
73
103
82
73
103
82
73
103
82
73
103
81
73
103
82
73
103
82
73
103
82
73
103
82
73
103
82
73
103
82
73
103
81
73
103
81
72
104
82
73
102
82
72
102
82
72
102
82
73
103
82
73
102
82
72
102
82
72
102
82
72
102
82
72
102
81
72
104
80
73
102
81
72
102
81
72
102
80
72
102
81
73
102
82
72
102
79
73
101
79
73
101
80
72
102
79
73
102
76
81
84
76
81
84
76
81
84
73
77
80
150
135
133
160
140
139
146
124
126
155
133
136
161
139
141
142
120
124
139
117
122
146
124
127
119
97
105
97
75
88
128
107
116
115
93
104
117
95
106
121
100
110
141
121
129
140
119
124
135
113
118
136
116
122
134
117
123
119
102
106
147
109
99
208
144
129
210
145
130
215
151
136
214
150
135
213
150
136
213
148
133
212
149
133
212
149
133
216
160
142
213
179
159
211
146
131
146
107
96
108
93
98
122
102
110
126
105
112
59
84
51
58
83
52
57
83
52
51
77
47
45
71
41
41
68
37
40
65
36
37
61
34
31
56
29
30
54
28
33
57
31
27
54
24
32
60
28
14
39
13
13
40
12
19
45
17
82
89
62
95
98
68
93
97
66
91
96
64
84
75
104
85
76
105
85
76
105
84
75
104
84
75
104
84
75
104
84
75
104
84
75
104
84
75
104
84
75
104
84
75
104
84
75
104
84
75
104
84
75
104
84
75
104
84
75
105
84
75
104
84
75
104
84
75
104
84
75
104
84
75
104
84
75
104
84
75
104
84
75
104
84
75
104
84
75
104
84
75
104
83
74
104
83
74
104
83
74
105
83
74
103
83
75
103
83
74
104
82
75
106
83
75
104
82
75
103
81
75
103
81
75
103
81
75
103
81
75
103
74
79
82
74
79
82
75
80
83
73
77
79
169
152
149
163
143
142
148
127
128
162
141
142
155
134
136
139
119
122
143
123
125
153
132
134
110
89
98
99
77
90
122
101
111
124
101
112
135
112
122
133
112
120
120
99
109
135
113
119
137
114
120
133
113
118
135
117
120
129
110
115
117
90
83
210
148
132
209
146
130
209
145
129
210
146
130
209
147
132
211
148
132
211
149
132
211
149
132
217
152
136
221
156
141
213
148
133
117
89
82
120
102
111
123
102
111
126
105
113
58
84
48
61
85
53
48
72
41
51
75
45
53
79
48
40
66
36
41
66
37
34
59
30
33
58
30
31
57
28
32
57
30
33
60
29
29
56
26
26
52
22
7
32
7
13
39
12
83
89
62
98
100
71
96
99
69
94
98
67
85
75
105
84
75
105
85
76
105
85
76
105
84
75
104
84
75
104
84
75
104
84
75
104
84
75
104
84
75
104
84
75
104
84
75
104
84
75
105
85
76
105
85
76
105
84
75
106
84
75
104
84
75
104
84
75
104
84
75
104
84
75
104
84
75
104
84
75
104
84
75
104
84
75
104
84
75
104
84
75
104
84
75
105
83
74
105
83
74
105
83
75
104
82
75
103
82
75
103
82
76
104
83
76
104
83
75
103
84
75
104
84
75
104
81
75
103
83
75
103
73
78
81
73
78
81
73
78
81
86
87
89
172
154
150
154
134
135
152
131
133
155
133
134
138
117
119
142
121
125
142
120
124
146
124
128
132
110
118
131
110
117
115
93
104
106
83
97
115
93
106
124
102
112
112
91
102
139
117
123
143
121
126
137
117
122
132
114
118
137
116
122
83
71
70
205
147
130
208
144
128
203
138
122
200
135
119
197
135
120
198
135
120
203
139
123
205
143
126
205
142
125
205
140
124
200
142
128
67
56
57
123
104
112
113
93
102
122
101
111
62
88
51
57
82
48
52
76
45
48
73
43
52
77
46
44
68
39
40
65
35
41
66
37
39
64
37
36
61
33
31
57
29
26
52
23
30
57
26
23
49
21
11
35
11
14
38
14
82
88
63
98
100
70
97
100
70
97
101
69
85
76
105
85
76
106
85
76
105
84
75
104
85
76
105
84
75
104
84
75
104
84
75
104
84
75
106
85
76
105
84
75
106
85
76
105
85
76
105
85
76
105
84
75
104
85
76
105
85
76
105
85
76
105
84
75
104
84
75
105
84
75
104
84
75
104
84
75
105
84
75
104
84
75
104
84
75
104
84
75
104
84
75
105
84
75
106
84
75
105
84
75
104
82
76
104
82
76
104
82
75
104
84
75
103
84
75
104
84
75
104
82
75
103
81
75
103
81
75
103
72
77
80
72
77
80
72
77
80
94
94
95
153
135
135
144
124
127
155
133
135
148
126
129
143
121
124
142
120
124
143
120
126
148
125
131
152
130
135
157
135
139
119
97
108
103
81
95
103
82
95
110
88
99
120
99
108
136
116
121
142
121
127
136
114
120
132
112
118
131
111
116
111
97
97
153
114
102
209
147
130
211
147
130
211
148
131
212
149
134
212
150
133
210
147
130
212
149
133
213
151
134
211
148
131
150
112
101
103
87
94
119
99
108
121
101
110
123
103
111
61
87
52
52
77
45
49
74
44
44
69
40
46
70
42
50
75
46
42
68
36
43
69
38
37
64
34
35
61
31
29
57
26
27
54
26
30
56
28
23
48
21
15
39
15
8
33
9
80
86
62
100
103
72
99
103
71
98
102
70
85
76
105
85
76
105
85
76
105
85
76
105
85
76
105
85
76
105
85
76
105
85
76
106
85
76
105
85
76
105
85
76
105
85
76
106
85
76
107
85
76
106
85
76
105
85
76
105
85
76
105
85
76
105
85
76
105
84
75
106
84
75
106
84
75
105
84
75
105
84
75
106
84
75
106
84
75
105
84
75
105
84
75
106
84
75
106
84
75
105
84
75
105
83
76
104
82
76
104
83
76
104
84
75
104
84
75
106
84
75
105
82
76
104
81
75
103
82
75
105
71
76
79
71
76
79
71
76
79
102
99
100
130
112
115
135
114
118
160
139
140
155
133
135
146
124
126
148
126
129
144
122
125
147
124
130
153
131
137
140
118
125
123
102
112
113
92
103
138
116
123
134
113
120
132
112
118
136
116
122
136
115
122
138
117
124
132
111
118
133
113
119
134
113
117
82
70
71
172
127
114
209
146
130
212
148
131
210
148
131
210
146
129
210
145
129
208
145
129
207
145
129
164
119
106
77
67
69
122
103
111
121
101
109
125
105
113
129
109
117
60
86
52
63
88
55
52
76
46
51
77
47
42
67
37
46
72
42
43
68
40
46
72
41
36
62
33
35
60
32
33
59
30
32
56
30
27
52
25
31
57
27
21
45
21
14
39
14
75
80
57
101
104
73
100
104
72
100
105
72
85
76
106
85
76
105
86
77
106
85
76
105
86
77
106
86
77
106
85
76
106
85
76
106
85
76
106
86
77
107
86
77
106
85
76
105
86
77
108
85
76
107
85
76
106
85
76
105
85
76
105
85
76
105
85
76
105
85
76
106
85
76
105
85
76
105
85
76
105
84
75
106
84
75
106
85
76
107
84
75
106
84
75
106
84
75
106
84
76
105
83
76
104
84
76
104
83
76
104
84
76
104
84
75
104
83
76
104
82
76
104
82
76
104
82
76
104
82
76
104
70
75
79
70
75
79
69
74
78
125
116
116
116
95
100
143
122
124
158
136
138
155
134
136
150
129
132
152
131
134
154
133
135
154
132
136
150
128
133
143
122
129
124
102
112
135
113
121
146
123
130
139
117
122
135
115
121
136
114
122
135
115
121
134
114
120
134
114
120
126
105
113
136
115
121
129
110
116
73
62
64
117
87
79
170
120
105
190
137
122
190
136
121
194
139
124
176
128
114
124
93
84
87
77
81
130
111
119
122
102
110
128
107
115
132
112
121
115
94
104
56
80
49
75
101
63
65
90
56
51
76
46
51
75
45
43
69
40
44
69
41
40
65
36
46
71
43
34
59
30
32
55
29
31
55
29
34
60
32
27
53
24
26
53
23
26
53
24
76
83
58
102
106
74
102
106
74
102
105
74
86
77
107
86
77
106
86
77
106
85
76
106
86
77
107
86
77
107
86
77
106
86
77
107
86
77
107
86
77
106
86
77
106
86
77
106
86
77
106
86
77
106
85
76
106
85
76
105
86
77
106
86
77
106
86
77
106
85
76
106
85
76
105
85
76
105
85
76
105
85
76
107
85
76
107
84
76
107
84
76
107
85
76
107
85
76
105
85
76
105
84
76
106
83
76
106
84
75
105
85
76
105
85
75
105
83
76
104
82
76
104
82
76
104
83
76
104
82
76
104
69
74
78
69
74
78
68
73
77
136
124
124
127
107
110
156
135
135
137
115
119
152
131
132
150
129
132
151
130
132
151
129
131
157
136
137
147
125
130
140
120
124
136
115
120
130
110
116
130
107
114
136
114
119
139
117
124
137
115
122
133
112
118
134
113
120
133
113
120
133
113
120
133
112
118
127
107
115
123
104
113
120
103
111
108
94
98
91
78
82
83
71
73
90
78
81
104
90
94
120
103
110
123
104
113
135
115
124
125
104
114
120
99
108
129
110
117
126
106
114
51
75
45
57
82
49
58
83
50
46
71
40
54
79
48
54
79
50
46
72
42
42
66
38
45
71
42
37
63
34
33
58
31
41
66
39
35
61
34
35
62
32
41
70
36
35
62
32
77
86
58
104
108
75
103
107
75
103
107
73
86
77
108
86
77
108
86
77
108
86
77
107
86
77
106
86
77
106
86
77
106
86
77
106
86
77
107
87
78
107
87
78
107
86
77
106
86
77
106
86
77
106
86
76
106
86
77
106
86
77
106
86
77
106
86
77
106
85
76
105
86
77
106
85
76
105
85
76
106
85
76
107
85
76
107
83
76
107
84
76
107
85
76
107
85
76
106
85
76
106
85
76
106
83
76
105
84
76
105
83
77
105
83
76
104
84
76
105
82
76
104
82
76
104
82
76
104
82
76
104
68
73
77
68
73
77
67
71
75
137
122
124
152
131
132
158
136
137
106
84
92
157
136
138
158
137
139
158
136
138
153
131
133
150
129
131
143
121
124
137
115
119
128
106
113
123
103
110
131
109
116
134
112
118
135
115
120
137
117
123
140
119
124
137
117
123
136
115
122
136
116
122
140
119
124
134
114
120
117
97
107
123
103
112
128
108
114
131
111
118
127
108
114
131
111
118
122
102
110
124
104
112
125
104
113
133
113
120
131
110
117
124
104
110
123
102
109
124
104
110
52
77
46
49
73
43
46
71
41
47
73
42
39
65
35
47
72
42
54
81
49
45
72
42
44
71
41
44
70
41
37
63
35
39
66
38
33
62
33
38
68
37
42
72
39
38
65
33
81
90
61
105
108
74
104
108
74
104
108
74
86
77
108
86
77
108
87
78
108
87
78
107
87
78
107
87
78
107
87
78
107
87
78
107
87
78
107
87
78
107
87
78
107
87
78
107
86
77
106
86
77
106
87
78
107
87
78
107
87
78
107
86
77
107
86
77
106
86
77
107
86
77
106
86
77
106
86
77
106
85
76
107
85
76
107
85
76
107
84
76
107
84
76
107
85
76
105
85
76
106
84
76
107
83
77
106
83
77
105
82
76
104
83
76
105
83
76
105
82
76
104
82
76
104
82
76
104
83
77
105
66
71
75
66
71
75
63
69
72
135
120
121
162
142
140
143
122
125
148
126
130
165
144
143
160
138
138
152
131
133
151
129
131
140
118
121
133
110
115
133
111
116
129
107
112
125
104
111
131
108
116
129
108
114
134
113
120
140
119
126
148
127
131
141
120
125
142
120
126
137
117
123
136
116
122
139
118
122
128
108
114
125
105
113
129
109
115
125
104
111
132
114
119
128
109
116
118
98
106
125
104
112
118
97
105
127
105
112
126
105
112
121
101
108
114
94
101
124
104
111
58
82
51
55
80
47
49
73
43
43
68
38
39
65
35
37
62
34
49
75
44
50
78
46
43
70
39
41
67
39
40
65
38
42
69
41
39
67
39
43
74
42
37
66
35
32
58
30
85
94
64
106
110
76
105
109
76
105
109
76
87
78
107
87
78
107
87
78
107
88
79
108
87
78
107
88
79
108
88
79
108
88
79
108
87
78
107
87
78
107
87
78
107
87
78
108
87
78
107
86
77
106
87
78
107
88
79
108
87
78
108
87
78
108
87
78
107
87
78
107
86
77
108
86
77
107
85
77
108
85
76
107
86
77
107
85
76
106
85
76
106
85
76
107
85
76
107
85
76
107
85
76
106
84
76
105
85
77
105
83
76
105
83
77
105
83
77
105
82
76
104
82
76
104
82
76
104
83
77
105
64
69
73
63
69
73
61
67
70
124
110
111
166
146
143
155
134
135
154
133
135
164
143
141
153
131
133
146
125
127
141
119
121
138
116
119
130
108
111
132
110
115
127
105
111
133
112
118
130
109
116
129
108
114
135
114
119
150
130
133
148
127
130
146
124
129
143
122
127
141
121
125
134
114
119
136
114
119
121
100
107
128
108
115
124
104
111
120
99
106
126
108
113
113
93
101
112
92
99
120
99
104
125
103
108
123
101
105
113
92
98
103
84
90
120
99
104
122
101
108
62
88
55
59
84
49
57
82
48
48
71
42
40
66
36
36
60
34
41
67
38
49
77
44
44
71
42
38
64
37
40
69
40
45
70
45
52
73
52
47
72
45
36
65
35
29
56
27
96
102
74
107
111
77
106
110
77
106
110
78
88
79
108
88
79
108
88
79
108
88
79
108
89
80
109
89
80
109
89
80
109
89
80
109
88
79
108
89
80
109
88
79
108
88
79
109
88
79
108
88
79
108
88
79
108
88
79
108
88
79
108
89
79
108
88
79
108
88
79
108
87
78
107
87
78
107
85
77
108
85
77
108
86
77
106
85
76
105
85
76
105
84
76
107
84
76
107
85
76
106
85
76
105
85
76
105
85
76
105
83
77
105
83
77
105
84
78
106
83
77
105
83
77
105
84
78
106
83
77
105
62
67
73
60
66
70
59
65
69
130
118
115
172
151
148
165
144
143
155
134
136
154
133
134
145
123
125
132
109
112
130
109
110
127
106
107
123
102
104
123
101
105
122
99
105
131
109
115
132
111
116
139
117
122
150
128
132
150
129
132
152
130
133
145
123
127
142
120
125
141
119
124
135
115
120
135
114
119
121
100
107
119
100
105
111
92
98
115
95
100
111
92
99
109
87
94
116
94
99
121
100
103
118
97
99
111
89
93
103
81
86
110
89
93
128
106
108
126
105
110
59
85
52
65
90
55
54
79
47
50
74
46
39
65
36
38
63
35
36
62
34
50
77
47
45
72
43
36
65
37
64
75
61
78
80
74
73
74
72
70
72
68
49
57
46
38
56
38
94
100
72
108
111
79
107
111
79
107
110
78
89
81
111
91
82
112
92
84
114
92
84
114
92
83
113
92
83
112
92
83
112
91
82
111
91
82
111
91
82
112
91
83
112
91
82
112
91
82
111
90
82
111
91
83
112
91
83
113
93
85
115
93
85
115
93
85
116
91
83
114
92
84
115
90
81
111
88
78
108
86
77
108
86
77
107
86
77
106
85
76
106
84
77
108
84
77
108
85
76
106
85
76
106
85
77
107
85
76
107
84
77
106
83
77
105
83
77
105
83
77
105
83
77
105
83
77
105
83
77
105
59
64
70
60
65
69
59
63
68
122
113
111
173
153
149
165
143
143
147
126
127
143
123
124
134
114
115
124
103
105
125
103
105
124
103
104
126
104
106
127
105
108
130
108
113
139
118
122
139
117
123
145
125
128
151
131
133
143
123
126
143
122
124
143
121
124
140
118
123
141
119
124
142
122
125
134
114
117
124
103
108
122
102
107
104
83
89
117
96
100
101
79
85
108
86
90
117
94
97
110
87
90
105
82
86
102
79
82
110
88
91
116
94
96
115
94
96
119
98
101
68
95
62
66
91
61
57
83
52
48
73
45
46
71
43
41
67
39
34
61
32
39
66
38
53
83
55
67
77
64
78
77
73
72
70
70
54
51
54
24
23
28
48
49
41
32
33
34
104
110
80
109
112
79
108
112
79
106
110
75
83
78
118
54
54
115
37
41
111
37
41
116
43
45
117
55
55
118
69
66
116
75
71
116
76
71
116
76
71
119
71
68
126
55
54
128
47
47
128
45
46
125
41
43
124
35
38
125
25
31
127
22
28
123
22
28
118
36
41
120
25
30
110
49
49
114
86
79
116
87
79
109
86
77
107
86
77
106
86
76
107
85
77
108
85
77
108
86
77
106
86
77
107
86
77
108
86
77
108
84
77
106
83
77
105
84
77
105
83
77
105
83
77
105
84
78
106
84
78
106
56
61
65
56
61
65
54
59
63
118
109
107
170
150
145
157
134
134
144
123
124
136
115
116
127
105
107
117
94
97
124
101
102
127
105
107
131
110
112
133
112
115
137
115
120
143
120
125
143
123
127
140
120
122
142
122
125
136
115
118
137
116
117
134
112
114
132
111
114
137
115
118
140
119
122
135
114
117
131
110
114
121
101
106
113
92
96
111
90
92
101
79
82
110
87
89
107
82
85
99
75
78
107
82
85
108
84
86
113
89
92
109
87
90
117
96
99
114
92
96
63
90
60
60
86
56
66
92
62
55
82
53
50
76
48
46
72
44
37
64
36
31
60
35
71
92
73
76
78
75
68
68
68
44
44
47
23
23
22
14
15
15
40
38
41
33
32
36
116
115
87
112
113
81
110
113
80
118
117
73
17
28
128
4
20
135
7
23
128
28
45
138
39
58
141
58
74
128
72
89
123
71
88
124
68
83
138
65
80
145
69
84
140
73
89
131
78
94
134
72
88
129
66
81
133
42
58
143
14
35
158
10
29
152
5
23
143
5
24
141
6
25
140
9
28
136
62
62
120
88
79
110
86
78
106
86
77
107
86
77
108
86
77
107
86
77
106
86
77
106
86
77
106
86
77
108
85
77
108
85
78
107
83
77
105
85
77
106
84
78
106
83
77
105
84
78
106
84
78
106
51
56
61
50
55
59
48
53
57
135
123
121
158
137
134
151
129
128
142
121
121
132
110
112
126
104
106
117
95
98
125
101
104
134
111
112
135
113
115
133
111
114
136
113
117
132
111
113
132
112
114
133
112
114
126
104
107
123
101
105
125
103
105
122
100
103
124
102
104
129
107
109
130
109
112
128
107
109
131
110
112
115
94
99
112
89
91
109
86
86
107
81
83
99
74
74
94
69
71
104
79
81
108
83
85
114
90
90
116
93
93
110
87
91
112
91
94
110
88
92
68
95
65
72
99
67
60
88
57
59
86
57
51
77
50
47
73
46
33
61
36
37
62
42
87
94
88
60
61
65
43
44
49
46
45
51
62
61
65
43
45
38
44
41
47
74
64
65
116
106
85
116
118
82
112
116
81
127
121
75
4
32
142
10
34
156
6
29
149
4
25
147
26
40
146
40
53
145
35
47
147
34
46
149
24
36
143
2
19
145
5
23
152
3
22
156
3
25
163
5
30
175
6
31
172
7
33
174
10
37
179
13
42
178
15
43
177
18
44
173
28
53
165
40
63
159
77
81
127
88
78
109
86
77
106
85
76
107
85
76
106
83
77
103
84
77
104
86
76
106
86
77
106
85
77
108
85
77
108
84
77
107
84
77
106
86
77
106
84
78
106
84
77
106
84
78
106
84
77
106
47
52
57
45
50
54
47
52
56
143
130
128
148
128
127
144
122
123
139
118
117
126
104
106
116
92
94
118
94
96
122
98
98
135
111
109
131
108
108
128
106
108
129
107
109
125
103
105
126
105
107
128
107
110
123
102
105
118
96
99
122
101
104
123
102
104
126
102
105
125
100
103
124
101
104
128
105
107
127
104
107
116
93
95
116
92
94
107
81
82
113
85
83
101
75
74
92
67
70
106
81
81
103
78
80
114
91
92
105
81
83
106
83
86
105
81
84
103
78
82
76
106
74
69
99
67
64
93
63
63
90
62
56
83
54
50
78
52
29
58
34
57
74
62
86
90
92
59
61
67
61
62
70
36
37
48
30
30
37
45
43
46
40
37
42
47
48
41
104
90
82
125
112
93
120
106
89
99
77
67
86
107
166
36
64
176
32
60
185
26
53
179
18
46
174
19
48
181
15
42
177
9
37
175
10
37
174
12
41
177
16
47
182
28
59
194
31
65
199
36
69
200
46
80
201
44
78
202
45
76
197
46
78
196
45
75
194
56
82
183
130
145
187
158
178
192
129
149
150
87
97
106
87
85
108
111
124
127
111
128
124
109
131
121
96
115
108
88
102
102
84
84
102
84
77
107
85
77
108
85
77
107
84
78
106
84
78
106
86
77
106
86
77
106
84
78
107
84
77
107
42
47
53
40
46
51
70
79
81
145
132
129
145
125
123
138
117
117
131
107
108
119
95
97
114
90
91
120
96
94
119
92
91
133
108
106
121
95
94
132
108
108
127
103
104
121
98
97
123
99
102
128
106
109
125
104
106
126
104
107
124
102
105
121
100
102
123
102
104
120
99
100
118
95
95
120
96
95
117
93
93
114
89
90
110
84
84
110
83
81
113
84
81
96
70
71
95
70
70
109
83
83
105
80
81
107
82
84
107
83
86
106
82
85
98
74
77
102
77
80
69
101
71
65
97
67
61
93
65
55
85
58
68
98
69
39
74
48
29
64
41
66
84
73
76
81
84
40
41
50
28
27
34
49
45
34
65
59
42
77
71
65
50
48
47
51
52
47
71
64
62
109
80
86
91
61
66
85
55
59
163
188
190
147
166
191
104
123
185
70
98
187
64
94
194
64
93
194
62
92
197
64
94
198
59
90
201
58
90
201
64
94
200
70
97
191
101
123
193
139
160
203
153
176
210
155
177
211
167
185
214
171
189
215
175
192
211
188
206
208
183
202
195
166
188
179
118
138
131
114
136
125
161
180
172
147
168
155
147
170
154
140
163
146
124
147
131
95
116
105
81
101
93
83
93
98
84
76
105
85
77
107
86
77
106
87
78
107
86
77
107
86
77
106
84
78
106
84
77
106
37
42
48
68
75
79
78
88
90
140
126
124
136
115
113
131
110
109
128
103
105
116
92
93
104
79
79
120
95
91
111
84
80
131
107
102
115
88
85
133
108
105
125
98
98
117
92
92
128
106
106
128
107
109
125
105
106
129
106
108
127
105
107
127
106
109
125
103
105
120
98
100
119
95
95
114
89
89
112
86
86
99
73
75
106
78
77
113
84
80
108
79
76
94
68
69
100
73
73
106
79
79
109
82
81
106
80
81
94
70
73
90
67
71
102
78
82
105
81
83
66
98
73
65
98
70
67
99
70
46
81
53
41
77
51
36
72
49
24
61
40
66
90
76
51
58
66
22
20
26
36
32
21
59
55
49
58
58
62
52
52
62
45
44
56
48
43
53
100
75
84
97
66
76
96
65
72
103
72
77
121
146
138
152
177
167
182
203
197
192
209
212
190
206
216
181
197
216
182
197
218
185
201
219
187
203
218
186
201
217
196
211
220
203
218
220
201
218
215
195
213
209
193
212
208
193
212
206
189
209
202
183
203
193
173
195
183
167
189
175
155
178
162
137
161
145
114
136
123
130
153
138
134
155
142
164
186
169
184
202
188
145
169
152
140
163
147
124
147
133
138
161
144
119
141
125
116
131
125
87
81
105
87
77
107
86
78
106
87
78
107
87
78
107
86
77
106
86
78
107
57
64
67
82
92
94
77
88
89
131
117
116
135
114
113
124
103
103
120
96
97
113
89
89
104
80
80
103
77
74
107
79
72
126
99
94
113
87
83
139
114
110
119
93
91
126
103
103
144
122
122
135
114
116
130
109
111
132
110
112
129
108
110
127
105
106
123
99
99
117
93
93
109
84
87
102
77
78
102
76
77
93
65
67
109
80
78
114
84
79
106
76
72
99
71
71
101
74
73
99
71
71
107
79
78
108
81
79
103
78
77
88
64
68
101
77
80
109
84
83
61
95
68
68
101
72
63
95
65
47
80
55
39
76
53
34
72
51
18
57
39
73
108
88
36
42
54
39
45
60
64
68
80
52
54
60
51
52
62
42
44
55
42
44
54
41
39
60
104
83
98
108
79
85
110
79
87
97
66
73
108
132
120
125
150
134
141
167
148
156
178
164
163
185
173
174
195
184
180
199
189
184
202
193
183
201
191
180
200
189
175
195
183
164
186
172
158
181
166
153
176
161
154
177
162
149
173
157
144
168
152
140
163
147
132
156
139
128
152
134
123
148
129
122
147
128
116
139
124
122
144
130
142
164
149
182
201
188
190
208
194
175
195
182
164
184
172
151
171
162
126
148
138
131
154
140
134
156
142
123
135
133
86
75
105
86
77
106
87
78
107
87
77
106
87
77
107
87
77
107
80
90
92
79
89
90
76
87
87
120
109
109
129
108
106
125
101
102
118
94
94
113
88
88
105
81
80
97
71
71
103
74
69
123
94
88
120
93
88
138
111
105
127
101
99
148
124
122
143
121
122
132
110
111
132
112
113
131
111
113
124
102
104
123
99
98
118
93
91
113
86
87
97
71
73
92
66
68
92
65
66
96
67
66
108
77
73
107
75
70
108
77
72
111
81
77
98
69
67
98
69
69
105
76
74
110
82
79
106
80
81
105
80
83
95
68
71
100
72
74
61
96
69
58
90
63
54
86
59
48
83
58
39
76
54
32
71
52
36
74
60
66
110
91
50
78
73
55
62
78
44
47
59
68
72
83
49
53
64
38
42
55
39
42
54
26
34
75
31
31
93
107
88
103
99
69
78
89
57
70
121
145
128
120
144
128
122
146
131
120
144
128
122
147
130
126
151
133
125
150
131
127
152
132
128
153
133
128
152
132
127
152
131
124
149
127
130
155
133
126
151
130
126
152
131
132
156
136
133
158
137
130
155
134
130
155
134
122
147
128
115
139
125
118
143
127
113
137
123
125
147
133
143
164
148
214
225
219
199
214
202
187
205
192
190
208
196
191
209
198
182
203
191
159
181
172
147
169
160
132
151
143
84
77
104
85
74
106
85
75
105
85
75
105
85
74
105
85
74
105
79
89
90
78
88
88
77
87
87
82
87
87
112
95
92
115
92
89
112
86
85
109
82
81
104
78
77
98
72
72
97
68
66
116
84
76
121
90
82
135
108
101
135
109
104
150
125
121
136
112
112
126
103
104
131
109
110
129
106
108
125
101
103
120
94
94
114
87
85
99
72
73
93
65
66
100
70
70
95
65
63
96
65
62
107
74
68
109
76
68
113
81
75
110
79
74
103
73
70
108
76
72
113
83
77
108
80
79
100
74
78
95
68
70
106
78
77
107
81
80
87
118
85
73
106
73
55
88
60
54
90
64
51
89
66
42
82
62
67
110
93
70
119
102
66
114
100
59
90
86
68
80
93
67
75
89
49
56
70
49
55
69
40
48
73
23
37
96
17
27
98
44
24
80
88
66
83
103
73
83
112
134
120
120
142
128
120
145
128
119
144
128
117
140
125
119
143
125
115
139
121
124
149
129
131
155
135
128
152
132
129
153
133
126
151
130
130
155
134
132
157
136
130
155
134
133
156
136
132
154
135
128
151
131
125
150
130
121
146
129
115
138
124
116
139
124
118
142
128
120
143
129
127
150
135
161
178
167
225
234
229
211
223
214
200
218
206
197
214
204
193
210
201
189
208
200
168
189
183
151
171
168
84
78
105
76
66
99
76
67
98
76
67
98
76
67
98
75
66
97
78
88
89
77
87
87
77
87
86
76
85
85
102
95
92
115
93
89
105
79
76
104
76
73
104
75
71
99
70
67
94
66
63
102
70
64
114
78
65
129
98
88
144
116
108
141
114
110
134
108
106
129
106
107
128
105
105
122
97
98
114
87
88
115
87
86
107
79
77
101
71
71
95
65
64
99
69
66
104
73
68
105
72
66
106
73
64
113
79
70
116
82
73
113
80
72
110
77
69
115
83
74
110
80
76
99
71
72
90
61
63
94
64
66
108
80
79
97
72
74
74
107
74
54
88
59
43
76
52
41
76
53
40
77
57
33
74
58
67
115
103
60
113
100
61
113
104
64
101
103
73
90
110
59
73
94
53
65
85
35
43
63
29
45
94
17
28
95
36
12
79
56
26
71
58
29
78
96
74
92
114
137
124
121
143
128
122
145
129
115
138
124
120
142
129
115
138
123
112
134
121
119
141
127
129
152
134
125
150
131
126
150
132
123
148
129
134
159
139
139
164
143
137
161
141
138
161
141
131
154
135
130
153
134
123
147
129
119
143
127
115
139
125
114
138
124
124
146
133
131
155
140
129
153
138
121
144
131
176
191
182
228
236
231
232
239
236
215
227
218
204
220
211
197
215
206
190
207
202
144
154
160
74
66
96
75
66
98
74
66
97
74
67
97
74
66
97
75
67
96
78
87
87
77
86
86
76
85
84
75
84
83
73
80
78
96
84
80
92
67
61
94
67
61
100
69
64
101
68
62
100
66
58
101
66
56
105
68
55
121
85
70
150
120
110
136
106
98
139
112
108
128
104
105
111
86
88
98
71
73
111
82
81
108
78
76
104
75
71
95
64
62
96
63
60
106
73
68
114
80
71
109
74
65
110
74
65
117
80
68
119
82
70
118
82
71
118
83
73
113
82
74
104
74
71
102
72
69
102
72
69
92
65
64
96
69
72
87
61
65
87
121
91
67
103
74
50
85
60
46
83
60
39
77
58
83
118
105
82
124
114
85
129
115
101
124
122
81
96
113
77
88
103
71
83
102
54
66
92
43
62
104
29
50
104
29
27
92
51
23
73
54
20
75
57
24
82
59
29
82
121
145
131
118
141
126
118
139
127
113
135
123
117
139
126
114
135
122
120
141
129
120
142
129
113
135
123
119
140
127
134
157
141
132
156
139
143
167
148
142
167
146
142
165
145
137
161
141
135
158
138
132
155
136
133
158
139
129
153
135
120
144
129
116
139
126
122
144
130
136
159
142
138
160
145
127
150
137
131
153
142
194
208
199
217
228
220
229
237
230
184
189
190
121
119
134
86
79
103
75
66
96
78
67
98
76
67
97
78
69
99
81
72
101
83
74
102
84
75
102
80
86
84
77
84
82
74
84
80
72
81
78
71
80
76
66
72
70
89
75
69
95
67
59
97
64
55
99
63
50
95
59
43
81
49
37
60
35
25
64
40
28
124
93
81
141
106
92
132
102
95
98
65
64
96
63
62
93
62
60
96
66
62
102
71
68
103
72
71
102
71
68
110
76
69
112
77
69
115
78
68
116
79
67
116
76
63
116
75
59
116
74
58
119
81
68
115
82
72
110
80
74
101
72
69
95
66
65
91
64
65
76
52
56
88
62
66
92
65
66
27
47
36
40
30
27
44
20
25
60
17
15
65
50
47
73
90
87
74
92
89
88
101
99
166
151
153
124
117
125
93
98
112
88
97
117
62
86
130
41
71
126
23
48
108
44
20
80
52
23
79
52
22
86
58
26
85
60
23
83
112
135
123
115
138
126
116
137
125
109
130
119
118
140
128
123
145
132
126
147
135
121
141
131
108
128
121
123
142
132
127
148
134
135
157
140
146
169
151
149
172
154
143
167
149
135
158
142
139
161
144
137
161
142
134
159
140
137
162
143
128
152
137
113
136
123
114
137
124
126
150
134
136
161
142
127
149
136
125
146
137
166
185
174
193
208
198
198
212
202
182
197
189
137
145
148
165
156
165
166
155
163
167
156
163
167
158
164
168
158
164
168
158
164
168
158
163
169
160
162
76
82
80
74
80
79
74
79
80
71
78
77
65
71
69
57
61
58
76
64
53
99
61
41
70
45
34
57
34
24
35
19
13
19
6
3
16
5
3
12
3
2
13
5
5
106
76
62
118
80
63
105
67
56
101
65
59
100
66
61
102
69
64
102
70
65
107
75
72
115
84
82
117
87
82
111
77
68
116
78
61
103
64
45
96
57
39
91
54
35
92
55
36
99
60
43
110
72
56
115
81
70
108
77
72
105
76
74
110
79
74
114
82
75
119
85
75
124
85
71
51
18
30
46
18
35
44
21
38
49
37
45
48
73
82
37
76
90
26
70
91
58
83
109
104
122
157
89
111
151
73
99
147
58
91
146
45
81
142
29
61
128
31
27
102
55
22
89
53
22
91
58
24
85
55
21
88
59
25
88
111
135
123
111
134
123
113
135
123
109
129
120
114
134
124
128
150
139
121
141
132
115
135
128
123
141
134
120
140
129
133
154
140
131
154
138
132
155
139
142
164
150
141
164
148
143
164
148
142
165
146
144
167
147
140
164
144
136
161
142
132
155
140
109
132
120
111
135
122
113
136
123
122
145
131
121
144
129
107
130
120
133
154
144
178
196
185
181
198
184
167
185
172
180
197
186
161
161
160
170
162
162
169
162
161
168
162
160
167
161
160
167
161
159
166
160
159
167
161
159
72
78
78
70
76
76
70
75
76
66
71
72
57
62
62
53
55
53
128
80
43
121
61
8
95
44
3
72
32
4
63
27
3
68
32
8
65
30
6
64
30
7
50
20
2
59
41
36
125
94
85
116
80
69
101
65
55
106
72
61
97
66
58
88
60
55
89
61
58
105
71
64
117
84
75
87
58
50
49
30
22
11
4
3
12
5
4
10
4
3
9
4
2
10
4
3
29
18
13
57
34
24
90
62
51
113
81
71
89
64
59
64
44
45
58
38
41
62
42
43
33
50
51
28
48
51
35
41
51
29
63
87
16
56
91
20
45
90
32
39
87
60
95
143
55
92
146
52
91
147
50
87
146
34
72
143
30
50
131
43
29
116
44
25
116
59
25
97
61
22
86
62
26
87
60
24
86
58
21
89
115
136
127
115
137
128
109
130
121
117
138
128
115
135
127
119
140
130
114
135
128
118
138
133
117
137
131
112
132
125
141
159
149
136
156
145
123
145
132
139
161
147
149
169
155
131
151
139
137
159
144
140
163
147
148
171
154
140
164
146
134
156
140
116
138
127
110
132
121
111
134
122
121
143
129
124
146
133
106
127
119
111
133
125
145
166
154
155
175
162
166
186
171
165
183
171
145
159
152
149
149
151
149
146
149
147
145
147
147
145
147
146
144
147
145
143
146
147
145
148
83
87
86
81
84
84
79
83
83
69
73
74
51
55
56
125
89
52
154
87
17
141
74
8
136
67
3
128
62
2
116
54
3
105
48
2
98
44
3
93
41
3
87
38
3
71
31
2
56
24
6
75
47
34
82
56
46
88
57
49
104
73
67
102
71
66
101
72
66
84
59
51
38
21
15
31
10
3
37
13
3
44
17
2
51
21
3
52
22
3
51
21
3
48
20
2
45
17
3
41
15
3
35
11
2
32
14
8
67
48
42
95
69
63
109
80
72
110
83
75
39
44
50
34
51
70
12
53
89
18
45
90
27
40
91
32
36
91
49
70
121
45
90
155
35
83
158
24
75
156
18
62
151
17
48
142
47
32
124
46
26
120
48
25
116
48
19
105
54
20
93
57
24
94
65
25
85
63
27
88
110
130
122
113
133
126
115
135
127
116
136
127
119
138
129
129
149
139
119
139
131
113
132
128
121
139
133
123
143
137
145
165
155
147
166
156
132
153
142
139
161
148
138
158
145
136
156
145
132
153
142
126
147
137
132
153
141
131
152
140
136
158
143
126
148
136
111
133
123
114
136
126
115
137
125
118
140
129
109
131
122
106
127
118
124
145
135
158
179
167
162
182
170
169
187
174
155
171
162
150
150
151
153
151
152
151
149
151
151
149
152
151
149
152
150
148
151
151
147
151
76
78
78
74
77
78
73
76
77
67
69
70
77
68
59
182
116
41
176
102
9
171
97
9
166
90
5
157
82
3
145
71
2
139
67
2
132
64
2
126
59
2
122
56
2
115
52
3
111
50
3
103
47
3
65
27
2
54
29
20
60
38
30
52
32
25
36
13
3
47
18
3
54
21
3
65
28
3
75
33
3
76
33
2
80
34
2
84
36
3
85
37
2
87
37
3
88
38
3
90
38
3
84
36
2
77
33
3
72
31
3
68
29
3
72
31
4
81
36
2
34
51
89
35
33
86
41
31
82
43
27
87
56
20
86
72
13
84
52
62
134
18
55
144
20
48
143
33
38
136
27
45
144
32
37
134
48
33
126
59
24
111
64
23
106
56
24
104
67
29
83
54
21
94
69
31
83
65
27
88
112
133
125
122
143
135
122
142
135
122
142
135
122
142
136
130
150
142
120
140
131
119
138
132
122
140
134
133
153
145
145
164
152
139
159
148
135
155
146
128
149
139
137
158
146
130
150
141
123
144
137
128
148
139
133
152
141
137
157
144
134
156
143
125
148
135
123
147
134
114
136
126
112
134
125
117
138
128
110
131
122
118
139
130
117
138
128
138
159
147
152
172
161
162
181
168
164
182
171
139
144
143
158
154
156
157
154
157
155
153
155
154
152
155
153
151
154
152
150
153
69
73
73
67
71
71
65
69
69
61
64
64
151
107
59
191
115
21
185
106
10
182
103
7
183
105
7
178
100
4
174
96
7
171
93
4
164
87
3
155
80
3
144
71
3
130
63
5
131
63
3
128
61
2
125
59
2
112
50
2
101
44
4
95
41
3
95
41
4
102
45
6
100
43
1
104
46
2
106
46
2
106
47
2
111
50
2
113
51
1
114
52
2
117
54
2
119
56
2
123
60
4
123
60
5
123
58
3
129
63
3
132
65
3
138
71
5
143
78
16
61
25
86
67
20
84
82
19
76
90
15
79
99
21
79
103
33
89
30
48
142
36
29
126
41
22
121
43
28
127
31
36
139
37
43
140
46
33
129
63
24
109
62
25
112
67
24
95
64
28
88
68
30
86
63
29
94
65
30
92
121
142
134
117
137
131
114
135
130
114
134
127
119
138
129
123
144
136
128
149
141
131
153
145
135
156
148
136
155
149
142
161
151
136
156
147
135
154
148
125
145
138
127
148
138
133
151
144
129
148
140
122
140
134
127
147
137
140
160
148
135
156
144
129
152
139
121
143
132
123
145
133
123
144
132
115
137
125
110
132
122
113
134
125
118
139
130
128
149
139
133
153
144
144
164
154
163
182
169
128
142
136
160
158
160
160
156
159
157
154
157
154
152
155
153
151
154
152
150
153
49
53
55
49
53
55
48
52
55
62
57
53
194
129
52
196
120
23
195
116
13
194
115
11
192
114
10
191
112
10
186
106
8
191
112
9
191
111
9
189
109
15
187
110
24
175
99
14
173
98
10
163
89
5
160
85
3
161
86
4
161
86
4
163
89
7
162
91
9
161
91
18
157
85
5
160
86
4
162
87
5
165
89
5
166
90
5
167
90
4
167
91
4
169
94
5
172
97
9
174
96
7
176
97
7
178
97
5
183
104
7
189
111
15
192
115
18
196
122
31
108
28
74
109
25
76
112
29
75
111
28
77
118
39
68
98
45
110
26
36
140
34
29
135
42
29
131
54
29
126
39
32
136
41
29
130
50
29
124
62
25
113
71
31
107
58
16
103
59
21
91
64
24
89
72
30
85
80
36
80
122
142
135
120
140
133
115
135
131
121
141
133
125
143
133
123
141
131
130
150
142
123
143
137
132
154
147
131
152
146
132
152
146
134
153
147
126
146
141
118
139
134
124
145
138
129
150
142
123
143
136
123
143
135
131
151
141
136
156
145
125
146
136
133
155
143
130
151
139
122
144
133
124
144
132
121
142
130
110
131
122
107
128
119
116
138
130
117
138
130
123
144
136
127
147
139
149
170
158
125
144
136
149
151
151
162
157
160
159
156
159
157
155
158
155
153
156
154
152
155
42
46
50
41
45
49
40
45
48
134
97
57
200
126
33
198
121
21
197
119
15
198
119
14
197
119
12
197
118
12
198
118
13
197
116
11
200
118
11
198
115
10
197
115
11
196
115
12
202
121
15
198
117
9
197
116
7
199
117
10
197
114
9
199
116
12
199
117
11
201
120
14
199
118
8
199
117
10
197
116
9
196
116
8
196
116
9
196
116
10
196
116
9
197
117
11
197
116
11
197
117
15
197
116
10
195
114
10
197
116
10
200
121
16
200
120
17
200
120
15
116
32
76
118
31
79
118
33
78
120
36
76
124
42
67
88
44
115
29
35
141
27
33
143
43
22
131
44
24
131
55
23
121
60
23
115
61
23
115
68
27
105
58
22
113
54
17
108
63
23
94
65
24
91
70
29
89
79
37
83
126
146
139
132
151
142
135
155
145
128
147
141
128
148
140
127
145
137
126
145
139
126
147
141
127
148
144
132
151
144
133
152
146
132
150
144
130
148
143
125
143
136
130
147
140
124
143
136
126
145
137
125
145
136
133
153
142
131
151
140
122
142
133
123
143
134
128
149
139
122
144
134
121
142
132
120
142
132
107
128
120
107
129
120
104
126
118
104
126
119
115
137
129
119
139
133
128
149
140
127
147
137
144
150
148
165
162
163
162
159
160
159
157
158
157
155
157
156
154
157
36
41
46
35
40
46
35
37
42
181
124
56
200
124
30
199
121
21
198
121
18
199
120
16
200
121
15
199
121
13
199
121
13
198
117
12
200
118
11
199
118
12
200
119
16
203
122
15
204
123
15
200
119
11
201
119
9
201
118
8
199
116
7
198
116
7
202
120
12
201
120
11
201
121
10
200
118
9
200
119
11
202
121
14
201
120
13
202
121
13
200
119
12
201
120
12
200
120
13
199
121
17
202
120
14
200
119
13
201
120
12
202
125
23
204
123
13
204
123
13
122
44
70
121
36
76
123
39
75
124
41
68
128
42
63
73
31
111
44
23
126
57
25
121
53
17
120
56
22
119
63
23
113
69
25
106
74
29
102
67
22
101
65
22
103
56
19
110
59
14
96
71
28
87
76
33
86
75
32
86
120
141
133
125
145
136
127
146
138
127
147
141
124
144
139
133
150
139
132
150
141
128
148
141
126
146
142
132
149
143
127
147
142
131
149
145
131
149
144
132
149
142
127
146
141
126
147
142
127
146
141
125
145
138
123
143
136
121
142
135
134
155
147
124
145
138
123
144
136
117
138
130
119
140
131
110
133
123
103
126
119
108
131
124
96
119
113
104
126
120
109
132
126
113
134
129
124
146
136
133
154
143
137
149
145
168
164
165
165
161
162
161
159
160
160
157
158
159
157
158
32
37
41
32
37
41
78
62
47
203
136
50
201
126
31
200
122
23
200
122
20
199
121
17
200
121
16
200
121
15
200
121
15
199
118
13
202
120
15
201
120
15
204
125
21
204
123
17
204
123
16
204
122
13
205
123
13
204
120
11
203
119
8
205
123
14
205
123
14
205
125
14
203
125
16
204
125
17
206
125
17
205
125
15
205
125
15
205
126
17
203
125
17
204
123
16
204
125
17
203
125
26
204
125
21
202
123
16
205
124
17
205
127
23
207
127
17
207
127
16
125
40
71
126
40
73
127
41
70
128
54
63
128
47
63
64
28
114
53
12
112
59
26
121
96
40
87
84
37
100
79
31
100
82
35
96
82
32
95
92
40
84
91
41
84
71
27
95
67
26
97
116
69
78
154
98
57
170
108
39
172
184
182
125
145
137
125
144
138
121
142
136
124
144
136
129
146
136
128
147
138
135
155
148
132
152
146
133
151
146
133
151
145
129
149
144
134
151
143
128
148
142
126
147
142
129
148
141
130
149
142
125
145
141
124
145
141
117
137
131
164
176
173
207
212
214
183
193
192
138
153
150
111
133
127
104
125
119
104
127
121
109
131
124
98
121
115
104
127
121
102
125
119
115
138
132
132
155
145
139
162
150
115
132
129
171
168
169
167
163
164
165
161
162
163
160
161
160
158
159
30
35
39
29
34
38
134
96
52
203
132
41
201
127
34
199
122
25
199
122
21
201
123
20
202
124
19
203
125
19
203
125
17
202
121
15
203
123
16
202
121
16
202
123
22
203
122
19
208
128
20
209
128
16
206
125
13
205
122
10
205
121
8
207
124
13
207
126
16
208
129
19
207
128
18
205
125
17
207
126
18
206
126
15
204
124
14
204
124
15
204
125
16
205
124
15
206
127
17
207
127
26
208
127
19
205
126
18
207
129
18
207
127
19
207
128
19
207
129
20
130
46
63
128
44
68
129
44
67
130
48
64
125
53
78
60
19
107
72
25
103
75
25
103
63
25
117
80
34
105
78
28
101
82
29
94
74
27
103
78
30
102
91
48
100
135
79
79
176
111
39
187
119
28
181
113
21
174
107
11
194
201
202
122
142
135
124
143
136
126
145
139
129
148
139
128
146
138
125
145
140
128
147
143
136
156
150
134
154
151
139
157
152
133
151
145
132
150
143
125
146
141
132
152
144
131
149
142
124
143
139
130
149
143
129
149
143
121
143
137
196
202
203
218
222
225
221
222
225
222
225
227
208
213
215
166
177
177
110
129
125
109
131
124
104
126
121
105
127
122
103
125
121
111
133
128
122
143
138
122
144
138
106
125
123
171
168
169
169
165
166
167
163
164
166
162
163
163
160
161
28
33
37
28
32
36
168
116
55
203
132
40
203
129
35
201
125
29
202
124
26
202
124
23
204
126
22
204
127
20
204
126
18
204
124
17
207
126
19
206
125
24
205
126
26
206
127
24
209
131
22
209
129
18
208
127
15
205
123
10
205
122
11
206
125
15
208
127
15
208
129
16
208
128
17
206
125
15
207
125
15
210
129
19
208
128
18
207
127
18
207
129
19
208
127
18
209
131
19
208
130
25
208
127
19
207
126
16
208
128
16
209
129
17
210
130
20
210
131
22
130
47
65
131
48
66
130
47
65
132
50
61
118
57
87
49
17
117
84
35
96
68
19
109
86
35
95
73
27
107
87
37
96
79
29
103
120
66
89
156
90
67
175
101
14
179
105
14
182
112
19
181
114
20
181
117
33
155
97
60
143
157
152
128
146
138
126
145
138
135
154
145
137
156
147
130
149
141
126
146
141
127
147
141
139
157
151
141
160
152
128
148
143
138
157
151
131
151
145
132
151
145
131
151
145
129
149
143
129
148
142
134
154
146
133
153
147
128
148
142
146
159
157
201
207
208
221
224
227
214
217
221
215
217
221
220
223
227
218
221
224
181
191
190
122
140
136
107
129
123
102
124
120
111
132
129
129
149
143
128
149
143
102
122
122
166
165
165
171
167
167
169
165
165
168
165
166
167
163
164
27
32
37
26
30
34
182
128
60
205
134
40
206
133
39
203
129
33
203
126
28
205
128
26
205
127
21
206
128
22
207
128
22
207
126
20
209
128
21
208
127
20
206
124
23
207
128
24
209
131
24
208
129
20
206
125
13
205
122
9
206
123
9
208
126
14
208
127
15
207
126
12
208
128
16
207
126
14
207
125
14
208
126
16
208
127
16
209
129
18
210
131
20
209
129
19
210
130
19
207
127
20
208
127
17
207
126
14
209
128
16
208
126
15
207
127
16
210
129
19
129
44
71
130
46
67
134
50
60
136
52
60
103
46
101
50
21
121
81
32
100
74
23
102
86
34
91
97
42
76
80
29
96
117
61
88
178
104
16
174
98
12
170
94
13
178
106
26
164
103
63
130
80
76
88
46
86
85
40
78
126
147
140
125
146
139
139
160
153
141
160
151
136
154
145
136
155
145
138
157
151
139
156
150
136
154
150
134
152
147
132
151
145
133
150
142
129
148
142
132
151
143
133
154
147
130
150
143
139
159
150
139
159
150
133
153
145
132
150
145
128
149
144
120
140
136
127
143
140
166
176
175
197
202
204
216
218
222
215
216
221
214
215
219
213
218
221
136
153
149
110
132
126
102
123
120
120
140
134
128
149
143
102
122
122
153
154
154
173
169
167
170
166
165
169
165
166
167
165
166
27
32
38
26
30
35
146
100
48
208
139
48
207
134
39
206
132
35
205
129
30
206
131
29
206
129
25
206
128
22
206
127
22
207
127
22
206
125
20
206
125
18
209
127
24
206
126
24
210
131
26
209
131
23
208
128
19
210
129
18
210
129
19
209
127
17
207
126
14
207
126
12
209
129
17
210
128
17
209
127
15
209
127
16
208
127
15
208
127
14
210
129
18
209
128
17
209
128
17
208
129
19
211
132
22
211
131
21
212
133
22
212
131
20
213
133
21
212
132
20
129
43
71
131
47
66
135
50
62
134
49
64
91
39
102
51
14
116
68
24
107
60
19
113
75
25
100
94
40
83
89
36
88
113
61
94
173
101
23
155
88
63
126
71
86
78
35
101
89
44
84
95
49
75
99
51
71
99
52
69
136
159
151
132
153
146
134
155
148
142
162
156
139
159
150
137
155
146
136
155
148
131
150
144
124
143
137
129
149
142
126
146
138
133
153
144
137
156
148
135
156
148
133
153
144
140
160
150
154
174
162
147
168
156
141
161
151
140
159
151
130
150
142
129
150
144
124
145
140
122
143
137
113
135
128
123
140
136
173
181
182
207
211
214
209
212
216
157
170
168
104
126
120
100
122
119
109
130
125
117
137
133
101
121
121
128
136
136
175
170
170
172
168
168
170
166
167
168
165
166
28
33
39
26
31
36
104
66
35
153
97
35
196
132
49
214
144
54
208
134
35
209
132
32
207
131
28
206
127
23
207
128
26
210
131
25
210
129
25
209
130
25
212
131
27
211
130
26
213
135
30
212
135
29
211
132
24
210
130
22
209
128
20
210
129
21
210
129
17
212
130
18
210
128
16
212
132
21
212
131
21
212
132
23
213
135
23
215
135
22
212
133
20
211
133
20
212
132
19
212
133
25
211
131
21
211
131
20
213
134
23
212
132
21
213
133
22
213
132
22
131
46
66
134
50
64
134
50
65
136
50
62
87
36
105
65
24
111
82
27
89
81
29
94
81
30
98
76
25
101
79
28
100
70
23
109
71
24
106
78
29
98
84
38
91
96
48
81
86
40
84
86
46
87
91
55
78
86
48
77
142
164
158
158
174
171
166
181
178
140
161
156
136
156
148
134
153
146
136
154
148
138
158
151
136
155
148
128
147
141
160
171
169
126
145
137
120
140
134
116
137
131
126
146
138
139
159
149
147
166
156
142
164
153
174
188
183
162
179
171
128
148
143
127
148
142
121
143
136
119
140
134
107
128
123
108
129
124
105
126
120
104
126
121
144
158
156
117
137
131
126
148
140
96
118
115
108
128
125
100
120
119
97
117
116
102
118
118
177
174
173
173
169
168
171
167
168
171
167
168
29
34
38
28
33
38
101
67
39
134
76
15
137
79
11
146
89
21
174
116
44
186
124
43
194
128
41
195
126
42
201
132
47
205
137
49
209
138
47
212
141
50
216
142
48
218
143
45
219
145
44
218
144
41
216
140
36
217
140
35
215
137
32
216
136
28
215
136
27
214
134
25
212
132
21
214
136
25
211
132
21
212
131
21
214
134
24
213
134
23
213
135
24
214
136
26
214
136
28
214
137
31
217
140
35
217
141
40
217
141
37
217
141
38
218
141
39
216
140
38
136
58
58
135
59
57
135
60
57
135
59
50
90
45
92
81
37
85
72
33
94
76
34
84
68
33
89
58
31
97
65
30
87
56
35
98
53
41
95
54
37
95
45
32
103
43
24
95
44
29
96
33
30
102
36
27
99
49
31
93
142
162
157
179
192
189
230
233
235
166
179
176
139
159
151
133
152
145
132
151
145
132
152
144
149
166
161
196
202
204
225
229
230
192
198
199
134
151
146
123
143
136
133
152
145
139
159
150
152
171
161
182
192
190
233
236
238
159
174
168
132
152
144
132
153
145
123
145
138
118
140
134
119
141
136
111
133
129
111
134
128
106
128
122
108
130
125
113
134
130
124
146
139
106
128
124
105
125
123
108
129
125
100
121
120
107
126
123
169
168
167
173
168
168
171
167
167
171
167
168
25
31
35
23
29
34
70
48
34
134
77
8
139
80
0
142
84
1
142
86
4
144
87
7
142
85
6
138
82
5
140
82
7
140
83
5
137
80
1
133
78
0
134
78
0
138
82
2
142
86
7
150
92
16
153
95
19
159
100
27
162
103
26
164
105
25
164
106
24
168
108
27
170
110
29
170
111
31
171
112
31
172
113
33
172
114
35
173
115
35
170
112
34
172
113
35
168
111
34
166
110
36
163
106
31
157
98
21
154
96
16
149
91
7
148
90
6
149
90
5
70
2
69
71
5
68
70
5
69
75
9
64
41
43
108
25
19
93
13
45
121
16
27
104
22
22
99
29
20
94
34
13
88
27
27
101
28
29
101
34
23
98
43
30
99
52
25
85
45
22
92
34
25
101
47
28
93
49
26
91
143
161
157
134
154
147
188
197
195
232
236
236
217
222
222
200
206
205
191
198
199
203
210
211
217
224
227
203
214
218
147
168
174
204
213
217
214
222
224
204
211
213
197
204
206
203
210
212
223
227
229
232
235
236
177
187
186
135
157
150
140
160
152
132
153
144
127
150
143
122
144
138
119
141
135
115
135
132
116
137
134
111
133
127
106
127
123
106
127
124
110
132
127
110
132
128
101
122
120
125
146
139
112
134
130
116
136
132
164
163
163
174
170
170
173
169
168
172
169
169
255
255
255
255
255
255
255
255
255
255
255
255
255
255
255
255
255
255
255
255
255
255
255
255
255
255
255
255
255
255
255
255
255
255
255
255
255
255
255
255
255
255
255
255
255
255
255
255
255
255
255
255
255
255
255
255
255
255
255
255
255
255
255
255
255
255
255
255
255
255
255
255
255
255
255
255
255
255
255
255
255
255
255
255
255
255
255
255
255
255
255
255
255
255
255
255
255
255
255
255
255
255
255
255
255
255
255
255
255
255
255
255
255
255
255
255
255
255
255
255
178
173
170
178
173
170
179
174
171
182
175
174
147
159
157
118
136
135
101
122
121
113
135
132
107
128
125
114
137
132
123
146
140
120
142
137
125
147
142
142
162
154
139
159
152
146
168
158
146
168
156
126
146
139
130
150
144
136
156
151
135
155
150
137
157
151
135
154
147
181
190
189
198
208
211
163
183
187
161
181
186
142
164
171
94
130
139
46
108
124
52
115
129
47
107
122
92
128
138
143
160
168
162
169
177
158
176
183
191
202
206
173
184
182
139
158
150
135
156
149
137
158
149
135
155
148
128
151
144
124
146
142
122
143
139
118
141
135
113
134
131
110
130
128
105
127
124
102
123
121
107
129
126
106
128
125
105
126
122
104
124
121
103
123
122
109
128
126
162
162
161
176
172
172
174
170
169
174
170
170
255
255
255
255
255
255
255
255
255
255
255
255
255
255
255
255
255
255
255
255
255
255
255
255
255
255
255
255
255
255
255
255
255
255
255
255
255
255
255
255
255
255
255
255
255
255
255
255
255
255
255
255
255
255
255
255
255
255
255
255
255
255
255
255
255
255
255
255
255
255
255
255
255
255
255
255
255
255
255
255
255
255
255
255
255
255
255
255
255
255
255
255
255
255
255
255
255
255
255
255
255
255
255
255
255
255
255
255
255
255
255
255
255
255
255
255
255
255
255
255
178
173
170
179
174
171
179
174
171
182
178
175
116
129
131
98
118
119
111
133
130
104
126
123
98
120
118
116
138
134
120
143
137
114
135
132
146
168
159
162
184
171
133
154
145
144
166
155
144
167
155
141
163
152
126
146
138
121
142
136
127
148
143
127
146
141
126
144
138
163
176
175
168
182
188
50
113
128
51
114
129
46
109
124
48
110
125
48
109
123
48
111
126
47
109
125
48
109
125
45
99
117
50
85
103
50
113
128
169
186
191
168
180
177
139
159
150
137
158
151
136
157
149
134
155
148
133
155
148
127
150
144
122
145
139
118
141
135
117
138
134
114
134
132
109
131
128
106
128
125
108
130
127
107
129
124
112
135
129
93
114
114
94
115
115
100
119
119
159
161
160
178
174
173
176
172
171
175
171
171
255
255
255
255
255
255
255
255
255
255
255
255
255
255
255
255
255
255
255
255
255
255
255
255
255
255
255
255
255
255
255
255
255
255
255
255
255
255
255
255
255
255
255
255
255
255
255
255
255
255
255
255
255
255
255
255
255
255
255
255
255
255
255
255
255
255
255
255
255
255
255
255
255
255
255
255
255
255
255
255
255
255
255
255
255
255
255
255
255
255
255
255
255
255
255
255
255
255
255
255
255
255
255
255
255
255
255
255
255
255
255
255
255
255
255
255
255
255
255
255
181
176
173
181
176
173
180
175
172
183
180
178
86
103
107
94
113
115
110
131
129
97
118
117
102
124
121
119
139
136
116
136
134
106
126
125
151
173
164
159
181
169
138
159
148
137
160
149
126
148
139
130
152
143
142
163
153
127
149
143
125
147
141
133
153
148
129
147
143
140
157
153
196
206
209
49
109
126
51
112
129
50
113
129
51
113
129
53
114
129
50
111
127
48
109
126
50
111
127
43
106
122
39
103
118
47
110
125
194
206
209
144
161
153
139
159
150
138
158
150
137
158
149
137
158
149
124
145
138
126
147
141
130
152
145
117
140
134
117
139
134
113
134
131
111
133
130
110
132
129
109
131
128
113
135
130
108
130
124
104
126
123
87
108
109
94
114
114
161
161
161
180
176
175
179
174
174
179
173
173
255
255
255
255
255
255
255
255
255
255
255
255
255
255
255
255
255
255
255
255
255
255
255
255
255
255
255
255
255
255
255
255
255
255
255
255
255
255
255
255
255
255
255
255
255
255
255
255
255
255
255
255
255
255
255
255
255
255
255
255
255
255
255
255
255
255
255
255
255
255
255
255
255
255
255
255
255
255
255
255
255
255
255
255
255
255
255
255
255
255
255
255
255
255
255
255
255
255
255
255
255
255
255
255
255
255
255
255
255
255
255
255
255
255
255
255
255
255
255
255
182
177
174
182
177
174
182
177
174
178
175
173
84
102
106
101
121
121
106
127
125
103
125
124
120
141
138
116
137
134
118
139
135
113
135
131
131
153
144
133
154
146
145
167
156
152
175
161
145
168
155
137
159
148
149
171
158
125
147
141
123
144
139
124
145
140
128
147
142
126
146
141
204
213
214
70
117
133
52
114
130
56
120
136
58
123
138
62
123
138
61
123
139
56
118
135
56
117
133
55
117
133
55
118
134
85
127
140
209
218
219
140
160
152
148
168
159
140
161
151
141
162
152
136
156
148
129
149
142
124
145
138
128
150
142
120
142
135
118
139
134
117
139
134
116
138
135
113
135
132
109
131
126
104
126
120
109
132
126
102
124
121
89
110
111
93
112
113
158
159
159
182
177
176
182
176
175
182
177
174
255
255
255
255
255
255
255
255
255
255
255
255
255
255
255
255
255
255
255
255
255
255
255
255
255
255
255
255
255
255
255
255
255
255
255
255
255
255
255
255
255
255
255
255
255
255
255
255
255
255
255
255
255
255
255
255
255
255
255
255
255
255
255
255
255
255
255
255
255
255
255
255
255
255
255
255
255
255
255
255
255
255
255
255
255
255
255
255
255
255
255
255
255
255
255
255
255
255
255
255
255
255
255
255
255
255
255
255
255
255
255
255
255
255
255
255
255
255
255
255
182
177
174
183
178
175
183
178
175
176
173
171
108
126
125
115
135
132
102
123
121
110
131
129
116
137
135
117
139
135
115
138
132
112
134
128
110
132
127
104
126
122
140
162
151
156
178
163
156
177
164
150
172
161
146
167
156
125
145
140
122
143
138
128
149
143
130
150
144
130
151
146
176
186
187
164
180
186
48
110
127
48
110
127
48
110
127
49
110
125
48
109
125
50
111
128
48
109
126
48
108
125
50
112
128
167
184
190
176
188
183
143
164
154
142
162
153
140
161
152
142
162
154
130
151
145
127
148
142
120
142
136
120
142
136
126
147
141
120
142
136
122
144
138
116
138
133
115
137
132
110
132
127
106
128
123
108
130
125
103
123
120
93
113
113
89
109
110
155
156
156
184
178
177
184
178
176
183
178
175
255
255
255
255
255
255
255
255
255
255
255
255
255
255
255
255
255
255
255
255
255
255
255
255
255
255
255
255
255
255
255
255
255
255
255
255
255
255
255
255
255
255
255
255
255
255
255
255
255
255
255
255
255
255
255
255
255
255
255
255
255
255
255
255
255
255
255
255
255
255
255
255
255
255
255
255
255
255
255
255
255
255
255
255
255
255
255
255
255
255
255
255
255
255
255
255
255
255
255
255
255
255
255
255
255
255
255
255
255
255
255
255
255
255
255
255
255
255
255
255
184
179
176
184
179
176
184
179
176
172
170
168
133
152
147
123
144
139
96
117
116
102
124
122
111
133
131
108
130
127
114
136
132
111
133
127
108
130
125
121
143
136
137
158
148
150
171
160
124
147
139
127
149
142
131
150
144
126
146
140
126
147
139
127
148
141
134
155
149
132
153
147
132
153
148
203
212
214
140
161
170
49
111
127
46
109
126
48
109
126
48
111
128
50
113
130
52
114
130
56
116
132
149
170
178
205
214
214
139
159
151
141
161
153
139
160
152
136
156
149
141
161
154
141
162
154
128
149
143
129
150
145
119
141
135
123
146
140
121
142
138
125
147
141
114
137
132
113
135
131
112
134
130
109
131
127
105
126
123
111
132
128
98
119
117
95
114
115
149
150
151
186
180
178
185
180
177
185
180
177
255
255
255
255
255
255
255
255
255
255
255
255
255
255
255
255
255
255
255
255
255
255
255
255
255
255
255
255
255
255
255
255
255
255
255
255
255
255
255
255
255
255
255
255
255
255
255
255
255
255
255
255
255
255
255
255
255
255
255
255
255
255
255
255
255
255
255
255
255
255
255
255
255
255
255
255
255
255
255
255
255
255
255
255
255
255
255
255
255
255
255
255
255
255
255
255
255
255
255
255
255
255
255
255
255
255
255
255
255
255
255
255
255
255
255
255
255
255
255
255
184
179
175
185
180
176
186
181
177
156
158
156
143
165
158
115
136
134
100
122
120
101
123
120
109
129
127
106
127
124
104
125
123
103
126
121
108
130
124
117
137
131
135
157
147
128
151
142
117
140
133
121
142
138
127
147
141
129
150
143
125
145
139
131
151
144
132
152
145
137
158
151
126
147
141
139
156
151
207
216
217
193
206
210
135
161
171
108
141
151
106
141
152
99
135
147
130
157
166
188
201
206
201
208
208
136
155
147
142
162
153
133
153
145
132
152
143
152
174
164
134
154
148
155
176
165
144
164
156
130
151
146
129
149
143
122
145
140
123
144
142
119
140
136
123
145
140
114
135
132
111
130
129
110
130
128
113
135
132
108
129
126
108
129
126
110
129
128
150
153
152
187
182
180
187
182
179
187
182
181
255
255
255
255
255
255
255
255
255
255
255
255
255
255
255
255
255
255
255
255
255
255
255
255
255
255
255
255
255
255
255
255
255
255
255
255
255
255
255
255
255
255
255
255
255
255
255
255
255
255
255
255
255
255
255
255
255
255
255
255
255
255
255
255
255
255
255
255
255
255
255
255
255
255
255
255
255
255
255
255
255
255
255
255
255
255
255
255
255
255
255
255
255
255
255
255
255
255
255
255
255
255
255
255
255
255
255
255
255
255
255
255
255
255
255
255
255
255
255
255
186
181
177
186
181
177
187
182
178
144
148
148
130
151
148
102
123
123
124
146
141
105
126
125
108
129
126
107
129
126
109
131
129
103
124
123
115
137
132
123
144
139
124
145
139
130
151
145
131
154
146
128
150
144
125
146
140
125
147
140
128
149
143
128
148
141
131
151
144
130
151
144
132
153
147
134
154
147
145
164
155
158
173
167
184
193
192
197
205
205
201
209
210
198
206
206
185
195
194
156
171
165
141
162
152
128
149
140
136
157
147
141
162
153
135
154
146
140
160
152
129
150
144
137
157
149
137
158
150
126
147
141
133
154
147
130
152
146
126
147
143
122
141
140
124
146
143
117
139
134
112
133
132
119
140
138
115
136
134
118
138
135
125
145
141
119
138
136
154
158
157
189
184
182
189
184
181
189
184
181
255
255
255
255
255
255
255
255
255
255
255
255
255
255
255
255
255
255
255
255
255
255
255
255
255
255
255
255
255
255
255
255
255
255
255
255
255
255
255
255
255
255
255
255
255
255
255
255
255
255
255
255
255
255
255
255
255
255
255
255
255
255
255
255
255
255
255
255
255
255
255
255
255
255
255
255
255
255
255
255
255
255
255
255
255
255
255
255
255
255
255
255
255
255
255
255
255
255
255
255
255
255
255
255
255
255
255
255
255
255
255
255
255
255
255
255
255
255
255
255
187
182
178
187
182
178
188
184
180
137
146
145
105
125
124
99
120
119
151
174
165
101
122
120
101
123
121
101
123
121
106
128
126
111
133
130
118
139
137
125
147
143
133
155
148
136
157
150
131
153
146
128
150
145
126
147
142
123
144
138
122
143
138
128
148
142
128
149
142
130
150
144
124
145
139
133
153
146
147
168
158
141
162
153
135
155
149
132
152
145
139
158
152
131
151
144
144
164
156
142
162
154
141
162
153
133
154
146
133
153
146
137
157
151
141
161
154
139
160
153
131
151
144
127
147
141
126
146
141
126
148
142
117
140
134
126
148
142
134
156
151
126
148
144
125
147
144
125
146
144
118
140
138
121
141
140
116
137
136
123
145
142
127
148
145
123
141
140
159
163
161
190
185
182
190
185
182
190
185
182
255
255
255
255
255
255
255
255
255
255
255
255
255
255
255
255
255
255
255
255
255
255
255
255
255
255
255
255
255
255
255
255
255
255
255
255
255
255
255
255
255
255
255
255
255
255
255
255
255
255
255
255
255
255
255
255
255
255
255
255
255
255
255
255
255
255
255
255
255
255
255
255
255
255
255
255
255
255
255
255
255
255
255
255
255
255
255
255
255
255
255
255
255
255
255
255
255
255
255
255
255
255
255
255
255
255
255
255
255
255
255
255
255
255
255
255
255
255
255
255
189
184
180
189
184
180
192
186
183
141
150
149
94
113
115
116
138
134
114
135
131
92
113
114
99
120
120
107
129
126
107
129
127
120
142
140
127
149
144
127
148
144
131
153
147
138
159
152
131
153
145
133
155
149
127
148
141
122
142
136
115
135
131
123
144
139
121
142
136
128
148
142
131
151
145
126
147
143
136
156
149
139
159
151
138
158
152
138
159
152
131
150
144
136
155
148
144
165
156
141
162
154
145
167
159
136
157
151
137
158
152
143
163
156
147
168
161
139
160
153
137
157
150
135
155
148
128
148
143
121
142
137
118
140
135
115
136
133
129
151
146
132
154
149
124
146
141
122
143
142
121
142
141
123
145
143
123
144
143
128
150
147
122
143
141
117
135
136
164
167
165
192
187
184
192
187
184
192
187
183
255
255
255
255
255
255
255
255
255
255
255
255
255
255
255
255
255
255
255
255
255
255
255
255
255
255
255
255
255
255
255
255
255
255
255
255
255
255
255
255
255
255
255
255
255
255
255
255
255
255
255
255
255
255
255
255
255
255
255
255
255
255
255
255
255
255
255
255
255
255
255
255
255
255
255
255
255
255
255
255
255
255
255
255
255
255
255
255
255
255
255
255
255
255
255
255
255
255
255
255
255
255
255
255
255
255
255
255
255
255
255
255
255
255
255
255
255
255
255
255
191
186
182
192
186
182
194
188
185
146
155
154
89
110
112
102
123
122
107
129
126
92
113
115
105
127
125
113
134
132
117
139
137
122
143
141
128
150
147
127
149
144
133
155
149
130
150
144
129
150
143
132
152
147
127
147
142
110
131
127
115
135
132
118
140
135
120
141
137
123
143
139
130
151
145
123
145
140
142
163
156
135
156
149
140
161
154
144
165
158
138
156
151
153
173
165
151
172
165
143
164
158
139
161
156
142
164
159
149
171
165
158
179
172
145
166
160
141
162
156
141
162
155
139
160
151
137
158
150
125
145
140
119
141
135
113
135
131
121
142
139
131
154
148
126
148
145
120
142
142
125
146
145
125
147
145
126
147
146
128
150
147
121
142
141
114
133
133
175
175
173
194
189
185
193
188
185
193
188
185
255
255
255
255
255
255
255
255
255
255
255
255
255
255
255
255
255
255
255
255
255
255
255
255
255
255
255
255
255
255
255
255
255
255
255
255
255
255
255
255
255
255
255
255
255
255
255
255
255
255
255
255
255
255
255
255
255
255
255
255
255
255
255
255
255
255
255
255
255
255
255
255
255
255
255
255
255
255
255
255
255
255
255
255
255
255
255
255
255
255
255
255
255
255
255
255
255
255
255
255
255
255
255
255
255
255
255
255
255
255
255
255
255
255
255
255
255
255
255
255
193
188
182
195
189
185
196
190
186
148
154
155
83
104
107
92
113
114
103
125
123
104
126
125
113
135
133
127
149
147
128
149
147
131
153
151
135
157
155
134
156
153
136
159
153
129
151
145
129
150
144
126
148
143
110
132
129
112
133
130
111
133
129
119
140
137
123
145
140
121
143
138
127
148
143
127
147
142
143
164
157
142
162
156
153
173
166
147
167
162
158
178
171
153
175
168
147
169
164
140
162
158
143
165
162
150
172
167
159
181
176
149
171
167
131
152
150
136
157
152
141
162
154
146
167
157
135
156
149
127
148
143
119
141
137
118
139
136
117
139
136
131
153
150
128
150
148
123
144
144
125
147
145
124
146
145
124
145
144
124
146
144
115
136
136
115
133
134
175
174
172
195
189
186
194
189
186
194
189
186
255
255
255
255
255
255
255
255
255
255
255
255
255
255
255
255
255
255
255
255
255
255
255
255
255
255
255
255
255
255
255
255
255
255
255
255
255
255
255
255
255
255
255
255
255
255
255
255
255
255
255
255
255
255
255
255
255
255
255
255
255
255
255
255
255
255
255
255
255
255
255
255
255
255
255
255
255
255
255
255
255
255
255
255
255
255
255
255
255
255
255
255
255
255
255
255
255
255
255
255
255
255
255
255
255
255
255
255
255
255
255
255
255
255
255
255
255
255
255
255
196
191
185
195
190
186
196
192
187
163
165
164
83
102
106
92
114
114
110
130
129
114
134
133
124
144
143
135
157
154
133
155
153
133
155
154
134
155
153
132
154
151
128
150
145
122
143
139
119
141
136
115
135
132
110
129
128
117
137
134
119
140
138
118
139
137
122
144
140
121
144
138
120
140
137
128
148
144
139
160
155
141
162
156
156
177
171
145
166
163
158
180
175
151
173
169
143
166
163
152
176
172
156
179
176
155
178
175
147
169
167
142
164
162
145
167
164
145
165
162
149
171
164
144
165
160
136
158
153
126
148
144
125
146
143
122
143
141
116
138
136
122
145
143
139
162
162
128
151
149
128
150
148
127
148
148
125
147
145
123
144
143
114
135
135
108
127
130
188
186
183
197
191
187
196
191
187
196
191
187
255
255
255
255
255
255
255
255
255
255
255
255
255
255
255
255
255
255
255
255
255
255
255
255
255
255
255
255
255
255
255
255
255
255
255
255
255
255
255
255
255
255
255
255
255
255
255
255
255
255
255
255
255
255
255
255
255
255
255
255
255
255
255
255
255
255
255
255
255
255
255
255
255
255
255
255
255
255
255
255
255
255
255
255
255
255
255
255
255
255
255
255
255
255
255
255
255
255
255
255
255
255
255
255
255
255
255
255
255
255
255
255
255
255
255
255
255
255
255
255
199
193
189
199
194
190
201
196
192
175
176
174
86
106
110
99
122
122
113
134
133
122
144
142
131
153
151
141
163
160
134
157
156
130
152
151
130
151
149
125
147
144
122
145
140
116
138
133
117
137
133
119
139
137
118
138
135
126
146
144
126
146
146
130
151
149
131
152
149
126
148
145
124
145
143
127
149
145
131
152
148
141
161
156
149
171
167
150
171
169
157
179
176
151
175
172
152
177
174
161
185
182
152
177
174
151
176
173
143
168
165
149
171
169
145
167
164
149
171
167
144
166
161
139
161
156
146
168
164
136
158
155
131
152
150
126
148
145
119
141
140
113
137
138
145
169
169
127
151
151
126
150
149
128
150
151
128
150
148
125
146
144
118
138
138
111
128
131
201
196
193
200
192
188
198
192
188
198
193
189
255
255
255
255
255
255
255
255
255
255
255
255
255
255
255
255
255
255
255
255
255
255
255
255
255
255
255
255
255
255
255
255
255
255
255
255
255
255
255
255
255
255
255
255
255
255
255
255
255
255
255
255
255
255
255
255
255
255
255
255
255
255
255
255
255
255
255
255
255
255
255
255
255
255
255
255
255
255
255
255
255
255
255
255
255
255
255
255
255
255
255
255
255
255
255
255
255
255
255
255
255
255
255
255
255
255
255
255
255
255
255
255
255
255
255
255
255
255
255
255
203
198
194
205
200
196
207
202
198
159
162
161
98
119
122
106
128
129
115
136
136
126
148
146
132
154
151
140
163
160
133
157
155
124
147
146
125
147
145
125
147
143
124
147
143
127
148
146
127
147
146
126
147
145
135
157
154
140
161
158
135
157
154
143
165
163
136
158
155
132
154
151
132
153
150
134
156
153
131
152
150
146
167
162
147
169
167
150
173
173
150
176
174
158
184
184
162
187
185
156
181
179
150
175
173
145
169
169
144
168
167
150
173
169
148
170
167
151
173
169
150
172
167
153
176
170
142
165
160
141
162
160
131
152
151
128
150
149
116
138
141
116
139
143
145
170
171
127
152
155
126
152
154
127
151
153
128
151
151
130
151
149
119
139
139
134
147
147
204
196
192
203
196
191
200
194
189
200
195
190
255
255
255
255
255
255
255
255
255
255
255
255
255
255
255
255
255
255
255
255
255
255
255
255
255
255
255
255
255
255
255
255
255
255
255
255
255
255
255
255
255
255
255
255
255
255
255
255
255
255
255
255
255
255
255
255
255
255
255
255
255
255
255
255
255
255
255
255
255
255
255
255
255
255
255
255
255
255
255
255
255
255
255
255
255
255
255
255
255
255
255
255
255
255
255
255
255
255
255
255
255
255
255
255
255
255
255
255
255
255
255
255
255
255
255
255
255
255
255
255
208
203
198
210
205
201
209
204
200
138
144
144
110
130
131
113
134
133
120
141
141
131
153
151
142
166
164
138
162
161
136
161
161
123
147
149
129
153
152
129
152
149
129
151
149
133
156
154
132
154
152
131
153
150
136
158
155
144
165
162
140
162
158
138
160
157
139
162
160
136
161
158
136
160
158
132
155
153
133
156
153
146
169
167
144
168
166
150
175
175
143
171
174
155
182
182
165
190
187
151
177
177
155
180
179
145
169
168
153
177
175
153
176
174
155
179
176
156
181
177
159
183
179
153
177
173
146
170
167
145
167
165
137
159
157
132
155
155
111
135
138
126
150
155
144
170
174
128
154
158
132
157
161
131
156
159
130
154
156
130
153
153
123
144
145
114
132
137
168
168
172
206
201
195
204
198
192
202
197
192
255
255
255
255
255
255
255
255
255
255
255
255
255
255
255
255
255
255
255
255
255
255
255
255
255
255
255
255
255
255
255
255
255
255
255
255
255
255
255
255
255
255
255
255
255
255
255
255
255
255
255
255
255
255
255
255
255
255
255
255
255
255
255
255
255
255
255
255
255
255
255
255
255
255
255
255
255
255
255
255
255
255
255
255
255
255
255
255
255
255
255
255
255
255
255
255
255
255
255
255
255
255
255
255
255
255
255
255
255
255
255
255
255
255
255
255
255
255
255
255
213
208
202
215
210
205
189
180
178
125
133
134
112
133
135
119
141
141
127
151
150
137
162
160
144
169
168
137
162
164
138
164
166
124
149
151
137
162
164
127
151
151
132
156
155
136
160
161
134
158
156
131
153
150
137
159
157
133
155
152
135
157
154
139
160
158
138
159
157
140
161
159
141
164
164
138
163
164
143
167
167
144
169
168
147
173
173
146
174
176
144
173
176
160
186
185
161
187
186
149
175
175
153
177
177
153
178
175
154
178
175
153
178
175
161
186
183
158
183
180
153
178
175
151
175
173
145
169
169
137
161
162
150
175
172
123
150
152
113
140
145
141
167
170
140
169
173
129
156
162
129
155
160
128
155
158
129
154
157
129
154
155
127
149
149
114
134
140
124
134
152
210
204
199
207
200
194
204
198
192
255
255
255
255
255
255
255
255
255
255
255
255
255
255
255
255
255
255
255
255
255
255
255
255
255
255
255
255
255
255
255
255
255
255
255
255
255
255
255
255
255
255
255
255
255
255
255
255
255
255
255
255
255
255
255
255
255
255
255
255
255
255
255
255
255
255
255
255
255
255
255
255
255
255
255
255
255
255
255
255
255
255
255
255
255
255
255
255
255
255
255
255
255
255
255
255
255
255
255
255
255
255
255
255
255
255
255
255
255
255
255
255
255
255
255
255
255
255
255
255
218
213
207
195
188
183
177
167
165
130
137
139
122
143
145
128
150
150
130
155
153
142
166
165
152
177
177
137
162
166
145
173
176
127
152
157
142
169
173
124
149
152
131
158
158
140
166
166
130
152
152
130
151
150
134
155
153
132
155
153
133
156
153
133
154
152
135
157
155
139
162
160
139
162
162
143
168
169
147
173
173
158
185
183
151
179
180
143
172
176
148
177
180
162
188
187
156
183
184
151
179
179
148
175
176
150
176
176
165
190
187
169
192
188
157
181
177
154
178
176
151
175
175
151
175
175
152
176
175
132
159
159
126
154
157
121
150
155
110
138
146
151
179
183
138
168
175
129
158
165
130
158
163
128
155
159
129
153
158
124
149
152
129
151
154
125
143
147
202
199
197
210
203
198
209
202
196
208
201
195
255
255
255
255
255
255
255
255
255
255
255
255
255
255
255
255
255
255
255
255
255
255
255
255
255
255
255
255
255
255
255
255
255
255
255
255
255
255
255
255
255
255
255
255
255
255
255
255
255
255
255
255
255
255
255
255
255
255
255
255
255
255
255
255
255
255
255
255
255
255
255
255
255
255
255
255
255
255
255
255
255
255
255
255
255
255
255
255
255
255
255
255
255
255
255
255
255
255
255
255
255
255
255
255
255
255
255
255
255
255
255
255
255
255
255
255
255
255
255
255
207
200
197
174
163
161
178
168
166
139
146
147
122
143
143
134
156
155
138
162
161
145
169
168
152
176
176
153
180
182
149
177
184
133
160
166
147
173
178
118
142
147
137
163
165
132
155
156
113
134
134
125
145
144
128
149
147
128
150
148
132
153
151
133
155
153
136
160
160
143
168
168
150
175
172
158
183
182
155
181
180
163
191
189
148
177
180
142
173
178
150
180
184
157
186
186
155
182
183
157
185
185
149
177
178
151
179
180
155
181
180
169
194
190
158
182
179
150
175
176
147
173
173
154
178
177
148
172
170
132
157
160
124
153
158
119
148
157
102
133
144
157
188
194
138
169
177
134
165
173
132
162
168
128
156
161
126
151
156
123
148
153
124
148
152
121
144
159
195
199
205
213
206
200
211
204
198
210
203
197
255
255
255
255
255
255
255
255
255
255
255
255
255
255
255
255
255
255
255
255
255
255
255
255
255
255
255
255
255
255
255
255
255
255
255
255
255
255
255
255
255
255
255
255
255
255
255
255
255
255
255
255
255
255
255
255
255
255
255
255
255
255
255
255
255
255
255
255
255
255
255
255
255
255
255
255
255
255
255
255
255
255
255
255
255
255
255
255
255
255
255
255
255
255
255
255
255
255
255
255
255
255
255
255
255
255
255
255
255
255
255
255
255
255
255
255
255
255
255
255
175
166
164
176
166
165
179
168
168
149
153
154
128
149
151
132
156
155
140
164
164
147
172
171
152
176
176
159
185
186
152
181
187
137
166
172
141
169
173
119
146
151
130
156
158
109
133
135
116
138
137
128
150
148
128
149
147
131
151
149
136
158
156
136
161
161
141
166
168
146
173
173
159
185
184
165
191
189
164
191
190
161
190
191
148
179
183
149
181
186
148
179
184
145
175
179
158
188
189
158
187
188
152
181
183
147
175
178
150
176
175
152
178
174
162
189
186
157
185
184
145
172
173
141
165
165
136
161
162
132
158
162
122
151
159
117
146
157
113
146
160
149
184
194
138
173
184
133
167
178
135
168
177
133
163
170
128
157
161
125
152
157
123
149
153
107
140
171
94
141
199
189
196
206
216
209
204
215
207
201
